/* XPM */
static char *char_I[] = {
"24 32 3 2",
"aa c #F4F4F4",
"ab c #000000",
"ac c #FF00FF",
/* pixels */
"acacacacacacacacacacacacacacacacacacacacacacacac",
"acacacacacacacacacacacacacacacacacacacacacacacac",
"acacacacacacacacacacacacacacacacacacacacacacacac",
"acacacacacacacacacacacacacacacacacacacacacacacac",
"acacacacacacacacacacacacacacacacacacacacacacacac",
"acacacacababababababababababababababababacacacac",
"acacacacabaaaaaaaaaaaaaaaaaaaaaaaaaaaaabacacacac",
"acacacacabaaaaaaaaaaaaaaaaaaaaaaaaaaaaabacacacac",
"acacacacabababababababaaaaabababababababacacacac",
"acacacacacacacacacacabaaaaabacacacacacacacacacac",
"acacacacacacacacacacabaaaaabacacacacacacacacacac",
"acacacacacacacacacacabaaaaabacacacacacacacacacac",
"acacacacacacacacacacabaaaaabacacacacacacacacacac",
"acacacacacacacacacacabaaaaabacacacacacacacacacac",
"acacacacacacacacacacabaaaaabacacacacacacacacacac",
"acacacacacacacacacacabaaaaabacacacacacacacacacac",
"acacacacacacacacacacabaaaaabacacacacacacacacacac",
"acacacacacacacacacacabaaaaabacacacacacacacacacac",
"acacacacacacacacacacabaaaaabacacacacacacacacacac",
"acacacacacacacacacacabaaaaabacacacacacacacacacac",
"acacacacacacacacacacabaaaaabacacacacacacacacacac",
"acacacacacacacacacacabaaaaabacacacacacacacacacac",
"acacacacacacacacacacabaaaaabacacacacacacacacacac",
"acacacacabababababababaaaaabababababababacacacac",
"acacacacabaaaaaaaaaaaaaaaaaaaaaaaaaaaaabacacacac",
"acacacacabaaaaaaaaaaaaaaaaaaaaaaaaaaaaabacacacac",
"acacacacababababababababababababababababacacacac",
"acacacacacacacacacacacacacacacacacacacacacacacac",
"acacacacacacacacacacacacacacacacacacacacacacacac",
"acacacacacacacacacacacacacacacacacacacacacacacac",
"acacacacacacacacacacacacacacacacacacacacacacacac",
"acacacacacacacacacacacacacacacacacacacacacacacac"
};

