/* XPM */
static char *char_K[] = {
"24 32 3 2",
"aa c #F4F4F4",
"ab c #000000",
"ac c #FF00FF",
/* pixels */
"acacacacacacacacacacacacacacacacacacacacacacacac",
"acacacacacacacacacacacacacacacacacacacacacacacac",
"acacacacacacacacacacacacacacacacacacacacacacacac",
"acacacacacacacacacacacacacacacacacacacacacacacac",
"acacacacacacacacacacacacacacacacacacacacacacacac",
"acacacacababababacacacacacacacacababababacacacac",
"acacacacabaaaaabacacacacacacacacabaaaaabacacacac",
"acacacacabaaaaabacacacacacacabababaaaaabacacacac",
"acacacacabaaaaabacacacacacacabaaaaabababacacacac",
"acacacacabaaaaabacacacacabababaaaaabacacacacacac",
"acacacacabaaaaabacacacacabaaaaabababacacacacacac",
"acacacacabaaaaabacacabababaaaaabacacacacacacacac",
"acacacacabaaaaabacacabaaaaabababacacacacacacacac",
"acacacacabaaaaababababaaaaabacacacacacacacacacac",
"acacacacabaaaaaaaaaaaaabababacacacacacacacacacac",
"acacacacabaaaaaaaaaaaaabababacacacacacacacacacac",
"acacacacabaaaaababababaaaaabacacacacacacacacacac",
"acacacacabaaaaabacacabaaaaabababacacacacacacacac",
"acacacacabaaaaabacacabababaaaaabacacacacacacacac",
"acacacacabaaaaabacacacacabaaaaabababacacacacacac",
"acacacacabaaaaabacacacacabababaaaaabacacacacacac",
"acacacacabaaaaabacacacacacacabaaaaabacacacacacac",
"acacacacabaaaaabacacacacacacabaaaaabacacacacacac",
"acacacacabaaaaabacacacacacacabaaaaabababacacacac",
"acacacacabaaaaabacacacacacacabababaaaaabacacacac",
"acacacacabaaaaabacacacacacacacacabaaaaabacacacac",
"acacacacababababacacacacacacacacababababacacacac",
"acacacacacacacacacacacacacacacacacacacacacacacac",
"acacacacacacacacacacacacacacacacacacacacacacacac",
"acacacacacacacacacacacacacacacacacacacacacacacac",
"acacacacacacacacacacacacacacacacacacacacacacacac",
"acacacacacacacacacacacacacacacacacacacacacacacac"
};

