/* XPM */
static char *car_red_06_s1[] = {
/* columns rows colors chars-per-pixel */
"64 64 27 1 ",
"  c #FF00FF",
". c #000100",
"X c #232529",
"o c #362829",
"O c #2B2D34",
"+ c #501419",
"@ c #65161F",
"# c #781B1F",
"$ c #6F2227",
"% c #2E3744",
"& c #383A43",
"* c #43444B",
"= c #4C5561",
"- c #851E21",
"; c #951B24",
": c #87272C",
"> c #9B2D32",
", c #B83123",
"< c #AB2334",
"1 c #B82D33",
"2 c #AB3533",
"3 c #BD3836",
"4 c #C7282E",
"5 c #D2272E",
"6 c #CF3C3F",
"7 c #A9463D",
"8 c #D8B5B6",
/* pixels */
"                                                                ",
"                                                                ",
"                                                                ",
"                     ......................                     ",
"                    .622-44444444444444;14,.                    ",
"                   .#----555555+@555555;;;;<.                   ",
"                  .#-888;;555555555555;;888;;.                  ",
"                  .-----5;555555555555;4----<.                  ",
"                  .-55555;555555555555;55555,.                  ",
"                 .-555555;555555555555;555555,.                 ",
"                 .-5555555;5555555555;5555555<.                 ",
"                 .-5555555;5555555555;5555555<.                 ",
"                .-55555555;;;;;;;;;;;;55555555;.                ",
"                .;55555555;4444111333;;5555555;.                ",
"                .;5555555..............5555555;.                ",
"                .;55555..&&&&&&&&&%%%&&..55555;.                ",
"                .;5555.&&&&&&&&&&&&&&&===.5555;.                ",
"                .>555.&&&&&&&&&&&&&&======.555;.                ",
"                .;55;.&&&&&&&&&&&&&=======.<55;.                ",
"                .;;.6.&&&&&&&&&&%&&=======.6.;;.                ",
"                 .>.66.&&&&&&&&%%&=======.66.;.                 ",
"                ..>..6.&&&&&&&&%%========.6..;+.                ",
"               .>>2..66.&&&&&&%%%=======.66..;>>.               ",
"               .2...O.6.&&&..........===.6.*...2.               ",
"               ...>&..55...5555555445...56..&>...               ",
"                 .>&.&.555555555555555555.*.&>.                 ",
"                 .>&.&.555555555555555555.&.&>.                 ",
"                 .>&.&.555555555555555555.*.&>.                 ",
"                 .>&.&.555555555555555555.*.&>.                 ",
"                 .>&.&.555555555555555555.*.&>.                 ",
"                 .>&.&.555555555555555555.*.&>.                 ",
"                 .>&.&.555555555555555555.*.&>.                 ",
"                 .>&.&.555555555555555555.*.&>.                 ",
"                 .>&.*.555555555555555555.&.&>.                 ",
"                 .>&.&.555555555555555555.*.&>.                 ",
"                 .>&..4555555555555555555,..&>.                 ",
"                 .:;;;#555555555555555555+:::>.                 ",
"                 .::ooX555555555555555555...>>.                 ",
"                 .;.%%.555555555555555555.%%.>.                 ",
"                 .;X%%.55------######--55.%%.>.                 ",
"                 .;X%%.55#............-55.%%.;.                 ",
"                 .;....45#@;;;;;;;;<<+-55....;.                 ",
"                .-;4455-5#@;;;;;;;;;<+-5;4455;-.                ",
"                .;;4555;5##;33333333<+-5;5555;-.                ",
"                .;;5555;5##<++++++++1--5;555;;-.                ",
"                .;;5555;5#;,,<<<<<<<11-5;555;;-.                ",
"                .;;5555;5#;,,,11111111-5;5555;-.                ",
"                .;;5555;5-;++++++++++3-5;5555;-.                ",
"                .;4;;;;;5-<;;;;;;;;;;3-4;;;;;6;.                ",
"                .;4445555-411111131333-4443666;.                ",
"                .;4445555-4++++++++++3-4433363;.                ",
"                .;4445555-4;;;;;;;;;;4-4434443;.                ",
"                .;4oooX55;544444444444-44oooo3;.                ",
"                .:4.Xoo55-;;;;;>>>><<<-43oooo,-.                ",
"                 .:..........................2.                 ",
"                 .>.333333333333333333333336.>.                 ",
"                 .>.333333333333333333333336.>.                 ",
"                 .>.333333333333333333333336.>.                 ",
"                 .>..........................>.                 ",
"                  ..7++7#.ooooo+++++++.$7++:..                  ",
"                   ...... ............ ......                   ",
"                                                                ",
"                                                                ",
"                                                                "
};
