/* XPM */
static char *car_blue_12_s1[] = {
/* columns rows colors chars-per-pixel */
"64 64 28 1 ",
"  c #FF00FF",
". c #010000",
"X c #2D342B",
"o c #282936",
"O c #37442E",
"+ c #141A50",
"@ c #262856",
"# c #162065",
"$ c #1B2078",
"% c #22286F",
"& c #423875",
"* c #1E2285",
"= c #1B2595",
"- c #272D87",
"; c #2D339B",
": c #2335AB",
"> c #3433AB",
", c #3023B8",
"< c #2D34B8",
"1 c #3736BD",
"2 c #2830C7",
"3 c #2730D2",
"4 c #3C40CF",
"5 c #B0A8C9",
"6 c #C6CECA",
"7 c #D5DED6",
"8 c #E5EBED",
"9 c #F5F5F9",
/* pixels */
"                                                                ",
"                                                                ",
"                                                                ",
"                                                                ",
"                                                                ",
"                                                                ",
"                                                                ",
"                                                                ",
"                                                                ",
"                                                                ",
"                          ............                          ",
"                     .....************.....                     ",
"                    .><<111111111111>><>>>>.                    ",
"                   .$1$$11............<<$$>*.                   ",
"                   .*$$1..OOOOOOOOOOOO..,***.                   ",
"                   .*$*1.XOOOOOOOOOOOOO.4***.                   ",
"                  .*-**1*..............*4**--.                  ",
"                  .*-**11*<<<<<<<<<<1>*=4**--.                  ",
"                  .*-.*11**==========**3=-.--.                  ",
"                  .--..$1*333333333333*4=..--.                  ",
"                  .--..$1*333333333333=4=..--.                  ",
"                  .--..$1*333333333333=4=..--.                  ",
"                  .--.o.1*333333333333=<.o.--.                  ",
"                  ..-.o.1*333333333333=<.o.-..                  ",
"                   .-.o.1*333333333333=<.o.-.                   ",
"                   .-.o.1*333333333333=2.o.-.                   ",
"                   .-.o.1*333333333333=2.o.-.                   ",
"                   .-.X.1-333333333333=2.o.-.                   ",
"                   .&.X.1-333333333333=2.o.-.                   ",
"                   .&.X.1-333333333333=4.o.-.                   ",
"                   .&.O.1-333333333333=4.o.%.                   ",
"                   .&.O.1-333333333333=4.o.%.                   ",
"                   .&.O.1-333333333333=4.X.%.                   ",
"                   .-..11*333333333333=41X.%.                   ",
"                   .-..1..************..1o.%.                   ",
"                   .-..1.O............O.1X.-.                   ",
"                   .-..<.OOOOOOOOOOOOOO.<X.-.                   ",
"                 ...-.<..OOOOOOOOOOOOOO.$<.-...                 ",
"                 .;;..<.OOOOOOOOOOOOOOOO.<..--.                 ",
"                  .;;.<.OOOOOOOOOOOOOOOO.<.%-.                  ",
"                   ...<.OOOOOOOOOOOOOOOO.<...                   ",
"                   .%#<.OOOOOOOOOOOOOOOO.<%%.                   ",
"                   .%#<..OOOOOOOOOOOOOOO.:%%.                   ",
"                   .%#::...OOOOOOOOOO...::%%.                   ",
"                  .%%#=:111..........<<::%%%%.                  ",
"                  .%%#..*=<<111111111<==..%%%.                  ",
"                  .%-.68.**============.97.%%.                  ",
"                  .#-.669.============.977.-%.                  ",
"                  .#--.69.=====55=====.97.--@.                  ",
"                  .##--..+=====55*=====..*--@.                  ",
"                  .##----+#+#++++++++++$**-@@.                  ",
"                   .o####%%%%%%%$%%%$$$**o@@.                   ",
"                   .ooXo................oooo.                   ",
"                    ....                ....                    ",
"                                                                ",
"                                                                ",
"                                                                ",
"                                                                ",
"                                                                ",
"                                                                ",
"                                                                ",
"                                                                ",
"                                                                ",
"                                                                "
};
