/* XPM */
static char *car1_red_s2[] = {
"64 64 7 2",
"aa c #000000",
"ab c #222222",
"ac c #C0392B",
"ad c #A93226",
"ae c #922B21",
"af c #D45F3A",
"ag c #FF00FF",
/* pixels */
"agagagagagagagagagagagagagagagagagagagagagagagagagagagagagagagagagagagagagagagagagagagagagagagagagagagagagagagagagagagagagagagag",
"agagagagagagagagagagagagagagagagagagagagagagagagagagagagagagagagagagagagagagagagagagagagagagagagagagagagagagagagagagagagagagagag",
"agagagagagagagagagagagagagagagagagagagagagagagagagagagagagagagagagagagagagagagagagagagagagagagagagagagagagagagagagagagagagagagag",
"agagagagagagagagagagagagagagagagagagagagagagagagagagagagagagagagagagagagagagagagagagagagagagagagagagagagagagagagagagagagagagagag",
"agagagagagagagagagagagagagagagagagagagagagagagagagagagagagagagagagagagagagagagagagagagagagagagagagagagagagagagagagagagagagagagag",
"agagagagagagagagagagagagagagagagagagagagagagagagagagagagagagagagagagagagagagagagagagagagagagagagagagagagagagagagagagagagagagagag",
"agagagagagagagagagagagagagagagagagagagagagagagagagagagababagagagabagabagababagagagagagagagagagagagagagagagagagagagagagagagagagag",
"agagagagagagagagagagagagagagagagagagagagagagagagagabababagagababaeababagababababagagagagagagagagagagagagagagagagagagagagagagagag",
"agagagagagagagagagagagagagagagagagagagagagagagagababaeaeababababaeababababaeababababagagagagagagagagagagagagagagagagagagagagagag",
"agagagagagagagagagagagagagagagagagagagagagagagagagaeadaeababababaeababababaeaeaeabababaaagagagagagagagagagagagagagagagagagagagag",
"agagagagagagagagagagagagagagagagagagagagagabababaeaeadadabababaaaaababababaeaeaeaeaeaeabagagagagagagagagagagagagagagagagagagagag",
"agagagagagagagagagagagagagagagagagagagagagabaeaeaeaeaeaeababaaabababaaaaabaeadadaeaeaeaeagagagagagagagagagagagagagagagagagagagag",
"agagagagagagagagagagagagagagagagagagagagagabaeaeaeaeaeadabaaabababababaaabaeadaeaeaeaeaeagagagagagagagagagagagagagagagagagagagag",
"agagagagagagagagagagagagagagagagagagagagagabaeaeaeaeaeaeabaaabababababaaabaeadaeaeaeadaeabagagagagagagagagagagagagagagagagagagag",
"agagagagagagagagagagagagagagagagagagagagabaeaeadaeaeaeaeabaaabababababaaabaeaeaeaeaeadaeaeagagagagagagagagagagagagagagagagagagag",
"agagagagagagagagagagagagagagagagagagagagaeaeaeaeaeaeaeaeabaaabababababaaabaeadaeaeaeaeaeaeagagagagagagagagagagagagagagagagagagag",
"agagagagagagagagagagagagagagagagagagagagaeaeaeadaeaeaeaeabaaabababababaaabaeadaeaeaeadaeaeagagagagagagagagagagagagagagagagagagag",
"agagagagagagagagagagagagagagagagagagagagabaeaeadaeadadaeabaaaaaaaaaaaaaaabaeaeaeaeaeaeaeaeagagagagagagagagagagagagagagagagagagag",
"agagagagagagagagagagagagagagagagagagagagaeaeaeaeaeaeaeaeaeabababaeababababaeadadaeaeadaeaeagagagagagagagagagagagagagagagagagagag",
"agagagagagagagagagagagagagagagagagagagagaeaeaeaeaeaeaeaeababababaeababababaeadaeaeadadaeabagagagagagagagagagagagagagagagagagagag",
"agagagagagagagagagagagagagagagagagagagagaeaeadadaeaeaeaeababababaeababababaeaeadaeadaeaeaeagagagagagagagagagagagagagagagagagagag",
"agagagagagagagagagagagagagagagagagagagagaeaeadaeaeaeaaaaaaaaaaaaaaaaaaaaaaabaeaeaeadadaeabagagagagagagagagagagagagagagagagagagag",
"agagagagagagagagagagagagagagagagagagagagagaeaeaeaaaaaaafababaeabababababafaaaaaaabaeaeabagagagagagagagagagagagagagagagagagagagag",
"agagagagagagagagagagagagagagagagagagagagagaeaeaaabababafabababafafababafababafaaaaaaaeaeagagagagagagagagagagagagagagagagagagagag",
"agagagagagagagagagagagagagagagagagagagagagaeaeaaababababafabababafafabababababafabaaababagagagagagagagagagagagagagagagagagagagag",
"agagagagagagagagagagagagagagagagagagagagagaeaeaeaaababababafabababafafabababababaaababagagagagagagagagagagagagagagagagagagagagag",
"agagagagagagagagagagagagagagagagagagagagagabaaabaaababababababababababafababababaaaeagabaeagagagagagagagagagagagagagagagagagagag",
"agagagagagagagagagagagagagagagagagagagagagaeaaaaabaaabaeaaaaababaaaaaaaeabababaaaeagagagagagagagagagagagagagagagagagagagagagagag",
"agagagagagagagagagagagagagagagagagagagagagabaaaaababaaaaaeaeaeaeadaeabaaababaaaeaeagagababagagagagagagagagagagagagagagagagagagag",
"agagagagagagagagagagagagagagagagagagagagagabaaafaaabaaabadacaeadadaeaeaeaaaaabaeaaabagababagagagagagagagagagagagagagagagagagagag",
"agagagagagagagagagagagagagagagagagagagagagabaaabaaababaeaeaeadadadadaeaeababaeaeaaabagababagagagagagagagagagagagagagagagagagagag",
"agagagagagagagagagagagagagagagagagagagagagabaaafabaaaeaeadadadadadadadaeaeabaeaaababagababagagagagagagagagagagagagagagagagagagag",
"agagagagagagagagagagagagagagagagagagagagagabaaafabaaaeaeadadadadadaeadaeaeaeaeaaababagababagagagagagagagagagagagagagagagagagagag",
"agagagagagagagagagagagagagagagagagagagagagababafabaaaeaeadadadadadadadaeaeaeagaeababagababagagagagagagagagagagagagagagagagagagag",
"agagagagagagagagagagagagagagagagagagagagagabaaabafaaaeaeaeadaeadaeadaeaeaeaeagaeababagabagagagagagagagagagagagagagagagagagagagag",
"agagagagagagagagagagagagagagagagagagagagagabaaababaaaeaeadadaeaeaeaeaeaeaeaeagaeababagabagagagagagagagagagagagagagagagagagagagag",
"agagagagagagagagagagagagagagagagagagagagagabaaababaaaeadadadaeaeadadaeaeaeaeagagababagabagagagagagagagagagagagagagagagagagagagag",
"agagagagagagagagagagagagagagagagagagagagagabaaabaaaeaeaeaeaeaeadadadadadaeaeadagagabagabagagagagagagagagagagagagagagagagagagagag",
"agagagagagagagagagagagagagagagagagagagagagabaaaaaaabaeaeadadadadadadadaeadaeaeaeagagagabagagagagagagagagagagagagagagagagagagagag",
"agagagagagagagagagagagagagagagagagagagagagaeabaaaeaeaeaeaeadadadadadadadadaeaeaeabaaababagagagagagagagagagagagagagagagagagagagag",
"agagagagagagagagagagagagagagagagagagagagagaeaeaeaeaeaeaeaeaeadadadaeadaeaeababaeabaaaeaeagagagagagagagagagagagagagagagagagagagag",
"agagagagagagagagagagagagagagagagagagagagagaeaeaeaeabaaaaaaabaeaeaeadaeaeabaaaaababaeaeaeagagagagagagagagagagagagagagagagagagagag",
"agagagagagagagagagagagagagagagagagagagagagaeaeaeabaaababaaaaaaaaaaaaaaaaaaaeaaaaaeaeaeaeagagagagagagagagagagagagagagagagagagagag",
"agagagagagagagagagagagagagagagagagagagagabaeaeaeaaabaeababababababababababababaaabaeaeaeabagagagagagagagagagagagagagagagagagagag",
"agagagagagagagagagagagagagagagagagagagagaeaeaeaeaaabababababababababababababababaaaeadaeaeagagagagagagagagagagagagagagagagagagag",
"agagagagagagagagagagagagagagagagagagagagabaeaeaeaaabababababababababababababababaaaeaeaeaeagagagagagagagagagagagagagagagagagagag",
"agagagagagagagagagagagagagagagagagagagagabaeaeaeaeaaaaaaaaaaaaaaabaaaaabaaaaaaaaaeaeaeaeaeagagagagagagagagagagagagagagagagagagag",
"agagagagagagagagagagagagagagagagagagagagaeaeaeaeaeaeaeaeabaaaaaaaaaaaaaaaaababaeaeaeaeaeaeagagagagagagagagagagagagagagagagagagag",
"agagagagagagagagagagagagagagagagagagagagaeaeaeaeaeaeadaeabaaabababababaaabaeaeaeaeaeaeaeaeagagagagagagagagagagagagagagagagagagag",
"agagagagagagagagagagagagagagagagagagagagaeaeaeaeadadadaeababaaaaabaaaaaaabaeaeaeaeaeadaeaeagagagagagagagagagagagagagagagagagagag",
"agagagagagagagagagagagagagagagagagagagagaeaeaeaeaeadadadababababaeababababaeaeaeadaeaeaeabagagagagagagagagagagagagagagagagagagag",
"agagagagagagagagagagagagagagagagagagagagabaeaeaeadadaeaeababababaeababababaeaeadaeaeaeaeabagagagagagagagagagagagagagagagagagagag",
"agagagagagagagagagagagagagagagagagagagagaaaeadaeadadadadababababaeababababaeaeaeaeaeaeabagagagagagagagagagagagagagagagagagagagag",
"agagagagagagagagagagagagagagagagagagagagagaeaeaeaeaeaeaeababababaeababababaaaaaaaaaaaaabagagagagagagagagagagagagagagagagagagagag",
"agagagagagagagagagagagagagagagagagagagagagababaaaaaaaaaaaaaaaaaaaaaaaaaaaaabababababaaabagagagagagagagagagagagagagagagagagagagag",
"agagagagagagagagagagagagagagagagagagagagagabaaababababababababababababababaaaaaaaaaaababagagagagagagagagagagagagagagagagagagagag",
"agagagagagagagagagagagagagagagagagagagagagabaaaaaaaaaaaaaaaaaaaaaaaaaaaaaaabaeaeabaeabaeagagagagagagagagagagagagagagagagagagagag",
"agagagagagagagagagagagagagagagagagagagagagagababaeaeaeababababababababaaabababababaeafagagagagagagagagagagagagagagagagagagagagag",
"agagagagagagagagagagagagagagagagagagagagagagabaeababababaaaaaaaaaaaaaaaaababababababagagagagagagagagagagagagagagagagagagagagagag",
"agagagagagagagagagagagagagagagagagagagagagagababababababababababababababababagagagagagagagagagagagagagagagagagagagagagagagagagag",
"agagagagagagagagagagagagagagagagagagagagagagagagagagagagagagagagagagagagagagagagagagagagagagagagagagagagagagagagagagagagagagagag",
"agagagagagagagagagagagagagagagagagagagagagagagagagagagagagagagagagagagagagagagagagagagagagagagagagagagagagagagagagagagagagagagag",
"agagagagagagagagagagagagagagagagagagagagagagagagagagagagagagagagagagagagagagagagagagagagagagagagagagagagagagagagagagagagagagagag",
"agagagagagagagagagagagagagagagagagagagagagagagagagagagagagagagagagagagagagagagagagagagagagagagagagagagagagagagagagagagagagagagag"
};
