/* XPM */
static char *car1_red_s3[] = {
"64 64 7 2",
"aa c #000000",
"ab c #222222",
"ac c #C0392B",
"ad c #A93226",
"ae c #FF6600",
"af c #686868",
"ag c #FF00FF",
/* pixels */
"agagagagagagagagagagagagagagagagagagagagagagagagagagagagagagagagagagagagagagagagagagagagagagagagagagagagagagagagagagagagagagagag",
"agagagagagagagagagagagagagagagagagagagagagagagagagagagagagagagagagagagagagagagagagagagagagagagagagagagagagagagagagagagagagagagag",
"agagagagagagagagagagagagagagagagagagagagagagagagagagagagagagagagagagagagagagagagafagagagagagagagagagagagagagagagagagagagagagagag",
"agagagagagagagagagagagagagagagagagagagagagagagagagagagagagagagagagagagagagagagagafafagagagagagagagagagagagagagagagagagagagagagag",
"agagagagagagagagagagagagagagagagagagagagagagagagafagagabababababafabababababababafafagagagagagagagagagagagagagagagagagagagagagag",
"agagagagagagagagagagagagagagagagagagagagagagagagafabadadababababafababababadadabafagagagagagagagagagagagagagagagagagagagagagagag",
"agagagagagagagagagagagagagagagagagagagagagagabadabadadadababababafababababadadadadababagagagagagagagagagagagagagagagagagagagagag",
"agagagagagagagagagagagagagagagagagagagagagagadadadadacacababababafababababadacadadababagagagagagagagagagagagagagagagagagagagagag",
"agagagagagagagagagagagagagagagagagagagagagagadacadacacacabababaaaaaaabababacacacadadabagagagagagagagagagagagagagagagagagagagagag",
"agagagagagagagagagagagagagagagagagagagagagabadacadacacacababaaabababaaababacacacadadadagagagagagagagagagagagagagagagagagagagagag",
"agagagagagagagagagagagagagagagagagagagagagadadacadadacacabaaabababababaaabacacacadadacabagagagagagagagagagagagagagagagagagagagag",
"agagagagagagagagagagagagagagagagagagagagagadadacadacacacabaaabababababaaadacacacadadacadagagagagagagagagagagagagagagagagagagagag",
"agagagagagagagagagagagagagagagagagagagagabadadadadacacacabaaabababababaaadacacacadacacadabagagagagagagagagagagagagagagagagagagag",
"agagagagagagagagagagagagagagagagagagagagabadacacadacacacabaaabababababaaadacacacadacacadadagagagagagagagagagagagagagagagagagagag",
"agagagagagagagagagagagagagagagagagagagagabadacacadacacacabaaabababababaaadadacacadacacadabagagagagagagagagagagagagagagagagagagag",
"agagagagagagagagagagagagagagagagagagagagadadacacadacaeadabaaaaaaaaaaaaaaadacaeacadacacadabagagagagagagagagagagagagagagagagagagag",
"agagagagagagagagagagagagagagagagagagagagabadacacadaeaeacadabababafadadadadacaeaeadacacadabagagagagagagagagagagagagagagagagagagag",
"agagagagagagagagagagagagagagagagagagagagabadacaeadaeaeacadabafabafadadabadacaeaeadacacadabagagagagagagagagagagagagagagagagagagag",
"agagagagagagagagagagagagagagagagagagagagadadacacadacaeadadabababafadabababacaeaeadacacadabagagagagagagagagagagagagagagagagagagag",
"agagagagagagagagagagagagagagagagagagagagabadacacadacadadaaaaaaaaaaaaaaaaaaadacaeadacacadabagagagagagagagagagagagagagagagagagagag",
"agagagagagagagagagagagagagagagagagagagagaaadacacadadababadadadadadadadadadaaaaabadacacabagagagagagagagagagagagagagagagagagagagag",
"agagagagagagagagagagagagagagagagagagagagagabadadaaaaadadadadadadadadadadadabadadabadacadagagagagagagagagagagagagagagagagagagagag",
"agagagagagagagagagagagagagagagagagagagagagabadaaabafadadadadadadadadadadafabafadadabadabagagagagagagagagagagagagagagagagagagagag",
"agagagagagagagagagagagagagagagagagagagagagababaaafabafadadadadadadadafababafabadabaaadadagagagagagagagagagagagagagagagagagagagag",
"agagagagagagagagagagagagagagagagagagagagagaaafaaaaafafafadadadadadafabafababababaaadadadagagagagagagagagagagagagagagagagagagagag",
"agagagagagagagagagagagagagagagagagagagagafadagafaaafadaaaaaaaaaaaaaaaaaaaaaaababaaabaaadagagagagagagagagagagagagagagagagagagagag",
"agagagagagagagagagagagagagagagagagagagagagagagabafaaaaadadacacacacacaeaeacadaaaaabaaaaafagagafagagagagagagagagagagagagagagagagag",
"agagagagagagagagagagagagagagagagagagagagagababaaabadadacacacacacacacaeacacacadadafaaababagagafagagagagagagagagagagagagagagagagag",
"agagagagagagagagagagagagagagagagagagagagagafafabadadacacacacacacadadacacacacacadabafabadagafafafagagagagagagagagagagagagagagagag",
"agagagagagagagagagagagagagagagagagagagagagabafababadacacacacadadadacadacacacacacafafababagafafafagagagagagagagagagagagagagagagag",
"agagagagagagagagagagagagagagagagagagagagagabababadadadadacacadadadadadadacacacadafabababagafafagagagagagagagagagagagagagagagagag",
"agagagagagagagagagagagagagagagagagagagagagabafabadadadadadadadadadadadadadadadafafababafafafafagagagagagagagagagagagagagagagagag",
"agagagagagagagagagagagagagagagagagagagagagabababadadadadadadadababadadadadadafafabababafafafagagagagagagagagagagagagagagagagagag",
"agagagagagagagagagagagagagagagagagagagagagabafabadadadadadadababababadadadafafabaaaaaaafagagagagagagagagagagagagagagagagagagagag",
"agagagagagagagagagagagagagagagagagagagafagabababadadacadadadabababadadabadafafabafafaaabagagagagagafagagagagagagagagagagagagagag",
"agagagagagagagagagagagagagagagagagagaaafagabababadadacadadadababadadadadabababafafaaababagagagagafabagagagagagagagagagagagagagag",
"agagagagagagagagagagagagagagagagagagagacagabadabadabadadadabadabadadadadadababafafaaabababagagagafagagagagagagagagagagagagagagag",
"agagagagagagagagagagagagagagagagagagagadadabadabababadabadadadacadadadadadacadabababababadacagagagagagagagagagagagagagagagagagag",
"agagagagagagagagagagagagagagagagagagagagadacabadadadababadadadacacadadadadacadababababadacacagagagagagagagagagagagagagagagagagag",
"agagagagagagagagagagagagagagagagagagagagabadadadadababadadadadadacacadadadacadadadababacacacagagagafagagagagagagagagagagagagagag",
"agagagagagagagagagagagagagagagagaaafagagaaadacabadaaaaaaaaaaabadacacababadacadadadabadacacacaaagafagagagagagagagagagagagagagagag",
"agagagagagagagagagagagagagagagagadabagagaaadacadadaaadadadadadacaeacadacadacacadadadacacacababafafagagagagagagagagagagagagagagag",
"agagagagagagagagagagagagagagagagacabagagabadacadabadadadadadacaeaeaeacacadacacacadadaeacacababadafaaagagagagagagagagagagagagagag",
"agagagagagagagagagagagagagagagagadadagagadadacadabacacadadadacaeaeaeacacacacaeacadacaeacacababadaaagagagagagagagagagagagagagagag",
"agagagagagagagagagagagagagagagagagafafaaadadacadabacacadadacacaeaeaeacacaeacaeaeacaeaeaeacadacacaaagagagagagagagagagagagagagagag",
"agagagagagagagagagagagagagagagagagagadabadacacacadacaeacadacaeaeaeaeaeaeacaeaeaeaeaeaeaeacadacacaaagagagagagagagagagagagagagagag",
"agagagagagagagagagagagagagagagagagabacadadacaeacaeaeaeacacaeaeaeaeaeaeaeaeaeaeaeaeaeaeaeacacacabadagagagagagagagagagagagagagagag",
"agagagagagagagagagagagagagagagagagadacadacacaeaeaeaeaeaeaeaeaeaeaeaeaeaeaeaeaeaeaeaeaeaeacacabacafagagagagagagagagagagagagagagag",
"agagagagagagagagagagagagagagagagaaadacadaeaeaeaeaeacaeaeaeaeaeaeaeaeaeaeaeaeacaeaeaeaeaeaeaeaeacacagagagagagagagagagagagagagagag",
"agagagagagagagagagagagagagagagagaaadacacaeaeaeacacaeaeaeaeaeaeaeaeaeaeaeaeaeaeaeaeaeaeaeaeaeacacacagagagagagagagagagagagagagagag",
"agagagagagagagagagagagagagagagagagacacaeaeaeaeaeaeaeacaeaeaeaeaeaeaeaeaeaeaeacaeaeaeaeaeaeacaeacadagagagagagagagagagagagagagagag",
"agagagagagagagagagagagagagagagagagaaadaeaeaeaeaeaeaeaeaeaeaeaeaeaeaeaeaeaeadaeaeaeaeaeaeaeaeacadaaagagagagagagagagagagagagagagag",
"agagagagagagagagagagagagagagagagagagacacaeaeaeaeaeaeaeaeaeaeaeaeaeaeaeaeaeaeaeaeaeaeaeaeaeacadagagagagagagagagagagagagagagagagag",
"agagagagagagagagagagagagagagagagagagadacacaeaeaeaeaeaeaeaeaeaeaeaeaeaeaeaeaeacaeaeaeacadacadagagagagagagagagagagagagagagagagagag",
"agagagagagagagagagagagagagagagagagagagadadadacaeaeaeaeacaeaeaeaeaeaeaeaeaeacacacaeadadadadadagagagagagagagagagagagagagagagagagag",
"agagagagagagagagagagagagagagagagagagagagababadadadadadacaeacaeaeaeaeacacacadadadadadadabagagagagagagagagagagagagagagagagagagagag",
"agagagagagagagagagagagagagagagagagagagagagabadadadadabadacacacaeaeaeacacacadadadadadadabagagagagagagagagagagagagagagagagagagagag",
"agagagagagagagagagagagagagagagagagagagagagagadacadadadadadadadadadadadababadadacacacadabagagagagagagagagagagagagagagagagagagagag",
"agagagagagagagagagagagagagagagagagagagagagagabadadabadababadadadabadafadabadadadadabagagagagagagagagagagagagagagagagagagagagagag",
"agagagagagagagagagagagagagagagagagagagagagagagagagagagagagagagagagagagagagagagagagagagagagagagagagagagagagagagagagagagagagagagag",
"agagagagagagagagagagagagagagagagagagagagagagagagagagagagagagagagagagagagagagagagagagagagagagagagagagagagagagagagagagagagagagagag",
"agagagagagagagagagagagagagagagagagagagagagagagagagagagagagagagagagagagagagagagagagagagagagagagagagagagagagagagagagagagagagagagag",
"agagagagagagagagagagagagagagagagagagagagagagagagagagagagagagagagagagagagagagagagagagagagagagagagagagagagagagagagagagagagagagagag",
"agagagagagagagagagagagagagagagagagagagagagagagagagagagagagagagagagagagagagagagagagagagagagagagagagagagagagagagagagagagagagagagag"
};
