/* XPM */
static char *car_red_14_s1[] = {
/* columns rows colors chars-per-pixel */
"64 64 41 1 ",
"  c None",
". c #000100",
"X c #232529",
"o c #362829",
"O c #2B2D34",
"+ c #501419",
"@ c #65161F",
"# c #781B1F",
"$ c #562628",
"% c #6F2227",
"& c #754338",
"* c #2E3744",
"= c #383A43",
"- c #43444B",
"; c #851E21",
": c #951B24",
"> c #87272C",
", c #9B2D32",
"< c #AB2334",
"1 c #B82D33",
"2 c #AB3533",
"3 c #BD3836",
"4 c #C7282E",
"5 c #D2272E",
"6 c #CF3C3F",
"7 c #B77C5C",
"8 c #D45452",
"9 c #E14C49",
"0 c #CC695A",
"q c #345BAA",
"w c #416FC9",
"e c #5E8ED9",
"r c #858081",
"t c #A0989B",
"y c #BCB8BB",
"u c #C59F98",
"i c #E0B597",
"p c #D8B5B6",
"a c #EEBDBF",
"s c #E7D3D8",
"d c #F6ECD1",
/* pixels */
"                                                                ",
"                                                                ",
"                         ..............                         ",
"                      ...&&&&&&&&&&&&&&...                      ",
"                    ..d7&..............&up..                    ",
"                   ..ui..;444444444444#..uu..                   ",
"                  .#i&.#4444444444444444;.Xa%.                  ",
"                  .#..;#4554544444444555;4.%%.                  ",
"                 .##.44#454..........455;44.%%.                 ",
"                 .#5;44#44+0000088888+44;44>4%.                 ",
"                 .#4;4:444+4444444444@445:4>4>.                 ",
"                 .#4;4:444444444444444444:4;4>.                 ",
"                .##4:4:444444444444444444:4:4>;.                ",
"                .##4:4:444444444444444444:5:4>#.                ",
"                .##4:4:444444444444444444:5:4;;.                ",
"                .##4:4:4###..........@@@445:4;;.                ",
"                .##4:4@....XXXXXXXXX.....#5:4;#.                ",
"                .##4;...XXX=====****XOO*...;4;#.                ",
"                .##4..XXX=====************..1;%.                ",
"                ..##2.=======*************.<#@..                ",
"                ..##2.=======*************.<#@..                ",
"               .11##1.========************.<@@::.               ",
"              .<11..@2.====..........****.:#..,22.              ",
"              .<..$..2.....4444444444.....>.....,.              ",
"              ....$..;:444444444444444444>>..%....              ",
"                 .$.o.:555444444444444444>.O.%.                 ",
"                 .$.o.:544444444444444444>.X.%.                 ",
"                 .$.o.:4................4>.X.%.                 ",
"                 .$.o.:.99999.yyyy.eeeeq.>.X.%.                 ",
"                 .$.o.;.29222.tttt.wwweq.>.O.%.                 ",
"                 .$.O.;.<2222.rrrr.qqqqq.:.O.%.                 ",
"                 .$.O.;;................;2.O.%.                 ",
"                 .$.O.1;###;##;########;;1.O.%.                 ",
"                 .$.O.1;5555555555555555:1.O.%.                 ",
"                 .%...1;5555555555555555:1...%.                 ",
"                 .%..o1;5555555555555555:1o..%.                 ",
"                 .%.oo1;5555555555555555:1oo.%.                 ",
"                 .%oo.1;5555555555555555:4.o+%.                 ",
"                 .%.o.1;5555555555555555:4.o.%.                 ",
"                 .%.o.1;5555555555555555:4.o.%.                 ",
"                 .%.O.1;5555555555555555:4.o.%.                 ",
"                 .%.O.1;5555555555555555:4.o.%.                 ",
"                 .%.O.1;5555555555555555:4.o.%.                 ",
"                 .%.*.1;:::::::::::::::::4.O.%.                 ",
"                ..%..;>444444444444444444;;..%..                ",
"                .%%..;;444444444444444444;;..%%.                ",
"                .%%.;;;.4444444444444444.;;;.@%.                ",
"                .%%.;;..................O.;;.@%.                ",
"                .%#;;>.XXXXXXXXXXXXOOOOOO.;;>@%.                ",
"                .##;>.X***************O**X.;>@@.                ",
"                .#;>>.X******************X.;>@@.                ",
"                .%;>>.O******************X.;>@@.                ",
"                .%>::,...**************...6;>@@.                ",
"                .%+++<<22..............3336..@@.                ",
"                .%+3#+@#<111111111112111#@.>6.@.                ",
"                 .+366..+@@@@@@@@@@@@@@@..668..                 ",
"                 .@..66.@@@@@@@@@@@@@@@@.36..#.                 ",
"                 .@@@...@@@@@ssssss++%#@+..###.                 ",
"                  .@####;;;@@@@@@@@@@########.                  ",
"                   .++@@@@@@@@@@@@%%%##@@@@@.                   ",
"                    ..--................--..                    ",
"                      ...              ...                      ",
"                                                                ",
"                                                                "
};
