/* XPM */
static char *car1_p1_s2[] = {
"64 64 117 2",
"aa	c #ff00ff",
"ab	c #010000",
"ac	c #251370",
"ad	c #383330",
"ae	c #474340",
"af	c #22349b",
"ag	c #1e2d8b",
"ah	c #2136a3",
"ai	c #522cc7",
"aj	c #2b3484",
"ak	c #404882",
"al	c #505891",
"am	c #515689",
"an	c #40447a",
"ao	c #9b908b",
"ap	c #d4cbcc",
"aq	c #faf2f1",
"ar	c #3d33ea",
"as	c #2a449b",
"at	c #2349ca",
"au	c #533cee",
"av	c #2c49bb",
"aw	c #425ca9",
"ax	c #526cb8",
"ay	c #bdb5b6",
"az	c #b2adaf",
"aA	c #605c81",
"aB	c #bbada9",
"aC	c #e2dade",
"aD	c #f4eaec",
"aE	c #1c2463",
"aF	c #2447c2",
"aG	c #2d48ab",
"aH	c #353ce1",
"aI	c #5e39f0",
"aJ	c #2d32e4",
"aK	c #3d436a",
"aL	c #595e94",
"aM	c #3f4374",
"aN	c #e8e2e6",
"aO	c #0e133c",
"aP	c #263ca6",
"aQ	c #2a305a",
"aR	c #102b71",
"aS	c #2d4890",
"aT	c #26408a",
"aU	c #4a66b0",
"aV	c #4d5479",
"aW	c #2a2731",
"aX	c #272d66",
"aY	c #233293",
"aZ	c #2b397f",
"a0	c #2d39d5",
"a1	c #807bf0",
"a2	c #304fc6",
"a3	c #2d4cd8",
"a4	c #1f2b83",
"a5	c #253eae",
"a6	c #2f3d8f",
"a7	c #7356f0",
"a8	c #2a40c6",
"a9	c #354f98",
"a!	c #1e55de",
"a#	c #1f2b7f",
"a$	c #3b53a3",
"a%	c #2a3594",
"a&	c #273cbc",
"a(	c #535b66",
"a)	c #6a7756",
"a*	c #4c4f55",
"a+	c #7c8c5d",
"a,	c #8a986a",
"a-	c #b9c393",
"a.	c #273dc2",
"a/	c #685e5b",
"a:	c #212977",
"a;	c #4f5171",
"a<	c #2e3e9f",
"a=	c #333a87",
"a>	c #3942b3",
"a?	c #33399f",
"a@	c #333ea5",
"a[	c #3f3f9f",
"a]	c #30367d",
"a^	c #534d4c",
"a_	c #323b97",
"a{	c #3b40a9",
"a|	c #6e6774",
"a}	c #675f6a",
"a~	c #1b41b7",
"ba	c #5d5e70",
"bb	c #615861",
"bc	c #393e51",
"bd	c #1f4ac2",
"be	c #2b2d55",
"bf	c #2f378d",
"bg	c #606971",
"bh	c #0a0f28",
"bi	c #14141b",
"bj	c #191f4f",
"bk	c #2149d6",
"bl	c #3144aa",
"bm	c #788462",
"bn	c #1d2767",
"bo	c #1c235d",
"bp	c #2b3dad",
"bq	c #3643b1",
"br	c #4351cd",
"bs	c #3144c0",
"bt	c #3844ce",
"bu	c #303daf",
"bv	c #283bb4",
"bw	c #3d48bc",
"bx	c #1a2359",
"by	c #e6c6c5",
"bz	c #dbb9b1",
"bA	c #a59aca",
"aaaaaaaaaaaaaaaaaaaaaaaaaaaaaaaaaaaaaaaaaaaaaaaaaaaaaaaaaaaaaaaaaaaaaaaaaaaaaaaaaaaaaaaaaaaaaaaaaaaaaaaaaaaaaaaaaaaaaaaaaaaaaaaa",
"aaaaaaaaaaaaaaaaaaaaaaaaaaaaaaaaaaaaaaaaaaaaaaaaaaaaaaaaaaaaaaaaaaaaaaaaaaaaaaaaaaaaaaaaaaaaaaaaaaaaaaaaaaaaaaaaaaaaaaaaaaaaaaaa",
"aaaaaaaaaaaaaaaaaaaaaaaaaaaaaaaaaaaaaaaaaaaaaaaaaaaaaaaaaaaaaaaaaaaaaaaaaaaaaaaaaaaaaaaaaaaaaaaaaaaaaaaaaaaaaaaaaaaaaaaaaaaaaaaa",
"aaaaaaaaaaaaaaaaaaaaaaaaaaaaaaaaaaaaaaaaaaaaaaaaaaaaaaaaaaaaaaaaaaaaaaaaaaaaaaaaaaaaaaaaaaaaaaaaaaaaaaaaaaaaaaaaaaaaaaaaaaaaaaaa",
"aaaaaaaaaaaaaaaaaaaaaaaaaaaaaaaaaaaaaaaaaaaaaaaaaaaaaaaaaaaaaaaaaaaaaaaaaaaaaaaaaaaaaaaaaaaaaaaaaaaaaaaaaaaaaaaaaaaaaaaaaaaaaaaa",
"aaaaaaaaaaaaaaaaaaaaaaaaaaaaaaaaaaaaaaaaaaaaaaaaaaabababababacabababadadadaeadaaaaaaaaaaaaaaaaaaaaaaaaaaaaaaaaaaaaaaaaaaaaaaaaaa",
"aaaaaaaaaaaaaaaaaaaaaaaaaaaaaaaaaaaaaaaaaaababababafafagafafahaiagajakalamananadadadadaaaaaaaaaaaaaaaaaaaaaaaaaaaaaaaaaaaaaaaaaa",
"aaaaaaaaaaaaaaaaaaaaaaaaaaaaaaaaaaaaaaaaabaoaoapaqafafarasasatauauavawaxaxawanayazaAaAadaaaaaaaaaaaaaaaaaaaaaaaaaaaaaaaaaaaaaaaa",
"aaaaaaaaaaaaaaaaaaaaaaaaaaaaaaaaaaaaaaabagaBaCaDaEaFatarasasaGaHaIaJawaxaxaxawaKazazaLaMadaaaaaaaaaaaaaaaaaaaaaaaaaaaaaaaaaaaaaa",
"aaaaaaaaaaaaaaaaaaaaaaaaaaaaaaaaaaaaaaabafaNaDaOaFataFaraJaGaHaIaIaJawaxaxaxawawaMazazaMadaaaaaaaaaaaaaaaaaaaaaaaaaaaaaaaaaaaaaa",
"aaaaaaaaaaaaaaaaaaaaaaaaaaaaaaaaaaaaabafaPaNaQaRaSaSaTararaHaHaIaIaHaHawaxaxaUawawaVazananaWaaaaaaaaaaaaaaaaaaaaaaaaaaaaaaaaaaaa",
"aaaaaaaaaaaaaaaaaaaaaaaaaaaaaaaaaaaaabafaPaXaSaRaSaSararaIaHaIaIaIaHaHawaxaUaUaUawawakaYaPabaaaaaaaaaaaaaaaaaaaaaaaaaaaaaaaaaaaa",
"aaaaaaaaaaaaaaaaaaaaaaaaaaaaaaaaaaaaabaPataZaRaSaSa0araIaIaIaIa1aIaIaHa2axaUaUaUawawaka3aPabaaaaaaaaaaaaaaaaaaaaaaaaaaaaaaaaaaaa",
"aaaaaaaaaaaaaaaaaaaaaaaaaaaaaaaaaaaba4a5ata6aSaSaSa0araIaIa7a7a1a1aIaHa8aUaUaUa9awawaja!aPagabaaaaaaaaaaaaaaaaaaaaaaaaaaaaaaaaaa",
"aaaaaaaaaaaaaaaaaaaaaaaaaaaaaaaaaaabaga5ata6aRaSaSaSa0aIaIa1a1a1a1aIa8asaUaUa9awawaTa#a3aPagabaaaaaaaaaaaaaaaaaaaaaaaaaaaaaaaaaa",
"aaaaaaaaaaaaaaaaaaaaaaaaaaaaaaaaaaabaga5ata6aRaRaSaSababababababababababababa$a$aRaSa%a3aPagabaaaaaaaaaaaaaaaaaaaaaaaaaaaaaaaaaa",
"aaaaaaaaaaaaaaaaaaaaaaaaaaaaaaaaaaabaga&ata6aRaSababa(a)a)a)a)a(a(a(a(a(a)a)ababaTaSafa3aPa#abaaaaaaaaaaaaaaaaaaaaaaaaaaaaaaaaaa",
"aaaaaaaaaaaaaaaaaaaaaaaaaaaaaaaaaaabaga&ata6ababa*a*a*a+a,a,a,a,a,a,a,a-a-a-a)a)ababafa3aPa#abaaaaaaaaaaaaaaaaaaaaaaaaaaaaaaaaaa",
"aaaaaaaaaaaaaaaaaaaaaaaaaaaaaaaaaaabaga&a.aba*a,a,a,a,a,a,a,a,a,a,a,a-a-a-a-a-a-a-a/abaPaPa:abaaaaaaaaaaaaaaaaaaaaaaaaaaaaaaaaaa",
"aaaaaaaaaaaaaaaaaaaaaaaaaaaaaaaaaaabababa.aba*a,a,a,a,a,a,a,a,a,a,a-a-a-a-a-a-a-a-a;aba<abababaaaaaaaaaaaaaaaaaaaaaaaaaaaaaaaaaa",
"aaaaaaaaaaaaaaaaaaaaaaaaaaaaaaaaaba=a=ababa>aba,a,a,a,a,a,a,a,a,a-a-a-a-a-a-a-a-a-aba?ababa@a@abaaaaaaaaaaaaaaaaaaaaaaaaaaaaaaaa",
"aaaaaaaaaaaaaaaaaaaaaaaaaaaaaaaba=a=a=ababa>aba,a,a,a,a,a,a,a,a-a-a-a-a-a-a-a-a-a-aba[ababa@a@a@abaaaaaaaaaaaaaaaaaaaaaaaaaaaaaa",
"aaaaaaaaaaaaaaaaaaaaaaaaaaaaaaababababa]ababa?aba,a,a,a,a,a,a-a-a-a-a-a-a-a-a-a-aba[ababaPababababaaaaaaaaaaaaaaaaaaaaaaaaaaaaaa",
"aaaaaaaaaaaaaaaaaaaaaaaaaaaaaaaaaaaaaba]aba^a_aba,ababababababababababababababa-aba{a|aba_abaaaaaaaaaaaaaaaaaaaaaaaaaaaaaaaaaaaa",
"aaaaaaaaaaaaaaaaaaaaaaaaaaaaaaaaaaaaaba_aba}a_ababa~a!a!a!a!a!a!a!a!a!a!a!ata#ababa{baaba<abaaaaaaaaaaaaaaaaaaaaaaaaaaaaaaaaaaaa",
"aaaaaaaaaaaaaaaaaaaaaaaaaaaaaaaaaaaaaba_aba}aba5a!a!a!a!a!a!a!a!a!a!a!a!a!a!atata5aba|aba%abaaaaaaaaaaaaaaaaaaaaaaaaaaaaaaaaaaaa",
"aaaaaaaaaaaaaaaaaaaaaaaaaaaaaaaaaaaaaba=aba}aba5a!a!a!a!a!a!a!a!a!a!a!a!a!a!a!a!a5aba|aba%abaaaaaaaaaaaaaaaaaaaaaaaaaaaaaaaaaaaa",
"aaaaaaaaaaaaaaaaaaaaaaaaaaaaaaaaaaaaaba=aba}aba5a!a!a!a!a!a!a!a!a!a!a!a!a!a!a!a!a5aba|aba%abaaaaaaaaaaaaaaaaaaaaaaaaaaaaaaaaaaaa",
"aaaaaaaaaaaaaaaaaaaaaaaaaaaaaaaaaaaaaba=aba}aba5a!a!a!a!a!a!a!a!a!a!a!a!a!a!a!a!a5abbbaba%abaaaaaaaaaaaaaaaaaaaaaaaaaaaaaaaaaaaa",
"aaaaaaaaaaaaaaaaaaaaaaaaaaaaaaaaaaaaaba]aba}aba5a!a!a!a!a!a!a!a!a!a!a!a!a!a!a!a!aPabbaaba%abaaaaaaaaaaaaaaaaaaaaaaaaaaaaaaaaaaaa",
"aaaaaaaaaaaaaaaaaaaaaaaaaaaaaaaaaaaaaba]aba}aba5a!a!a!a!a!a!a!a!a!a!a!a!a!a!a!a!aPabbaaba_abaaaaaaaaaaaaaaaaaaaaaaaaaaaaaaaaaaaa",
"aaaaaaaaaaaaaaaaaaaaaaaaaaaaaaaaaaaaaba]aba}aba5a!a!a!a!a!a!a!a!a!a!a!a!a!a!a!a!aPabbaaba_abaaaaaaaaaaaaaaaaaaaaaaaaaaaaaaaaaaaa",
"aaaaaaaaaaaaaaaaaaaaaaaaaaaaaaaaaaaaaba]aba}aba5a!a!a!a!a!a!a!a!a!a!a!a!a!a!a!a!aPabbaaba=abaaaaaaaaaaaaaaaaaaaaaaaaaaaaaaaaaaaa",
"aaaaaaaaaaaaaaaaaaaaaaaaaaaaaaaaaaaaaba]abbcabbda!a!a!a!a!a!a!a!a!a!a!a!a!a!a!a!aPabbeaba]abaaaaaaaaaaaaaaaaaaaaaaaaaaaaaaaaaaaa",
"aaaaaaaaaaaaaaaaaaaaaaaaaaaaaaaaaaaaaba]a]a]abbda!a!a!a!a!a!a!a!a!a!a!a!a!a!a!a!aPabbeaba]abaaaaaaaaaaaaaaaaaaaaaaaaaaaaaaaaaaaa",
"aaaaaaaaaaaaaaaaaaaaaaaaaaaaaaaaaaaaaba]a]ababbda!a!a!a!a!a!a!a!a!a!a!a!a!a!a!a!aPababa]a]abaaaaaaaaaaaaaaaaaaaaaaaaaaaaaaaaaaaa",
"aaaaaaaaaaaaaaaaaaaaaaaaaaaaaaaaaaaaaba]aba}abbda!a!a!a!a!a!a!a!a!a!a!a!a!a!a!a!aPaba}abbfabaaaaaaaaaaaaaaaaaaaaaaaaaaaaaaaaaaaa",
"aaaaaaaaaaaaaaaaaaaaaaaaaaaaaaaaaaaaaba]aba}abbda!a!a!a!a!a!a!a!a!a!a!a!a!a!a!a!aPaba}abbfabaaaaaaaaaaaaaaaaaaaaaaaaaaaaaaaaaaaa",
"aaaaaaaaaaaaaaaaaaaaaaaaaaaaaaaaaaaaaba]aba}abbda!a!a!a!a!a!a!a!a!a!a!a!a!a!a!a!aPaba}aba_abaaaaaaaaaaaaaaaaaaaaaaaaaaaaaaaaaaaa",
"aaaaaaaaaaaaaaaaaaaaaaaaaaaaaaaaaaaaaba]aba}aba5a!a!a!a!a!a!a!a!a!a!a!a!a!a!a!a!aPaba}aba_abaaaaaaaaaaaaaaaaaaaaaaaaaaaaaaaaaaaa",
"aaaaaaaaaaaaaaaaaaaaaaaaaaaaaaaaaaaaabbfaba}aba5a!a!a!a!a!a!a!a!a!a!a!a!a!a!a!a!aPabbgaba_abaaaaaaaaaaaaaaaaaaaaaaaaaaaaaaaaaaaa",
"aaaaaaaaaaaaaaaaaaaaaaaaaaaaaaaaaaaaaba_abbhafa.a!a!a!a!a!a!a!a!a!a!a!a!a!a!a!a!aPaPbiaba_abaaaaaaaaaaaaaaaaaaaaaaaaaaaaaaaaaaaa",
"aaaaaaaaaaaaaaaaaaaaaaaaaaaaaaaaaaaaaba_abbjaga.a5a!a!a!a!a!a!a!a!a!a!a!a!a!a!aPaPaPbiaba_abaaaaaaaaaaaaaaaaaaaaaaaaaaaaaaaaaaaa",
"aaaaaaaaaaaaaaaaaaaaaaaaaaaaaaaaaaaaaba_abagaga.a.a5a5a5a5a5a5a5a5a5a5a5a5a5a5a!aPaPaPaba<abaaaaaaaaaaaaaaaaaaaaaaaaaaaaaaaaaaaa",
"aaaaaaaaaaaaaaaaaaaaaaaaaaaaaaaaaaabafaPabaga&a&a.a.bka!a!a!a!a!a!a!a!a!a!a!a!a!aPaPaPabaPblabaaaaaaaaaaaaaaaaaaaaaaaaaaaaaaaaaa",
"aaaaaaaaaaaaaaaaaaaaaaaaaaaaaaaaaaabafaPafaPa&abababbkbka!a!a!a!a!a!a!a!a!a!abababaPaPaPaPaPabaaaaaaaaaaaaaaaaaaaaaaaaaaaaaaaaaa",
"aaaaaaaaaaaaaaaaaaaaaaaaaaaaaaaaaaabaPaPaPaPaba)a)a)ababababababababababababa(a(a(a4aPaPaPblabaaaaaaaaaaaaaaaaaaaaaaaaaaaaaaaaaa",
"aaaaaaaaaaaaaaaaaaaaaaaaaaaaaaaaaaabaPaPaPaPaba)a)a)a)a)a)a)a)a)a)a)a)a)a)a)a,a,a(abaPaPaPblabaaaaaaaaaaaaaaaaaaaaaaaaaaaaaaaaaa",
"aaaaaaaaaaaaaaaaaaaaaaaaaaaaaaaaaaabaPaPaPa5aba)bma,a,a,a,a,a,a,a,a,a,a,a,a,a,a,a,abaPaPaPblabaaaaaaaaaaaaaaaaaaaaaaaaaaaaaaaaaa",
"aaaaaaaaaaaaaaaaaaaaaaaaaaaaaaaaaaabafaPbna5aba)a,a,a,a,a,a,a,a,a,a,a,a,a,a,a,a,a,abaPbnblblabaaaaaaaaaaaaaaaaaaaaaaaaaaaaaaaaaa",
"aaaaaaaaaaaaaaaaaaaaaaaaaaaaaaaaaaabafboboa:bpababa,a,a,a,a,a,a,a,a,a,a,a,a,a,ababa<bnbnbnblabaaaaaaaaaaaaaaaaaaaaaaaaaaaaaaaaaa",
"aaaaaaaaaaaaaaaaaaaaaaaaaaaaaaaaaaabagbnaPboa:bqbqababababababababababababababagbrbnbnaPbnagabaaaaaaaaaaaaaaaaaaaaaaaaaaaaaaaaaa",
"aaaaaaaaaaaaaaaaaaaaaaaaaaaaaaaaaaabagbnbsbtboa:afa>bububpbpa&a&bva&bwbwbwbwbwagbnbnbrbrbnagabaaaaaaaaaaaaaaaaaaaaaaaaaaaaaaaaaa",
"aaaaaaaaaaaaaaaaaaaaaaaaaaaaaaaaaaabagagbxbwbwbjagagagagagagagbybyagagagagagagagbnbrbrbnagagabaaaaaaaaaaaaaaaaaaaaaaaaaaaaaaaaaa",
"aaaaaaaaaaaaaaaaaaaaaaaaaaaaaaaaaaaaabagagbjbxbjbxagagagagagagagagagagagagagagbxbobnbnagagabaaaaaaaaaaaaaaaaaaaaaaaaaaaaaaaaaaaa",
"aaaaaaaaaaaaaaaaaaaaaaaaaaaaaaaaaaaaabagagagagagagbxbxbxbxbxbxbxbxbxbxbxbxbnbxagagagagagagabaaaaaaaaaaaaaaaaaaaaaaaaaaaaaaaaaaaa",
"aaaaaaaaaaaaaaaaaaaaaaaaaaaaaaaaaaaaaaabagagagagagagagagagagagagagagagagagagagagagagagagabaaaaaaaaaaaaaaaaaaaaaaaaaaaaaaaaaaaaaa",
"aaaaaaaaaaaaaaaaaaaaaaaaaaaaaaaaaaaaaaaaababagagagagagagagbzbzbzbzbzbAa_a_a_a_a_a_a_ababaaaaaaaaaaaaaaaaaaaaaaaaaaaaaaaaaaaaaaaa",
"aaaaaaaaaaaaaaaaaaaaaaaaaaaaaaaaaaaaaaaaaaaaababababababababababababababababababababaaaaaaaaaaaaaaaaaaaaaaaaaaaaaaaaaaaaaaaaaaaa",
"aaaaaaaaaaaaaaaaaaaaaaaaaaaaaaaaaaaaaaaaaaaaaaaaaaaaaaaaaaaaaaaaaaaaaaaaaaaaaaaaaaaaaaaaaaaaaaaaaaaaaaaaaaaaaaaaaaaaaaaaaaaaaaaa",
"aaaaaaaaaaaaaaaaaaaaaaaaaaaaaaaaaaaaaaaaaaaaaaaaaaaaaaaaaaaaaaaaaaaaaaaaaaaaaaaaaaaaaaaaaaaaaaaaaaaaaaaaaaaaaaaaaaaaaaaaaaaaaaaa",
"aaaaaaaaaaaaaaaaaaaaaaaaaaaaaaaaaaaaaaaaaaaaaaaaaaaaaaaaaaaaaaaaaaaaaaaaaaaaaaaaaaaaaaaaaaaaaaaaaaaaaaaaaaaaaaaaaaaaaaaaaaaaaaaa",
"aaaaaaaaaaaaaaaaaaaaaaaaaaaaaaaaaaaaaaaaaaaaaaaaaaaaaaaaaaaaaaaaaaaaaaaaaaaaaaaaaaaaaaaaaaaaaaaaaaaaaaaaaaaaaaaaaaaaaaaaaaaaaaaa",
"aaaaaaaaaaaaaaaaaaaaaaaaaaaaaaaaaaaaaaaaaaaaaaaaaaaaaaaaaaaaaaaaaaaaaaaaaaaaaaaaaaaaaaaaaaaaaaaaaaaaaaaaaaaaaaaaaaaaaaaaaaaaaaaa"
};
