/* XPM */
static char *car1_p1_s3[] = {
"64 64 39 2",
"aa	c #ff00ff",
"ab	c #706560",
"ac	c #8e8581",
"ad	c #7e7575",
"ae	c #3238ce",
"af	c #4b27e0",
"ag	c #9f9690",
"ah	c #010000",
"ai	c #2939a2",
"aj	c #212b82",
"ak	c #273bb2",
"al	c #9634f9",
"am	c #353574",
"an	c #ded0cb",
"ao	c #fbefee",
"ap	c #6b22f2",
"aq	c #302f54",
"ar	c #333693",
"as	c #1c1f4e",
"at	c #ad2efd",
"au	c #4017e6",
"av	c #3d3a3a",
"aw	c #322c29",
"ax	c #534e63",
"ay	c #3117c7",
"az	c #f0b3fe",
"aA	c #3c43aa",
"aB	c #d768fe",
"aC	c #261fa9",
"aD	c #4d4a49",
"aE	c #1c53da",
"aF	c #21256a",
"aG	c #5b626c",
"aH	c #88956a",
"aI	c #b4be93",
"aJ	c #414196",
"aK	c #4955cb",
"aL	c #b8adde",
"aM	c #9d8dcb",
"aaaaaaaaaaaaaaaaaaaaaaaaaaaaaaaaaaaaaaaaaaaaaaaaaaaaaaaaaaaaaaaaaaaaaaabacacacacacacacacacacacacacacacadaaaaaaaaaaaaaaaaaaaaaaaa",
"aaaaaaaaaaaaaaaaaaaaaaaaaaaaaaaaaaaaaaaaaaaaaaaaaaaaaaaaaaaaaaaaaaaaaaabacacacacacacacacacacacacacacacadaaaaaaaaaaaaaaaaaaaaaaaa",
"aaaaaaaaaaaaaaaaaaaaaaaaaaaaaaaaaaaaaaaaaaaaaaaaaaaaaaaaaaaaaaaeaaaaabacacacacabacacacacacacacacacacacadaaaaaaaaaaaaaaaaaaaaaaaa",
"aaaaaaaaaaaaaaaaaaaaaaaaaaaaaaaaaaaaaaaaaaaaaaaaaaaaaaaaaaaaaeaaaaabacacacacababacadadadadacacacacacadaaaaaaaaaaaaaaaaaaaaaaaaaa",
"aaaaaaaaaaaaaaaaaaaaaaaaaaaaaaaaaaaaaaaaaaaaaaaaaaaaaaaaaaaaafaaaaaaabacacacababacacagacacadacacacadaaaaaaaaaaaaaaaaaaaaaaaaaaaa",
"aaaaaaaaaaaaaaaaaaaaaaaaaaaaaaaaaaaaaaaaaaaaaaaaaaahahahahahafahahahabababacabababacagacagababacacaaaaaaaaaaaaaaaaaaaaaaaaaaaaaa",
"aaaaaaaaaaaaaaaaaaaaaaaaaaaaaaaaaaaaaaaaaaahahahahaiaiajaiaiakalajamabacacababababababacababacacaaaaaaaaaaaaaaaaaaaaaaaaaaaaaaaa",
"aaaaaaaaaaaaaaaaaaaaaaaaaaaaaaaaaaaaaaaaahagaganaoaiaiapaqaqakalalarabacacababacacacacababacacaaaaaaaaaaaaaaaaaaaaaaaaaaaaaaaaaa",
"aaaaaaaaaaaaaaaaaaaaaaaaaaaaaaaaaaaaaaahajanaoaoasaiakapaqaqamafatauabacacacababacacacababacacacaaaaaaaaaaaaaaaaaaaaaaaaaaaaaaaa",
"aaaaaaaaaaaaaaaaaaaaaaaaaaaaaaaaaaaaaaahaiaoaoahaiakaiapauamafatatauabacacacabababacacababadadaaaaaaaaaaaaaaaaaaaaaaaaaaaaaaaaaa",
"aaaaaaaaaaaaaaaaaaaaaaaaaaaaaaaaaaaaahaiaiaoavahavavawapapafafatatafafabacacadababacacababaxaaaaaaaaaaaaaaaaaaaaaaaaaaaaaaaaaaaa",
"aaaaaaaaaaaaaaaaaaaaaaaaaaaaaaaaaaaaahaiaiaqavahavavapapatafatatatafafabacadadadabababaiaiahaaaaaaaaaaaaaaaaaaaaaaaaaaaaaaaaaaaa",
"aaaaaaaaaaaaaaaaaaaaaaaaaaaaaaaaaaaaahaiakaqahavavayapatatatatazatatafaAacadadadabababaeaiahaaaaaaaaaaaaaaaaaaaaaaaaaaaaaaaaaaaa",
"aaaaaaaaaaaaaaaaaaaaaaaaaaaaaaaaaaahajakakamavavavayapatataBaBazazatafaCadadadaDababamaEaiajahaaaaaaaaaaaaaaaaaaaaaaaaaaaaaaaaaa",
"aaaaaaaaaaaaaaaaaaaaaaaaaaaaaaaaaaahajakakamahavavavayatatazazazazataCaqadadaDababawaFaeaiajahaaaaaaaaaaaaaaaaaaaaaaaaaaaaaaaaaa",
"aaaaaaaaaaaaaaaaaaaaaaaaaaaaaaaaaaahajakakamahahavavahahahahahahahahahahahahaxaxahavaraeaiajahaaaaaaaaaaaaaaaaaaaaaaaaaaaaaaaaaa",
"aaaaaaaaaaaaaaaaaaaaaaaaaaaaaaaaaaahajakakamahavahahaGaGaGaGaGaGaGaGaGaGaGaGahahawavaiaeaiaFahaaaaaaaaaaaaaaaaaaaaaaaaaaaaaaaaaa",
"aaaaaaaaaaaaaaaaaaaaaaaaaaaaaaaaaaahajakakamahahaDaDaDaHaHaHaHaHaHaHaHaIaIaIaGaGahahaiaeaiaFahaaaaaaaaaaaaaaaaaaaaaaaaaaaaaaaaaa",
"aaaaaaaaaaaaaaaaaaaaaaaaaaaaaaaaaaahajakakahaDaHaHaHaHaHaHaHaHaHaHaHaIaIaIaIaIaIaIaxahaiaiaFahaaaaaaaaaaaaaaaaaaaaaaaaaaaaaaaaaa",
"aaaaaaaaaaaaaaaaaaaaaaaaaaaaaaaaaaahahahakahaDaHaHaHaHaHaHaHaHaHaHaIaIaIaIaIaIaIaIamaharahahahaaaaaaaaaaaaaaaaaaaaaaaaaaaaaaaaaa",
"aaaaaaaaaaaaaaaaaaaaaaaaaaaaaaaaahamamahahaAahaHaHaHaHaHaHaHaHaHaIaIaIaIaIaIaIaIaIaharahahararahaaaaaaaaaaaaaaaaaaaaaaaaaaaaaaaa",
"aaaaaaaaaaaaaaaaaaaaaaaaaaaaaaahamamamahahaAahaHaHaHaHaHaHaHaHaIaIaIaIaIaIaIaIaIaIahaJahaharararahaaaaaaaaaaaaaaaaaaaaaaaaaaaaaa",
"aaaaaaaaaaaaaaaaaaaaaaaaaaaaaaahahahahamahaharahaHaHaHaHaHaHaIaIaIaIaIaIaIaIaIaIahaJahahaiahahahahaaaaaaaaaaaaaaaaaaaaaaaaaaaaaa",
"aaaaaaaaaaaaaaaaaaaaaaaaaaaaaaaaaaaaahamahaxarahaHahahahahahahahahahahahahahahaIahaJadaharahaaaaaaaaaaaaaaaaaaaaaaaaaaaaaaaaaaaa",
"aaaaaaaaaaaaaaaaaaaaaaaaaaaaaaaaaaaaaharahabarahahaEaEaEaEaEaEaEaEaEaEaEaEakaFahahaJaGaharahaaaaaaaaaaaaaaaaaaaaaaaaaaaaaaaaaaaa",
"aaaaaaaaaaaaaaaaaaaaaaaaaaaaaaaaaaaaaharahabahakaEaEaEaEaEaEaEaEaEaEaEaEaEaEakakakahadaharahaaaaaaaaaaaaaaaaaaaaaaaaaaaaaaaaaaaa",
"aaaaaaaaaaaaaaaaaaaaaaaaaaaaaaaaaaaaahamahabahakaEaEaEaEaEaEaEaEaEaEaEaEaEaEaEaEakahadaharahaaaaaaaaaaaaaaaaaaaaaaaaaaaaaaaaaaaa",
"aaaaaaaaaaaaaaaaaaaaaaaaaaaaaaaaaaaaahamahabahakaEaEaEaEaEaEaEaEaEaEaEaEaEaEaEaEakahadaharahaaaaaaaaaaaaaaaaaaaaaaaaaaaaaaaaaaaa",
"aaaaaaaaaaaaaaaaaaaaaaaaaaaaaaaaaaaaahamahabahakaEaEaEaEaEaEaEaEaEaEaEaEaEaEaEaEakahaxaharahaaaaaaaaaaaaaaaaaaaaaaaaaaaaaaaaaaaa",
"aaaaaaaaaaaaaaaaaaaaaaaaaaaaaaaaaaaaahamahabahakaEaEaEaEaEaEaEaEaEaEaEaEaEaEaEaEaiahaGaharahaaaaaaaaaaaaaaaaaaaaaaaaaaaaaaaaaaaa",
"aaaaaaaaaaaaaaaaaaaaaaaaaaaaaaaaaaaaahamahabahakaEaEaEaEaEaEaEaEaEaEaEaEaEaEaEaEaiahaGaharahaaaaaaaaaaaaaaaaaaaaaaaaaaaaaaaaaaaa",
"aaaaaaaaaaaaaaaaaaaaaaaaaaaaaaaaaaaaahamahabahakaEaEaEaEaEaEaEaEaEaEaEaEaEaEaEaEaiahaGaharahaaaaaaaaaaaaaaaaaaaaaaaaaaaaaaaaaaaa",
"aaaaaaaaaaaaaaaaaaaaaaaaaaaaaaaaaaaaahamahabahakaEaEaEaEaEaEaEaEaEaEaEaEaEaEaEaEaiahaGahamahaaaaaaaaaaaaaaaaaaaaaaaaaaaaaaaaaaaa",
"aaaaaaaaaaaaaaaaaaaaaaaaaaaaaaaaaaaaahamahamahaEaEaEaEaEaEaEaEaEaEaEaEaEaEaEaEaEaiahaqahamahaaaaaaaaaaaaaaaaaaaaaaaaaaaaaaaaaaaa",
"aaaaaaaaaaaaaaaaaaaaaaaaaaaaaaaaaaaaahamamamahaEaEaEaEaEaEaEaEaEaEaEaEaEaEaEaEaEaiahaqahamahaaaaaaaaaaaaaaaaaaaaaaaaaaaaaaaaaaaa",
"aaaaaaaaaaaaaaaaaaaaaaaaaaaaaaaaaaaaahamamahahaEaEaEaEaEaEaEaEaEaEaEaEaEaEaEaEaEaiahahamamahaaaaaaaaaaaaaaaaaaaaaaaaaaaaaaaaaaaa",
"aaaaaaaaaaaaaaaaaaaaaaaaaaaaaaaaaaaaahamahabahaEaEaEaEaEaEaEaEaEaEaEaEaEaEaEaEaEaiahabaharahaaaaaaaaaaaaaaaaaaaaaaaaaaaaaaaaaaaa",
"aaaaaaaaaaaaaaaaaaaaaaaaaaaaaaaaaaaaahamahabahaEaEaEaEaEaEaEaEaEaEaEaEaEaEaEaEaEaiahabaharahaaaaaaaaaaaaaaaaaaaaaaaaaaaaaaaaaaaa",
"aaaaaaaaaaaaaaaaaaaaaaaaaaaaaaaaaaaaahamahabahaEaEaEaEaEaEaEaEaEaEaEaEaEaEaEaEaEaiahabaharahaaaaaaaaaaaaaaaaaaaaaaaaaaaaaaaaaaaa",
"aaaaaaaaaaaaaaaaaaaaaaaaaaaaaaaaaaaaahamahabahakaEaEaEaEaEaEaEaEaEaEaEaEaEaEaEaEaiahabaharahaaaaaaaaaaaaaaaaaaaaaaaaaaaaaaaaaaaa",
"aaaaaaaaaaaaaaaaaaaaaaaaaaaaaaaaaaaaaharahabahakaEaEaEaEaEaEaEaEaEaEaEaEaEaEaEaEaiahabaharahaaaaaaaaaaaaaaaaaaaaaaaaaaaaaaaaaaaa",
"aaaaaaaaaaaaaaaaaaaaaaaaaaaaaaaaaaaaaharahahaiakaEaEaEaEaEaEaEaEaEaEaEaEaEaEaEaEaiaiahaharahaaaaaaaaaaaaaaaaaaaaaaaaaaaaaaaaaaaa",
"aaaaaaaaaaaaaaaaaaaaaaaaaaaaaaaaaaaaaharahasajakakaEaEaEaEaEaEaEaEaEaEaEaEaEaEaiaiaiahaharahaaaaaaaaaaaaaaaaaaaaaaaaaaaaaaaaaaaa",
"aaaaaaaaaaaaaaaaaaaaaaaaaaaaaaaaaaaaaharahajajakakakakakakakakakakakakakakakakaEaiaiaiaharahaaaaaaaaaaaaaaaaaaaaaaaaaaaaaaaaaaaa",
"aaaaaaaaaaaaaaaaaaaaaaaaaaaaaaaaaaahaiaiahajakakakakaEaEaEaEaEaEaEaEaEaEaEaEaEaEaiaiaiahaiaAahaaaaaaaaaaaaaaaaaaaaaaaaaaaaaaaaaa",
"aaaaaaaaaaaaaaaaaaaaaaaaaaaaaaaaaaahaiaiaiaiakahahahaEaEaEaEaEaEaEaEaEaEaEaEahahahaiaiaiaiaiahaaaaaaaaaaaaaaaaaaaaaaaaaaaaaaaaaa",
"aaaaaaaaaaaaaaaaaaaaaaaaaaaaaaaaaaahaiaiaiaiahaGaGaGahahahahahahahahahahahahaGaGaGajaiaiaiaAahaaaaaaaaaaaaaaaaaaaaaaaaaaaaaaaaaa",
"aaaaaaaaaaaaaaaaaaaaaaaaaaaaaaaaaaahaiaiaiaiahaGaGaGaGaGaGaGaGaGaGaGaGaGaGaGaHaHaGahaiaiaiaAahaaaaaaaaaaaaaaaaaaaaaaaaaaaaaaaaaa",
"aaaaaaaaaaaaaaaaaaaaaaaaaaaaaaaaaaahaiaiaiakahaGaGaHaHaHaHaHaHaHaHaHaHaHaHaHaHaHaHahaiaiaiaAahaaaaaaaaaaaaaaaaaaaaaaaaaaaaaaaaaa",
"aaaaaaaaaaaaaaaaaaaaaaaaaaaaaaaaaaahaiaiaFakahaGaHaHaHaHaHaHaHaHaHaHaHaHaHaHaHaHaHahaiaFaAaAahaaaaaaaaaaaaaaaaaaaaaaaaaaaaaaaaaa",
"aaaaaaaaaaaaaaaaaaaaaaaaaaaaaaaaaaahaiaFaFaFaiahahaHaHaHaHaHaHaHaHaHaHaHaHaHaHahaharaFaFaFaAahaaaaaaaaaaaaaaaaaaaaaaaaaaaaaaaaaa",
"aaaaaaaaaaaaaaaaaaaaaaaaaaaaaaaaaaahajaFaiaFaFaAaAahahahahahahahahahahahahahahajaKaFaFaiaFajahaaaaaaaaaaaaaaaaaaaaaaaaaaaaaaaaaa",
"aaaaaaaaaaaaaaaaaaaaaaaaaaaaaaaaaaahajaFakaeaFaFaiaAaiaiaiaiakakaiakaAaAaAaAaAajaFaFaKaKaFajahaaaaaaaaaaaaaaaaaaaaaaaaaaaaaaaaaa",
"aaaaaaaaaaaaaaaaaaaaaaaaaaaaaaaaaaahajajasaAaAasajajajajajajajananajajajajajajajaFaKaKaFajajahaaaaaaaaaaaaaaaaaaaaaaaaaaaaaaaaaa",
"aaaaaaaaaaaaaaaaaaaaaaaaaaaaaaaaaaaaahajajasasasasajajajajajajajajajajajajajajasaFaFaFajajahaaaaaaaaaaaaaaaaaaaaaaaaaaaaaaaaaaaa",
"aaaaaaaaaaaaaaaaaaaaaaaaaaaaaaaaaaaaahajajajajajajasasasasasasasasasasasasaFasajajajajajajahaaaaaaaaaaaaaaaaaaaaaaaaaaaaaaaaaaaa",
"aaaaaaaaaaaaaaaaaaaaaaaaaaaaaaaaaaaaaaahajajajajajajajajajajajajajajajajajajajajajajajajahaaaaaaaaaaaaaaaaaaaaaaaaaaaaaaaaaaaaaa",
"aaaaaaaaaaaaaaaaaaaaaaaaaaaaaaaaaaaaaaaaahahajajajajajajajaLaLaLaLaLaMarararararararahahaaaaaaaaaaaaaaaaaaaaaaaaaaaaaaaaaaaaaaaa",
"aaaaaaaaaaaaaaaaaaaaaaaaaaaaaaaaaaaaaaaaaaaaahahahahahahahahahahahahahahahahahahahahaaaaaaaaaaaaaaaaaaaaaaaaaaaaaaaaaaaaaaaaaaaa",
"aaaaaaaaaaaaaaaaaaaaaaaaaaaaaaaaaaaaaaaaaaaaaaaaaaaaaaaaaaaaaaaaaaaaaaaaaaaaaaaaaaaaaaaaaaaaaaaaaaaaaaaaaaaaaaaaaaaaaaaaaaaaaaaa",
"aaaaaaaaaaaaaaaaaaaaaaaaaaaaaaaaaaaaaaaaaaaaaaaaaaaaaaaaaaaaaaaaaaaaaaaaaaaaaaaaaaaaaaaaaaaaaaaaaaaaaaaaaaaaaaaaaaaaaaaaaaaaaaaa",
"aaaaaaaaaaaaaaaaaaaaaaaaaaaaaaaaaaaaaaaaaaaaaaaaaaaaaaaaaaaaaaaaaaaaaaaaaaaaaaaaaaaaaaaaaaaaaaaaaaaaaaaaaaaaaaaaaaaaaaaaaaaaaaaa",
"aaaaaaaaaaaaaaaaaaaaaaaaaaaaaaaaaaaaaaaaaaaaaaaaaaaaaaaaaaaaaaaaaaaaaaaaaaaaaaaaaaaaaaaaaaaaaaaaaaaaaaaaaaaaaaaaaaaaaaaaaaaaaaaa",
"aaaaaaaaaaaaaaaaaaaaaaaaaaaaaaaaaaaaaaaaaaaaaaaaaaaaaaaaaaaaaaaaaaaaaaaaaaaaaaaaaaaaaaaaaaaaaaaaaaaaaaaaaaaaaaaaaaaaaaaaaaaaaaaa"
};
