/* XPM */
static char *car1_p1_s4[] = {
"64 64 39 2",
"aa	c #ff00ff",
"ab	c #1c1918",
"ac	c #232120",
"ad	c #1f1d1d",
"ae	c #0c0d33",
"af	c #120938",
"ag	c #272524",
"ah	c #000000",
"ai	c #0a0e28",
"aj	c #080a20",
"ak	c #090e2c",
"al	c #250d3e",
"am	c #0d0d1d",
"an	c #373432",
"ao	c #3e3b3b",
"ap	c #1a083c",
"aq	c #0c0b15",
"ar	c #0c0c24",
"as	c #070813",
"at	c #2a0b3f",
"au	c #0f0539",
"av	c #0f0e0e",
"aw	c #0c0b0a",
"ax	c #141318",
"ay	c #0b0531",
"az	c #3c2c3f",
"aA	c #0f102a",
"aB	c #351a3f",
"aC	c #09072a",
"aD	c #131212",
"aE	c #071436",
"aF	c #08081a",
"aG	c #16181b",
"aH	c #22251a",
"aI	c #2d2f24",
"aJ	c #101025",
"aK	c #121532",
"aL	c #2d2b37",
"aM	c #272332",
"aaaaaaaaaaaaaaaaaaaaaaaaaaaaaaaaaaaaaaaaaaaaaaaaaaaaaaaaaaaaaaaaaaaaaaabacacacacacacacacacacacacacacacadaaaaaaaaaaaaaaaaaaaaaaaa",
"aaaaaaaaaaaaaaaaaaaaaaaaaaaaaaaaaaaaaaaaaaaaaaaaaaaaaaaaaaaaaaaaaaaaaaabacacacacacacacacacacacacacacacadaaaaaaaaaaaaaaaaaaaaaaaa",
"aaaaaaaaaaaaaaaaaaaaaaaaaaaaaaaaaaaaaaaaaaaaaaaaaaaaaaaaaaaaaaaeaaaaabacacacacabacacacacacacacacacacacadaaaaaaaaaaaaaaaaaaaaaaaa",
"aaaaaaaaaaaaaaaaaaaaaaaaaaaaaaaaaaaaaaaaaaaaaaaaaaaaaaaaaaaaaeaaaaabacacacacababacadadadadacacacacacadaaaaaaaaaaaaaaaaaaaaaaaaaa",
"aaaaaaaaaaaaaaaaaaaaaaaaaaaaaaaaaaaaaaaaaaaaaaaaaaaaaaaaaaaaafaaaaaaabacacacababacacagacacadacacacadaaaaaaaaaaaaaaaaaaaaaaaaaaaa",
"aaaaaaaaaaaaaaaaaaaaaaaaaaaaaaaaaaaaaaaaaaaaaaaaaaahahahahahafahahahabababacabababacagacagababacacaaaaaaaaaaaaaaaaaaaaaaaaaaaaaa",
"aaaaaaaaaaaaaaaaaaaaaaaaaaaaaaaaaaaaaaaaaaahahahahaiaiajaiaiakalajamabacacababababababacababacacaaaaaaaaaaaaaaaaaaaaaaaaaaaaaaaa",
"aaaaaaaaaaaaaaaaaaaaaaaaaaaaaaaaaaaaaaaaahagaganaoaiaiapaqaqakalalarabacacababacacacacababacacaaaaaaaaaaaaaaaaaaaaaaaaaaaaaaaaaa",
"aaaaaaaaaaaaaaaaaaaaaaaaaaaaaaaaaaaaaaahajanaoaoasaiakapaqaqamafatauabacacacababacacacababacacacaaaaaaaaaaaaaaaaaaaaaaaaaaaaaaaa",
"aaaaaaaaaaaaaaaaaaaaaaaaaaaaaaaaaaaaaaahaiaoaoahaiakaiapauamafatatauabacacacabababacacababadadaaaaaaaaaaaaaaaaaaaaaaaaaaaaaaaaaa",
"aaaaaaaaaaaaaaaaaaaaaaaaaaaaaaaaaaaaahaiaiaoavahavavawapapafafatatafafabacacadababacacababaxaaaaaaaaaaaaaaaaaaaaaaaaaaaaaaaaaaaa",
"aaaaaaaaaaaaaaaaaaaaaaaaaaaaaaaaaaaaahaiaiaqavahavavapapatafatatatafafabacadadadabababaiaiahaaaaaaaaaaaaaaaaaaaaaaaaaaaaaaaaaaaa",
"aaaaaaaaaaaaaaaaaaaaaaaaaaaaaaaaaaaaahaiakaqahavavayapatatatatazatatafaAacadadadabababaeaiahaaaaaaaaaaaaaaaaaaaaaaaaaaaaaaaaaaaa",
"aaaaaaaaaaaaaaaaaaaaaaaaaaaaaaaaaaahajakakamavavavayapatataBaBazazatafaCadadadaDababamaEaiajahaaaaaaaaaaaaaaaaaaaaaaaaaaaaaaaaaa",
"aaaaaaaaaaaaaaaaaaaaaaaaaaaaaaaaaaahajakakamahavavavayatatazazazazataCaqadadaDababawaFaeaiajahaaaaaaaaaaaaaaaaaaaaaaaaaaaaaaaaaa",
"aaaaaaaaaaaaaaaaaaaaaaaaaaaaaaaaaaahajakakamahahavavahahahahahahahahahahahahaxaxahavaraeaiajahaaaaaaaaaaaaaaaaaaaaaaaaaaaaaaaaaa",
"aaaaaaaaaaaaaaaaaaaaaaaaaaaaaaaaaaahajakakamahavahahaGaGaGaGaGaGaGaGaGaGaGaGahahawavaiaeaiaFahaaaaaaaaaaaaaaaaaaaaaaaaaaaaaaaaaa",
"aaaaaaaaaaaaaaaaaaaaaaaaaaaaaaaaaaahajakakamahahaDaDaDaHaHaHaHaHaHaHaHaIaIaIaGaGahahaiaeaiaFahaaaaaaaaaaaaaaaaaaaaaaaaaaaaaaaaaa",
"aaaaaaaaaaaaaaaaaaaaaaaaaaaaaaaaaaahajakakahaDaHaHaHaHaHaHaHaHaHaHaHaIaIaIaIaIaIaIaxahaiaiaFahaaaaaaaaaaaaaaaaaaaaaaaaaaaaaaaaaa",
"aaaaaaaaaaaaaaaaaaaaaaaaaaaaaaaaaaahahahakahaDaHaHaHaHaHaHaHaHaHaHaIaIaIaIaIaIaIaIamaharahahahaaaaaaaaaaaaaaaaaaaaaaaaaaaaaaaaaa",
"aaaaaaaaaaaaaaaaaaaaaaaaaaaaaaaaahamamahahaAahaHaHaHaHaHaHaHaHaHaIaIaIaIaIaIaIaIaIaharahahararahaaaaaaaaaaaaaaaaaaaaaaaaaaaaaaaa",
"aaaaaaaaaaaaaaaaaaaaaaaaaaaaaaahamamamahahaAahaHaHaHaHaHaHaHaHaIaIaIaIaIaIaIaIaIaIahaJahaharararahaaaaaaaaaaaaaaaaaaaaaaaaaaaaaa",
"aaaaaaaaaaaaaaaaaaaaaaaaaaaaaaahahahahamahaharahaHaHaHaHaHaHaIaIaIaIaIaIaIaIaIaIahaJahahaiahahahahaaaaaaaaaaaaaaaaaaaaaaaaaaaaaa",
"aaaaaaaaaaaaaaaaaaaaaaaaaaaaaaaaaaaaahamahaxarahaHahahahahahahahahahahahahahahaIahaJadaharahaaaaaaaaaaaaaaaaaaaaaaaaaaaaaaaaaaaa",
"aaaaaaaaaaaaaaaaaaaaaaaaaaaaaaaaaaaaaharahabarahahaEaEaEaEaEaEaEaEaEaEaEaEakaFahahaJaGaharahaaaaaaaaaaaaaaaaaaaaaaaaaaaaaaaaaaaa",
"aaaaaaaaaaaaaaaaaaaaaaaaaaaaaaaaaaaaaharahabahakaEaEaEaEaEaEaEaEaEaEaEaEaEaEakakakahadaharahaaaaaaaaaaaaaaaaaaaaaaaaaaaaaaaaaaaa",
"aaaaaaaaaaaaaaaaaaaaaaaaaaaaaaaaaaaaahamahabahakaEaEaEaEaEaEaEaEaEaEaEaEaEaEaEaEakahadaharahaaaaaaaaaaaaaaaaaaaaaaaaaaaaaaaaaaaa",
"aaaaaaaaaaaaaaaaaaaaaaaaaaaaaaaaaaaaahamahabahakaEaEaEaEaEaEaEaEaEaEaEaEaEaEaEaEakahadaharahaaaaaaaaaaaaaaaaaaaaaaaaaaaaaaaaaaaa",
"aaaaaaaaaaaaaaaaaaaaaaaaaaaaaaaaaaaaahamahabahakaEaEaEaEaEaEaEaEaEaEaEaEaEaEaEaEakahaxaharahaaaaaaaaaaaaaaaaaaaaaaaaaaaaaaaaaaaa",
"aaaaaaaaaaaaaaaaaaaaaaaaaaaaaaaaaaaaahamahabahakaEaEaEaEaEaEaEaEaEaEaEaEaEaEaEaEaiahaGaharahaaaaaaaaaaaaaaaaaaaaaaaaaaaaaaaaaaaa",
"aaaaaaaaaaaaaaaaaaaaaaaaaaaaaaaaaaaaahamahabahakaEaEaEaEaEaEaEaEaEaEaEaEaEaEaEaEaiahaGaharahaaaaaaaaaaaaaaaaaaaaaaaaaaaaaaaaaaaa",
"aaaaaaaaaaaaaaaaaaaaaaaaaaaaaaaaaaaaahamahabahakaEaEaEaEaEaEaEaEaEaEaEaEaEaEaEaEaiahaGaharahaaaaaaaaaaaaaaaaaaaaaaaaaaaaaaaaaaaa",
"aaaaaaaaaaaaaaaaaaaaaaaaaaaaaaaaaaaaahamahabahakaEaEaEaEaEaEaEaEaEaEaEaEaEaEaEaEaiahaGahamahaaaaaaaaaaaaaaaaaaaaaaaaaaaaaaaaaaaa",
"aaaaaaaaaaaaaaaaaaaaaaaaaaaaaaaaaaaaahamahamahaEaEaEaEaEaEaEaEaEaEaEaEaEaEaEaEaEaiahaqahamahaaaaaaaaaaaaaaaaaaaaaaaaaaaaaaaaaaaa",
"aaaaaaaaaaaaaaaaaaaaaaaaaaaaaaaaaaaaahamamamahaEaEaEaEaEaEaEaEaEaEaEaEaEaEaEaEaEaiahaqahamahaaaaaaaaaaaaaaaaaaaaaaaaaaaaaaaaaaaa",
"aaaaaaaaaaaaaaaaaaaaaaaaaaaaaaaaaaaaahamamahahaEaEaEaEaEaEaEaEaEaEaEaEaEaEaEaEaEaiahahamamahaaaaaaaaaaaaaaaaaaaaaaaaaaaaaaaaaaaa",
"aaaaaaaaaaaaaaaaaaaaaaaaaaaaaaaaaaaaahamahabahaEaEaEaEaEaEaEaEaEaEaEaEaEaEaEaEaEaiahabaharahaaaaaaaaaaaaaaaaaaaaaaaaaaaaaaaaaaaa",
"aaaaaaaaaaaaaaaaaaaaaaaaaaaaaaaaaaaaahamahabahaEaEaEaEaEaEaEaEaEaEaEaEaEaEaEaEaEaiahabaharahaaaaaaaaaaaaaaaaaaaaaaaaaaaaaaaaaaaa",
"aaaaaaaaaaaaaaaaaaaaaaaaaaaaaaaaaaaaahamahabahaEaEaEaEaEaEaEaEaEaEaEaEaEaEaEaEaEaiahabaharahaaaaaaaaaaaaaaaaaaaaaaaaaaaaaaaaaaaa",
"aaaaaaaaaaaaaaaaaaaaaaaaaaaaaaaaaaaaahamahabahakaEaEaEaEaEaEaEaEaEaEaEaEaEaEaEaEaiahabaharahaaaaaaaaaaaaaaaaaaaaaaaaaaaaaaaaaaaa",
"aaaaaaaaaaaaaaaaaaaaaaaaaaaaaaaaaaaaaharahabahakaEaEaEaEaEaEaEaEaEaEaEaEaEaEaEaEaiahabaharahaaaaaaaaaaaaaaaaaaaaaaaaaaaaaaaaaaaa",
"aaaaaaaaaaaaaaaaaaaaaaaaaaaaaaaaaaaaaharahahaiakaEaEaEaEaEaEaEaEaEaEaEaEaEaEaEaEaiaiahaharahaaaaaaaaaaaaaaaaaaaaaaaaaaaaaaaaaaaa",
"aaaaaaaaaaaaaaaaaaaaaaaaaaaaaaaaaaaaaharahasajakakaEaEaEaEaEaEaEaEaEaEaEaEaEaEaiaiaiahaharahaaaaaaaaaaaaaaaaaaaaaaaaaaaaaaaaaaaa",
"aaaaaaaaaaaaaaaaaaaaaaaaaaaaaaaaaaaaaharahajajakakakakakakakakakakakakakakakakaEaiaiaiaharahaaaaaaaaaaaaaaaaaaaaaaaaaaaaaaaaaaaa",
"aaaaaaaaaaaaaaaaaaaaaaaaaaaaaaaaaaahaiaiahajakakakakaEaEaEaEaEaEaEaEaEaEaEaEaEaEaiaiaiahaiaAahaaaaaaaaaaaaaaaaaaaaaaaaaaaaaaaaaa",
"aaaaaaaaaaaaaaaaaaaaaaaaaaaaaaaaaaahaiaiaiaiakahahahaEaEaEaEaEaEaEaEaEaEaEaEahahahaiaiaiaiaiahaaaaaaaaaaaaaaaaaaaaaaaaaaaaaaaaaa",
"aaaaaaaaaaaaaaaaaaaaaaaaaaaaaaaaaaahaiaiaiaiahaGaGaGahahahahahahahahahahahahaGaGaGajaiaiaiaAahaaaaaaaaaaaaaaaaaaaaaaaaaaaaaaaaaa",
"aaaaaaaaaaaaaaaaaaaaaaaaaaaaaaaaaaahaiaiaiaiahaGaGaGaGaGaGaGaGaGaGaGaGaGaGaGaHaHaGahaiaiaiaAahaaaaaaaaaaaaaaaaaaaaaaaaaaaaaaaaaa",
"aaaaaaaaaaaaaaaaaaaaaaaaaaaaaaaaaaahaiaiaiakahaGaGaHaHaHaHaHaHaHaHaHaHaHaHaHaHaHaHahaiaiaiaAahaaaaaaaaaaaaaaaaaaaaaaaaaaaaaaaaaa",
"aaaaaaaaaaaaaaaaaaaaaaaaaaaaaaaaaaahaiaiaFakahaGaHaHaHaHaHaHaHaHaHaHaHaHaHaHaHaHaHahaiaFaAaAahaaaaaaaaaaaaaaaaaaaaaaaaaaaaaaaaaa",
"aaaaaaaaaaaaaaaaaaaaaaaaaaaaaaaaaaahaiaFaFaFaiahahaHaHaHaHaHaHaHaHaHaHaHaHaHaHahaharaFaFaFaAahaaaaaaaaaaaaaaaaaaaaaaaaaaaaaaaaaa",
"aaaaaaaaaaaaaaaaaaaaaaaaaaaaaaaaaaahajaFaiaFaFaAaAahahahahahahahahahahahahahahajaKaFaFaiaFajahaaaaaaaaaaaaaaaaaaaaaaaaaaaaaaaaaa",
"aaaaaaaaaaaaaaaaaaaaaaaaaaaaaaaaaaahajaFakaeaFaFaiaAaiaiaiaiakakaiakaAaAaAaAaAajaFaFaKaKaFajahaaaaaaaaaaaaaaaaaaaaaaaaaaaaaaaaaa",
"aaaaaaaaaaaaaaaaaaaaaaaaaaaaaaaaaaahajajasaAaAasajajajajajajajananajajajajajajajaFaKaKaFajajahaaaaaaaaaaaaaaaaaaaaaaaaaaaaaaaaaa",
"aaaaaaaaaaaaaaaaaaaaaaaaaaaaaaaaaaaaahajajasasasasajajajajajajajajajajajajajajasaFaFaFajajahaaaaaaaaaaaaaaaaaaaaaaaaaaaaaaaaaaaa",
"aaaaaaaaaaaaaaaaaaaaaaaaaaaaaaaaaaaaahajajajajajajasasasasasasasasasasasasaFasajajajajajajahaaaaaaaaaaaaaaaaaaaaaaaaaaaaaaaaaaaa",
"aaaaaaaaaaaaaaaaaaaaaaaaaaaaaaaaaaaaaaahajajajajajajajajajajajajajajajajajajajajajajajajahaaaaaaaaaaaaaaaaaaaaaaaaaaaaaaaaaaaaaa",
"aaaaaaaaaaaaaaaaaaaaaaaaaaaaaaaaaaaaaaaaahahajajajajajajajaLaLaLaLaLaMarararararararahahaaaaaaaaaaaaaaaaaaaaaaaaaaaaaaaaaaaaaaaa",
"aaaaaaaaaaaaaaaaaaaaaaaaaaaaaaaaaaaaaaaaaaaaahahahahahahahahahahahahahahahahahahahahaaaaaaaaaaaaaaaaaaaaaaaaaaaaaaaaaaaaaaaaaaaa",
"aaaaaaaaaaaaaaaaaaaaaaaaaaaaaaaaaaaaaaaaaaaaaaaaaaaaaaaaaaaaaaaaaaaaaaaaaaaaaaaaaaaaaaaaaaaaaaaaaaaaaaaaaaaaaaaaaaaaaaaaaaaaaaaa",
"aaaaaaaaaaaaaaaaaaaaaaaaaaaaaaaaaaaaaaaaaaaaaaaaaaaaaaaaaaaaaaaaaaaaaaaaaaaaaaaaaaaaaaaaaaaaaaaaaaaaaaaaaaaaaaaaaaaaaaaaaaaaaaaa",
"aaaaaaaaaaaaaaaaaaaaaaaaaaaaaaaaaaaaaaaaaaaaaaaaaaaaaaaaaaaaaaaaaaaaaaaaaaaaaaaaaaaaaaaaaaaaaaaaaaaaaaaaaaaaaaaaaaaaaaaaaaaaaaaa",
"aaaaaaaaaaaaaaaaaaaaaaaaaaaaaaaaaaaaaaaaaaaaaaaaaaaaaaaaaaaaaaaaaaaaaaaaaaaaaaaaaaaaaaaaaaaaaaaaaaaaaaaaaaaaaaaaaaaaaaaaaaaaaaaa",
"aaaaaaaaaaaaaaaaaaaaaaaaaaaaaaaaaaaaaaaaaaaaaaaaaaaaaaaaaaaaaaaaaaaaaaaaaaaaaaaaaaaaaaaaaaaaaaaaaaaaaaaaaaaaaaaaaaaaaaaaaaaaaaaa"
};
