/* XPM */
static char * item_3_3_xpm[] = {
"64 64 27 1",
"a c #FF00FF",
"b c #8B8F99",
"c c #3E414C",
"d c #5F6771",
"e c #989292",
"f c #6C727D",
"g c #ABB2B5",
"h c #D0D1CF",
"i c #90949D",
"j c #717781",
"k c #ADB0BE",
"l c #484E58",
"m c #434853",
"n c #838991",
"o c #B1B8BB",
"p c #B9BFC1",
"q c #555A66",
"r c #788088",
"s c #B6BCC6",
"t c #292E3C",
"u c #4F525D",
"v c #A4ACB3",
"w c #C3CBCD",
"x c #969FA4",
"y c #33353F",
"z c #9BA4AC",
"A c #817E80",
"aaaaaaaaaaaaaaaaaaaaaaaaaaaaaaaaaaaaaaaaaaaaaaaaaaaaaaaaaaaaaaaa",
"aaaaaaaaaaaaaaaaaaaaaaaaaaaaaaaaaaaaaaaaaaaaaaaaaaaaaaaaaaaaaaaa",
"aaaaaaaaaaaaaaaaaaaaaaaaaaaaaaaaaaaaaaaaaaaaaaaaaaaaaaaaaaaaaaaa",
"aaaaaaaaaaaaaaaaaaaaaaaaaaaaaaaaaaaaaaaaaaaaaaaaaaaaaaaaaaaaaaaa",
"aaaaaaaaaaaaaaaaaaaaaaaaaaaaaaaaaaaaaaaaaaaaaaaaaaaaaaaaaaaaaaaa",
"aaaaaaaaaaaaaaaaaaaaaaaaaaaaaaaaaaaaaaaaaaaaaaaaaaaaaaaaaaaaaaaa",
"aaaaaaaaaaaaaaaaaaaaaaaaaaaaaaaaaaaaaaaaaaaaaaaaaaaaaaaaaaaaaaaa",
"aaaaaaaaaaaaaaaaaaaaaaaaaaaaaaaaaaaaaaaaaaaaaaaaaaaaaaaaaaaaaaaa",
"aaaaaaaaaaaaaaaaaaaaaaaaaaaaaaaaaaaaaaaaaaaaaaaaaaaaaaaaaaaaaaaa",
"aaaaaaaaaaaaaaaaaaaaaaaaaaaaaaaaaaaaaaaaaaaaaaaaaaaaaaaaaaaaaaaa",
"aaaaaaaaaaaaaaaaaaaaaaaaaaaaaaaaaabbbbbcaaaaaaaaaaaaaaaaaaaaaaaa",
"aaaaaaaaaaaaaaaaaaaaaaaaaaaaaaaabbbbbbbbbbaaaaaaaaaaaaaaaaaaaaaa",
"aaaaaaaaaaaaaaaaaaaaaaaaaaaaaabdbbbbbbbbbbbbaaaaaaaaaaaaaaaaaaaa",
"aaaaaaaaaaaaaaaaaaaaaaaaaaaaaefbbbbbbbbbbbbbbbaaaaaaaaaaaaaaaaaa",
"aaaaaaaaaaaaaaaaaaaaaaaaaaaghfbbbbbbbbbbbbbbbbbbaaaaaaaaaaaaaaaa",
"aaaaaaaaaaaaaaaaaaaaaaaaabbijbbbbbbbbbbbbbbbbbbbbaaaaaaaaaaaaaaa",
"aaaaaaaaaaaaaaaaaaaaaaabbbbkkbbbbbbbbbbbbbbbbbbblaaaaaaaaaaaaaaa",
"aaaaaaaaaaaaaaaaaaaaaabbbbbbbbbbbbbbbbbbbbbbbbbbmmaaaaaaaaaaaaaa",
"aaaaaaaaaaaaaaaaaaaanbbbbbbbbbbbbbbbbbbbbbbbbbommmaaaaaaaaaaaaaa",
"aaaaaaaaaaaaaaaaaannbbbbbbbbbbbbbbbbbbbbbbbbbbmmmmmaaaaaaaaaaaaa",
"aaaaaaaaaaaaaaaaapbbbbbbbbbbbbbbbbbbbbbbbbbbdommmmmaaaaaaaaaaaaa",
"aaaaaaaaaaaaaaaajpbbbbbbbbbbbbbbbbbbbbbbqqdqqommmmmaaaaaaaaaaaaa",
"aaaaaaaaaaaaaaaajropbbbbbbbbbbbbbbbbbdddqdnnnmmmmmmmaaaaaaaaaaaa",
"aaaaaaaaaaaaaaaffjjfsssobbbbbbbbbbbdddnnnnnnkmmmmmmmaaaaaaaaaaaa",
"aaaaaaaaaaaaaaaffffffffoooooooggrrnnnnnnnnnkkcmmmmmmaaaaaaaaaaaa",
"aaaaaaaaaaaaaafffffffffffffffftdrrnnnnnnnnkkmmmmmmmmmaaaaaaaaaaa",
"aaaaaaaaaaaaaafffffffffffffffffgrrnnnnnnkkkcmmmmmmmmmaaaaaaaaaaa",
"aaaaaaaaaaaaaffffffffffffffffffjgkkoonkkkdddmmmmmmmmllaaaaaaaaaa",
"aaaaaaaaaaaaafffffffffffffffffffffjkookdddddmmmmmmmmjjjaaaaaaaaa",
"aaaaaaaaaaaabffbfffffffffffffffffffjooddddddddmmmmmjjjjuaaaaaaaa",
"aaaaaaaaaaabbbbbbbbffffffffffffffffjjodddddddmmmmjjjjjjlaaaaaaaa",
"aaaaaaaaaafbsbbbbbbbbbfffffffffffffjbkgdddddjmmjjjjjjjllaaaaaaaa",
"aaaaaaaaamfbssbbbbbbbbbbbffffffffffbbkgdddddjmjjjjjjjjvmmaaaaaaa",
"aaaaaaaaaffffosbbbbbbbbbbbbbfffffbbbbbkdddddjjjjjjjjjvcmmaaaaaaa",
"aaaaaaaaffffffosbbbbbbbbbbbbbbbbbbbbbbgddddjjjjjjjjjkccmmaaaaaaa",
"aaaaaaaafffffffssbbbbbbbbbbddbbbbbbbbbbddddjjjjjjjjkccmmmmaaaaaa",
"aaaaaaaafffffffffwbbbbbbbbdbbbbbbbbbbbkdddjjjjjjjrkkcmmmmmaaaaaa",
"aaaaaaaaffffffffffwwbbbkldbbbbbbbbbbbbkmmdjjjjjjjkkcmmmmmmaaaaaa",
"aaaaaaaaufffffffffjjwwwlkbbbbbbbbbbbbsnmmmmqqqqccccccmmmmmaaaaaa",
"aaaaaaaauffffffffffjjjllkbbbbbbbbbbssbmmmqqqqqqqcccccmmmmmmaaaaa",
"aaaaaaaauuffffffffjjjfllfkkoosbbbbssbnmmqqqqqqqqcccccmmmmmmaaaaa",
"aaaaaaaauuuffffffffjjjlfffffffssssnnbnccqqqqqqqqqccccmmmmmmaaaaa",
"aaaaaaaauuuuufffffjjjxlfffffffffnnnnnnccqqqqqqqqqqccccmmmmmaaaaa",
"aaaaaaaaauuuuuffffffftuuffffffffnnnnnvccqqqqqqqqqqccccmmmmmaaaaa",
"aaaaaaaaaauuuuffffffuuuuffffffffnnnnnvccqqqqqqqqqqccccmmmmaaaaaa",
"aaaaaaaaaauuuuufffffuuuuffffffffnnnnvvccqqqqqqqqqqcccccmmmaaaaaa",
"aaaaaaaaaaauuuuuuffyuuuuffffffffnnnnzccccqqqqqqqqccccccmmaaaaaaa",
"aaaaaaaaaaaauuuuuufyuuuufffffffffnnncccccqqqqqqqqccccccaaaaaaaaa",
"aaaaaaaaaaaaaauuuufyuuuuufffffffjfkncccccqqqqqqqcccccaaaaaaaaaaa",
"aaaaaaaaaaaaaaaauufyuuuuuuffffffjjvcccccccqqqqqccccaaaaaaaaaaaaa",
"aaaaaaaaaaaaaaaaaulyuuuuuuuufffjjjkccccccccqqqqccaaaaamaaaaaaaaa",
"aaaaaaaaaanfdaaaaaaluuuuuuuuuuuflvmmccccccccqqqcaaaaaaluaaaaaaaa",
"aaaaaaaaannndlaaaaaaaauuuuuuuuulllmmccccccccqqaaaaaaaAAuuaaaaaaa",
"aaaaaaaannnndllaaaaaaaaaauuuuuulllmmmcccccccaaaaaaaajAAuuaaaaaaa",
"aaaaaaaannnllllaaaaaaaaaaaaaalulllmmmcccccaaaaaaaaaauuuuuaaaaaaa",
"aaaaaaaaaaullllaaaaaaaaaaaaaaaaallmmmmccaaaaaaaaaaaaaaaaaaaaaaaa",
"aaaaaaaaaaaaaaaaaaaaaaaaaaaaaaaaaaaaaaaaaaaaaaaaaaaaaaaaaaaaaaaa",
"aaaaaaaaaaaaaaaaaaaaaaaaaaaaaaaaaaaaaaaaaaaaaaaaaaaaaaaaaaaaaaaa",
"aaaaaaaaaaaaaaaaaaaaaaaaaaaaaaaaaaaaaaaaaaaaaaaaaaaaaaaaaaaaaaaa",
"aaaaaaaaaaaaaaaaaaaaaaaaaaaaaaaaaaaaaaaaaaaaaaaaaaaaaaaaaaaaaaaa",
"aaaaaaaaaaaaaaaaaaaaaaaaaaaaaaaaaaaaaaaaaaaaaaaaaaaaaaaaaaaaaaaa",
"aaaaaaaaaaaaaaaaaaaaaaaaaaaaaaaaaaaaaaaaaaaaaaaaaaaaaaaaaaaaaaaa",
"aaaaaaaaaaaaaaaaaaaaaaaaaaaaaaaaaaaaaaaaaaaaaaaaaaaaaaaaaaaaaaaa",
"aaaaaaaaaaaaaaaaaaaaaaaaaaaaaaaaaaaaaaaaaaaaaaaaaaaaaaaaaaaaaaaa"
};


