/* XPM */
static char * item_1_4_xpm[] = {
"64 64 40 1",
"a c #FF00FF",
"b c #D3AB82",
"c c #C79C74",
"d c #9E7553",
"e c #743E2C",
"f c #916949",
"g c #8C6348",
"h c #48181D",
"i c #A94138",
"j c #9C3430",
"k c #622826",
"l c #965241",
"m c #DD6644",
"n c #85272B",
"o c #AF3630",
"p c #8F2D2E",
"q c #6F2226",
"r c #CAA47D",
"s c #8E392D",
"t c #DB7750",
"u c #4A3125",
"v c #583D2D",
"w c #7A262B",
"x c #531920",
"y c #C14E41",
"z c #CD604E",
"A c #631E23",
"B c #311F1E",
"C c #852E2F",
"D c #D47057",
"E c #E98C61",
"F c #9D383E",
"G c #A3363B",
"H c #3D271F",
"I c #BF7353",
"J c #B95F59",
"K c #E1956D",
"L c #B4694C",
"M c #100F13",
"N c #25181A",
"aaaaaaaaaaaaaaaaaaaaaaaaaaaaaaaaaaaaaaaaaaaaaaaaaaaaaaaaaaaaaaaa",
"aaaaaaaaaaaaaaaaaaaaaaaaaaaaaaaaaaaaaaaaaaaaaaaaaaaaaaaaaaaaaaaa",
"aaaaaaaaaaaaaaaaaaaaaaaaaaaaaaaaaaaaaaaaaaaaaaaaaaaaaaaaaaaaaaaa",
"aaaaaaaaaaaaaaaaaaaaaaaaaaaaaaaaaaaaaaaaaaaaaaaaaaaaaaaaaaaaaaaa",
"aaaaaaaaaaaaaaaaaaaaaaaaaaaaaaaaaaaaaaaaaaaaaaaaaaaaaaaaaaaaaaaa",
"aaaaaaaaaaaaaaaaaaaaaaaaaaaaaaaaaaaaaaaaaaaaaaaaaaaaaaaaaaaaaaaa",
"aaaaaaaaaaaaaaaaaaaaaaaaaaaaaaabccaaaaaaaaaaaaaaaaaaaaaaaaaaaaaa",
"aaaaaaaaaaaaaaaaaaaaaaaaaaaaaaadeeaaaaaaaaaaaaaaaaaaaaaaaaaaaaaa",
"aaaaaaaaaaaaaaaaaaaaaaaaaaaaaaadeeaaaaaaaaaaaaaaaaaaaaaaaaaaaaaa",
"aaaaaaaaaaaaaaaaaaaaaaaaaaaaafceeeggaaaaaaaaaaaaaaaaaaaaaaaaaaaa",
"aaaaaaaaaaaaaaaaaaaaaaaaaaaahhccccghhaaaaaaaaaaaaaaaaaaaaaaaaaaa",
"aaaaaaaaaaaaaaaaaaaaaaaaaaaiijhhhhhhkkaaaaaaaaaaaaaaaaaaaaaaaaaa",
"hlgaaaaaaaaaaaaaaaaaaaaaaaiimnnjokhppqkaaaaaaaaaaaaaaaaaaaaaaaaa",
"rggaaaaaaaaaaaaaaaaaaaaaasimnnntoohnpppkaaaaaaaaaaaaaaaaaaaaaaaa",
"uvaaaaaaaaaaaaaaaaaaaaaaasiwwnntooxxpppkaaaaaaaaaaaaaaaaaaaaaaaa",
"aaaaaaaaaaaaaaaaaaaaaaaapyzwwwtooooxpppkkaaaaaaaaaaaaaaaaaaaaaaa",
"aaaaaaaaaaaaaaaaaaaaaaaapyjwwwtooooxpppkkaaaaaaaaaaaaaaaaaaaaaaa",
"aaaaaaaaaaaaaaaaaaaaaaaajyjqwwtooooxpppkkhaaaaaaaaaaaaaaaaaaaaaa",
"aaaaaaaaaaaaaaaaaaaaaaiAjjjqqqoooooxpppAkBAaaaaaaaaaaaaaaaaaaaaa",
"aaaaaaaaaaaaaaaaaaaaajjAAjjjqqoooooqAppAAACCaaaaaaaaaaaaaaaaaaaa",
"aaaaaaaaaaaaaaaaaaaaazjiAAAAjjjjooojAAAAAAiiaaaaaaaaaaaaaaaaaaaa",
"aaaaaaaaaaaaaaaaaaaaapDDiqtAAAAAAAAAAAEAFGiqaaaaaaaaaaaaaaaaaaaa",
"aaaaaaaaaaaaaaaaaaaaanppttjjjjooooooooqyyqqqaaaaaaaaaaaaaaaaaaaa",
"aaaaaaaaaaaaaaaaaaaaaaCpppjtttttttttooqqqqqaaaaaaaaaaaaaaaaaaaaa",
"aaaaaaaaaaaaaaaaaaaaaaaappjjjjjjjjjjjqqqqqaaaaaaaaaaaaaaaaaaaaaa",
"aaaaaaaaaaaaaaaaaaaaaaaahhwnjjjjjjjjpqqhhaaaaaaaaaaaaaaaaaaaaaaa",
"aaaaaaaaaaaaaaaaaaaaaaaaqqhhhhxxxxxxxhhwwaaaaaaaaaaaaaaaaaaaaaaa",
"aaaaaaaaaaaaaaaaaaaaaaaaqqqqwCwwwwwwxwhwwaaaaaaaaaaaaaaaaaaaaaaa",
"aaaaaaaaaaaaaaaaaaaaaaaawopqACxxxxxwwwwwwaaaaaaaaaaaaaaaaaaaaaaa",
"aaaaaaaaaaaaaaaaaaaassxxwoooAAjjjjpxwwwwwwxxxaaaaaaaaaaaaaaaaaaa",
"aaaaaaaaaaaaaaaaaaHazzxowooAAGzzzzzpxwwwwwhGGhhaaaaaaaaaaaaaaaaa",
"aaaaaaaaaaaaaaaaaIJBzzhowonAzzpppppzzxwwwwhGGhwCaaaaaaaaaaaaaaaa",
"aaaaaaaaaaaaaaaaassBzzhoooAzzpppppppzzxwwwhCGhwwaaaaaaaaaaaaaaaa",
"aaaaaaaaaaaaaaaaassBCChqoAGzppphhhpppynxwwhCChweaaaaaaaaaaaaaaaa",
"aaaaaaaaaaaaaaaaaasBCChwwxzppphspsxpCCyhwwhnChkaaaaaaaaaaaaaaaaa",
"aaaaaaaaaaaaaaaaaaaaCChwwxzppxsKKLsxCCyhwwhAChaaaaaaaaaaaaaaaaaa",
"aaaaaaaaaaaaaaaaaaaaCChwwxpppxIssssxnCChwwhqwaaaaaaaaaaaaaaaaaaa",
"aaaaaaaaaaaaaaaaaaaaaaaawxpppxIssssxnCChwaaaaaaaaaaaaaaaaaaaaaaa",
"aaaaaaaaaaaaaaaaaaaaaaaaqjxpppxsssxCCChwwaaaaaaaaaaaaaaaaaaaaaaa",
"aaaaaaaaaaaaaaaaaaaaaaaaqoxppppxxxqCCChwwaaaaaaaaaaaaaaaaaaaaaaa",
"aaaaaaaaaaaaaaaaaaaaaaaawopAppppCppCChwwwaaaaaaaaaaaaaaaaaaaaaaa",
"aaaaaaaaaaaaaaaaaaaaaaaawooAxxppppphhwwwwaaaaaaaaaaaaaaaaaaaaaaa",
"aaaaaaaaaaaaaaaaaaaaaaaawoooAxxxxhhhwwwwwaaaaaaaaaaaaaaaaaaaaaaa",
"aaaaaaaaaaaaaaaaaaaaaaawjooooqqqqqwwwwwwwwaaaaaaaaaaaaaaaaaaaaaa",
"aaaaaaaaaaaaaaaaaaaaaaajnnooooqqqqwwwwwwwwaaaaaaaaaaaaaaaaaaaaaa",
"aaaaaaaaaaaaaaaaaaaaaaasznnnoooooowwwwwwjwaaaaaaaaaaaaaaaaaaaaaa",
"aaaaaaaaaaaaaaaaaaaaaaaaszzznnnnwwwwwjjjjaaaaaaaaaaaaaaaaaaaaaaa",
"aaaaaaaaaaaaaaaaaaaaaaaaxxxzzzzDDDDDpjxxxaaaaaaaaaaaaaaaaaaaaaaa",
"aaaaaaaaaaaaaaaaaaaaaaaaAxxxCCCCCCppxxxxwaaaaaaaaaaaaaaaaaaaaaaa",
"aaaaaaaaaaaaaaaaaaaaaaaaCCCCxxxxxxxxxxxqwaaaaaaaaaaaaaaaaaaaaaaa",
"aaaaaaaaaaaaaaaaaaaaaaaaCsAxqwwwwwwnnxxwwaaaaaaaaaaaaaaaaaaaaaaa",
"aaaaaaaaaaaaaaaaaaaaaaaaCyAkoonhhwinnxxiwaaaaaaaaaaaaaaaaaaaaaaa",
"aaaaaaaaaaaaaaaaaaaaaaCaCyAAoonhwwinnxxGwMqaaaaaaaaaaaaaaaaaaaaa",
"aaaaaaaaaaaaaaaaaaaaaCCBCyAAoonhwwinnxxGwMqqaaaaaaaaaaaaaaaaaaaa",
"aaaaaaaaaaaaaaaaaaaaaCCBCyAAoonxwwinnxxGwNqqaaaaaaaaaaaaaaaaaaaa",
"aaaaaaaaaaaaaaaaaaaaaiCChyAAoonxwwinnxxGxqqqaaaaaaaaaaaaaaaaaaaa",
"aaaaaaaaaaaaaaaaaaaaaDDphxAAoonxwninxxxxxqFjaaaaaaaaaaaaaaaaaaaa",
"aaaaaaaaaaaaaaaaaaaaaCDDjjAAAonxqninxxxkFFFqaaaaaaaaaaaaaaaaaaaa",
"aaaaaaaaaaaaaaaaaaaaanCDDjjjAxxxAAxxxxqjjjqqaaaaaaaaaaaaaaaaaaaa",
"aaaaaaaaaaaaaaaaaaaaannCCDDDjjjjjjjjjjjqqqqqaaaaaaaaaaaaaaaaaaaa",
"aaaaaaaaaaaaaaaaaaaaaannCCppDDDDDDDDjqqqqqqaaaaaaaaaaaaaaaaaaaaa",
"aaaaaaaaaaaaaaaaaaaaaaanCnpppnnnnnnnqqqqqqaaaaaaaaaaaaaaaaaaaaaa",
"aaaaaaaaaaaaaaaaaaaaaaaaaaCppCnnnnnwqqqaaaaaaaaaaaaaaaaaaaaaaaaa",
"aaaaaaaaaaaaaaaaaaaaaaaaaaaaaaaaaaaaaaaaaaaaaaaaaaaaaaaaaaaaaaaa"
};

