/* XPM */
static char * item_3_2_xpm[] = {
"64 64 33 1",
"a c #FF00FF",
"b c #B08760",
"c c #D3AB82",
"d c #8D6B54",
"e c #583C36",
"f c #A58167",
"g c #C79C74",
"h c #CAA47D",
"i c #311F1E",
"j c #583D2D",
"k c #3D271F",
"l c #7B5843",
"m c #7F5F46",
"n c #AA845C",
"o c #3E2C29",
"p c #AE9276",
"q c #BD936D",
"r c #96765C",
"s c #83644D",
"t c #B29D7C",
"u c #A17A55",
"v c #4F525D",
"w c #4B3630",
"x c #9E7553",
"y c #25181A",
"z c #654738",
"A c #743E2C",
"B c #75533D",
"C c #8C6348",
"D c #6B4D3C",
"E c #916949",
"F c #765D4B",
"G c #100F13",
"aaaaaaaaaaaaaaaaaaaaaaaaaaaaaaaaaaaaaaaaaaaaaaaaaaaaaaaaaaaaaaaa",
"aaaaaaaaaaaaaaaaaaaaaaaaaaaaaaaaaaaaaaaaaaaaaaaaaaaaaaaaaaaaaaaa",
"aaaaaaaaaaaaaaaaaaaaaaaaaaaaaaaaaaaaaaaaaaaaaaaaaaaaaaaaaaaaaaaa",
"aaaaaaaaaaaaaaaaaaaaaaaaaaaaaaaaaaaaaaaaaaaaaaaaaaaaaaaaaaaaaaaa",
"aaaaaaaaaaaaaaaaaaaaaaaaaaaaaaaaaaaaaaaaaaaaaaaaaaaaaaaaaaaaaaaa",
"aaaaaaaaaaaaaaaaaaaaaaaaaaaaaaaaaaaaaaaaaaaaaaaaaaaaaaaaaaaaaaaa",
"aaaaaaaaaaaaaaaaaaaaaaaaaaaaaaaaaaaaaaaaaaaaaaaaaaaaaaaaaaaaaaaa",
"aaaaaaaaaaaaaaaaaaaaaaaaaaaaaaaaaaaaaaaaaaaaaaaaaaaaaaaaaaaaaaaa",
"aaaaaaaaaaaaaaaaaaaaaaaaaaaaaaaaaaaaaaaaaaaaaaaaaaaaaaaaaaaaaaaa",
"aaaaaaaaaaaaaaaaaaaaaaaaaaaaaaaaaaaaaaaaaaaaaaaaaaaaaaaaaaaaaaaa",
"aaaaaaaaaaaaaaaaaaaaaaaaaaaaaaaaaaaaaaaaaaaaaaaaaaaaaaaaaaaaaaaa",
"aaaaaaaaaaaaaaaaaaaaaabbbbaaaaaaaaaaaaaaaaaaaaaaaaaaaaaaaaaaaaaa",
"aaaaaaaaaaaaaaaaaaaabbbbbbbbcccdefgaaaaaaaaaaaaaaaaaaaaaaaaaaaaa",
"aaaaaaaaaaaaaaaaaabbbbbbbbbhheeeijfbcaaaaaaaaaaaaaaaaaaaaaaaaaaa",
"aaaaaaaaaaaaaaaabbbbbbbbbbbeeeeekllmlhhaaaaaaaaaaaaaaaaaaaaaaaaa",
"aaaaaaaaaaaaannbbbbbbbccceeeeeeekllllmlggaaaaaaaaaaaaaaaaaaaaaaa",
"aaaaaaaaaaanbbbbbbbbccdeeeeeeeeeollllllmlppqaaaaaaaaaaaaaaaaaaaa",
"aaaaaaaaanbbbbnbbbccreeeeeeeeeeekllllllllmmmpppaaaaaaaaaaaaaaaaa",
"aaaaaaabbbbbnbbbccseeeeeeeeeeeeeklllllllllllmmpptqaaaaaaaaaaaaaa",
"aaaaanbbbbbbbbhcueeeeeeeeeeeeeeeeillllllllllmmmmmmppffaaaaaaaaaa",
"aaaaakbbnnbbhheeeeeeeeeeeeeeeeeeeilllllllllmmmmmmmmmflfaaaaaaaaa",
"aaaaavaaaahhuweeeeeeeeeeeeeeeeeeeiellllllllmmmmmmmmmmlkaaaaaaaaa",
"aaaaaaaaaaaaooeeeeeeeeeeeeeeeeeeeieellllllllmmmmmmmmkkccaaaaaaaa",
"aaaaaaaaaaaahciieeeeeeeeeeeeeeeeeijeelllllllmmmmmmkiccxxxaaaaaaa",
"aaaaaaaaaaannncciieeeeeeeeeeeeeeeieeeellllllmmmmiiccxxxxxaaaaaaa",
"aaaaaaaaaaannnnncciieeeeeeeeeeeeeieeeelllllmllmyhhxxxxxxxuaaaaaa",
"aaaaaaaaaannnnnnnncciieeeeeeeeeeeieeeeelllllliyhxxxxxxxxxxaaaaaa",
"aaaaaaaaaannnnnnnnnnccyyeeeeeeeeeieeeeellllyyggxxxxxxxxxxxxaaaaa",
"aaaaaaaaannnnnnnnnnnnnccyyeeeeeeiieeeeeelyyggxzAxxxxxxxxxxxxaaaa",
"aaaaaaaannnnnnnnnnnnnnBBcciieeeeiiieeeeyyhhxxxxxxxxxxxxxxxxxxaaa",
"aaaaaaaannnnnnnnnnnnnnBBnncciieiiiiieiyhhxxxxxxxxxxxxxxxxxxzaaaa",
"aaaaaaaunnnnnnnnnnnnnnBBnnnncciiiiiiyhhxxxxxxxxxxxxxxxxxxBaaaaaa",
"aaaaaaaxnnnnnnnnnnnnnnBBnnnnnnccgkihgxxxxxxxxxxxxxxxxxxuaaaaaaaa",
"aaaaaaaaannnnnnnnnnnnnnnnnnnnnnnnooexxxxxxxxxxxxxxxxxlBaaaaaaaaa",
"aaaaaaaaaaaCnnnnnnnnnnnnnnnnnnnnnoeaxxxxxxxxxxxxxDxBBaaaaaaaaaaa",
"aaaaaaaaaaaaaBlnnnnnnnnnnnnnnnnnabeeahxxxxxxxxxxxDxaaeeaaaaaaaaa",
"aaaaaaaaaaaaBaaBnnnnnnnnnnnnnnnnabeeahxxxxxxxxxxxaaeeeeaaaaaaaaa",
"aaaaaaaaaaaaBBlaaBnnEEnnnnnnnnnamqemeahxxxxxxxxxaeeeeeeaaaaaaaaa",
"aaaaaaaaaaaaBBBllaaDBnnnnnnnnbbamqelezahxxxxxxaaeeelFeeaaaaaaaaa",
"aaaaaaaaaaaaanBlBllaaBnnnnnnnbammqjleeahxxxxaaeeellllwwaaaaaaaaa",
"aaaaaaaaaaaaauuuBllllaannnnnnnGluqjlleeaxxaaeeeellllwwFaaaaaaaaa",
"aaaaaaaaaaaaaluuuuullllaaEnnnGBuuqjlllejaaeeeelllllwFFFaaaaaaaaa",
"aaaaaaaaaaaaaBBBuuuulllllaannGBuuqjlllejjejellllllwllFmaaaaaaaaa",
"aaaaaaaaaaaaluuBBuuuuullBBBaaBBuuqjlllljjjllllllllllFFFaaaaaaaaa",
"aaaaaaaaaaaauuuuBBuuuuuuBBBBBBuuugeBllljllllwllllllllFFaaaaaaaaa",
"aaaaaaaaaaaauuuuuuBBuuuuuuBBBBuuugellllllllwwlllllllllwaaaaaaaaa",
"aaaaaaaaaaaauuuuuuuuuuuuuuuuuuuuxiBllllllllwBllllllljwaaaaaaaaaa",
"aaaaaaaaaaaaBBuuuuuuuuuuuuuuuuuBxojllllllllwBlllllljaaaaaaaaaaaa",
"aaaaaaaaaaaaaaaCuuuuuuuuuuuuuuuuuzowBllllllwBlllejaaaaaaaaaaaaaa",
"aaaaaaaaaaaaaaaaaaxuuuuuuuuuuuzzzzeBBllllllelleeaaaaaaaaaaaaaaaa",
"aaaaaaaaaaaaaaaaaaaamxuxuuuuuuuuugjBBlllllljeeaaaaaaaaaaaaaaaaaa",
"aaaaaaaaaaaaaaaaaaaaaaBxuuuuuuuuugeBBllllleeaaaaaaaaaaaaaaaaaaaa",
"aaaaaaaaaaaaaaaaaaaaaaaaxxuuuuuuugeBBlllleeaaaaaaaaaaaaaaaaaaaaa",
"aaaaaaaaaaaaaaaaaaaaaaaaaaxxxuuuugeBBllllaaaaaaaaaaaaaaaaaaaaaaa",
"aaaaaaaaaaaaaaaaaaaaaaaaaaaajzuuugeBBllaaaaaaaaaaaaaaaaaaaaaaaaa",
"aaaaaaaaaaaaaaaaaaaaaaaaaaaaaazuuhzBBaaaaaaaaaaaaaaaaaaaaaaaaaaa",
"aaaaaaaaaaaaaaaaaaaaaaaaaaaaaaaaaBlaaaaaaaaaaaaaaaaaaaaaaaaaaaaa",
"aaaaaaaaaaaaaaaaaaaaaaaaaaaaaaaaaaaaaaaaaaaaaaaaaaaaaaaaaaaaaaaa",
"aaaaaaaaaaaaaaaaaaaaaaaaaaaaaaaaaaaaaaaaaaaaaaaaaaaaaaaaaaaaaaaa",
"aaaaaaaaaaaaaaaaaaaaaaaaaaaaaaaaaaaaaaaaaaaaaaaaaaaaaaaaaaaaaaaa",
"aaaaaaaaaaaaaaaaaaaaaaaaaaaaaaaaaaaaaaaaaaaaaaaaaaaaaaaaaaaaaaaa",
"aaaaaaaaaaaaaaaaaaaaaaaaaaaaaaaaaaaaaaaaaaaaaaaaaaaaaaaaaaaaaaaa",
"aaaaaaaaaaaaaaaaaaaaaaaaaaaaaaaaaaaaaaaaaaaaaaaaaaaaaaaaaaaaaaaa",
"aaaaaaaaaaaaaaaaaaaaaaaaaaaaaaaaaaaaaaaaaaaaaaaaaaaaaaaaaaaaaaaa"
};

