/* XPM */
static char * item_4_1_xpm[] = {
"64 64 15 1",
"a c #FF00FF",
"b c #605E60",
"c c #656362",
"d c #363B47",
"e c #3E414C",
"f c #38493D",
"g c #33353F",
"h c #2F2F37",
"i c #484E58",
"j c #434853",
"k c #4F525D",
"l c #788088",
"m c #6F6D67",
"n c #817E80",
"o c #717781",
"aaaaaaaaaaaaaaaaaaaaaaaaaaaaaaaaaaaaaaaaaaaaaaaaaaaaaaaaaaaaaaaa",
"aaaaaaaaaaaaaaaaaaaaaaaaaaaaaaaaaaaaaaaaaaaaaaaaaaaaaaaaaaaaaaaa",
"aaaaaaaaaaaaaaaaaaaaaaaaaaaaaaaaaaaaaaaaaaaaaaaaaaaaaaaaaaaaaaaa",
"aaaaaaaaaaaaaaaaaaaaaaaaaaaaaaaaaaaaaaaaaaaaaaaaaaaaaaaaaaaaaaaa",
"aaaaaaaaaaaaaaaaaaaaaaaaaaaaaaaaaaaaaaaaaaaaaaaaaaaaaaaaaaaaaaaa",
"aaaaaaaaaaaaaaaaaaaaaaaaaaaaaaaaaaaaaaaaaaaaaaaaaaaaaaaaaaaaaaaa",
"aaaaaaaaaaaaaaaaaaaaaaaaaaaaaaaaaaaaaaaaaaaaaaaaaaaaaaaaaaaaaaaa",
"aaaaaaaaaaaaaaaaaaaaaaaaaaaaaaaaaaaaaaaaaaaaaaaaaaaaaaaaaaaaaaaa",
"aaaaaaaaaaaaaaaaaaaaaaaaaaaaaaaaaaaaaaaaaaaaaaaaaaaaaaaaaaaaaaaa",
"aaaaaaaaaaaaaaaaaaaaaaaaaaaaaaaaaaaaaaaaaaaaaaaaaaaaaaaaaaaaaaaa",
"aaaaaaaaaaaaaaaaaaaaaaaaaaaaaaaaaaaaaaaaaaaaaaaaaaaaaaaaaaaaaaaa",
"aaaaaaaaaaaaaaaaaaaaaaaaaaabbbbbbbbbbcbaaaaaaaaaaaaaaaaaaaaaaaaa",
"aaaaaaaaaaaaaaaaaaaaaaaabbbbbbbbbbbbbcccccaaaaaaaaaaaaaaaaaaaaaa",
"aaaaaaaaaaaaaaaaaaaaabbbbbbbcddebbddfccccccccaaaaaaaaaaaaaaaaaaa",
"aaaaaaaaaaaaaaaaaaabbbbbbggbcaaabbaaacbhhbcccccaaaaaaaaaaaaaaaaa",
"aaaaaaaaaaaaaaaaabbbbcbggaaccaaabbaaaccaahhccbbcbaaaaaaaaaaaaaaa",
"aaaaaaaaaaaaaaaabbbbeecaaaaccaaabbaaaccaaaabecbcccaaaaaaaaaaaaaa",
"aaaaaaaaaaaaaaabbbbeaccaaaaccaaabcaaaccaaaabcaiccccaaaaaaaaaaaaa",
"aaaaaaaaaaaaaabbbceaaccaaaaccaaabcaaaccaaaabcaacccccaaaaaaaaaaaa",
"aaaaaaaaaaaaabbcbcaaaccaaaaccaaaccaaaccaaaabcaaacccccaaaaaaaaaaa",
"aaaaaaaaaaaabccbgccccccccccccccccccccccccccccccccacccbaaaaaaaaaa",
"aaaaaaaaaaaabccgbcccccccccccccccccccccccccccccccccjcccaaaaaaaaaa",
"aaaaaaaaaaaccccabcaaaccaaaaccaaaccaaaccaaaaccaaaccakcccaaaaaaaaa",
"aaaaaaaaaaabccaabcaaaccaaaaccaaaccaaaccaaaaccaaaccaacccaaaaaaaaa",
"aaaaaaaaaaccccaaccaaaccaaaaccaaaccaaaccaaaaccaaaccaaccccaaaaaaaa",
"aaaaaaaaaacccebbccccccccccccccccccccccccccccccccccccecccaaaaaaaa",
"aaaaaaaaaaccbbbbccccccccccccccccccbcccccccccccccccccecccaaaaaaaa",
"aaaaaaaaaccckaaaccaaaccaaaaccaaaccaaaccaaaaccaaaccaaaecccaaaaaaa",
"aaaaaaaaacccaaaabcaaaccaaaaccaaaccaaabcaaaaccaaaccaaaacccaaaaaaa",
"aaaaaaaaacccaaaaccaaaccaaaaccaaaccaaaccaaaaccaaaccaaaacccaaaaaaa",
"aaaaaaaaacccaaaaccaaaccaaaaccaaaccaaaccaaaaccaaaccaaaacccaaaaaaa",
"aaaaaaaaaccccccccccccccccccccccccccccccccccccccccccccccccaaaaaaa",
"aaaaaaaaaccccccccccccccccccccccccccccccccccccccccccccccccaaaaaaa",
"aaaaaaaaacccaaaaccaaaccaaaaccaaaccaaaccaaaaccaaaccaaaacccaaaaaaa",
"aaaaaaaaacccaaaaccaaaccaaaaccaaaccaaaccaaaaccaaaccaaaacccaaaaaaa",
"aaaaaaaaaccbaaaaccaaaccaaaaccaaaccaaaccaaaaccaaaccaaaacccaaaaaaa",
"aaaaaaaaagcbbaaaccaaaccaaaaccaaaccaaaccaaaaccaaaccaaacccfaaaaaaa",
"aaaaaaaaaglbbbbbccbbbcccccccccccccbbccccccccccbcccccccmcdaaaaaaa",
"aaaaaaaaagnbbeddccgggcceeeeccgggccggdcceeeeccgggccgggmmcdaaaaaaa",
"aaaaaaaaaagnbbaabbaaabbaaaaccaaaccaaaccaaaaccaaaccaacmcdaaaaaaaa",
"aaaaaaaaaahnbbaabcaaabbaaaaccaaaccaaaccaaaaccaaaccaacmcdaaaaaaaa",
"aaaaaaaaaahgnbbabbaaabbaaaaccaaaccaaaccaaaaccaaaccaccmddaaaaaaaa",
"aaaaaaaaaaagnbbbbbbbbbbcccccccccccccccccccccccccccccmcdaaaaaaaaa",
"aaaaaaaaaaaggnbbgbbbbccccccccccccccccccccccccccccgcccddaaaaaaaaa",
"aaaaaaaaaaaaghnbbbaaabbaaaaccaaaccaaaccaaaaccaaacccnddaaaaaaaaaa",
"aaaaaaaaaaaahggnbbbaabbaaaaccaaaccaaaccaaaabcaabbcndddaaaaaaaaaa",
"aaaaaaaaaaaaahggnbbbabbaaaaccaaaccaaaccaaaabbabbbngdgaaaaaaaaaaa",
"aaaaaaaaaaaaaahggnbbbbbaaaaccaaaccaaaccaaaabbbbbngggaaaaaaaaaaaa",
"aaaaaaaaaaaaaaagggnbbbbbbaaccaaaccaaabbaaabbbbbogggaaaaaaaaaaaaa",
"aaaaaaaaaaaaaaaagggnnbbbbbcccaaaccaaabbbbbbbboogggaaaaaaaaaaaaaa",
"aaaaaaaaaaaaaaaaaahhgnnnbccccccccccbbbbbbboonggggaaaaaaaaaaaaaaa",
"aaaaaaaaaaaaaaaaaaahggggnnnccccccccbbbbnnngggghaaaaaaaaaaaaaaaaa",
"aaaaaaaaaaaaaaaaaaaaaggggggnnnnnnnnnnnnggggghaaaaaaaaaaaaaaaaaaa",
"aaaaaaaaaaaaaaaaaaaaaaaaggggggghhhhgggggghaaaaaaaaaaaaaaaaaaaaaa",
"aaaaaaaaaaaaaaaaaaaaaaaaaaaggggggggggghaaaaaaaaaaaaaaaaaaaaaaaaa",
"aaaaaaaaaaaaaaaaaaaaaaaaaaaaaaaaaaaaaaaaaaaaaaaaaaaaaaaaaaaaaaaa",
"aaaaaaaaaaaaaaaaaaaaaaaaaaaaaaaaaaaaaaaaaaaaaaaaaaaaaaaaaaaaaaaa",
"aaaaaaaaaaaaaaaaaaaaaaaaaaaaaaaaaaaaaaaaaaaaaaaaaaaaaaaaaaaaaaaa",
"aaaaaaaaaaaaaaaaaaaaaaaaaaaaaaaaaaaaaaaaaaaaaaaaaaaaaaaaaaaaaaaa",
"aaaaaaaaaaaaaaaaaaaaaaaaaaaaaaaaaaaaaaaaaaaaaaaaaaaaaaaaaaaaaaaa",
"aaaaaaaaaaaaaaaaaaaaaaaaaaaaaaaaaaaaaaaaaaaaaaaaaaaaaaaaaaaaaaaa",
"aaaaaaaaaaaaaaaaaaaaaaaaaaaaaaaaaaaaaaaaaaaaaaaaaaaaaaaaaaaaaaaa",
"aaaaaaaaaaaaaaaaaaaaaaaaaaaaaaaaaaaaaaaaaaaaaaaaaaaaaaaaaaaaaaaa",
"aaaaaaaaaaaaaaaaaaaaaaaaaaaaaaaaaaaaaaaaaaaaaaaaaaaaaaaaaaaaaaaa"
};

