/* XPM */
static char * item_3_1_xpm[] = {
"64 64 20 1",
"a c #FF00FF",
"b c #605E60",
"c c #656362",
"d c #2F2F37",
"e c #262933",
"f c #1E232C",
"g c #3E414C",
"h c #33353F",
"i c #4F525D",
"j c #363B47",
"k c #817E80",
"l c #6F6D67",
"m c #6C727D",
"n c #38493D",
"o c #292E3C",
"p c #5F6771",
"q c #555A66",
"r c #8F7F7D",
"s c #484E58",
"t c #838991",
"aaaaaaaaaaaaaaaaaaaaaaaaaaaaaaaaaaaaaaaaaaaaaaaaaaaaaaaaaaaaaaaa",
"aaaaaaaaaaaaaaaaaaaaaaaaaaaaaaaaaaaaaaaaaaaaaaaaaaaaaaaaaaaaaaaa",
"aaaaaaaaaaaaaaaaaaaaaaaaaaaaaaaaaaaaaaaaaaaaaaaaaaaaaaaaaaaaaaaa",
"aaaaaaaaaaaaaaaaaaaaaaaaaaaaaaaaaaaaaaaaaaaaaaaaaaaaaaaaaaaaaaaa",
"aaaaaaaaaaaaaaaaaaaaaaaaaaaaaaaaaaaaaaaaaaaaaaaaaaaaaaaaaaaaaaaa",
"aaaaaaaaaaaaaaaaaaaaaaaaaaaaaaaaaaaaaaaaaaaaaaaaaaaaaaaaaaaaaaaa",
"aaaaaaaaaaaaaaaaaaaaaaaaaaaaaaaaaaaaaaaaaaaaaaaaaaaaaaaaaaaaaaaa",
"aaaaaaaaaaaaaaaaaaaaaaaaaaaaaaaaaaaaaaaaaaaaaaaaaaaaaaaaaaaaaaaa",
"aaaaaaaaaaaaaaaaaaaaaaaaaaaaaaaaaaaaaaaaaaaaaaaaaaaaaaaaaaaaaaaa",
"aaaaaaaaaaaaaaaaaaaaaaaaaaaaaaaaaaaaaaaaaaaaaaaaaaaaaaaaaaaaaaaa",
"aaaaaaaaaaaaaaaaaaaaaaaaaaaaaaaaaaaaaaaaaaaaaaaaaaaaaaaaaaaaaaaa",
"aaaaaaaaaaaaaaaaaaaaaaaaaaaaaaaaaaaaaaaaaaaaaaaaaaaaaaaaaaaaaaaa",
"aaaaaaaaaaaaaaaaaaaaaaaaaaaaaaaaaaaaaaaaaaaaaaaaaaaaaaaaaaaaaaaa",
"aaaaaaaaaaaaaaaaaaaaaaaaaabbbbbbbbbbbbbaaaaaaaaaaaaaaaaaaaaaaaaa",
"aaaaaaaaaaaaaaaaaaaaaaaccbbbbbbbbbbbbbbbcbaaaaaaaaaaaaaaaaaaaaaa",
"aaaaaaaaaaaaaaaaaaaacccccbdeddeeeeeeefgbbbcccaaaaaaaaaaaaaaaaaaa",
"aaaaaaaaaaaaaaaaaacccccddddbbbbbbbbbbbeefhbccccaaaaaaaaaaaaaaaaa",
"aaaaaaaaaaaaaaaaaccccedbbbbbbdddbbhabbbbbbddccccaaaaaaaaaaaaaaaa",
"aaaaaaaaaaaaaaacccceebbbeeebbaaabbaaabdddbbbeeccccaaaaaaaaaaaaaa",
"aaaaaaaaaaaaaaccceebbbeaaaabaaaabbaaabdaaeebbbeecccaaaaaaaaaaaaa",
"aaaaaaaaaaaaaccceibbbbbbbbbbcbbbcbbbbbcbbbbbbbbhecccaaaaaaaaaaaa",
"aaaaaaaaaaaacccdbbhhhhbddddccdddcceeeccdhdhbjhhbbecckaaaaaaaaaaa",
"aaaaaaaaaaacccdbbhaaaabcaaaccaaaccaaaccaaaabbaajbcecckaaaaaaaaaa",
"aaaaaaaaaaaccddbbaaaaabcaaaccaaaccaaaccaaaabbaaabbfeccaaaaaaaaaa",
"aaaaaaaaaacccdbbbbbbbbbccbccccccccccccccccbbbbbbbbbecccaaaaaaaaa",
"aaaaaaaaaaccdbbbbbbbbbbcbbbccbbbcccccccccbbbbbbbbbbbdccaaaaaaaaa",
"aaaaaaaaacccdbdeebddeebbddhbcdddcchhhccdddabdeeebddbhcccaaaaaaaa",
"aaaaaaaaaccdbbaaabaaaaccaaaccaaaccaaaccaaaabaaaabaacbhccaaaaaaaa",
"aaaaaaaaacbdbbggibiieebbaaabcaaaccaaaccaaadbbbbbbhhbbhccaaaaaaaa",
"aaaaaaaacchbbbbbbbbbbbbbbcccbbbbccbbbccbbbbcbbbbbbbbbbjclaaaaaaa",
"aaaaaaaacchbbdddbddddbhdddbjjhhbcbdddddbhhhhbddddbeebbhccaaaaaaa",
"aaaaaaaacchbbaaabaaaabhaaabaaaabbbdaaaabaaaacaaaabaabbhccaaaaaaa",
"aaaaaaaacchbbaaabaaaabdaaabaaaabbbdaaaabaaaabaaaabaabbhccaaaaaaa",
"aaaaaaaacchbbbbbbbbbbbbbbbbbbbbbbbbbbbbbbbbccbbbbbbbbbdccaaaaaaa",
"aaaaaaaaccchbddddbddddbbhhhhhhhhbbddddbddddbghhhbdddbdcccaaaaaaa",
"aaaaaaaacccdbbaaabaaaabbaaaacaaabbaaadbaaaabbaaabaabbecccaaaaaaa",
"aaaaaaaahccdbbaaabaaaabbaaaacaaabbaaadbaaaabbaaabaabbdbmnaaaaaaa",
"aaaaaaaahccbdbbbbbbbbbbbbcccccbbbbbbbbbbbbbbbbbbbbbbdbbmhaaaaaaa",
"aaaaaaaahccbobbbbbbbbbbbbbbbcbbbbbbbbbbbbbbcbbbbbbbbdbllhaaaaaaa",
"aaaaaaaaajcbbebddddddbbddeebbdddbbgaabbddaabdddddbbeplljaaaaaaaa",
"aaaaaaaaahhbbebbbaaaabbaaaabbaaabcaaabbaaaabcaaacbbelljhaaaaaaaa",
"aaaaaaaaaahbbbdbbbaaabbaaaabbaaabcaaabbaaaabbaaicbeplphaaaaaaaaa",
"aaaaaaaaaahdkbbdbbbbbbbbbbbbbbbcccbbbbbbbbbbbbbbbeccchhaaaaaaaaa",
"aaaaaaaaaaaddkbbdbbbdddddddbddddcchhdabdddhhhbbbeccchhaaaaaaaaaa",
"aaaaaaaaaaadhokbbeebbbdeaaabaaaaccaaaabaaadbbbeebccdhdaaaaaaaaaa",
"aaaaaaaaaaaaohokbbbeebbbbaabaaaaccaaaababbbbeebbbkdddaaaaaaaaaaa",
"aaaaaaaaaaaaaohdkkbbbeebbbbbbhhhcchhbbbqbbeebbbbkdhdaaaaaaaaaaaa",
"aaaaaaaaaaaaaaohhkbbbbbeeeebbbbbbbbbbbddeebbbbkkdhdaaaaaaaaaaaaa",
"aaaaaaaaaaaaaaadddbrbbbbbbbeeeddddddddbbbbbbbkidhdaaaaaaaaaaaaaa",
"aaaaaaaaaaaaaaaadooeskkbbbbbbbbbbbbbbbbbbbkkkhdddaaaaaaaaaaaaaaa",
"aaaaaaaaaaaaaaaaaaoddeekkkkbbbbbbbbbbbttttohdddaaaaaaaaaaaaaaaaa",
"aaaaaaaaaaaaaaaaaaaooodooootttttttttttooohhhddaaaaaaaaaaaaaaaaaa",
"aaaaaaaaaaaaaaaaaaaaaaoooodhhhhhhhooooddddhaaaaaaaaaaaaaaaaaaaaa",
"aaaaaaaaaaaaaaaaaaaaaaaaaahhhhhhhhhhdddaaaaaaaaaaaaaaaaaaaaaaaaa",
"aaaaaaaaaaaaaaaaaaaaaaaaaaaaaaaaaaaaaaaaaaaaaaaaaaaaaaaaaaaaaaaa",
"aaaaaaaaaaaaaaaaaaaaaaaaaaaaaaaaaaaaaaaaaaaaaaaaaaaaaaaaaaaaaaaa",
"aaaaaaaaaaaaaaaaaaaaaaaaaaaaaaaaaaaaaaaaaaaaaaaaaaaaaaaaaaaaaaaa",
"aaaaaaaaaaaaaaaaaaaaaaaaaaaaaaaaaaaaaaaaaaaaaaaaaaaaaaaaaaaaaaaa",
"aaaaaaaaaaaaaaaaaaaaaaaaaaaaaaaaaaaaaaaaaaaaaaaaaaaaaaaaaaaaaaaa",
"aaaaaaaaaaaaaaaaaaaaaaaaaaaaaaaaaaaaaaaaaaaaaaaaaaaaaaaaaaaaaaaa",
"aaaaaaaaaaaaaaaaaaaaaaaaaaaaaaaaaaaaaaaaaaaaaaaaaaaaaaaaaaaaaaaa",
"aaaaaaaaaaaaaaaaaaaaaaaaaaaaaaaaaaaaaaaaaaaaaaaaaaaaaaaaaaaaaaaa",
"aaaaaaaaaaaaaaaaaaaaaaaaaaaaaaaaaaaaaaaaaaaaaaaaaaaaaaaaaaaaaaaa",
"aaaaaaaaaaaaaaaaaaaaaaaaaaaaaaaaaaaaaaaaaaaaaaaaaaaaaaaaaaaaaaaa"
};


