/* XPM */
static char * item_4_3_xpm[] = {
"64 64 23 1",
"a c #FF00FF",
"b c #ABB2B5",
"c c #ADB0BE",
"d c #717781",
"e c #A4ACB3",
"f c #B1B8BB",
"g c #788088",
"h c #8B8F99",
"i c #5F6771",
"j c #B9BFC1",
"k c #C0BFBD",
"l c #434853",
"m c #90949D",
"n c #838991",
"o c #6C727D",
"p c #555A66",
"q c #B6BCC6",
"r c #484E58",
"s c #4F525D",
"t c #969FA4",
"u c #3E414C",
"v c #9BA4AC",
"w c #989292",
"aaaaaaaaaaaaaaaaaaaaaaaaaaaaaaaaaaaaaaaaaaaaaaaaaaaaaaaaaaaaaaaa",
"aaaaaaaaaaaaaaaaaaaaaaaaaaaaaaaaaaaaaaaaaaaaaaaaaaaaaaaaaaaaaaaa",
"aaaaaaaaaaaaaaaaaaaaaaaaaaaaaaaaaaaaaaaaaaaaaaaaaaaaaaaaaaaaaaaa",
"aaaaaaaaaaaaaaaaaaaaaaaaaaaaaaaaaaaaaaaaaaaaaaaaaaaaaaaaaaaaaaaa",
"aaaaaaaaaaaaaaaaaaaaaaaaaaaaaaaaaaaaaaaaaaaaaaaaaaaaaaaaaaaaaaaa",
"aaaaaaaaaaaaaaaaaaaaaaaaaaaaaaaaaaaaaaaaaaaaaaaaaaaaaaaaaaaaaaaa",
"aaaaaaaaaaaaaaaaaaaaaaaaaaaaaaaaaaaaaaaaaaaaaaaaaaaaaaaaaaaaaaaa",
"aaaaaaaaaaaaaaaaaaaaaaaaaaaaaaaaaabbbccddaaaaaaaaaaaaaaaaaaaaaaa",
"aaaaaaaaaaaaaaaaaaaaaaaaaaaaaaaaaeebcfdgggaaaaaaaaaaaaaaaaaaaaaa",
"aaaaaaaaaaaaaaaaaaaaaaaaaaaaaaaabehhhcfgggaaaaaaaaaaaaaaaaaaaaaa",
"aaaaaaaaaaaaaaaaaaaaaaaaaaaaaaaebhhhhhfgggiaaaaaaaaaaaaaaaaaaaaa",
"aaaaaaaaaaaaaaaaaaaaaaaaaaaaaaahhhhhhhhjggiiaaaaaaaaaaaaaaaaaaaa",
"aaaaaaaaaaaaaaaaaaaaaaaaaaaaaakhhhhhhhhfggiilaaaaaaaaaaaaaaaaaaa",
"aaaaaaaaaaaaaaaaaaaaaaaaaaaaakhhhhhhhhhhggillaaaaaaaaaaaaaaaaaaa",
"aaaaaaaaaaaaaaaaaaaaaaaaaaaahhhhhhhhhhhhfgllllaaaaaaaaaaaaaaaaaa",
"aaaaaaaaaaaaaaaaaaaaaaaaaaaihhhhhhhhhhhmfgllllaaaaaaaaaaaaaaaaaa",
"aaaaaaaaaaaaaaaaaaaaaaaaaaaihhhhhhhhhhhhmhllllaaaaaaaaaaaaaaaaaa",
"aaaaaaaaaaaaaaaaaaaaaaaaaiiihhhhhhhhhhhhmmlllllaaaaaaaaaaaaaaaaa",
"aaaaaaaaaaaaaaaaaaaahhhhhhhiihhhhhhhhhhmmhlllllaaaaaaaaaaaaaaaaa",
"aaaaaaaaaaaaaaaaannhhhhhhhhhiihhhhhhhhhmmhllllllaaaaaaaaaaaaaaaa",
"aaaaaaaaaaaaaaaoocchhhhhhhhhhhphhhhhhhhmmclllllllaaaaaaaaaaaaaaa",
"aaaaaaaaaaaaaaaoooocqhhhhhhhhhhrohhhhhmmmhlllllllaaaaaaaaaaaaaaa",
"aaaaaaaaaaaaaaoooooooqqhhhhhhhhhhoohhhmmhhlllllllraaaaaaaaaaaaaa",
"aaaaaaaaaaaaaaoooooooooqqhhhhhhhhhhooohmqlllllllllaaaaaaaaaaaaaa",
"aaaaaaaaaaaaaaoooooooooooqqqhhhhhhhhhhooqllllllllrsaaaaaaaaaaaaa",
"aaaaaaaaaaaaaoooooooooooooooqqqqhchhhhhhlllllllihhppaaaaaaaaaaaa",
"aaaaaaaaaaaaaooooooooooooooooooohcccbehhlllllliiihmmggaaaaaaaaaa",
"aaaaaaaaaaaaoooooooooooooooooooooooooeehlllllihmmmmmggtaaaaaaaaa",
"aaaaaaaaaaahhhhhooooooooooooooooooooooeellllimhmmmmmgttaaaaaaaaa",
"aaaaaaaaaaahhhhhhhoooooooooooooooooooooelllohmmmmmmmmttaaaaaaaaa",
"aaaaaaaaaaohqhhhhhhhoooooooooooooooooooellommmmmmmmmcdlraaaaaaaa",
"aaaaaaaaaaooqhhhhhhhhhhoooooooooooooooolllhmmmmmmmmclrrlaaaaaaaa",
"aaaaaaaaaooojjhhhhhhhhhhhoooooooohhooorlliimmmmmmmclllrrraaaaaaa",
"aaaaaaaaaoooookhhhhhhhhhhhhooooohhhhhoollliiqqmmmcllllrrraaaaaaa",
"aaaaaaaaaooooookhhmhhhhhhhiohhhhhhhhhhhrrlllllqqqlllllrrraaaaaaa",
"aaaaaaaaaooooooohqqmhhhhppihhhhhhhhhhhhhodllllllldrlllrrrraaaaaa",
"aaaaaaaarooooooooooqqqhuphhhhhhhhhhhedddddllllllldrlllrrrraaaaaa",
"aaaaaaaarooooooooodddquuqmhhhhhhhhhhmddddddlllllllglrlrrrraaaaaa",
"aaaaaaaasooooooooodddouuqhhhhhhhmhmfddddddddllllllrgllrrrraaaaaa",
"aaaaaaaarroooooooodddouorqqqhmhmmmfdddddddddlllllllglrrrrraaaaaa",
"aaaaaaaaarrooooooddddoloooooqqqqqqtdddddddddlllllllgrlrrrraaaaaa",
"aaaaaaaaaarrsoooodddolloooooooodvvdddddddddddllllllldlrrraaaaaaa",
"aaaaaaaaaarsssoddddlolooooooooodvvdddddddddddlllllllddrrraaaaaaa",
"aaaaaaaaaaassssdddlllloooooooooddeddddddddddddllllllldrllaaaaaaa",
"aaaaaaaaaaassssssrlllloooooooooddeddddddddddddllllllldllaaaaaaaa",
"aaaaaaaaaaaasssssslllloooooooodddeddddddppldddllllllllllaaaaaaaa",
"aaaaaaaaaaaaasssssllllooooooooooddbdddddllldddlllllllllaaaaaaaaa",
"aaaaaaaaaaaaaaasssplllloooooooooddbpddppllllddlllllllaaaaaaaaaaa",
"aaaaaaaaaaaaaaaassplllloooooooooddbppppplllldddlllllaaaaaaaaaaaa",
"aaaaaaaaaaaaaaaaaplllllooooooooooolpppppllllldllllaaaaaaaaaaaaaa",
"aaaaaaaaaaaaaaaaaaaaaaaloooooooooollpppplllllollaaaaaaaaaaaaaaaa",
"aaaaaaaaaaaaaaaaaaaaaaaaaooooooooolllppplllrlllaaaaaahmtoaaaaaaa",
"aaaaaaaaaaaaaaaaaaaaaaaaaaaoooooolllllppllrrlaaaaaaahmmmosaaaaaa",
"aaaaaaaaaaaaaaaaaaaaaaaaaaaaaoooolllllllllaaaaaaaaamwmbsssaaaaaa",
"aaaaaaaaaaaaaaaaaaaaaaaaaaaaaaaoollllllaaaaaaaaaaaarrmssssaaaaaa",
"aaaaaaaaaaaaaaaaaaaaaaaaaaaaaaaaaaaaaaaaaaaaaaaaaaarsssssaaaaaaa",
"aaaaaaaaaaaaaaaaaaaaaaaaaaaaaaaaaaaaaaaaaaaaaaaaaaaaaaaaaaaaaaaa",
"aaaaaaaaaaaaaaaaaaaaaaaaaaaaaaaaaaaaaaaaaaaaaaaaaaaaaaaaaaaaaaaa",
"aaaaaaaaaaaaaaaaaaaaaaaaaaaaaaaaaaaaaaaaaaaaaaaaaaaaaaaaaaaaaaaa",
"aaaaaaaaaaaaaaaaaaaaaaaaaaaaaaaaaaaaaaaaaaaaaaaaaaaaaaaaaaaaaaaa",
"aaaaaaaaaaaaaaaaaaaaaaaaaaaaaaaaaaaaaaaaaaaaaaaaaaaaaaaaaaaaaaaa",
"aaaaaaaaaaaaaaaaaaaaaaaaaaaaaaaaaaaaaaaaaaaaaaaaaaaaaaaaaaaaaaaa",
"aaaaaaaaaaaaaaaaaaaaaaaaaaaaaaaaaaaaaaaaaaaaaaaaaaaaaaaaaaaaaaaa",
"aaaaaaaaaaaaaaaaaaaaaaaaaaaaaaaaaaaaaaaaaaaaaaaaaaaaaaaaaaaaaaaa"
};

