/* XPM */
static char * item_2_4_xpm[] = {
"64 64 19 1",
"a c #FF00FF",
"b c #C67951",
"c c #743E2C",
"d c #BF7353",
"e c #8E392D",
"f c #784034",
"g c #A1573B",
"h c #A85D41",
"i c #965241",
"j c #B4694C",
"k c #E1956D",
"l c #E8A572",
"m c #4A3125",
"n c #D58A67",
"o c #622826",
"p c #D47057",
"q c #9E7553",
"r c #583D2D",
"s c #8F7F7D",
"aaaaaaaaaaaaaaaaaaaaaaaaaaaaaaaaaaaaaaaaaaaaaaaaaaaaaaaaaaaaaaaa",
"aaaaaaaaaaaaaaaaaaaaaaaaaaaaaaaaaaaaaaaaaaaaaaaaaaaaaaaaaaaaaaaa",
"aaaaaaaaaaaaaaaaaaaaaaaaaaaaaaaaaaaaaaaaaaaaaaaaaaaaaaaaaaaaaaaa",
"aaaaaaaaaaaaaaaaaaaaaaaaaaaaaaaaaaaaaaaaaaaaaaaaaaaaaaaaaaaaaaaa",
"aaaaaaaaaaaaaaaaaaaaaaaaaaaaaaaaaaaaaaaaaaaaaaaaaaaaaaaaaaaaaaaa",
"aaaaaaaaaaaaaaaaaaaaaaaaaaaaaaaaaaaaaaaaaaaaaaaaaaaaaaaaaaaaaaaa",
"aaaaaaaaaaaaaaaaaaaaaaaaaaaaaaaaaaaaaaaaaaaaaaaaaaaaaaaaaaaaaaaa",
"aaaaaaaaaaaaaaaaaaaaaaaaaaaaaaaaaaaaaaaaaaaaaaaaaaaaaaaaaaaaaaaa",
"aaaaaaaaaaaaaaaaaaaaaaaaaaaaaaaaaaaaaaaaaaaaaaaaaaaaaaaaaaaaaaaa",
"aaaaaaaaaaaaaaaaaaaaaaaaaaaaaaaaaaaaaaaaaaaaaaaaaaaaaaaaaaaaaaaa",
"aaaaaaaaaaaaaaaaaaaaaaaaaaaaaaaaaaaaaaaaaaaaaaaaaaaaaaaaaaaaaaaa",
"aaaaaaaaaaaaaaaaaaaaaaaaaaaaaaaaaaaaaaaaaaaaaaaaaaaaaaaaaaaaaaaa",
"aaaaaaaaaaaaaaaaaaaaaaaaaaaaaaaaaaaaaaaaaaaaaaaaaaaaaaaaaaaaaaaa",
"aaaaaaaaaaaaaaaaaaaaaaaaaaaaaaaaaaaaaaaaaaaaaaaaaaaaaaaaaaaaaaaa",
"aaaaaaaaaaaaaaaaaaaaaaaaaaaaaaaaaaaaaaaaaaaaaaaaaaaaaaaaaaaaaaaa",
"aaaaaaaaaaaaaaaaaaaaaaaaaaaaaaaaaaaaaaaaaaaaaaaaaaaaaaaaaaaaaaaa",
"aaaaaaaaaaaaaaaaaaaaaaaaaaaaaaaaaaaaaaaaaaaaaaaaaaaaaaaaaaaaaaaa",
"aaaaaaaaaaaaaaaaaaaaaaaaaaaaaaaaabbbaaaaaaaaaaaaaaaaaaaaaaaaaaaa",
"aaaaaaaaaaaaaaaaaaaaaaaaaaaaaaabbbbbbbaaaaaaaaaaaaaaaaaaaaaaaaaa",
"aaaaaaaaaaaaaaaaaaaaaaaaaaaaabbbbccbbbbbaaaaaaaaaaaaaaaaaaaaaaaa",
"aaaaaaaaaaaaaaaaaaaaaaaaaaabbbbbbccccbbbbaaaaaaaaaaaaaaaaaaaaaaa",
"aaaaaaaaaaaaaaaaaaaaaaaabddbbeeebbbbbbbbbaaaaaaaaaaaaaaaaaaaaaaa",
"aaaaaaaaaaaaaaaaaaaaaabbbcbbbbeeebbbbbfffaaaaaaaaaaaaaaaaaaaaaaa",
"aaaaaaaaaaaaaaaaaaaabbbbccccbbbbbbbbfffffaaaaaaaaaaaaaaaaaaaaaaa",
"aaaaaaaaaaaaaaaaaaaagbbbbbcccbbbbbfffffffaaaaaaaaaaaaaaaaaaaaaaa",
"aaaaaaaaaaaaaaaaaaaagggbbbbbbbbbfffffffffaaaaaaaaaaaaaaaaaaaaaaa",
"aaaaaaaaaaaaaaaaaacaggghhbbbbbfffffffffffaiijaaaaaaaaaaaaaaaaaaa",
"aaaaaaaaaaaaaaaafjkaggghhhblbfffffffffffaaijjaaaaaaaaaaaaaaaaaaa",
"aaaaaaaaaaaaaaaaffkagghhhhhbffffffffffaamjjjjjaaaaaaaaaaaaaaaaaa",
"aaaaaaaaaaaaaaaafffaggghhhhbffffffffaachjjjjjjaaaaaaaaaaaaaaaaaa",
"aaaaaaaaaaaaaaaafffaagghhhhbffffffaaccgnnnnnnjaaaaaaaaaaaaaaaaaa",
"aaaaaaaaaaaaaaaafffffaahhhhhffffaacffgggggggggaaaaaaaaaaaaaaaaaa",
"aaaaaaaaaaaaaaaaffffffoahhhhffaaffcffgggggggggaaaaaaaaaaaaaaaaaa",
"aaaaaaaaaaaaaaaafffffffaaahhaaffffcccgggggggggaajddaaaaaaaaaaaaa",
"aaaaaaaaaaaaaaaaaaaafffaiiaaffffffccigggggggggacjdddddaaaaaaaaaa",
"aaaaaaaaaaaaaaadddddaaaaiiffffffffiiggggggggggaccfdddddbaaaaaaaa",
"aaaaaaaaaaaaadddffffdddaiiffffffffiigggggggggaccccddddffaaaaaaaa",
"aaaaaaaaaaabdddfffffdddcaffffffffaaaaaaaaaaaadccdddddfffaaaaaaaa",
"aaaaaaaaaaabpnddffdddcccqaaaaaaaaarccfjjfjjjdddddddfffffaaaaaaaa",
"aaaaaaaaaaagggkkddddccccjjcchjjjhaacffffhnnjdddkkfffffffaaaaaaaa",
"aaaaaaaaaaagggggkkddddddcccccjjjhfacffffhhhnnnnfffffffffaaaaaaaa",
"aaaaaaaaaaaggggggokkdbdddcccjjnnffacffffhhhhhhffffffffffaaaaaaaa",
"aaaaaaaaaaagggggggggggnnddjjjnccfcacccffhhhhhnfffffffccaaaaaaaaa",
"aaaaaaaaaaagggggggggggggnnnnncccccaaacffhhhhhnfffffffaaaaaaaaaaa",
"aaaaaaaaaaagggggggggggggggncccccccaaaaachhhhhnfffffaaaaaaaaaaaaa",
"aaaaaaaaaaaaaaggggggggggggncccccccaaaaaaaahhhhfffaaaaaaaaaaaaaaa",
"aaaaaaaaaaaaaaaaggggggggggncccccccaaaaaaaaaahhfaaaaaaaaaaaaaaaaa",
"aaaaaaaaaaaaaaaaaaggggggghncccccaaaaaaaaaaaaaaaaaaaaaaaaaaaaaaaa",
"aaaaaaaaaaaaaaaaaaaagggggggcccaaaaaaaaaaaaaaaaaaaaaaaaaaaaaaaaaa",
"aaaaaaaaaaaaaaaaaaaasaaaggfccaaaaaaaaaaaaaaaaaaaaaaaaaaaaaaaaaaa",
"aaaaaaaaaaaaaaaaaaaaaaaaaaaaaaaaaaaaaaaaaaaaaaaaaaaaaaaaaaaaaaaa",
"aaaaaaaaaaaaaaaaaaaaaaaaaaaaaaaaaaaaaaaaaaaaaaaaaaaaaaaaaaaaaaaa",
"aaaaaaaaaaaaaaaaaaaaaaaaaaaaaaaaaaaaaaaaaaaaaaaaaaaaaaaaaaaaaaaa",
"aaaaaaaaaaaaaaaaaaaaaaaaaaaaaaaaaaaaaaaaaaaaaaaaaaaaaaaaaaaaaaaa",
"aaaaaaaaaaaaaaaaaaaaaaaaaaaaaaaaaaaaaaaaaaaaaaaaaaaaaaaaaaaaaaaa",
"aaaaaaaaaaaaaaaaaaaaaaaaaaaaaaaaaaaaaaaaaaaaaaaaaaaaaaaaaaaaaaaa",
"aaaaaaaaaaaaaaaaaaaaaaaaaaaaaaaaaaaaaaaaaaaaaaaaaaaaaaaaaaaaaaaa",
"aaaaaaaaaaaaaaaaaaaaaaaaaaaaaaaaaaaaaaaaaaaaaaaaaaaaaaaaaaaaaaaa",
"aaaaaaaaaaaaaaaaaaaaaaaaaaaaaaaaaaaaaaaaaaaaaaaaaaaaaaaaaaaaaaaa",
"aaaaaaaaaaaaaaaaaaaaaaaaaaaaaaaaaaaaaaaaaaaaaaaaaaaaaaaaaaaaaaaa",
"aaaaaaaaaaaaaaaaaaaaaaaaaaaaaaaaaaaaaaaaaaaaaaaaaaaaaaaaaaaaaaaa",
"aaaaaaaaaaaaaaaaaaaaaaaaaaaaaaaaaaaaaaaaaaaaaaaaaaaaaaaaaaaaaaaa",
"aaaaaaaaaaaaaaaaaaaaaaaaaaaaaaaaaaaaaaaaaaaaaaaaaaaaaaaaaaaaaaaa",
"aaaaaaaaaaaaaaaaaaaaaaaaaaaaaaaaaaaaaaaaaaaaaaaaaaaaaaaaaaaaaaaa"
};

