/* XPM */
static char * item_4_2_xpm[] = {
"64 64 28 1",
"a c #FF00FF",
"b c #B08760",
"c c #AA845C",
"d c #CAA47D",
"e c #956D4F",
"f c #25181A",
"g c #D3AB82",
"h c #583C36",
"i c #311F1E",
"j c #7B5843",
"k c #7F5F46",
"l c #75533D",
"m c #BD936D",
"n c #C79C74",
"o c #838991",
"p c #765D4B",
"q c #4B3630",
"r c #A17A55",
"s c #83644D",
"t c #6B4D3C",
"u c #100F13",
"v c #3D271F",
"w c #3E2C29",
"x c #8C6348",
"y c #654738",
"z c #4A3125",
"A c #9E7553",
"B c #583D2D",
"aaaaaaaaaaaaaaaaaaaaaaaaaaaaaaaaaaaaaaaaaaaaaaaaaaaaaaaaaaaaaaaa",
"aaaaaaaaaaaaaaaaaaaaaaaaaaaaaaaaaaaaaaaaaaaaaaaaaaaaaaaaaaaaaaaa",
"aaaaaaaaaaaaaaaaaaaaaaaaaaaaaaaaaaaaaaaaaaaaaaaaaaaaaaaaaaaaaaaa",
"aaaaaaaaaaaaaaaaaaaaaaaaaaaaaaaaaaaaaaaaaaaaaaaaaaaaaaaaaaaaaaaa",
"aaaaaaaaaaaaaaaaaaaaaaaaaaaaaaaaaaaaaaaaaaaaaaaaaaaaaaaaaaaaaaaa",
"aaaaaaaaaaaaaaaaaaaaaaaaaaaaaaaaaaaaaaaaaaaaaaaaaaaaaaaaaaaaaaaa",
"aaaaaaaaaaaaaaaaaaaaaaaaaaaaaaaaaaaaaaaaaaaaaaaaaaaaaaaaaaaaaaaa",
"aaaaaaaaaaaaaaaaaaaaaaaaaaaaaaaaaaaaaaaaaaaaaaaaaaaaaaaaaaaaaaaa",
"aaaaaaaaaaaaaaaaaaaaaabbbbbaaaaaaaaaaaaaaaaaaaaaaaaaaaaaaaaaaaaa",
"aaaaaaaaaaaaaaaaaaaabbbbbbbbbbbcaaaaccccccccccaaaaaaaaaaaaaaaaaa",
"aaaaaaaaaaaaaaaaaabbbbbbbbbbbbddefddgcccccccccccaaaaaaaaaaaaaaaa",
"aaaaaaaaaaaaaaaabbbbbbbbbbbbbchhhijjjddcccccccccccaaaaaaaaaaaaaa",
"aaaaaaaaaaaaaabbbbbbbbbbbbddkjhhhiljjjjdddccccccccccaaaaaaaaaaaa",
"aaaaaaaaaaaabbbbbbbbbbbbmgkkhhhhhiljjjjjjdddccccccccccaaaaaaaaaa",
"aaaaaaaaaabbbbbbbbbbbbmmkkhhhhhhhiljjjjjjjjjddcccccccccccaaaaaaa",
"aaaaaaaabbbbbbbbbbbbdnkhhhhhhhhhhiljjjjjjjjjjjnnncccccccccbaaoaa",
"aaaaabbbbbbbbbbbbbddpphhhhhhhhhhhiljjjjjjjjjjjjnnnccccccccccbaaa",
"aaaabbbbbbbbbbbbddhhhhhhhhhhhhhhhiqjjjjjjjjjjjjjjrddccccccccbbbb",
"aaaaaaaalbbbbbddskhhhhhhhhhhhhhhhihhljjjjjjjjjjjjjjjddcccccaaaaa",
"aaaaaaaaaaaldbhhhhhhhhhhhhhhhhhhhihhljjjjjjjjjjjjjjkkjgtaaaaaaaa",
"aaaaaaaaaaaatfhhhhhhhhhhhhhhhhhhhihhhljjjjjjjjjjjjkkkjaaaaaaaaaa",
"aaaaaaaaaaaacbffhhhhhhhhhhhhhhhhhihhhljjjjjjjjjjjjjkfugaaaaaaaaa",
"aaaaaaaaaaabcbggffhhhhhhhhhhhhhhhihhhhljjjjjjjjjjjffdgccaaaaaaaa",
"aaaaaaaaaacbbbbbggffhhhhhhhhhhhhhihhhhhljjjjjjjjffddcccccaaaaaaa",
"aaaaaaaaabbbbbbbbbggffhhhhhhhhhhhihhhhhljjjjjjffddcbccccccaaaaaa",
"aaaaaaaabbbbbbbbbbbbggffhhhhhhhhhihhhhhjjjjjffggcccccccccccaaaaa",
"aaaaaaabbbbbbbbbbbbbbbggffhhhhhhhihhhhhhjjffggcbccccccccccccaaaa",
"aaaaaabbbbbbbbbbbbbbbbbbggffhhhivihhhhhhffggcccccccccccccccccaaa",
"aaaaaaabcbbbbbbbbbbbbbbbbbggffwvvihhhhffggccccccccccccccccccaaaa",
"aaaaaaaaakcbbbbbbbbbbbbbbbbbggaavihhaaddcccccccccccccccccbaaaaaa",
"aaaaaaaaaaaccbbbbbbbbbbbbbbbbbggaiiaddccccccccccccccbccxxaaaaaaa",
"aaaaaaaaaaaaasbbbbbbbbbbbbbbbbbbddadccccccccccccccccccxaaaaaaaaa",
"aaaaaaaaaaaayaakbbbbbbbbbbbbbbbbdataccccccccccccccccbaaaaaaaaaaa",
"aaaaaaaaaaaayttaaxbbbbbbbbbbbbbbatttagcccccccccccccaahyaaaaaaaaa",
"aaaaaaaaaaaaatttlaaccbbbbbbbbbbcatryagcccccccccccaahhhhaaaaaaaaa",
"aaaaaaaaaaaaarrtlllaqbbbbbbbbbbatrmyyagccccccccaahhhhhwaaaaaaaaa",
"aaaaaaaaaaaaarrrtltlaabbbbbbbbattrbyyagcccccccahhhhhjjaaaaaaaaaa",
"aaaaaaaaaaaaarrrrrrtllaalbbbbbatrrbtyhagcccraahhhhjjjlaaaaaaaaaa",
"aaaaaaaaaaaaarrrrrrrrtllaabbbatlrrbtthhaccaahhhhjjjjjwaaaaaaaaaa",
"aaaaaaaaaaaaakrrrrrrrrrlllaaatlrcrbtthhhaahhhhjjjjjqqjzaaaaaaaaa",
"aaaaaaaaaaaaajjArrrrrrrrlllttllrccclllhhhhhhjjjjqqqjjjhaaaaaaaaa",
"aaaaaaaaaaaaajAjjArrrrrrrrltlllrccclllhhhjjjjjjjjjjjjjhaaaaaaaaa",
"aaaaaaaaaaaajjAAAjArrrrrrrrrrrrrcrrllljjjjjjjjjjjjjjjjBaaaaaaaaa",
"aaaaaaaaaaaaAAAAAAArArrrrtttrrrrrrjlljjjjjjjjjjjjjjjjjBaaaaaaaaa",
"aaaaaaaaaaaaAAAAAAAAArrrrtetllrrrrjljjjjjjjjjjjjjjjjjjqaaaaaaaaa",
"aaaaaaaaaaaaaaAAAAAAArrrrtlAAAllrrjjjjjjjjjjjjjjjjjjqqaaaaaaaaaa",
"aaaaaaaaaaaaaaaakkAAArrrrtAABArrrlrjjjjjjjjjjjjjjjqqaaaaaaaaaaaa",
"aaaaaaaaaaaaaaaaaaAAArrrrlAAAAtrrlrjjjjjjjjjjjjjjqaaaaaaaaaaaaaa",
"aaaaaaaaaaaaaaaaaaaaAArrrlAAlArrrlrjjjjjjjjjjjqzaaaaaaaaaaaaaaaa",
"aaaaaaaaaaaaaaaaaaaaaaArrrtlArlrrlrjljjjjjjjqqaaaaaaaaaaaaaaaaaa",
"aaaaaaaaaaaaaaaaaaaaaaaarrrllrAAAlrjljjjjjhBaaaaaaaaaaaaaaaaaaaa",
"aaaaaaaaaaaaaaaaaaaaaaaaaarArrlAAlrlljjjthaaaaaaaaaaaaaaaaaaaaaa",
"aaaaaaaaaaaaaaaaaaaaaaaaaaaaAAAAAArllljlaaaaaaaaaaaaaaaaaaaaaaaa",
"aaaaaaaaaaaaaaaaaaaaaaaaaaaaaaAAAAAlllaaaaaaaaaaaaaaaaaaaaaaaaaa",
"aaaaaaaaaaaaaaaaaaaaaaaaaaaaaaaaAArlaaaaaaaaaaaaaaaaaaaaaaaaaaaa",
"aaaaaaaaaaaaaaaaaaaaaaaaaaaaaaaaaaaaaaaaaaaaaaaaaaaaaaaaaaaaaaaa",
"aaaaaaaaaaaaaaaaaaaaaaaaaaaaaaaaaaaaaaaaaaaaaaaaaaaaaaaaaaaaaaaa",
"aaaaaaaaaaaaaaaaaaaaaaaaaaaaaaaaaaaaaaaaaaaaaaaaaaaaaaaaaaaaaaaa",
"aaaaaaaaaaaaaaaaaaaaaaaaaaaaaaaaaaaaaaaaaaaaaaaaaaaaaaaaaaaaaaaa",
"aaaaaaaaaaaaaaaaaaaaaaaaaaaaaaaaaaaaaaaaaaaaaaaaaaaaaaaaaaaaaaaa",
"aaaaaaaaaaaaaaaaaaaaaaaaaaaaaaaaaaaaaaaaaaaaaaaaaaaaaaaaaaaaaaaa",
"aaaaaaaaaaaaaaaaaaaaaaaaaaaaaaaaaaaaaaaaaaaaaaaaaaaaaaaaaaaaaaaa",
"aaaaaaaaaaaaaaaaaaaaaaaaaaaaaaaaaaaaaaaaaaaaaaaaaaaaaaaaaaaaaaaa",
"aaaaaaaaaaaaaaaaaaaaaaaaaaaaaaaaaaaaaaaaaaaaaaaaaaaaaaaaaaaaaaaa"
};


