/* XPM */
static char *car_red_destroyed[] = {
"64 64 16 1",
"  c #FF00FF",
"B c #c0392b",
"C c #a93226",
"D c #5d6d7e",
"F c #e67e22",
"G c #aaaaaa",
"H c #e74c3c",
"L c #fef9e7",
"S c #922b21",
"T c #1a1a1a",
"X c #e74c3c",
"Z c #222222",
"f c #f39c12",
"k c #333333",
"l c #f9e79f",
"n c #17202a",
/* pixels */
"                                G                               ",
"                             G G G                              ",
"                            G G   G                             ",
"                                                                ",
"          nBBnBDnBBDDBBBBnnnnDSDnDSDnSBBnnDnnDBBDBnnnD          ",
"          BLLLLLLLLnHHDHHDfFnDfFDnSDDSDDnDnnnLLLLLLLLn          ",
"          BLllllllLnDHDHnFnnfFDSfFnSSSnnHHnHHLllllllLB          ",
"          BLllllllLHnnnHnnnDSSnnSnSnDSHnHHHHnLllllllLn          ",
"          nLLLLLLLLnnnHHHnnDnnSnnnSnSSDHnHnnDLLLLLLLLB          ",
"          nDBnHnDDDnnHnnHnDDnSDSSnDnnSnDnDnHDnHnHnBnBB          ",
"  TTTTTTTTDBDnDHDDnnHnnHnnnnnnnSnDnSnnnnnDHnnHHnnnnDBnTTTTTTTT  ",
"  TkkkkkkknnBBnnnDHHnDHHHnSSnnSnnnSSnDDnHnnHnHHHDHnBBDkkkkkkkT  ",
"  TkkkkkkkBnnBnHDDHnnDHHnHSDnSnSSnDSnSHHHHnHHnnnDnBnnnkkkkkkkT  ",
"  TkkkkkkkBBnnHDnHHnDDHDnnnDSSnDSDnSnSnnDnnHHnnHHnDBnnkkkkkkkT  ",
"  TkkkkkkknBnnnDnnDDnnDDnnnnnnDDnDnnnDnnnnDnnnnDnBnDnnkkkkkkkT  ",
"  TkkkkkkknnBBBnnnDDnnDDnnnDnnnnnnnnnnDnnnnDnDnnnBBBBBkkkkkkkT  ",
"  TkkkkkkkBBDBBnDnDnDDnDnnDnnnnnDDDnnDnnnDnnnDDnDDnBnnkkkkkkkT  ",
"  TkkkkkkknDBDBDnDnDDnnnnnnnDnDnnnDDDnnDnDnDDDDnnnnBBBkkkkkkkT  ",
"  TkkkkkkknBnnnnDnnDnDDnnDDDnnDnDnnnDnnnnDnnDnDnDnnnBDkkkkkkkT  ",
"  TkkkkkkknBBnBnnDnnnnnDnDnDDnnnnnDnnDDnDnnDnnDDnBnnBBkkkkkkkT  ",
"  TkkkkkkknnnnBDnnnnDDnDnDnnDnnDDDDnDnnnnnnDDnnDnnBDnBkkkkkkkT  ",
"  TkkkkkkkBnBBBDnnDDDDDDDDnnnnnnnDnnDnnnnnnDnnnDnBDDnDkkkkkkkT  ",
"  TkkkkkkkDnDnBnnnnDnDDDnnDnDDnnDDnnnnDnDnnDDnnnDnBnBDkkkkkkkT  ",
"  TkkkkkkknBBnBnDDnDDnDDnnDDDnnnDnDDnnnnnnDnDDDDnnnBBBkkkkkkkT  ",
"  TTTTTTTTnBBnBnDDDnnnDnnnDnnnnnDnnnnDnnDDnDnDDnDBBDBBTTTTTTTT  ",
"          DBnnnDnnnDnDnDDnDnnDDDnnnDnnDDDnnnnnDnDBDBBB          ",
"          DnBBBnDDnDDDDDnnDnnDDnnDnDDDnDDnnDDDDnnnnnnn          ",
"          nBBnnCCnnCDnDCnnCnDCCnnnCCnCCCnDnnnDCnnnDnBB          ",
"          BnDCnnCnCnnCCCDnnnnCnSnnDCnnCnDnCDDCCCDCDnBB          ",
"          nDSnDDnSDDDSSDSSDnDnSnnnSnSDDSSnDnSSnnSSSnnB          ",
"          nDnDDCnCnnDnCCCnCCnCnnCnnCCnnDnnCCCCCCnnnnnn          ",
"          BBBnCnnCDnDCCnnnnnCDCnCnnnnCnCDCnnnCDnnnnnnn          ",
"          DnDCnCCnnnCCCnDDnCCDnSDCCCCnDCnCnCnnnnnnCBBB          ",
"          BnnnnnDCnCCnnnnDnCCnCDnnDnCnnDnCCnnCCDCDCBBB          ",
"          DnBCDCCCCCnnCCnnCnDCnnnCCDnnDnnnCnCCnCnnnDnB          ",
"          BnnnCCnCCDnCnCCCnnnDDnnnnDDCDCCnDDDnnDDnnnBB          ",
"          nnnnDCDCnnCCCCnDnnDCnDnnCCCnCCnnnnDCDCCCDBnD          ",
"          nnnnDnDDDCDCCDCDnnnCnSnCCCCDDDCDDCCnnnnnDDBn          ",
"  TTTTTTTTBBBnCCDDCnCDCCDnnCnnnDDCnDnDnCDnDDCCCCnDnBnBTTTTTTTT  ",
"  TkkkkkkknnnnCnDCnDCCnnCnnCnDnDCCCCCCnDnCCCDDnCCnnBnDkkkkkkkT  ",
"  TkkkkkkkBDnDCDnnCCnDCDnCDDnCDnCDCCnnCnDnDCnDnCnCCnDnkkkkkkkT  ",
"  TkkkkkkknnnnnnnCnCnCCnDCnnDnnDCnCnCCnCnnCCCCnDCCCnDDkkkkkkkT  ",
"  TkkkkkkknDDnBnDBBDBBDnDBDSnDnnnnnnSSnDBnnnDDnDDBBnnDkkkkkkkT  ",
"  TkkkkkkknnBBnnnDnnDDnnDnnnDDnnnnnDDDnDnnDnnDDnnBnnnBkkkkkkkT  ",
"  TkkkkkkkDBnDBDnDnnnDDnnnnnnDDnnDnnnDnnDnnnnnnDDDBnnBkkkkkkkT  ",
"  TkkkkkkkBnnnnnDDDnnnDnDDnDDnDDDnDnDnDnnnnDnDDnDnnBBBkkkkkkkT  ",
"  TkkkkkkknnBnDDnnnnDDDnDnnnDnDDDnnDDnDnnnnDnnnDnnBDDnkkkkkkkT  ",
"  TkkkkkkknnBDnDnnnnnDDDnnnnDnnnDnDnDDDnnDnnDnDDDnDnBBkkkkkkkT  ",
"  TkkkkkkkDDnBDnDnnnDDnDnnnnDDDDDnDDnnnDnnDDnnnnDBDBnBkkkkkkkT  ",
"  TkkkkkkkDnDnnnnnnnnDnnnDnDDDnDnnnnnnnnnDDDnnDnDnnDBDkkkkkkkT  ",
"  TkkkkkkkBnBDnDDDDnnnnDnDnDnnDnnnnnDDDDnnnDnnnDnDBBBnkkkkkkkT  ",
"  TkkkkkkknBnnnDnnDnDnnnnFDnfFnnnnnnDnDDDDnnDnDDnnnBBBkkkkkkkT  ",
"  TTTTTTTTBBnnnnBnBBDDDDnnfFSSfnSnnnnSBnBBDnDnDnnnnBnnTTTTTTTT  ",
"          BBBBnnBDnDDBnDBDnnnDDDnnSnnSnnBBBDDDnBnBnnnB          ",
"          nDDnXnnXXDnDDBnnSSSSDSSSnnnSnBBnnBDnDnXDDXXn          ",
"          nDnnnXDnXBDnnDnnSnSSSnSnnDnnDBDDBBnXXnnXnDDB          ",
"          DXXXnXnnnBnnDnDnSSSDnnSnDSSSDnDBnBBnXnnnnnXB          ",
"          BnXDDXXnDBBBnnnnDDDSSDnSnDnSnBBDnBBnXXXDnnXB          ",
"          nnnXnnnnnBBBnnnBnnnSSSSDSnSnBDBBnDBnnXnXnDXn          ",
"          nDBnnBDBnBBnnBDDnDnSDSnnSnSDDDBnnnDBDnBBBBBB          ",
"              ZZZZZZZZZZZZZZZZZZZZZZZZZZZZZZZZZZZZZ             ",
"                ZZZZZZZZZZZZZZZZZZZZZZZZZZZZZZZZZ               ",
"                    ZZZZZZZZZZZZZZZZZZZZZZZZZ                   ",
"                                Z                               "
};


