/* XPM */
static char *car_blue_dmg2[] = {
"64 64 7 2",
"aa c #000000",
"ab c #1A5276",
"ac c #154360",
"ad c #222222",
"ae c #FF8800",
"af c #777777",
"ag c #FF00FF",
/* pixels */
"agagagagagagagagagagagagagagagagagagagagagagagagagagagagagagagagagagagafafafafafafafafafafafafafafafagagagagagagagagagagagagagag",
"agagagagagagagagagagagagagagagagagagagagagagagagagagagagagagagafagagagafafafafafafafafafafafafafafafagagagagagagagagagagagagagag",
"agagagagagagagagagagagagagagagagagagagagagagagagagagagagafafafafagagagafafafafafafafafafafafafafafacagagagagagagagagagagagagagag",
"agagagagagagagagagagagagagagagagagagagagagagagagagagagagafafafagagagagagafafafafafafafafafafacafacagagagagagagagagagagagagagagag",
"agagagagagagagagagagagagagagagagagagagagagagagagagagagagafafafagagagagagafafafafafafafafafafafafagagagagagagagagagagagagagagagag",
"agagagagagagagagagagagagagagagagagagagagagagagagagafacafafafafadadadagafafafafafafafafacafafagagagagagagagagagagagagagagagagagag",
"agagagagagagagagagagagagagagagagagagagagagagagagagacafafafafadadagagagafafafafafafafafafafafafagagagagagagagagagagagagagagagagag",
"agagagagagagagagagagagagagagagagagagagagagagagadadafafafafadadafafafafafafafafafafafafafafafafagagagagagagagagagagagagagagagagag",
"agagagagagagagagagagagagagagagagagagagagagagagacadafafacafafafafafafafafafabafafafafafafafafagagagagagagagagagagagagagagagagagag",
"agagagagagagagagagagagagagagagagagagagagagadacadadacacafafafafafafafafafafabacafacafafafacagagagagagagagagagagagagagagagagagagag",
"agagagagagagagagagagagagagagagagagagagagagadacadadadadafadafafafafafafafafafafacafafafadagagagagagagagagagagagagagagagagagagagag",
"agagagagagagagagagagagagagagagagagagagagagadacadadadafadadadafafaeaeafafafafafafafadadadagagagagagagagagagagagagagagagagagagagag",
"agagagagagagagagagagagagagagagagagagagagadacacadadadadadadadafafaeaeafafafafafafafadadacadagagagagagagagagagagagagagagagagagagag",
"agagagagagagagagagagagagagagagagagagagagacacacadaaadafadadadafaeaeaeafafafafafafadadacacagagagagagagagagagagagagagagagagagagagag",
"agagagagagagagagagagagagagagagagagagagagacacadaaadadadafadafaeaeaeaeaeafafafafadadadagacadagagagagagagagagagagagagagagagagagagag",
"agagagagagagagagagagagagagagagagagagagagacacadaaadadafafadaeaeaeaeaeaeaeaeaeaeadafadagagadagagagagagagagagagagagagagagagagagagag",
"agagagagagagagagagagagagagagagagagagagagacacadaaadadadadafaeaeaeaeaeaeaeaeaeaeadafadadagadagagagagagagagagagagagagagagagagagagag",
"agagagagagagagagagagagagagagagagagagagagacacadaaadadadafafaeaeaeaeaeaeaeaeaeaeaeadadadagagagagagagagagagagagagagagagagagagagagag",
"agagagagagagagagagagagagagagagagagagagagacadadaaadadadafaeaeaeaeaeaeaeaeaeaeaeaeaeadadagagagagagagagagagagagagagagagagagagagagag",
"agagagagagagagagagagagagagagagagagagagagadacadadadadaeaeaeaeaeaeaeaeaeaeaeaeaeaeaeadadagadagagagagagagagagagagagagagagagagagagag",
"agagagagagagagagagagagagagagagagagagagagagadadadadafaeaeaeaeaeaeaeaeaeaeaeaeaeaeafadadagadagagagagagagagagagagagagagagagagagagag",
"agagagagagagagagagagagagagagagagagagagagagagadafadafaeaeaeaeaeaeaeaeadaeaeaeaeafadadadagagagagagagagagagagagagagagagagagagagagag",
"agagagagagagagagagagagagagagagagagagagagagagadaaaaadaeaeaeaeafafafaeadaeaeaeafadaaaaadagagagagagagagagagagagagagagagagagagagagag",
"agagagagagagagagagagagagagagagagagagagagagadadaaadadafaeadafadafafadafafadafafadadaaadagagagagagagagagagagagagagagagagagagagagag",
"agagagagagagagagagagagagagagagagagagagagagadadaaadafafafafafadadadadafafafafadadadaaacagagagagagagagagagagagagagagagagagagagagag",
"agagagagagagagagagagagagagagagagagagagagagagagadaaadafaaaaaaaaaaaaaaaaaaadaaafadaaadagagagagagagagagagagagagagagagagagagagagagag",
"agagagagagagagagagagagagagagagagagagagagadagagagadaaaaaaadadafafafadafafafaaaaaaadadagadadagagagagagagagagagagagagagagagagagagag",
"agagagagagagagagagagagagagagagagagagagagagagagagadadadadadadadadadadadadadafadadadagagagagagagagagagagagagagagagagagagagagagagag",
"agagagagagagagagagagagagagagagagagagagagagagagagagagadadadadadadadadadadadadadadagagadagagagagagagagagagagagagagagagagagagagagag",
"agagagagagagagagagagagagagagagagagagagagagagadagadadadadadadadadadadadadadadadadagagadagagagagagagagagagagagagagagagagagagagagag",
"agagagagagagagagagagagagagagagagagagagagagagadagagadadadadadadadadadadadadadadadagagadagagagagagagagagagagagagagagagagagagagagag",
"agagagagagagagagagagagagagagagagagagagagagagadagagadadadadadadadadadadadadadadadagagagagagagagagagagagagagagagagagagagagagagagag",
"agagagagagagagagagagagagagagagagagagagagagagadagadadadacacacacadacacacadadacacadadagadagagagagagagagagagagagagagagagagagagagagag",
"agagagagagagagagagagagagagagagagagagagagagagadagadadacacacacacacacacacacacacacadadagagadagagagagagagagagagagagagagagagagagagagag",
"agagagagagagagagagagagagagagagagagagagagagagadagadacabacabacabababababababababacadagadagagagagagagagagagagagagagagagagagagagagag",
"agagagagagagagagagagagagagagagagagagagagagagadagadababababababababababababababacadagadagagagagagagagagagagagagagagagagagagagagag",
"agagagagagagagagagagagagagagagagagagagagagagadagacabababababababababababababababacagadagagagagagagagagagagagagagagagagagagagagag",
"agagagagagagagagagagagagagagagagagagagagagagadagacabababababababababababababababacagadagagagagagagagagagagagagagagagagagagagagag",
"agagagagagagagagagagagagagagagagagagagagagadaaadacabababababababababababababababacacaaadagagagagagagagagagagagagagagagagagagagag",
"agagagagagagagagagagagagagagagagagagagagagadaaacacacababababababababababababababacacaaacagagagagagagagagagagagagagagagagagagagag",
"agagagagagagagagagagagagagagagagagagagagagadacacacacacababacabacabababacababacabacabacacagagagagagagagagagagagagagagagagagagagag",
"agagagagagagagagagagagagagagagagagagagagagacacacacaaadaaaaaaaaadaaaaaaaaaaaaaaaaababacacagagagagagagagagagagagagagagagagagagagag",
"agagagagagagagagagagagagagagagagagagagagagacacacacaaadadadadadadacadadadadadadaaacabacacagagagagagagagagagagagagagagagagagagagag",
"agagagagagagagagagagagagagagagagagagagagacacacacaaadadadadadadacadadadadadadadadaaacabacacagagagagagagagagagagagagagagagagagagag",
"agagagagagagagagagagagagagagagagagagagagacacacacaaacadadadadadadadadadadadadadacaaababacacagagagagagagagagagagagagagagagagagagag",
"agagagagagagagagagagagagagagagagagagagagacacacacaaacacadadadadadadadadadadadadacadababacacagagagagagagagagagagagagagagagagagagag",
"agagagagagagagagagagagagagagagagagagagagacacacacabadaaadaaaaaaaaaaaaaaaaaaaaaaaaabababacacagagagagagagagagagagagagagagagagagagag",
"agagagagagagagagagagagagagagagagagagagagacacababababababadadadadafadadadadafafababacabacacagagagagagagagagagagagagagagagagagagag",
"agagagagagagagagagagagagagagagagagagagagacacababababababacadadadabacadadadababababababacacagagagagagagagagagagagagagagagagagagag",
"agagagagagagagagagagagagagagagagagagagagacacababababababacadadadabacadadadababababababacacagagagagagagagagagagagagagagagagagagag",
"agagagagagagagagagagagagagagagagagagagagacacababababababacadadadabacadadacababababababacacagagagagagagagagagagagagagagagagagagag",
"agagagagagagagagagagagagagagagagagagagagacacababababababacadadadabacadadacabababababababacagagagagagagagagagagagagagagagagagagag",
"agagagagagagagagagagagagagagagagagagagagagacababababababacadadadafacadadacababababababacagagagagagagagagagagagagagagagagagagagag",
"agagagagagagagagagagagagagagagagagagagagagacababababababadadadadafadadadacababababababacagagagagagagagagagagagagagagagagagagagag",
"agagagagagagagagagagagagagagagagagagagagagacacabababababadadadadabadadadadababababababacagagagagagagagagagagagagagagagagagagagag",
"agagagagagagagagagagagagagagagagagagagagagacacaaababababadadadadabadadadadababababacacacagagagagagagagagagagagagagagagagagagagag",
"agagagagagagagagagagagagagagagagagagagagagadaaaaaaaaaaaaaaaaaaaaaaaaaaaaaaaaaaaaaaaaaaadagagagagagagagagagagagagagagagagagagagag",
"agagagagagagagagagagagagagagagagagagagagagadaaadacacacadadadadadadadadadadadadafafafaaadagagagagagagagagagagagagagagagagagagagag",
"agagagagagagagagagagagagagagagagagagagagagagadadadadadadadaaaaaaaaaaaaadadadaaaaaaaaacagagagagagagagagagagagagagagagagagagagagag",
"agagagagagagagagagagagagagagagagagagagagagagagadadadadadadadacacacacacacacadadadadadagagagagagagagagagagagagagagagagagagagagagag",
"agagagagagagagagagagagagagagagagagagagagagagagagagagagagagagagagagagagagagagagagagagagagagagagagagagagagagagagagagagagagagagagag",
"agagagagagagagagagagagagagagagagagagagagagagagagagagagagagagagagagagagagagagagagagagagagagagagagagagagagagagagagagagagagagagagag",
"agagagagagagagagagagagagagagagagagagagagagagagagagagagagagagagagagagagagagagagagagagagagagagagagagagagagagagagagagagagagagagagag",
"agagagagagagagagagagagagagagagagagagagagagagagagagagagagagagagagagagagagagagagagagagagagagagagagagagagagagagagagagagagagagagagag"
};
