/* XPM */
static char *car_blue_destroyed[] = {
"64 64 16 1",
"  c #FF00FF",
"B c #1a5276",
"C c #154360",
"D c #5d6d7e",
"F c #e67e22",
"G c #aaaaaa",
"H c #2471a3",
"L c #fef9e7",
"S c #154360",
"T c #1a1a1a",
"X c #2471a3",
"Z c #222222",
"f c #f39c12",
"k c #333333",
"l c #f9e79f",
"n c #17202a",
/* pixels */
"                                G                               ",
"                             G G G                              ",
"                            G G   G                             ",
"                                                                ",
"          nDnnnBBnBDnnDBnnDDDnDDnDDnDSDnnnBnBBnBnnBDBn          ",
"          BLLLLLLLLDHDDnHHfFSnfFnnDDDDHnnnnnHLLLLLLLLB          ",
"          DLllllllLHDHDHHFDnfFnSfFSSnSnHnHDnHLllllllLB          ",
"          nLllllllLnDnnnHHnSSSSSDSSnDSnnnnDnnLllllllLB          ",
"          BLLLLLLLLnHHnDnHSSDDnnSnSSSDHHDDHnDLLLLLLLLB          ",
"          BnnDnnnHnnHDDHHHSnDDSnSDnSSSHnDnHHnHnDHHnBBD          ",
"  TTTTTTTTBnnBHnnDHDDnHnDnnDnSSSDnnSDSnDnDHHHHnnDDnDDnTTTTTTTT  ",
"  TkkkkkkkBBBnnnDDHDnHHHHnnnSSnDnDSDSDHHDnnnHHDDDnBBBnkkkkkkkT  ",
"  TkkkkkkkBBBnnHHDHHnDHnnnSSnnnSSnSDDnnnnDnHDnnnDnnnBDkkkkkkkT  ",
"  TkkkkkkkBnnBnnnnDDnDnHHDDnSSDnnnSSDnHnDnHDHDHHDHBDnnkkkkkkkT  ",
"  TkkkkkkknBBBnnnnnnnDDDnDnDnDnnnDnnDnDDnnnnnnnDnnDBBDkkkkkkkT  ",
"  TkkkkkkkDBBnDnnnnDnDnnDnnDnDDnDnnDnnnnDnnnnnDnnnnDnDkkkkkkkT  ",
"  TkkkkkkkBBDBBnnDDnDDnnDnnnDnnnnDnDnnDDnnnnDnDDDBnnBnkkkkkkkT  ",
"  TkkkkkkkBDBnBnDDDnnnnnnnDnDDnDnnnDnDnDDDDnnDnDnBnBDBkkkkkkkT  ",
"  TkkkkkkkDnBnDnDDnDnDDnnnDnDDnnnDDnnnnDDDDnnnnnDBBnDnkkkkkkkT  ",
"  TkkkkkkkBBBnDnnnnnnnDDnDnDnnnnDnnDnDDnnDDnDDDDDBBnBnkkkkkkkT  ",
"  TkkkkkkknnDDnnDDDnDnDDnnnDnnDnDDDnDDDDnnDnnnDnDBnBBBkkkkkkkT  ",
"  TkkkkkkkBBnDDnDDnnnnnnnnnDnDDnDDnDDDDnnnnDnnnnnnDDnBkkkkkkkT  ",
"  TkkkkkkkDDDBBDDnDnnDDDnnnDnDDDnnDnnnDnnnnnDnnnnBBBnBkkkkkkkT  ",
"  TkkkkkkkDnnBDnnnDDDnnnDDnnnnnnnDnDDnDnnnnDDnDnDnnnnnkkkkkkkT  ",
"  TTTTTTTTnnDDBnDnDnnnnnnnnDDnnDDnDnnnDDnDDnnDnnnDnBBnTTTTTTTT  ",
"          nnBnBDDDDnnnnDnnnnDnDDDnnnnnnnDnnDnDnnnDBBnn          ",
"          nnnnDnnDnnnnDnnnnDnnnDnnnnnDDnDDnDnnDnnBDDDn          ",
"          BBBDCnnnCnnDCCnnCDnnnnCCCnnnCCDnCnnnDnCCnnnB          ",
"          DnBCCnnDDCnnCCCCCCnCDSnnnnnCnCCnCnCnCCnCnBnn          ",
"          nSSDnSSDDDSSSSnSnnSDnnSDnnnnSnnnnnnnSnnSDnnn          ",
"          nnnnCDnnnDnCnnDCDnCCDSCDnDDnDCDCnCDnDCCnnnDB          ",
"          nnnnDCDCDnnDnCDCDCCCnSDnnCnnnDDCnCCCnCCnDBnB          ",
"          BnnCDDnDnnCCCCCnCnnCCnnDnCCCCCnCnCCCDCDnCDBn          ",
"          nnBDnnnDnCCCDCnCnnnCCnCnCCnnnCCCDCnDCnnDCnnn          ",
"          nBBnDDDCnnnDCDCCCnnCCnnnnCCCCCCnCCCCDCnDCnnn          ",
"          BBnnnnDnnnDCCDnCDCCCCSnDDnCDnnnCCDCnnCnDnnDB          ",
"          BnBCCDnCnCDnDnnnCnnnCnCnCnnnnnnnCnDCCCDCDBnn          ",
"          nnnnnCnnDCCnCDnDDnCCDnnnCDCDCCDnDDDCCCnCnBnn          ",
"  TTTTTTTTBnBCDnCnCnnnCCnDDnCCDnDDDnnnCCnCnCDnnnCCCDDnTTTTTTTT  ",
"  TkkkkkkknnnDnnnnCnnnnCnnnDnCnSCnCCnCDnDCCCnCnCnnnnDnkkkkkkkT  ",
"  TkkkkkkkDnDCCCnCDCnnnDnCCnDCCSDCnnCCnCDnDDCnDCCCnBBDkkkkkkkT  ",
"  TkkkkkkknBnnDDCnnnnDnnDCnCCnCSCCCnDDCnDCCnnnCnCnCBBnkkkkkkkT  ",
"  TkkkkkkknnnBnBBnnBnBBBDDnnSnSSSDSnDnnBnDBnnnBnBnDnnBkkkkkkkT  ",
"  TkkkkkkknBDBnnnDDnnDDDnnnnDnDDDDDDDnnnnnnnnDnDnDBnDnkkkkkkkT  ",
"  TkkkkkkkBBBBnDnnDnnnnnnnnnDnnnnnDnnnnDnnnDDnnDnnnnBBkkkkkkkT  ",
"  TkkkkkkknnDDBnnnnDnDDDnnDDDnDDnnnDDDDnDnDnnDnDDnBnnBkkkkkkkT  ",
"  TkkkkkkkDnBnDnnDDnnnnDnnnDnDDnnnDDDnnnnDDDDnnDDDnnnBkkkkkkkT  ",
"  TkkkkkkknBnBnDDDnDnnnDnDnDDnnnnDDnDDnnDDDnDnDnnnBBBnkkkkkkkT  ",
"  TkkkkkkknBnnDDnnnDDnDDnnnnnnnDDDnnDDnnDnnnnDDDnnnBBnkkkkkkkT  ",
"  TkkkkkkkBBDBDnnDDnnnnDDnnnnnnDnnDnnDnnDnnnnnDDnBnnBBkkkkkkkT  ",
"  TkkkkkkkBnBDBnnnDnDDDDnDnnDnDDnnnnnnnnDnnnnnnnDBnnnBkkkkkkkT  ",
"  TkkkkkkknnBDBnnDnDnDnDDFnnfFnnnDDnDDDnnnDnDnDnnBBBnBkkkkkkkT  ",
"  TTTTTTTTnnBnnnDnBDnBBnBnfFSnfnDnnSDSnnnnBnDnDBDnDDBnTTTTTTTT  ",
"          DBnBnnDnBBnnnnnnnDSSnSnnSSnSnnBBDBBnBBnnnDDD          ",
"          BXDXXnXnDnnBBBDBSSSSSnnnSnSnBnnnBnBnnDDnXDnB          ",
"          DDXDXnXXDDDBnBBDnSSDSSnSSnSSDBDnnBnnnXXXnDnn          ",
"          DXnXXXDXnBBnBnDDnnnnSnnDSnDSBBBBBDBXnXXXXXnB          ",
"          DDnnXnXnXBnnnBBBSDSnSnSSSSSSDnBnnnBXnXXnXDXn          ",
"          nDnnDnnXXBnnBnnnSSSDnnDDSnSnnBDnnnBnDXnnDnnn          ",
"          nnnBnnnDnBnDnBnBSSnSSDnnnSSSBBnBBBnBnnDDBBBn          ",
"              ZZZZZZZZZZZZZZZZZZZZZZZZZZZZZZZZZZZZZ             ",
"                ZZZZZZZZZZZZZZZZZZZZZZZZZZZZZZZZZ               ",
"                    ZZZZZZZZZZZZZZZZZZZZZZZZZ                   ",
"                                Z                               "
};

