/* XPM */
static char *car_red_dmg2[] = {
"64 64 11 1",
"  c #FF00FF",
"D c #5d6d7e",
"G c #aaaaaa",
"T c #1a1a1a",
"W c #85c1e9",
"k c #333333",
"n c #17202a",
/* pixels */
"                                                                ",
"                                                                ",
"                              G                                 ",
"                               G                                ",
"                             G   G                              ",
"                              G   G                             ",
"                            G   G                               ",
"                                                                ",
"                          #922b21#922b21#922b21#922b21#922b21 #922b21#922b21#922b21#922b21#922b21                           ",
"                          #922b21#922b21#922b21#922b21#922b21 #922b21#922b21#922b21#922b21#922b21                           ",
"          #c0392bDDDDDDDD#e74c3c#e74c3c#e74c3c#e74c3c#e74c3c#e74c3c#e74c3c#922b21#922b21#922b21#922b21#922b21#e74c3c#922b21#922b21#922b21#922b21#922b21#e74c3c#e74c3c#e74c3c#e74c3c#e74c3c#e74c3c#e74c3c#e74c3cnnnnnnnn#c0392bTTTTTTTT  ",
"          #c0392bDDDDDDDD#e74c3c#e74c3c#e74c3c#e74c3c#e74c3c#e74c3c#e74c3c#922b21#922b21#922b21#922b21#922b21#e74c3c#922b21#922b21#922b21#922b21#922b21#e74c3c#e74c3c#e74c3c#e74c3c#e74c3c#e74c3c#e74c3c#e74c3cnnnnnnnn#c0392bkkkkkkkT  ",
"  TTTTTTTT#c0392bDDDDDDDD#e74c3c#e74c3c#e74c3c#e74c3c#e74c3c#e74c3c#e74c3c#922b21#922b21#922b21#922b21#922b21#e74c3c#922b21#922b21#922b21#922b21#922b21#e74c3c#e74c3c#e74c3c#e74c3c#e74c3c#e74c3c#e74c3c#e74c3cnnnnnnnn#c0392bkkkkkkkT  ",
"  TkkkkkkT#c0392b#c0392b#c0392b#c0392b#c0392b#c0392b#e74c3c#e74c3c#e74c3c#e74c3c#e74c3c#e74c3c#e74c3c#e74c3c#e74c3c#e74c3c#922b21#922b21#922b21#922b21#922b21#e74c3c#922b21#922b21#922b21#922b21#922b21#e74c3c#e74c3c#e74c3c#e74c3c#e74c3c#e74c3c#e74c3c#e74c3c#e74c3c#c0392b#c0392b#c0392b#c0392b#c0392b#c0392b#c0392b#c0392bkkkkkkkT  ",
"  TkkkkkkT#c0392b#c0392b#c0392b#c0392b#c0392b#c0392b#e74c3c#e74c3c#e74c3c#e74c3c#e74c3c#e74c3c#e74c3c#e74c3c#e74c3c#e74c3c#922b21#922b21#922b21#922b21#922b21#e74c3c#922b21#922b21#922b21#922b21#922b21#e74c3c#e74c3c#e74c3c#e74c3c#e74c3c#e74c3c#e74c3c#e74c3c#e74c3c#c0392b#c0392b#c0392b#c0392b#c0392b#c0392b#c0392b#c0392bkkkkkkkT  ",
"  TkkkkkkT#c0392b#c0392b#c0392b#c0392b#c0392b#c0392b#e74c3c#e74c3c#e74c3c#e74c3c#e74c3c#e74c3c#e74c3c#e74c3c#e74c3c#e74c3c#922b21#922b21#922b21#922b21#922b21#e74c3c#922b21#922b21#922b21#922b21#922b21#e74c3c#e74c3c#e74c3c#e74c3c#e74c3c#e74c3c#e74c3c#e74c3c#e74c3c#c0392b#c0392b#c0392b#c0392b#c0392b#c0392b#c0392b#c0392bkkkkkkkT  ",
"  TkkkkkkT#c0392b#c0392b#c0392b#c0392b#c0392b#c0392b#c0392b#c0392b#c0392b#c0392b#c0392b#c0392b#c0392b#c0392b#c0392b#c0392b#922b21#922b21#922b21#922b21#922b21#c0392b#922b21#922b21#922b21#922b21#922b21#c0392b#c0392b#c0392b#c0392b#c0392b#c0392b#c0392b#c0392b#c0392b#c0392b#c0392b#c0392b#c0392b#c0392b#c0392b#c0392b#c0392bkkkkkkkT  ",
"  TkkkkkkT#c0392b#c0392b#c0392b#c0392b#c0392bDWWDWDDDDWDDWDWWWWWWWWDWWWDWWDDWWD#c0392b#c0392b#c0392b#c0392b#c0392bkkkkkkkT  ",
"  TkkkkkkT#c0392b#c0392b#c0392b#c0392b#c0392bWWDWDWDDDWDWDDDWWWDWWWDDWWWDDWWDDD#c0392b#c0392b#c0392b#c0392b#c0392bkkkkkkkT  ",
"  TkkkkkkT#c0392b#c0392b#c0392b#c0392b#c0392bWDWDWWDDDWWWDDDDDDWWDDDWDDWDDDDDDD#c0392b#c0392b#c0392b#c0392b#c0392bkkkkkkkT  ",
"  TkkkkkkT#c0392b#c0392b#c0392b#c0392b#c0392bWDDWWDDDDDWWWWDWDDDWDWWDDWDDDWnWDD#c0392b#c0392b#c0392b#c0392b#c0392bkkkkkkkT  ",
"  TkkkkkkT#c0392b#c0392b#c0392b#c0392b#c0392bDDDDDDDWDDWDDWWWDDDWDDDDDDWWDWDnDD#c0392b#c0392b#c0392b#c0392b#c0392bkkkkkkkT  ",
"  TkkkkkkT#c0392b#c0392b#c0392b#c0392b#c0392bWWDDDDWWWWWWDDWDDWDDDWWDDWWWDWWDnD#c0392b#c0392b#c0392b#c0392b#c0392bkkkkkkkT  ",
"  TTTTTTTT#c0392b#c0392b#c0392b#c0392b#c0392bWWDDDDDWWDDWDDDDDDDWDDWDDWDDWDWnDD#c0392b#c0392b#c0392b#c0392b#c0392bkkkkkkkT  ",
"          #c0392b#c0392b#c0392b#c0392b#c0392bWWWWWDDWDWWDWDDWDDWDDDDDDDWDDDnDDW#c0392b#c0392b#c0392b#c0392b#c0392bTTTTTTTT  ",
"          #c0392b#c0392b#c0392b#c0392b#c0392bDDDDWWWWDWWDDDDDDWDWDWWDDWDDDWDDDW#c0392b#c0392b#c0392b#c0392b#c0392b          ",
"          #c0392b#c0392b#c0392b#c0392b#c0392b#c0392b#c0392b#c0392b#c0392b#c0392b#c0392b#c0392b#c0392b#c0392b#c0392b#c0392b#922b21#922b21#922b21#922b21#922b21#c0392b#922b21#922b21#922b21#922b21#922b21#c0392b#c0392b#c0392b#c0392b#c0392b#c0392b#c0392b#c0392b#c0392b#c0392b#c0392b#c0392b#c0392b#c0392b#c0392b#c0392b#c0392b          ",
"          #c0392b#c0392b#c0392b#c0392b#c0392b#c0392b#c0392b#c0392b#c0392b#c0392b#c0392b#c0392b#c0392b#c0392b#c0392b#c0392b#922b21#922b21#922b21#922b21#922b21#c0392b#922b21#922b21#922b21#922b21#922b21#c0392b#c0392b#c0392b#c0392b#c0392b#c0392b#c0392b#c0392b#c0392b#c0392b#c0392b#c0392b#c0392b#c0392b#c0392b#c0392b#c0392b          ",
"          #c0392b#c0392b#c0392b#c0392bnnnnnnnnnnnnnnnnnnnnnnnnnnnnnnnnnnnn#c0392b#c0392b#c0392b#c0392b          ",
"          #c0392b#c0392b#c0392b#c0392b#a93226#a93226#a93226#a93226#a93226#a93226#a93226#a93226#a93226#a93226#a93226#a93226#a93226#a93226#a93226#a93226#a93226#a93226#a93226#a93226#a93226#a93226#a93226#a93226#a93226#a93226#a93226#a93226#a93226#a93226#a93226#a93226#a93226#a93226#a93226#a93226#c0392b#c0392b#c0392b#c0392b          ",
"          #c0392b#c0392bn#c0392b#a93226#a93226n#a93226#a93226#a93226#a93226#a93226#a93226#a93226#a93226#a93226#a93226#a93226#a93226#a93226#a93226#a93226#a93226#a93226#a93226#a93226#a93226#a93226#a93226#a93226#a93226#a93226#a93226#a93226#a93226#a93226#a93226#a93226#a93226#a93226#c0392b#c0392b#c0392b#c0392b          ",
"          #c0392b#c0392b#c0392bn#a93226n#a93226#a93226#a93226#a93226#a93226#a93226#a93226#a93226#a93226#a93226#a93226#a93226#a93226#a93226#a93226#a93226#a93226#a93226#a93226#a93226#a93226#a93226#a93226#a93226#a93226#a93226#a93226#a93226#a93226#a93226#a93226#a93226#a93226#a93226#c0392b#c0392b#c0392b#c0392b          ",
"          #c0392b#c0392b#c0392b#c0392bn#a93226#a93226#a93226#a93226#a93226#a93226#a93226#a93226#a93226#a93226#a93226#a93226#a93226#a93226#a93226#a93226#a93226#a93226#a93226#a93226#a93226#a93226#a93226#a93226#a93226#a93226#a93226#a93226#a93226#a93226#a93226#a93226#a93226#a93226#a93226#c0392b#c0392b#c0392b#c0392b          ",
"          #c0392b#c0392b#c0392b#c0392b#a93226#a93226#a93226#a93226#a93226#a93226#a93226#a93226#a93226#a93226#a93226#a93226#a93226#a93226#a93226#a93226#a93226#a93226#a93226#a93226#a93226#a93226#a93226#a93226#a93226#a93226#a93226#a93226#a93226#a93226#a93226#a93226#a93226#a93226#a93226#a93226#c0392b#c0392b#c0392b#c0392b          ",
"          #c0392b#c0392b#c0392b#c0392b#a93226#a93226#a93226#a93226#a93226#a93226#a93226#a93226#a93226#a93226#a93226#a93226#a93226#a93226#a93226#a93226#a93226#a93226#a93226#a93226#a93226#a93226#a93226#a93226#a93226#a93226#a93226#a93226#a93226#a93226#a93226#a93226#a93226#a93226#a93226#a93226#c0392b#c0392b#c0392b#c0392b          ",
"          #c0392b#c0392b#c0392b#c0392b#a93226#a93226#a93226#a93226#a93226#a93226#a93226#a93226#a93226#a93226#a93226#a93226#a93226#a93226#a93226#a93226#a93226#a93226#a93226#a93226#a93226#a93226#a93226#a93226#a93226#a93226#a93226#a93226#a93226#a93226#a93226#a93226#a93226#a93226#a93226#a93226#c0392b#c0392b#c0392b#c0392b          ",
"          #c0392b#c0392b#c0392b#c0392b#a93226#a93226#a93226#a93226#a93226#a93226#a93226#a93226#a93226#a93226#a93226#a93226#a93226#a93226#a93226#a93226#a93226#a93226#a93226#a93226#a93226#a93226#a93226#a93226#a93226#a93226#a93226#a93226#a93226#a93226#a93226#a93226#a93226#a93226#a93226#a93226#c0392b#c0392b#c0392b#c0392b          ",
"          #c0392b#c0392b#c0392b#c0392b#a93226#a93226#a93226#a93226#a93226#a93226#a93226#a93226#a93226#a93226#a93226#a93226#a93226#a93226#a93226#a93226#a93226#a93226#a93226#a93226#a93226#a93226#a93226#a93226#a93226#a93226#a93226#a93226#a93226#a93226#a93226#a93226#a93226#a93226#a93226#a93226#c0392b#c0392b#c0392b#c0392b          ",
"          #c0392b#c0392b#c0392b#c0392b#a93226#a93226#a93226#a93226#a93226#a93226#a93226#a93226#a93226#a93226#a93226#a93226#a93226#a93226#a93226#a93226#a93226#a93226#a93226#a93226#a93226#a93226#a93226#a93226#a93226#a93226#a93226#a93226#a93226#a93226#a93226#a93226#a93226#a93226#a93226#a93226#c0392b#c0392b#c0392b#c0392bTTTTTTTT  ",
"          #c0392b#c0392b#c0392b#c0392b#a93226#a93226#a93226#a93226#a93226#a93226#a93226#a93226#a93226#a93226#a93226#a93226#a93226#a93226#a93226#a93226#a93226#a93226#a93226#a93226#a93226#a93226#a93226#a93226#a93226#a93226#a93226#a93226#a93226#a93226#a93226#a93226#a93226#a93226#a93226#a93226#c0392b#c0392b#c0392b#c0392bTkkkkkkT  ",
"  TTTTTTT #c0392b#c0392b#c0392b#c0392bnnnnnnnnnnnnnnnnnnnnnnnnnnnnnnnnnnnn#c0392b#c0392b#c0392b#c0392bTkkkkkkT  ",
"  TkkkkkT #c0392b#c0392b#c0392b#c0392b#c0392b#c0392b#c0392b#c0392b#c0392b#c0392b#c0392b#c0392b#c0392b#c0392b#c0392b#c0392b#922b21#922b21#922b21#922b21#922b21#c0392b#922b21#922b21#922b21#922b21#922b21#c0392b#c0392b#c0392b#c0392b#c0392b#c0392b#c0392b#c0392b#c0392b#c0392b#c0392b#c0392b#c0392b#c0392b#c0392b#c0392b#c0392bTkkkkkkT  ",
"  TkkkkkT #c0392b#c0392b#c0392b#c0392b#c0392b#c0392b#c0392b#c0392b#c0392b#c0392b#c0392b#c0392b#c0392b#c0392b#c0392b#c0392b#922b21#922b21#922b21#922b21#922b21#c0392b#922b21#922b21#922b21#922b21#922b21#c0392b#c0392b#c0392b#c0392b#c0392b#c0392b#c0392b#c0392b#c0392b#c0392b#c0392b#c0392b#c0392b#c0392b#c0392b#c0392b#c0392bTkkkkkkT  ",
"  TkkkkkT #c0392b#c0392b#c0392b#c0392b#c0392b#c0392b#c0392b#c0392b#c0392b#c0392b#c0392b#c0392b#c0392b#c0392b#c0392b#c0392b#922b21#922b21#922b21#922b21#922b21#c0392b#922b21#922b21#922b21#922b21#922b21#c0392b#c0392b#c0392b#c0392b#c0392b#c0392b#c0392b#c0392b#c0392b#c0392b#c0392b#c0392b#c0392b#c0392b#c0392b#c0392b#c0392bTkkkkkkT  ",
"  TkkkkkT #c0392b#c0392b#c0392b#c0392b#c0392bDDDDDDDDDDDDDDDDDDDDDDDDDDDDDDDDDD#c0392b#c0392b#c0392b#c0392b#c0392bTkkkkkkT  ",
"  TkkkkkT #c0392b#c0392b#c0392b#c0392b#c0392bDDDDDnDnDDDDDDDDDDDDDDDDDDDDDDDDDD#c0392b#c0392b#c0392b#c0392b#c0392bTkkkkkkT  ",
"  TkkkkkT #c0392b#c0392b#c0392b#c0392b#c0392bDDDDDDnDDDDDDDDDDDDDDDDDDDDDDDDDDD#c0392b#c0392b#c0392b#c0392b#c0392bTkkkkkkT  ",
"  TkkkkkT #c0392b#c0392b#c0392b#c0392b#c0392bDDDDDDDDDDDDDDDDDDDDDDDDDDDDDDDDDD#c0392b#c0392b#c0392b#c0392b#c0392bTkkkkkkT  ",
"  TkkkkkT #c0392b#c0392b#c0392b#c0392b#c0392bDDDDDDDDDDDDDDDDDDDDDDDDDDDDDDDDDD#c0392b#c0392b#c0392b#c0392b#c0392bTkkkkkkT  ",
"  TTTTTTT #c0392b#c0392b#c0392b#c0392b#c0392bDDDDDDDDDDDDDDDDDDDDDDDDDDDDDDDDDD#c0392b#c0392b#c0392b#c0392b#c0392bTkkkkkkT  ",
"          #c0392b#c0392b#c0392b#c0392b#c0392bDDDDDDDDDDDDDDDDDDDDDDDDDDDDDDDDDD#c0392b#c0392b#c0392b#c0392b#c0392bTTTTTTTT  ",
"          #c0392b#c0392b#c0392b#c0392b#c0392b#c0392b#c0392b#c0392b#c0392b#c0392b#c0392b#c0392b#c0392b#c0392b#c0392b#c0392b#922b21#922b21#922b21#922b21#922b21#c0392b#922b21#922b21#922b21#922b21#922b21#c0392b#c0392b#c0392b#c0392b#c0392b#c0392b#c0392b#c0392b#c0392b#c0392b#c0392b#c0392b#c0392b#c0392b#c0392b#c0392b#c0392b          ",
"          #c0392b#c0392b#c0392b#c0392b#c0392b#c0392b#c0392b#c0392b#c0392b#c0392b#c0392b#c0392b#c0392b#c0392b#c0392b#c0392b#922b21#922b21#922b21#922b21#922b21#c0392b#922b21#922b21#922b21#922b21#922b21#c0392b#c0392b#c0392b#c0392b#c0392b#c0392b#c0392b#c0392b#c0392b#c0392b#c0392b#c0392b#c0392b#c0392b#c0392b#c0392b#c0392b          ",
"          #c0392b#c0392b#c0392b#c0392b#c0392b#c0392b#c0392b#c0392b#c0392b#c0392b#c0392b#c0392b#c0392b#c0392b#c0392b#c0392b#922b21#922b21#922b21#922b21#922b21#c0392b#922b21#922b21#922b21#922b21#922b21#c0392b#c0392b#c0392b#c0392b#c0392b#c0392b#c0392b#c0392b#c0392b#c0392b#c0392b#c0392b#c0392b#c0392b#c0392b#c0392b#c0392b          ",
"          #c0392b#c0392b#c0392b#c0392b#c0392b#c0392b#c0392b#c0392b#c0392b#c0392b#c0392b#c0392b#c0392b#c0392b#c0392b#c0392b#922b21#922b21#922b21#922b21#922b21#c0392b#922b21#922b21#922b21#922b21#922b21#c0392b#c0392b#c0392b#c0392b#c0392b#c0392b#c0392b#c0392b#c0392b#c0392b#c0392b#c0392b#c0392b#c0392b#c0392b#c0392b#c0392b          ",
"          #c0392bnnnnnnn#c0392b#c0392b#c0392b#c0392b#c0392b#c0392b#c0392b#c0392b#922b21#922b21#922b21#922b21#922b21#c0392b#922b21#922b21#922b21#922b21#922b21#c0392b#c0392b#c0392b        #c0392b#c0392b#c0392b#c0392b#c0392b#c0392b          ",
"          #c0392bnnnnnnn #c0392b#c0392b#c0392b#c0392b#c0392b#c0392b#c0392b#922b21#922b21#922b21#922b21#922b21#c0392b#922b21#922b21#922b21#922b21#922b21#c0392b#c0392b#c0392b     nnnnnnn#c0392b#c0392b          ",
"          #c0392bnnnnnnn #c0392b#c0392b#c0392b#c0392b#c0392b#c0392b#c0392b#922b21#922b21#922b21#922b21#922b21#c0392b#922b21#922b21#922b21#922b21#922b21        nnnnnnn#c0392b#c0392b          ",
"           nnnnnnn #c0392b#c0392b#c0392b#c0392b#c0392b#c0392b#c0392b                   nnnnnnn            ",
"                   #c0392b#c0392b#c0392b#c0392b#c0392b#c0392b#c0392b                                      ",
"                                                                ",
"                                                                ",
"                                                                ",
"                                                                "
};

