/* XPM */
static char *nana[] = {
/* columns rows colors chars-per-pixel */
"256 256 43 1 ",
"  c None",
". c black",
"X c #1A1310",
"o c #383631",
"O c #5D3306",
"+ c #452711",
"@ c #583414",
"# c #653D0B",
"$ c #713910",
"% c #6D4117",
"& c #774917",
"* c #5B5835",
"= c #8D631C",
"- c #A86E18",
"; c #B28324",
": c #CFA419",
"> c #D5A91D",
", c #CB9034",
"< c #E7BB3B",
"1 c #F3D209",
"2 c #ECC214",
"3 c #F6CB1D",
"4 c #F6D311",
"5 c #F6D02E",
"6 c #FDE82D",
"7 c #9A8B5D",
"8 c #B9A154",
"9 c #94877F",
"0 c #DCAB5C",
"q c #D3BF7C",
"w c #FCE650",
"e c #F9DD71",
"r c #FDE966",
"t c #909693",
"y c #AC9C89",
"u c #F3DA81",
"i c #FCE987",
"p c #FAE59C",
"a c #FCEAB0",
"s c #FDEEBF",
"d c #DBE3D3",
"f c #FDECCD",
"g c #FEF0E0",
/* pixels */
"                                                                                                                                                                                                                                                                ",
"                                                                                                                                                                                                                                                                ",
"                                                                                                                                                                                                                                                                ",
"                                                                                                                                                                                                                                                                ",
"                                                                                                                                                                                                                                                                ",
"                                                                                                                                                                                                                                                                ",
"                                                                                                                                                    ....                                                                                                        ",
"                               ......                                                            ......                                            ......                                                                                                       ",
"                              ........                                                          ........                                           ..X%..                                                                                                       ",
"                              ..gO%$..                                                          ..g%%%..                                          ..53%..                                                                                                       ",
"                              ..g#$$..                                                          ..g%%%..                                         ...33...                                                                                                       ",
"                              ..g244..                                                          ..g444..                                        ...333...                                                                                                       ",
"                              ..g444..                                                          ..g444..                                        ..3333...                                                      .......                                          ",
"                              ..g444...                                                         ..g444..                                        ..333..                                                     ............                                        ",
"                              ..f4444...                                                       ...f444...                                      ..3333o.                                                    ....144144....                                       ",
"                              ..f44444...                                                      ..f44444...                                     ..3433d.                                                   ...4111111111...                                      ",
"                             ...f444444..                                                     ...f444444..                                     ..4443d..                                                 ...111111111114...                                     ",
"                            ...s4444414...                                                   ...s4444444..                                     ..4443d..                                                ...&1111111111111...          .......                   ",
"                            ..s444444144..                                                   ..f444444444..                                    ..4444d..                                               ...%&11111111111111...      ..............               ",
"                            ..f444411114..                                                   ..f444444444..                                    ..4444d...                                              .....i11111111111111...    ....111114........            ",
"                            ..f4.4.11114..                                                   ..f4.4.44444..                                   ..414444f..o                                              .....r11111111111111..   ...411111111144.....           ",
"                           ...f4.3.11111...       ...                                       ...f4.4.44444..                                   ..411114ff..                                                 ...r1111111111114... ...4111111111114443...          ",
"                           ..f44.4.11111w..      .....                                      ..f44.4.11444p..      ...                         ...111114f...                                                 ...rr111111111111.....411111111114444443...         ",
"                           ..g4411111111w..     ...$..                                      ..f4441111144p..     .....                        ...1111111g...                                                 ....r11111111114...411111111114444444333...        ",
"                           ..g4411111111w..    ...=O..                                     ..f44444111114p..    ...&..                         ..11111111g........    too                                     ....w1111111114..111111111141sssssss3335...       ",
"                           ..g4111111111w..   ...s33..                                     ..f44444111111p..   ...&&..                         ..111111111g...................                                  ...1111111111.11111111144as.......3333@..       ",
"                           ..g1111111111w..  ...a333..                                     ..f44411111111p.   ...a33..                         ..e111111111fffffff...o9qg...............                         ..e1111111111111111111aa............@@..       ",
"                           ..g1111111111w......p3333..                                     ..f14111111111q.  ...a333..                          ..e111111111111111iiiieeefffff...........                         .u111111111111111114a.....      .......       ",
"                          ..f11111111111w.....i3333...                                    ..a4111111111117.....p3333..                           ..111111111111111111111166444ayyfggggg..                        ...41111111111111114s....          ....        ",
"                          ..f11111111111w..ww333333..                                     ..a44111111111e.....i3333...                           ...111111111111111111111...144444444$$..                      .....4111111111111111f...                        ",
"                          ..f11111111111w..w333333...                                    ...a11111111111e..rrr33333..                             ....1111111111111111111444144444444$$..                     ...33444.rw11111111111f..                         ",
"                          ..f11111111111r..333333...                                     ...s11111111111e..r333333...                               ...111111111111111111...144444441$$..                    ...343334..w11111111111f..                         ",
"                          ..f111111111111e.43333...                                      ..s111111111111e..333333...                                 ...111111111111111111111444444......                   ...3333334..w11111111114f..                         ",
"                         ...f1111111111111144.....                                      ...s1111111111111e.3333....                                   ...1111111111111111111144444......                    ..r3333rrr..w11111111111f..                         ",
"         ....          ....f11111111111111144...                        ....          ....s41111111111111114......                                  ......11111111111111111444444...                       ...3333i.....w11111111111f..                         ",
"        .......      .....s111111111111111111u.                        .......      .....s441111111111111114...                                    ...1111111111111111111114444....                        ..r333p......w1111111111f..                          ",
"        ..@@............ff1111111111111111111u..                       ..$$............fs4444441111111111111e.                                     ..4111111111111111111111444....                         ..333p...  ..w1111111114f..                          ",
"        ..#5333.......ff14111111111.111111111u...                      ..$5555.......ff44444444111.111111111e..                                   ..411111111111111111wwww*.....                           ..33p...   ..w1111111114f..                          ",
"        ...3333ffffffs441111111111..1111111111u....                    ...3333ffffffs444444444414..111111111e...                                 ..41111111111111uuuu8.........                            ..+-...    ..w1111111114f..                          ",
"         ...333334444411111111111...11111111111u....                    ...444444444444444444444...1111111111e....                              ...4111111111114...........                                ..+...     ..w1111141414f..                          ",
"          ...333334444444444441.....611111111111eu...                    ...444444444444444444.....11111111111e....                             ..4111111111114.......                                     .....      ..w14444.4.44f..                          ",
"           ...3444444444444444... ...6111111111111u...                    ...4444444444444444... ..e11111111111ee...                           ..4111111111114444433..                                      ...       ..;44444.4.4a...                          ",
"            .....444444444444...   ..61111111111111u.....                  .....444444444444...   ..1111111111111e...                          ..411111111111441444i...                                                ..44444.4.4s..                           ",
"             ........444444....    ...61111111111111u.....                  ........444444....    ..w1111111111111e.....                      ..41111111111www..4444i...                                               ..444414444f..                           ",
"                ..............      ...61111111111111#&...                     ..............     ...w11111111111114.....                     ..41411111111.....41444p...                                              ..414444444f..                           ",
"                    .......          ...1111111111111#...                          .......         ...w1111111111114$$...                     ..4444114411... ...14444a...                                             ..444444444s..                           ",
"                                      ...111111111111...                                            ...1111111111111$...                      ..444444444...   ...444333...                                            ...4444444a...                           ",
"                                       ...1111111111...                                              ...111111111411...                       ..444444444..     ...44433&...                                            ..444444s...                            ",
"                                        ....444444....                                                ...1111111141...                        ..44444444...      ....442&&..                                            ...44444f..                             ",
"                                         ............                                                  ....114141....                          ..4444444..         .........                                             ...4444f..                             ",
"                                           .......                                                      ............                           ..444444...           ......                                               ...444f..                             ",
"                                                                                                          .......                              ...4444...                                                                  ..444f..                             ",
"                                                                                                                                                ...&&#..                                                                   ..443f..                             ",
"                                                                                                                                                 ....#..                                                                   ..&&%f..                             ",
"                                                                                                                                                  ......                                                                   ..%&&f..                             ",
"                                                                                                                                                   .....                                                                   ........                             ",
"                                                                                                                                                    ...                                                                     ......                              ",
"                                                                                                                                                                                                                                                                ",
"                                                                                                                                                                                                                                                                ",
"                                                                                                                                                                                                                                                                ",
"                                                                                                                                                                                                                                                                ",
"                                                                                                                                                                                                                                                                ",
"                                                                                                                                                                                                                                                                ",
"                                                                                                                                                                                                                                                                ",
"                                                                                                                                                                                                                                                                ",
"                                                                                                                                                                                                                                                                ",
"                                                                                                                                                                                                                                                                ",
"                                                                                                                                                                                                                                                                ",
"                                                                                                                                                                                                                                                                ",
"                                                                                                                                                                                                                                                                ",
"                                                                                                                                                                                                                                                                ",
"                                                                                     .....                                                                                                                                                                      ",
"                                                                                    .......                                                                                                                                                                     ",
"                                                                                    ..#$+..                                                                                                                              ...                                    ",
"                                                                                    ..#$$+..                                                                                                                            ....                                    ",
"                                                                                    ..###w...                                                                                                                          ..$$..                                   ",
"               .......                                                               ..#41w...                                                                                                                        ..$$$$..                                  ",
"            ............                                                             ..f111ww..                                                                                                                       ..$$$#4....                               ",
"           ....144444.....                                                           ..g11111w..                                                                                                                      ...o#144.....                             ",
"          ...441111116w....            ...........                                   ..g111111r..                                                            .....                                                     ...61444444...                           ",
"         ...41111111111ww...         ...............                                 ..g111111ww..                                                          .......                                               ...   ...4444411i...                          ",
"        ...$1111111111111w...       ...4441114444.....                               ..g1411111w..                                                          ..#%%..                                              .....   ..r44444446p..                         ",
"       ...%#11111111111111e...     ...4111111111444,...                              ..g44411111r..                                                         ..#%%%..                                            ...%..    ..4444441444..                        ",
"       .....r11111111111111e...   ...4111111144444443...                            ..g444111.111i.                                                          ..a14..                                            ..%%..    ..44444444444..                       ",
"        .....111111111111111e...f...411111111444444333...                           ..g444.114.11i..                                                         ..s444..                                          ...3%..    ..a4444444144...                      ",
"           ...i11111111111111q.....4111111141aaaaap3333...                          ..g444.414.11i..                                                         ..s1444..                                         ..333..    ..s4444444#444..                      ",
"            ....i4111111111111...1111111111pa......3333#..                          ..g4441.111111i..                                                        ..a4441i..                                        ..333..     ..a444.444.444..                     ",
"             .....111111111111..1111111111p...........##..                          ..g44411111111r..                                                       ..a444441i..                                      ..3333..     ..g4444.44.144..                     ",
"               ....r1111111111.1111111111p....     .......                          ..g144111111111r..                                                     ..a44444111..                                      ..3433..     ..g4444.111114...                    ",
"                  ..r1111111111111111111p....        ....                           ..g444111111111r..                                                     ..s44441111i..                                     ..4433e.     ..g444111111114..      ...           ",
"                   .e111111111111111114p...                                          ..g411111111111w..                                           ...     ..f44.4.11114..                                     ..4444e..     .9444111111114...    .....          ",
"                  ...41111111111111111a...                                           ..g411111111111w..                                          .....    ..g44.4.11111r..                                    ..44441e..    .9444111111111e..   ...O..          ",
"                 ....21111111111111111s..                                            ..g1111111111111w..                                        ..$$..    ..g44.4.11111r..             .....                  ..44444r....  ..f41111111111e...  ..O#..          ",
"                ..33334.11111111111111s..                                            ..g1111111111111w..                                        ..$$a..   ..g4111111111r..            ......                  ..444441r.......f11111111111e.......5O..          ",
"               ..323333..w111111111111s..                                            ..g1111111111111w...                                       ..533p..  ..w1111111111r..           ...@%..                  ...444441www....f11111111111e.....555O..          ",
"              ..=333333..w111111111111s..                                            ..g11111111111116r...                                      ..3333e....g11111111111ww..        ....w@%..                   ..41441141266..f111111111111e.i55555..           ",
"             ...3333233..w11111111111a...                                    ...     ..g11111111111111r.i..                                     ..3335555..g411111111111w.............w33..                    ..14444444426.s1111111111111e..55555..           ",
"            ...3333i.....r11111111111s..                                    ...........g11111111111111r.ui..                                    ...335555..g111111111111w..........ii5333..                     ..444444444..f4111111111111e..5555..            ",
"            ..5333i......r11111111111s..                                    ..%&5.....g111111.111111111r.3r..                                    ..355555..g11111111111114.uuueeeer33333..                       ..44444444..s1111111.1111111..55...            ",
"            ..333i...  ..r11111111114f..                                    ...55555..g411141.111111111r.33w...    ....                           ..5555..f111111111111111..33333333333...                        ..144444..a11111111.1111111......             ",
"            ..53i...   ..r11111111114f..                                     ..55555.f4141111.111111111r..22r...........                          ...55..s11111111111111111.3333333333...                          ...444..a11111111.w1111114....               ",
"            ..%%...    ..r11111111114f..                                      ..5555.f4144141.1111111111e.233rr.....+$..             ....          .....s1111111111111111111..3333333...                   ....      .....s141111111..41111111..                ",
"            ..%...     ..r11111111114f..                                       ..55..s1441441..111111111e..3333ww5555...            .......       ....fs11111111111111111111...3333....                   ..............fs144111111&..11111144..                ",
"            .....      ..r11111.11.11o..                                        ....a41444444..111111111e..333333333...             ..%%-...........fs141111111111.1111111111e.......                     ..$O3.......ff4444444441;....1144144..                ",
"             ...        ..44444.11.3a..                                          ..a144444444..1111111111u..3333333...              ..%%53r.......fs4444111111111..11111111111ee....                      ..OO33ffffss444444444441.. ..4144144..                ",
"                        ..44441.11.3s..                                         ..a144444441....111111111u..33333....                ...533rssssss44444441111111....111111111141ee.........               ...34344444444444444444... ..r144444..                ",
"                        ..4444114443s..                                       ...a444444444.. ..111111111u..........                  ...3333444444444444441411......1111411111141eee.......               ...444444444444444444...  ..r144444..                ",
"                        ..4444444443s..                                 ........a444444444...  ..111111111u.......                     ...44444444444444441144...  ...11111111114433332%%%..                ....444444444444444...   ..r144414..                ",
"                        ..4444444444s..                                .......aa444444444...   ..111111111u..                           ....4444444444441444...     ....111111111443322%%%..                  ...444444444444....    ..r14441..                 ",
"                         ..44444444a...                                ..%&&444444444444...     ..611111111i..                            ....44444444444.....        ....466664444334.....                    .....444444......    ..r444444..                 ",
"                         ..4444444f...                                 ...%&44444444444...       ..611111111u..                             ................            ..................                       .............      ..r44444..                  ",
"                         ....44444f..                                   .....4444444.....         ..611111141u..                              ...........                  ............                            .......         ..r44444...                  ",
"                          ...&4444f..                                    ..............            ..111444144...                                                                                                                 ...r3344...                   ",
"                           ....443f..                                      .........                ..11144441w...                                                                                                             ....w33334...                    ",
"                             ..443f..                                                                ...1114444r...                                                                                                          .....333333...                     ",
"                             ..443f..                                                                 ....44442%#..                                                                                                         ...&Or3333....                      ",
"                             ..&&&f..                                                                   ....442##..                                                                                                         ..&&&O33.....                       ",
"                             ..%&&f..                                                                    ..........                                                                                                         ..........                          ",
"                             ........                                                                      .......                                                                                                           ........                           ",
"                              ......                                                                                                                                                                                                                            ",
"                                                                                                                                                                                                                                                                ",
"                                                                                                                                                                                                                                                                ",
"                                                                                                                                                                                                                                                                ",
"                                                                                                                                                                                                                                                                ",
"                                                                                                                                                                                                                                                                ",
"                                                                                                                                                                                                                                                                ",
"                                                                                                                                                                                                                                                                ",
"                                                                                                                                                                                                                                                                ",
"                                                                                                                                                                                                                                                                ",
"                                                                                                                                                                                                                                                                ",
"                                                                                                                                                                                                                                                                ",
"                                                                                                                                                                                                                                                                ",
"                                                                                                                                                                                                                                                                ",
"                                                                                                                                                                                                                                                                ",
"                                                                                                                                                                            ....                                                                                ",
"               ....                                                                            ......                                                                      ......                                    ....                                       ",
"              ......                                                                          ........                                                                    ..$%%...                                  ......                                      ",
"             ...%%%..                                                                         ..g#%#..                                                                    ..$%%%..                                 ...%%..                                      ",
"             ..$%%%..                                                                         ..g#$$..                                                                    ..$$%%..                                 ..%%%%..                                     ",
"             ...%%%%..                                                                        ..g244..                                                                   ..$$%%...                                 ...%%%<..                                    ",
"              ..$%%%...                                                                       ..g444..                                                                  ...5$$%..                                   ..%%114...                                  ",
"               ..$%%w....                                                                     ..g444...                                                               ....31$$..                                     ..611114...                  ..            ",
"               ...411w....                                                                    ..g4444...                                                             ...444444..                                     ..6111114...                ....           ",
"                ..111111i..                                                                   ..g44444...                                                           ..p1444444..                                      .61111114...               .$$..          ",
"                ..1111111i..                                                                 ...f444444..                                                          ..p44444444..                                      .611111144...             ..$$..          ",
"                ..11111111i..                                                               ...f4444444...                                                        ..p444444444..                                      .6111111144...            ..$$..          ",
"                ..111111111e..                                                              ..f444444444..                                                       ..p4444444444..                                      .61111114144..            ..w$..          ",
"                ..1141111111e..                                                             ..f444444444..                                                      ..i44444444444..                                      ..p4444144.34..          ..w43..          ",
"                ..41441111111...                                                            ..f4.5.44444..                                                      ..444444444444..                                       .p14444.44.4..         ...w44..          ",
"                ..44444411111i..                                                           ...f4.5.41114...       ...                                          ..a44444444444...                                       .p44444.11.44.         ..e144..          ",
"                 ..4444414.111p..                                                          ..g44.5.111141..      .....                                        ..a444.44414444..                                        ..i4411.11114..       ..r1444..          ",
"                 ..4444.11.1111a..                                                         ..g41111111144..     ...$..                                       ..aa444.14.44444..                                         .i4411111144..      ...r4444..          ",
"                 ..4444.11.1111a..                                                         ..g41111111144..    ...$$..                                       ..a4444.44.4444..                                          .i11111111111.    ...er14444..          ",
"                  ..444.11111111s..                                                        ..g41111111111..   ...s33..                                      ..s14411111.4444..                                 ..........i11111111111.......e1444444.           ",
"                  ..4441111111111a..                                                       ..g11111111111..  ...a333..                                     ..si4111111114444..                                ...........p11111111111.....rr1144444..           ",
"                   ..444111111111a..                                                       ..g11111111111......a3333..                                     ..s4111111111444..                                ...ssssrrr...r11111111111.111111444441..           ",
"                   ..4141111111111a..                                                     ..g411111111111.....p3333...                                    ..se1111111111444..                               ..aa444444444.r11111111111111111444444..            ",
"                    ..111111111111a..                                                     ..g411111111111..www33333..                                     ..s4111111111141..                               ..a44444444444.r1111111111111111144444...            ",
"                    ..1111111111111s..                                                    ..g111111111111..6233333...                                    ..ss1111111111111..                              ..a444444444444.r111111111111111111414...             ",
"                    ..11111111111111f..                                                   ..g111111111111..333333...                                    ..ss41111111111111.X                              ..a444444444444.r11111111111111111441...              ",
"                     .11111111111111s...                                                  ..g1111111111111.43333...                                    ...aa1111111111111+.                              ..a4444444444444.r111111111111111111....               ",
"                     ..11111111111111s...                                                ...f1111111111111114.....                                    ....a11111111111111..                              ..a344......4444.r11111111111111141....                ",
"                      .11111111111111r.....          ...                 ....          ....f11111111111111144...                       ...          .....p111111111111111.                               .%343.........34.r111111111111111....                  ",
"                      .111111111111111r.5....      ......               .......      .....s111111111111111111e.g                      ......      ....55.p111111111111111.                               .%33...     ...3.r11111111111......                    ",
"                      ..11111111111111r.555..........@%..               ..+.............ss1111111111111111111e..                      ..&@..........555..i11111111111141..                               .%%%..       ....r1111111111....                       ",
"                      ..114.11111111111i.553u......555%..               ..+5333.......fs44441411111.111111111e...                     ..&565......w555..p11111111111.444..                               .%%%..        ..r11111111111..                         ",
"                      ..444.81111111111i..353eerrrr535...               ...3333fffffff444444441411..1111111111u....                   ...533rrrrrw335..pp1111111111.4444..                               .%%..         ..r11111111111..                         ",
"                      ..4444.11111111111p..3333333333...                 ...333334444444444444444...11111111111u....                   ...3333333333..pp11111111111.4444..                               .....         ..r1111111111..                          ",
"                      ..4444.w11111111111p..33333333...                   ...444333444444444444.....w11111111111uu...                   ...33333333..pp11111111111.44444..                                ...         ...r1111111111..                          ",
"                      ..44332.w1111111111r...33333....                     ...4444444444444444... ...6111111111111u...                   ....33333...p11111111111..44444..                                            ..r1111111111..                           ",
"                      ..44433..w1111111111e..........                       .....444444444444...   ..61111111111111u.....                  .........p111111111111..44444..                                            ..r111111111...                           ",
"                     ..r33333...11111111111u.......                          ........444444....    ...61111111111111u.....                   ......p111111111111...444444..                                          ..r1111111111..                            ",
"                     ..333333...w11111111111u...                                ..............      ...61111111111111##...                      ..p111111111111....444444..                                         ...r111111111..                             ",
"                    ..333333.. ..111111111111u...                                   .......          ...6111111111111#...                     ...p141111111111... ..444444..                                        ..r111111111...                             ",
"                  ...3333333..  ..111111111111u...                                                    ...611111111111...                     ...i111141111111...  ..4444444...                                     ..r141111111...                              ",
"                ....3333333..    ..111111111111u...                                                    ...6111111111...                     ...i111411111111...    ..4444444....                                  ..e144111111...                               ",
"              ....63333333...     ..111111111111up...                                                   ....111111....                    ....i141441144111...     ...44443333....                               ..e444444141...                                ",
"             ....63333333...       ..1111111111111u....                                                  ............                    ...ie144444444141...       ...44443332@@..                            ...e444444411...                                 ",
"             ..@@@33333....         ...111111111111ii.....                                                 .......                    .....4444444444441w...         ....44333@@=..                          ....e444444441...                                  ",
"             ............            ...11111111114443u....                                                                         ....,44444444444411w...            ............                         ...;444444444....                                   ",
"               ........               ....111111114443&%$..                                                                         ..%%%4444444444444....               ........                           ..%%44444444....                                    ",
"                                        .....111114444$$%..                                                                         ..%%%&444444444.....                                                    ..%%%44444....                                      ",
"                                          .......44442$$..                                                                           ..%%&44444.......                                                       .%%%&44....                                        ",
"                                             ............                                                                             .............                                                          .........                                          ",
"                                                ........                                                                               ........                                                               ......                                            ",
"                                                                                                                                                                                                                                                                ",
"                                                                                                                                                                                                                                                                ",
"                                                                                                                                                                                                                                                                ",
"                                                                                                                                                                                                                                                                ",
"                                                                                                                                                                                                                                                                ",
"                                                                                                                                                                                                                                                                ",
"                                                                                                                                                                                                                                                                ",
"                                                                                                                                                                                                                                                                ",
"                                                                                                                                                                                                                                                                ",
"                                                                                                                                                                                                                                                                ",
"                                                                                                                                                                                                                                                                ",
"                                                                                                                                                                                                                                                                ",
"                                                                                              .....                                                                                                                                                             ",
"                                                                                             .......                                                                                                                                                            ",
"                                                                                             ..%&&..                                                                                                                                                            ",
"                                                                                             ..0&&..                                                                                                                                                            ",
"                                                                                             ..0&&..                                                                                                        ....                                                ",
"                                                                                             ..s44...                                                        .........                                     ......                                               ",
"                                                                                            ..f4444..                                                     ...............                                 ...&&...                                              ",
"                                                                                            ..s4444..                                                   .....111111114.....                               ..&&&&..........                                      ",
"                                                                                           ..s444444..                                                ....111111111111111....                             ..&&&&&............                                   ",
"                                                                                          ..s4444444..                                              ....rw11111111111111111....                           ...&&&&&44444444.....                                 ",
"                               ......                                                     ..a44444444..                                            ...r111111111111111111111w...                           ....&&444444411114....                               ",
"                              ........                                                   ..s444444444..                                           ..ss11111111111111111111111w...                            ...444444441111111....          .....              ",
"                              ..#$$$..                                                   ..f6.4.11114..                                          ..aa41111111111111111111111114...                            ...444444..11111111...      ..........            ",
"                             ..#$$$$..                                                   ..f4.4.111111...                                       ..s44111111111111111111111111114...                            ..4444.44..11111111... .......44444...           ",
"                            ...#$$$$...                                                 ..f44.4.111111.....                                    ..su411111111111111111111111111111...                           ..4444..411111111111.......2334444444..          ",
"                           ...44##144..                                                 ..f441111111111.....                                  ..su41111111111111111111111111111114..                            ..4444..111111111111...233333:444444...         ",
"                          ..f1444O1114..                                             .....f444111111111.555...                                ..i4111111111111111111111111111111111..                           ..4444411111111111111..22233...444444..         ",
"                          .&f4444O1114..                                           ......fu4414111111111.555...                              ..p11111111111111......111111111111114...                           ..4444411111111111111..>>>>:e.r44444..         ",
"                         ..f44441411116..                                         ...:::.f44411111111111..5555..                            ..a111111111111e...........1111111111116..                            ..1444411111111111114..>>>>..r44444..         ",
"                        ...f44444411111..                                       ...:::::.f441111111111111..5555..                          ..a441111111111r...>>>>........11111111116..                           ...141411111111111114...>>...w44444..         ",
"                        ..f4444444111111..                                     ..:::::::.g4411111111111111..5555..                        ...a41111111111r..>>>>>...   ....6111111114..                            ...111111111..1111444..>...w444444..         ",
"                        ..f3444441111111..                                    ..:::::::..f44111111111111111..555..                        ..a11111111111r..::>>...       ...1111111111..                            ...111111111..111444.....64444444..         ",
"                       ..g6.3.4444O11111..                                   ..::::::::.f4441111111111111111..555..                      ..a14111111111e..:>>:>..         ...111111114..                             ...41111111...114444...64444444..          ",
"                       ..g6.3.1441O111111..                                 ..:::::::::.g4441111.w11111111111..555..                     ..a41111111111..>:>>>..           ...41111144..                               ..11111111...1444...44444444...          ",
"                       ..g3.4.1441O111111..                                ...:::::::...g4441141..ww1111111111..55..                    ..a44111111111..>>>>>:..            ..414441411..                              ..111111111..44...644444444...           ",
"                       ..g44444441O111111..                               ...:::::......g4441111....r111111114...55..                  ...s4411111111w..>:>>>..              ..41444444..                               ...111111111....644444444...            ",
"                       ..g44444441O111111..                               ..>:::=...  .gg4444411.....e111111114..55..                  ..s4111111111w...>>>>:..              ..44444444..                             .....1111111411..34444444....             ",
"                       ..g44444441O111111..       ...                    ..>:::>..   ..g4444441..  ...e141111114..55..                 ..f441111111w....>>>>..                ..41444444..                           ...>>..11144444..44444444...               ",
"                       ..g44444441#111111..      ..+..                   ..>>>...    ..g4444441..   ..7r14111114..5<..                 ..s444411111w....>>>>..                ..44444444..                         ...>>::..1114444..%334343....                ",
"                       ..g4441441OO111111...   ....+..                  ..:>>...     ..g444444...    ..p414411444..<&.                ..f4444444111w....>>>>..                 ..4444444..                        ..5::::::..114444.%&%5444....                 ",
"                       ..g4444441O1111111e.......>>+..                  ..>>...     ..g4444444..      ..i11444444..<&..               ..f444444441w.. ..>>>>..                 ..4444444..                       ..55.::::::..44444.%%&%6......                 ",
"                      ...f4441411.1111111e.....>>>>>..                  ..>...     ...f444441...       ..e4444444..<;..               ..g444444414w.. ..>>>>.                  ..4444444..                      ..55.:::::::..41444..%&....44...                ",
"           ...        ..s41411111.1111111e..<>>>>>>>..                 ..&>..      ..f4444444..        ...e444444..%;..               ..g4.44.4444w.. ..>>>..                   ..444444..                     ..55.>:::::::...14444.....4444...                ",
"          .....      ...s44111411.11111111r..>>>>>>..                  ..&...     ..f4444444...         ..e4444444.....               ..g6.44.4444..   ..>>..                   ..444444..                     ..55.::::::......14444444411444..                ",
"          ..&....   ...s41414411..11111111r....>>>..                   ..&..     ...s4444444..           ..6444444.....               ..g4.44.4444..   ..%%..                   ..444444..                    ..535.:::>....   ..14141411144444..               ",
"          ..&@........s111141111..111111111r...........                .....    ...s4444444...           ..6444444..                  ..g444444444..   ..%%..                   ..444444..                    .3333.>>....      ...441144444444..               ",
"          ..&5sf@...ss1444441111..1111111111rr.........                 ...    ...s44444444..            ..i444444..                  ..g444444444..    ....                    ..444444..                   ..3333.>...         ....1114444444..               ",
"          ...344ssss44444444111....11111111111rrrrr&&..                       ...a44444444...             ..e44444..                   ..f4444444..     ....                     ..4444..                    ..4433...             ...1114444444..              ",
"           ...4444444444444411.....1111111111142222&&..                      ...a44444444..               ..u44444..                   ..f444444i..                              ..4444..                    ..4433...               ..r44444444..              ",
"            ..444444444444441...  ..111111111122222u...                     ...p44444444...                ..r4444..                    ..s44444..                               ..:434..                    ..44343..                ..w4444444..              ",
"             ..4444444444444...    ..1111111112222....                    ...ii44444444...                 ..r4334..                    ..f4444..                                ..=333..                    ..44333..                ..w4444444..              ",
"              ...4444444444...      ...111111122.....                    ..&&44444444....                  ..r4444..                     ..f444..                                 ..&&&..                     .i43333..               ..w4444444..              ",
"               ..............        .............                      ..&&&4444444...                    ...4334..                     ..f333..                                 ..&&&..                     ..i333&%..             ..w4444444..               ",
"                 ..........            .........                        ..&&&&4444....                      ..3333..                     ..g&&&..                                 ..&&&..                      ..33&&&..            ...64444444..               ",
"                                                                        ............                        ..3333..                     ..g%&&..                                 ..&&&..                       ..&&&&..          ...&44444444..                ",
"                                                                         .........                          ..333..                      ..=&&&..                                 ..%&%..                        .......         ...&44444444..                 ",
"                                                                                                            ..&&&..                       .......                                 ..%&...                         .....         ..%%&&44444...                  ",
"                                                                                                            ..&&...                       ......                                  ......                                        ..%%&&34.....                   ",
"                                                                                                             .....                                                                 .....                                         ..........                     ",
"                                                                                                             ....                                                                                                                 ......                        ",
"                                                                                                                                                                                                                                                                ",
"                                                                                                                                                                                                                                                                ",
"                                                                                                                                                                                                                                                                ",
"                                                                                                                                                                                                                                                                ",
"                                                                                                                                                                                                                                                                ",
"                                                                                                                                                                                                                                                                ",
"                                                                                                                                                                                                                                                                ",
"                                                                                                                                                                                                                                                                ",
"                                                                                                                                                                                                                                                                "
};
