/* XPM */
static char *car3_p1_s1[] = {
"64 64 31 2",
"aa	c #ff00ff",
"ab	c #010000",
"ac	c #283dc7",
"ad	c #2323b8",
"ae	c #273fd2",
"af	c #1b3095",
"ag	c #3641bd",
"ah	c #262c56",
"ai	c #222e6f",
"aj	c #3c3875",
"ak	c #cac6ce",
"al	c #bcb8bb",
"am	c #141f50",
"an	c #1e2b85",
"ao	c #39442e",
"ap	c #1b2878",
"aq	c #43444b",
"ar	c #232529",
"as	c #2b2d34",
"at	c #162665",
"au	c #2d40b8",
"av	c #333dab",
"aw	c #3c4dcf",
"ax	c #2d3d9b",
"ay	c #2341ab",
"az	c #273587",
"aA	c #282a36",
"aB	c #383a43",
"aC	c #57614c",
"aD	c #3d3ea9",
"aE	c #875dec",
"aaaaaaaaaaaaaaaaaaaaaaaaaaaaaaaaaaaaaaaaaaaaaaaaaaaaaaaaaaaaaaaaaaaaaaaaaaaaaaaaaaaaaaaaaaaaaaaaaaaaaaaaaaaaaaaaaaaaaaaaaaaaaaaa",
"aaaaaaaaaaaaaaaaaaaaaaaaaaaaaaaaaaaaaaaaaaaaaaaaaaaaaaaaaaaaaaaaaaaaaaaaaaaaaaaaaaaaaaaaaaaaaaaaaaaaaaaaaaaaaaaaaaaaaaaaaaaaaaaa",
"aaaaaaaaaaaaaaaaaaaaaaaaaaaaaaaaaaaaaaaaaaaaaaaaaaaaaaababababababababababaaaaaaaaaaaaaaaaaaaaaaaaaaaaaaaaaaaaaaaaaaaaaaaaaaaaaa",
"aaaaaaaaaaaaaaaaaaaaaaaaaaaaaaaaaaaaaaaaaaaaaaaaabababacacacacacacacacacacabababaaaaaaaaaaaaaaaaaaaaaaaaaaaaaaaaaaaaaaaaaaaaaaaa",
"aaaaaaaaaaaaaaaaaaaaaaaaaaaaaaaaaaaaaaaaaaaaababadaeaeacaeafafafafafafacacacacagababaaaaaaaaaaaaaaaaaaaaaaaaaaaaaaaaaaaaaaaaaaaa",
"aaaaaaaaaaaaaaaaaaaaaaaaaaaaaaaaaaaaaaaaaaabahaiabaeaeafafaeaeaeaeaeaeafafaeaeabajajabaaaaaaaaaaaaaaaaaaaaaaaaaaaaaaaaaaaaaaaaaa",
"aaaaaaaaaaaaaaaaaaaaaaaaaaaaaaaaaaaaaaaaabaiaiakabaeafaeaeaeaeaeaeaeaeaeaeafaeabalahajabaaaaaaaaaaaaaaaaaaaaaaaaaaaaaaaaaaaaaaaa",
"aaaaaaaaaaaaaaaaaaaaaaaaaaaaaaaaaaaaaaabamaialabaeafaeaeaeaeaeaeaeaeaeaeaeaeafacabalajajabaaaaaaaaaaaaaaaaaaaaaaaaaaaaaaaaaaaaaa",
"aaaaaaaaaaaaaaaaaaaaaaaaaaaaaaaaaaaaaaabahalabacaeafaeaeaeaeaeaeaeaeaeaeaeaeafaeaeabalahabaaaaaaaaaaaaaaaaaaaaaaaaaaaaaaaaaaaaaa",
"aaaaaaaaaaaaaaaaaaaaaaaaaaaaaaaaaaaaabadababacaeafaeaeaeaeaeaeaeaeaeaeaeaeaeaeafaeacababafabaaaaaaaaaaaaaaaaaaaaaaaaaaaaaaaaaaaa",
"aaaaaaaaaaaaaaaaaaaaaaaaaaaaaaaaaaaaabadacacaeaeafaeaeaeaeaeaeaeaeaeaeaeaeaeaeafaeaeacafafabaaaaaaaaaaaaaaaaaaaaaaaaaaaaaaaaaaaa",
"aaaaaaaaaaaaaaaaaaaaaaaaaaaaaaaaaaabanacaeaeaeafaeaeaeaeaeaeaeaeaeaeaeaeaeaeaeaeafaeaeaeafafabaaaaaaaaaaaaaaaaaaaaaaaaaaaaaaaaaa",
"aaaaaaaaaaaaaaaaaaaaaaaaaaaaaaaaaaabanacaeaeaeafaeaeaeaeaeaeaeaeaeaeaeaeaeaeaeaeafaeaeaeaeafabaaaaaaaaaaaaaaaaaaaaaaaaaaaaaaaaaa",
"aaaaaaaaaaaaaaaaaaaaaaaaaaaaaaaaaaabanaeaeaeaeafaeaeaeaeaeaeaeaeaeaeaeaeaeaeaeaeafaeaeaeacafabaaaaaaaaaaaaaaaaaaaaaaaaaaaaaaaaaa",
"aaaaaaaaaaaaaaaaaaaaaaaaaaaaaaaaaaabafaeaeaeafaeaeaeaeafababababababababafaeaeaeaeafaeaeacafabaaaaaaaaaaaaaaaaaaaaaaaaaaaaaaaaaa",
"aaaaaaaaaaaaaaaaaaaaaaaaaaaaaaaaaaabafaeaeaeafaeaeabababaoaoaoaoaoaoaoaoabababaeaeapaeaeacafabaaaaaaaaaaaaaaaaaaaaaaaaaaaaaaaaaa",
"aaaaaaaaaaaaaaaaaaaaaaaaaaaaaaaaaaabafaeaeaeafaeababaqaqaqaqaqaqaqaqaqaqaqaqarabacapaeaeacafabaaaaaaaaaaaaaaaaaaaaaaaaaaaaaaaaaa",
"aaaaaaaaaaaaaaaaaaaaaaaaaaaaaaaaaaabafaeaeaeafabasasaqaqaqaqaqaqaqaqaqaqaqaqaqaqabatacaeacafabaaaaaaaaaaaaaaaaaaaaaaaaaaaaaaaaaa",
"aaaaaaaaaaaaaaaaaaaaaaaaaaaaaaaaaaabanaeaeaeabasaqaqaqaqaqaqaqaqaqaqaqaqaqaqaqaqaqabacacacafabaaaaaaaaaaaaaaaaaaaaaaaaaaaaaaaaaa",
"aaaaaaaaaaaaaaaaaaaaaaaaaaaaaaaaaaabananaeaeabasasaqaqaqaqaqaqaqaqaqaqaqaqaqaqaqaqabacacafafabaaaaaaaaaaaaaaaaaaaaaaaaaaaaaaaaaa",
"aaaaaaaaaaaaaaaaaaaaaaaaaaaaaaaaaaabananaeaeaiabasasasasasasasasasaqaqaqaqaqaqaqabapacacafafabaaaaaaaaaaaaaaaaaaaaaaaaaaaaaaaaaa",
"aaaaaaaaaaaaaaaaaaaaaaaaaaaaaaaaaaaaabanauaeavabarasasasasasasasasaqaqaqaqaqaqaqabauacacafabaaaaaaaaaaaaaaaaaaaaaaaaaaaaaaaaaaaa",
"aaaaaaaaaaaaaaaaaaaaaaaaaaaaaaaaaaaaababauabavabarasasasasasasasasaqaqaqaqaqaqasabauabawababaaaaaaaaaaaaaaaaaaaaaaaaaaaaaaaaaaaa",
"aaaaaaaaaaaaaaaaaaaaaaaaaaaaaaaaaaabauauagababavabasasababababababababababasasabauababawaxaxabaaaaaaaaaaaaaaaaaaaaaaaaaaaaaaaaaa",
"aaaaaaaaaaaaaaaaaaaaaaaaaaaaaaaaabayauauagababayabababaeaeaeaeaeaeaeaeaeacabababagababawaxaxaxabaaaaaaaaaaaaaaaaaaaaaaaaaaaaaaaa",
"aaaaaaaaaaaaaaaaaaaaaaaaaaaaaaaaabayababagababayafayaeaeaeaeaeaeaeaeaeaeaeaeafafagababawazabaxabaaaaaaaaaaaaaaaaaaaaaaaaaaaaaaaa",
"aaaaaaaaaaaaaaaaaaaaaaaaaaaaaaaaabababanagabasabafaeaeaeaeaeaeaeaeaeaeaeaeaeaeafabasabawazabababaaaaaaaaaaaaaaaaaaaaaaaaaaaaaaaa",
"aaaaaaaaaaaaaaaaaaaaaaaaaaaaaaaaaaaaabazagabaAabafaeaeaeaeaeaeaeaeaeaeaeaeaeaeafabaAabawaxabaaaaaaaaaaaaaaaaaaaaaaaaaaaaaaaaaaaa",
"aaaaaaaaaaaaaaaaaaaaaaaaaaaaaaaaaaaaabazagabaAabafaeaeaeaeaeaeaeaeaeaeaeaeaeaeafabaAabawaxabaaaaaaaaaaaaaaaaaaaaaaaaaaaaaaaaaaaa",
"aaaaaaaaaaaaaaaaaaaaaaaaaaaaaaaaaaaaabazagabaAabafaeaeaeaeaeaeaeaeaeaeaeaeaeaeafabaAabawaxabaaaaaaaaaaaaaaaaaaaaaaaaaaaaaaaaaaaa",
"aaaaaaaaaaaaaaaaaaaaaaaaaaaaaaaaaaaaabazagabaAabafaeaeaeaeaeaeaeaeaeaeaeaeaeaeafabaAabawaxabaaaaaaaaaaaaaaaaaaaaaaaaaaaaaaaaaaaa",
"aaaaaaaaaaaaaaaaaaaaaaaaaaaaaaaaaaaaabazagabaAabafaeaeaeaeaeaeaeaeaeaeaeaeaeaeafabaAabawaxabaaaaaaaaaaaaaaaaaaaaaaaaaaaaaaaaaaaa",
"aaaaaaaaaaaaaaaaaaaaaaaaaaaaaaaaaaaaabazagabaAabafaeaeaeaeaeaeaeaeaeaeaeaeaeaeafabasabawaxabaaaaaaaaaaaaaaaaaaaaaaaaaaaaaaaaaaaa",
"aaaaaaaaaaaaaaaaaaaaaaaaaaaaaaaaaaaaabazagabaAabafaeaeaeaeaeaeaeaeaeaeaeaeaeaeafabaBabawaxabaaaaaaaaaaaaaaaaaaaaaaaaaaaaaaaaaaaa",
"aaaaaaaaaaaaaaaaaaaaaaaaaaaaaaaaaaaaabafacabaAabafaeaeaeaeaeaeaeaeaeaeaeaeaeaeafabaBabawaxabaaaaaaaaaaaaaaaaaaaaaaaaaaaaaaaaaaaa",
"aaaaaaaaaaaaaaaaaaaaaaaaaaaaaaaaaaaaabazacabababafaeaeaeaeaeaeaeaeaeaeaeaeaeaeafabababagaxabaaaaaaaaaaaaaaaaaaaaaaaaaaaaaaaaaaaa",
"aaaaaaaaaaaaaaaaaaaaaaaaaaaaaaaaaaaaabazaeabaAabafaeaeaeaeaeaeaeaeaeaeaeaeaeaeafabamabagafabaaaaaaaaaaaaaaaaaaaaaaaaaaaaaaaaaaaa",
"aaaaaaaaaaaaaaaaaaaaaaaaaaaaaaaaaaaaabazaeabaAabafaeaeaeaeaeaeaeaeaeaeaeaeaeaeafabaAabacaxabaaaaaaaaaaaaaaaaaaaaaaaaaaaaaaaaaaaa",
"aaaaaaaaaaaaaaaaaaaaaaaaaaaaaaaaaaabanaeaeafabafafafaeaeaeaeaeaeaeaeaeaeaeaeafafafabafacaeafabaaaaaaaaaaaaaaaaaaaaaaaaaaaaaaaaaa",
"aaaaaaaaaaaaaaaaaaaaaaaaaaaaaaaaaaabafaeaeafabafafababababababababababababababafafabafaeaeafabaaaaaaaaaaaaaaaaaaaaaaaaaaaaaaaaaa",
"aaaaaaaaaaaaaaaaaaaaaaaaaaaaaaaaaaabafaeaeafatafafabaraBaBaBaBaBaBaBaBaBaoaoabafafabafaeaeafabaaaaaaaaaaaaaaaaaaaaaaaaaaaaaaaaaa",
"aaaaaaaaaaaaaaaaaaaaaaaaaaaaaaaaaaabafaeaeafafafabaraBaBaBaBaBaBaBaBaBaBaCaCasabafafafaeaeafabaaaaaaaaaaaaaaaaaaaaaaaaaaaaaaaaaa",
"aaaaaaaaaaaaaaaaaaaaaaaaaaaaaaaaababafaeaeafafafabaraBaBaBaBaBaBaBaBaBaBaCaCasabafafafaeaeafababaaaaaaaaaaaaaaaaaaaaaaaaaaaaaaaa",
"aaaaaaaaaaaaaaaaaaaaaaaaaaaaaaaaabanafaeaeaeafafabaraBaBaBaBaBaBaBaBaBaBaCaqasabafafaeaeaeafanabaaaaaaaaaaaaaaaaaaaaaaaaaaaaaaaa",
"aaaaaaaaaaaaaaaaaaaaaaaaaaaaaaaaabanafaeaeaeafafabaraBaBaBaBaBaBaBaBaBaBaBaqarabafafaeaeaeafanabaaaaaaaaaaaaaaaaaaaaaaaaaaaaaaaa",
"aaaaaaaaaaaaaaaaaaaaaaaaaaaaaaaaabanaeaeaeaeafafabararaBaBaBaBaBaBaBaBaBaBararabafafaeaeaeaeanabaaaaaaaaaaaaaaaaaaaaaaaaaaaaaaaa",
"aaaaaaaaaaaaaaaaaaaaaaaaaaaaaaaaabanaeaeaeaeaeafafabaraBaBaBaBaBaBaBaBaBararabanafaeaeaeaeaeanabaaaaaaaaaaaaaaaaaaaaaaaaaaaaaaaa",
"aaaaaaaaaaaaaaaaaaaaaaaaaaaaaaaaabanafaeaeaeaeafafacababaBaBaBaBaBaBaBarababaeafafaeaeaeaeaxanabaaaaaaaaaaaaaaaaaaaaaaaaaaaaaaaa",
"aaaaaaaaaaaaaaaaaaaaaaaaaaaaaaaaabanafaeaeaeaeafafadadadababababababababaeaeaeanafaeaeaeaeafanabaaaaaaaaaaaaaaaaaaaaaaaaaaaaaaaa",
"aaaaaaaaaaaaaaaaaaaaaaaaaaaaaaaaabanafababaeaeaeafadaeaeaeaeaeacacacacaeaeaeaeanacaeaeababafanabaaaaaaaaaaaaaaaaaaaaaaaaaaaaaaaa",
"aaaaaaaaaaaaaaaaaaaaaaaaaaaaaaaaabanafabaqabaeaeafaeaeaeaeaeaeaeaeaeaeaeaeaeaeanacaeabaqabafanabaaaaaaaaaaaaaaaaaaaaaaaaaaaaaaaa",
"aaaaaaaaaaaaaaaaaaaaaaaaaaaaaaaaabanafabaqaqababababaeaeaeaeaeaeaeaeaeaeaeaeababababaqaCabafanabaaaaaaaaaaaaaaaaaaaaaaaaaaaaaaaa",
"aaaaaaaaaaaaaaaaaaaaaaaaaaaaaaaaabanazabaqaqaqaCaCaCababababababababababababaCaCaCaCaqaCabananabaaaaaaaaaaaaaaaaaaaaaaaaaaaaaaaa",
"aaaaaaaaaaaaaaaaaaaaaaaaaaaaaaaaaaabazabasasaCaCaCaCaCaCaCaCaCaCaCaCaCaCaCaCaCaCaqaCasasabanabaaaaaaaaaaaaaaaaaaaaaaaaaaaaaaaaaa",
"aaaaaaaaaaaaaaaaaaaaaaaaaaaaaaaaaaabatabababasasasasaCaCaCaCaCaCaCaCaCaCaCaqasasasasabababanabaaaaaaaaaaaaaaaaaaaaaaaaaaaaaaaaaa",
"aaaaaaaaaaaaaaaaaaaaaaaaaaaaaaaaaaabatabatapababababasasasasasasasasasasasasababababapapabanabaaaaaaaaaaaaaaaaaaaaaaaaaaaaaaaaaa",
"aaaaaaaaaaaaaaaaaaaaaaaaaaaaaaaaaaaaabatatavavavamatababababababababababababamanaDagagamapabaaaaaaaaaaaaaaaaaaaaaaaaaaaaaaaaaaaa",
"aaaaaaaaaaaaaaaaaaaaaaaaaaaaaaaaaaaaabatatamamamamananananananananananapapananamamamamapapabaaaaaaaaaaaaaaaaaaaaaaaaaaaaaaaaaaaa",
"aaaaaaaaaaaaaaaaaaaaaaaaaaaaaaaaaaaaaaabatamanananananananaEaEaEaEaEaEapapananafafafapapabaaaaaaaaaaaaaaaaaaaaaaaaaaaaaaaaaaaaaa",
"aaaaaaaaaaaaaaaaaaaaaaaaaaaaaaaaaaaaaaaaababamatatatatatatatatatatatatapapamamamapapababaaaaaaaaaaaaaaaaaaaaaaaaaaaaaaaaaaaaaaaa",
"aaaaaaaaaaaaaaaaaaaaaaaaaaaaaaaaaaaaaaaaaaaaababababababababababababababababababababaaaaaaaaaaaaaaaaaaaaaaaaaaaaaaaaaaaaaaaaaaaa",
"aaaaaaaaaaaaaaaaaaaaaaaaaaaaaaaaaaaaaaaaaaaaaaaaaaaaaaaaaaaaaaaaaaaaaaaaababaaabaaaaaaaaaaaaaaaaaaaaaaaaaaaaaaaaaaaaaaaaaaaaaaaa",
"aaaaaaaaaaaaaaaaaaaaaaaaaaaaaaaaaaaaaaaaaaaaaaaaaaaaaaaaaaaaaaaaaaaaaaaaaaaaaaaaaaaaaaaaaaaaaaaaaaaaaaaaaaaaaaaaaaaaaaaaaaaaaaaa",
"aaaaaaaaaaaaaaaaaaaaaaaaaaaaaaaaaaaaaaaaaaaaaaaaaaaaaaaaaaaaaaaaaaaaaaaaaaaaaaaaaaaaaaaaaaaaaaaaaaaaaaaaaaaaaaaaaaaaaaaaaaaaaaaa"
};
