/* XPM */
static char *car3_p1_s2[] = {
"64 64 212 2",
"aa	c #ff00ff",
"ab	c #010000",
"ac	c #1a1a3a",
"ad	c #303cad",
"ae	c #191949",
"af	c #18172a",
"ag	c #3232a7",
"ah	c #223090",
"ai	c #384ace",
"aj	c #303db2",
"ak	c #2a3594",
"al	c #232f8a",
"am	c #343ba8",
"an	c #0e0f27",
"ao	c #2b2d55",
"ap	c #343982",
"aq	c #20204b",
"ar	c #2d3893",
"as	c #293382",
"at	c #303c87",
"au	c #3e3c85",
"av	c #20275e",
"aw	c #878ab0",
"ax	c #7e7fa9",
"ay	c #343676",
"az	c #363364",
"aA	c #191f4f",
"aB	c #777aa7",
"aC	c #273074",
"aD	c #2a2a61",
"aE	c #2b3484",
"aF	c #25339e",
"aG	c #303fd0",
"aH	c #887675",
"aI	c #222652",
"aJ	c #2b2da5",
"aK	c #2e378d",
"aL	c #1c2871",
"aM	c #313ca3",
"aN	c #101135",
"aO	c #0e184a",
"aP	c #212977",
"aQ	c #3342be",
"aR	c #302ad9",
"aS	c #232d7a",
"aT	c #141f69",
"aU	c #313b9d",
"aV	c #2b22dc",
"aW	c #262ebd",
"aX	c #232c63",
"aY	c #1f2b7f",
"aZ	c #200b73",
"a0	c #3a097d",
"a1	c #210679",
"a2	c #191614",
"a3	c #2a3569",
"a4	c #3742b4",
"a5	c #251370",
"a6	c #1d2217",
"a7	c #3c2d8a",
"a8	c #562b94",
"a9	c #3d2890",
"a!	c #303136",
"a#	c #130f54",
"a$	c #1e1d1d",
"a%	c #2a305a",
"a&	c #190b63",
"a(	c #483991",
"a)	c #212225",
"a*	c #3a3185",
"a+	c #5c2e9f",
"a,	c #8d59a0",
"a-	c #67339f",
"a.	c #432c9b",
"a/	c #353576",
"a:	c #111314",
"a;	c #313c82",
"a<	c #252a3c",
"a=	c #2f2579",
"a>	c #9666a0",
"a?	c #0b1232",
"a@	c #000000",
"a[	c #0f1542",
"a]	c #58369a",
"a^	c #9871a0",
"a_	c #423194",
"a{	c #141e63",
"a|	c #2e2c2e",
"a}	c #793ca0",
"a~	c #351f6e",
"ba	c #272c50",
"bb	c #502393",
"bc	c #613492",
"bd	c #8b5b94",
"be	c #6d3194",
"bf	c #8c6594",
"bg	c #211b9f",
"bh	c #171f5c",
"bi	c #191d55",
"bj	c #252466",
"bk	c #773d93",
"bl	c #303986",
"bm	c #31357f",
"bn	c #2c2d3b",
"bo	c #5c2793",
"bp	c #15171a",
"bq	c #82499f",
"br	c #1e2667",
"bs	c #352dcc",
"bt	c #3b2ece",
"bu	c #3c33d7",
"bv	c #362cbd",
"bw	c #171e4d",
"bx	c #112055",
"by	c #2b397f",
"bz	c #323688",
"bA	c #161e4d",
"bB	c #4039c3",
"bC	c #151c51",
"bD	c #27356e",
"bE	c #3429b3",
"bF	c #202297",
"bG	c #5a28dc",
"bH	c #1d265b",
"bI	c #252898",
"bJ	c #2721a7",
"bK	c #450d7d",
"bL	c #14141b",
"bM	c #282ca2",
"bN	c #5423c1",
"bO	c #60237e",
"bP	c #804fdd",
"bQ	c #6b347f",
"bR	c #7643e5",
"bS	c #5b33ca",
"bT	c #4b1a7c",
"bU	c #78597f",
"bV	c #8253e6",
"bW	c #252e78",
"bX	c #6139e4",
"bY	c #6d437e",
"bZ	c #283282",
"b0	c #1b205e",
"b1	c #2e3164",
"b2	c #111541",
"b3	c #2d365d",
"b4	c #2435aa",
"b5	c #263298",
"b6	c #2422cc",
"b7	c #5024e6",
"b8	c #4028e2",
"b9	c #2c379f",
"b!	c #7f58e8",
"b#	c #202441",
"b$	c #1e2d8b",
"b%	c #11100e",
"b&	c #3f36d7",
"b(	c #6044e4",
"b)	c #2434a4",
"b*	c #1a2359",
"b+	c #212438",
"b,	c #2c3143",
"b-	c #282b30",
"b.	c #1c1d21",
"b/	c #39404d",
"b:	c #2d2c30",
"b;	c #373a3f",
"b<	c #2a2829",
"b=	c #353336",
"b>	c #2f3551",
"b?	c #323134",
"b@	c #262628",
"b[	c #313e6d",
"b]	c #222223",
"b^	c #273062",
"b_	c #2e315b",
"b{	c #242846",
"b|	c #22349b",
"b}	c #283bba",
"b~	c #333a87",
"ca	c #1f2183",
"cb	c #2830ad",
"cc	c #222591",
"cd	c #283bb4",
"ce	c #343956",
"cf	c #2c3026",
"cg	c #3f4c77",
"ch	c #3c445b",
"ci	c #282d4a",
"cj	c #474e6f",
"ck	c #2b3566",
"cl	c #33375f",
"cm	c #28306c",
"cn	c #0e133c",
"co	c #303687",
"cp	c #1d2767",
"cq	c #34398f",
"cr	c #3a3fa0",
"cs	c #2d3273",
"ct	c #30377d",
"cu	c #31378d",
"cv	c #3f3f9f",
"cw	c #3b40a9",
"cx	c #293085",
"cy	c #293185",
"cz	c #1c235d",
"cA	c #1f2871",
"cB	c #2a3076",
"cC	c #523fab",
"cD	c #1c2463",
"cE	c #2a2731",
"cF	c #474340",
"aaaaaaaaaaaaaaaaaaaaaaaaaaaaaaaaaaaaaaaaaaaaaaaaaaaaaaaaaaaaaaaaaaaaaaaaaaaaaaaaaaaaaaaaaaaaaaaaaaaaaaaaaaaaaaaaaaaaaaaaaaaaaaaa",
"aaaaaaaaaaaaaaaaaaaaaaaaaaaaaaaaaaaaaaaaaaaaaaaaaaaaaaaaaaaaaaaaaaaaaaaaaaaaaaaaaaaaaaaaaaaaaaaaaaaaaaaaaaaaaaaaaaaaaaaaaaaaaaaa",
"aaaaaaaaaaaaaaaaaaaaaaaaaaaaaaaaaaaaaaaaaaaaaaaaaaaaaaababababababababababaaaaaaaaaaaaaaaaaaaaaaaaaaaaaaaaaaaaaaaaaaaaaaaaaaaaaa",
"aaaaaaaaaaaaaaaaaaaaaaaaaaaaaaaaaaaaaaaaaaaaaaaaababacadadadadadadadadadadaeababaaaaaaaaaaaaaaaaaaaaaaaaaaaaaaaaaaaaaaaaaaaaaaaa",
"aaaaaaaaaaaaaaaaaaaaaaaaaaaaaaaaaaaaaaaaaaaaafafagahaiadajakakakakakakadadadalamafafaaaaaaaaaaaaaaaaaaaaaaaaaaaaaaaaaaaaaaaaaaaa",
"aaaaaaaaaaaaaaaaaaaaaaaaaaaaaaaaaaaaaaaaaaanaoapaqarajakakasajajatarajakakajahaeauauafaaaaaaaaaaaaaaaaaaaaaaaaaaaaaaaaaaaaaaaaaa",
"aaaaaaaaaaaaaaaaaaaaaaaaaaaaaaaaaaaaaaaaanavapawaqarakajasasajasasararajajakahaeaxayazanaaaaaaaaaaaaaaaaaaaaaaaaaaaaaaaaaaaaaaaa",
"aaaaaaaaaaaaaaaaaaaaaaaaaaaaaaaaaaaaaaanaAapaBaeahaCajasasasasasasarararajajakalaeaBazaDacaaaaaaaaaaaaaaaaaaaaaaaaaaaaaaaaaaaaaa",
"aaaaaaaaaaaaaaaaaaaaaaaaaaaaaaaaaaaaaaafaoaBaeadahaEaFasasasasasasasaGararajakahajaeaHaIacaaaaaaaaaaaaaaaaaaaaaaaaaaaaaaaaaaaaaa",
"aaaaaaaaaaaaaaaaaaaaaaaaaaaaaaaaaaaaanaJafaeaKajaLaMarasasasasasasasaGaGaraMajaLajadaeanaEafaaaaaaaaaaaaaaaaaaaaaaaaaaaaaaaaaaaa",
"aaaaaaaaaaaaaaaaaaaaaaaaaaaaaaaaaaaaaNaJaKadararaLaMasasasasasasasasasaGarasaMaLarajaKaOaCafaaaaaaaaaaaaaaaaaaaaaaaaaaaaaaaaaaaa",
"aaaaaaaaaaaaaaaaaaaaaaaaaaaaaaaaaaabaPadarajaQaCahaMasasasasasaRasasasaGaSasataSaCarataTaCaCabaaaaaaaaaaaaaaaaaaaaaaaaaaaaaaaaaa",
"aaaaaaaaaaaaaaaaaaaaaaaaaaaaaaaaaaabaPaUaFajajaLahaMasasaSasasaVaVasasasasasataSaCarataTaraCabaaaaaaaaaaaaaaaaaaaaaaaaaaaaaaaaaa",
"aaaaaaaaaaaaaaaaaaaaaaaaaaaaaaaaaaabaParaFajajaLasaMasasarararaVaVaWasasatatataSaCarataTaKaXabaaaaaaaaaaaaaaaaaaaaaaaaaaaaaaaaaa",
"aaaaaaaaaaaaaaaaaaaaaaaaaaaaaaaaaaabaYaFaFajakasahaMaVaCafafaZaZa0a1a2a2a3atataSaia3ataTaKaXabaaaaaaaaaaaaaaaaaaaaaaaaaaaaaaaaaa",
"aaaaaaaaaaaaaaaaaaaaaaaaaaaaaaaaaaabaYa4aFajakaTasaba5aba6a6a7a8a8a7a9a!a#a$a$asaMa%ataTaKaXabaaaaaaaaaaaaaaaaaaaaaaaaaaaaaaaaaa",
"aaaaaaaaaaaaaaaaaaaaaaaaaaaaaaaaaaabaYa4aFajaCahaba&a(a)a)a*a+a+a,a-a.a.a.a/a:aba;a%ataTaKaXabaaaaaaaaaaaaaaaaaaaaaaaaaaaaaaaaaa",
"aaaaaaaaaaaaaaaaaaaaaaaaaaaaaaaaaaabaYa4aFajaOaba<a=a+a*a*a*a+a>a>a-a-a-a.a/a)a/aba?aKaraKaXabaaaaaaaaaaaaaaaaaaaaaaaaaaaaaaaaaa",
"aaaaaaaaaaaaaaaaaaaaaaaaaaaaaaaaaaa@a[aFaFaTaba<a*a*a+a]a+a+a+a>a>a^a-a-a-a.a/a_a(aba{aKaKaOabaaaaaaaaaaaaaaaaaaaaaaaaaaaaaaaaaa",
"aaaaaaaaaaaaaaaaaaaaaaaaaaaaaaaaaaa@a[a[aFaTa2a|a=a+a+a]a+a+a}a>a^a^a}a-a-a.a.a}a_a&a{aKaOaOa~aaaaaaaaaaaaaaaaaaaaaaaaaaaaaaaaaa",
"aaaaaaaaaaaaaaaaaaaaaaaaaaaaaaaaaaaba[a[aFaTbaa2a=bbbcbdbebebebfbfa^a}a-a-a.a.a}aZbgaKaKaOaOaeaaaaaaaaaaaaaaaaaaaaaaaaaaaaaaaaaa",
"aaaaaaaaaaaaaaaaaaaaaaaaaaaaaaaaaaaaa2a[bharbia2bjbbbcbfbebkbfbfbfa^a^a-a-a.a}a}a&blaKa{aOa5aaaaaaaaaaaaaaaaaaaaaaaaaaaaaaaaaaaa",
"aaaaaaaaaaaaaaaaaaaaaaaaaaaaaaaaaaaaaba5bhanbmabbna=bobfbfbpbpbpbpa)a)a^a-bqa}bea&blafbra5a5aaaaaaaaaaaaaaaaaaaaaaaaaaaaaaaaaaaa",
"aaaaaaaaaaaaaaaaaaaaaaaaaaaaaaaaaaa@bhbsbtabanbmabbpbpababa2a$a$a2a2a2ababbpbpabbhafabbubvbwa@aaaaaaaaaaaaaaaaaaaaaaaaaaaaaaaaaa",
"aaaaaaaaaaaaaaaaaaaaaaaaaaaaaaaaa@bxbhbsbtabanbyafa2a2aTaSasararasarasaMaUacaqacbzafabbubvbwbAa@aaaaaaaaaaaaaaaaaaaaaaaaaaaaaaaa",
"aaaaaaaaaaaaaaaaaaaaaaaaaaaaaaaaa@bBaba#btbCabbyaCbDaTaSaSasasasasasasasaMaMaEaCbzaba5bubEabbAa@aaaaaaaaaaaaaaaaaaaaaaaaaaaaaaaa",
"aaaaaaaaaaaaaaaaaaaaaaaaaaaaaaaaa@a@abbFbGaZbpafaXaSaTaSaSaSasaMaMaMasaMaMararbHafbpa5bubIaba@a@aaaaaaaaaaaaaaaaaaaaaaaaaaaaaaaa",
"aaaaaaaaaaaaaaaaaaaaaaaaaaaaaaaaaaaaa#bJbGbKbLafaCaSaSasasasaraja4a4a4a4a4arasaOafbLa5bubMabaaaaaaaaaaaaaaaaaaaaaaaaaaaaaaaaaaaa",
"aaaaaaaaaaaaaaaaaaaaaaaaaaaaaaaaaaaaa&bNbGbKbLacaCaSaSasasarajajaja4a4a4a4arasaOa2bLbObubva5aaaaaaaaaaaaaaaaaaaaaaaaaaaaaaaaaaaa",
"aaaaaaaaaaaaaaaaaaaaaaaaaaaaaaaaaaaaa&bNbPbQbLacaEasasasarajajajajajaja4a4arasaOa2bLbObRbSbTaaaaaaaaaaaaaaaaaaaaaaaaaaaaaaaaaaaa",
"aaaaaaaaaaaaaaaaaaaaaaaaaaaaaaaaaaaaabbEbPbQbLacaEarararajajajajajajajajajarasaOa2bLbUbVbSbTaaaaaaaaaaaaaaaaaaaaaaaaaaaaaaaaaaaa",
"aaaaaaaaaaaaaaaaaaaaaaaaaaaaaaaaaaaaabbWbtbQbLafakarajajaRajajajajajajajajasasaOa2bLbUbXbSaNaaaaaaaaaaaaaaaaaaaaaaaaaaaaaaaaaaaa",
"aaaaaaaaaaaaaaaaaaaaaaaaaaaaaaaaaaaaabbWbtbQbLaeakajajajaRajajajajajajajajaMaMaXa2bpbYbXbZabaaaaaaaaaaaaaaaaaaaaaaaaaaaaaaaaaaaa",
"aaaaaaaaaaaaaaaaaaaaaaaaaaaaaaaaaaaaabbWb0abb1aeakajajaWaRaRajajajajajajajaFaFaXb2b3abbXbZabaaaaaaaaaaaaaaaaaaaaaaaaaaaaaaaaaaaa",
"aaaaaaaaaaaaaaaaaaaaaaaaaaaaaaaaaaaaabaYa{aNb1aeaYaFaFb4aWaRahahaRahahahahahahaXa2b3b2brbZabaaaaaaaaaaaaaaaaaaaaaaaaaaaaaaaaaaaa",
"aaaaaaaaaaaaaaaaaaaaaaaaaaaaaaaaaaaaabbWb5b2aeabaOaTaVaTb6b7b8aSaRaTaTaTaTaTaTaOa2b2b2b9bZabaaaaaaaaaaaaaaaaaaaaaaaaaaaaaaaaaaaa",
"aaaaaaaaaaaaaaaaaaaaaaaaaaaaaaaaaaaaabbWb4b2bLabbHaWaVb6b8b!b8b8aRatasasasasasaXabb#b2b9b$abaaaaaaaaaaaaaaaaaaaaaaaaaaaaaaaaaaaa",
"aaaaaaaaaaaaaaaaaaaaaaaaaaaaaaaaaaaaabbWb4anbLb%bHahb&b(b!b!b!b(aRaRasasasasasaXa2bLanb)bZabaaaaaaaaaaaaaaaaaaaaaaaaaaaaaaaaaaaa",
"aaaaaaaaaaaaaaaaaaaaaaaaaaaaaaaaaaa@a[aFahaLabaOaOaOaTaTaTaTaTaTaTaTaTaTaTaTaOaOaOabaLalahaOa@aaaaaaaaaaaaaaaaaaaaaaaaaaaaaaaaaa",
"aaaaaaaaaaaaaaaaaaaaaaaaaaaaaaaaaaa@aOa4ahaLanaLaLananananananananananananananaLaLanaLaha4aOa@aaaaaaaaaaaaaaaaaaaaaaaaaaaaaaaaaa",
"aaaaaaaaaaaaaaaaaaaaaaaaaaaaaaaaaaa@aOa4aTaOb*aLaLanb+b,b,b,b,b,b,b,b,b,b-b-b%bHaLanaLaTa4aOa@aaaaaaaaaaaaaaaaaaaaaaaaaaaaaaaaaa",
"aaaaaaaaaaaaaaaaaaaaaaaaaaaaaaaaaaa@aOa4aTaLaLaLanb+b.b,b,b,b,b,b,b,b,b,b/b/bpabaOaLaLaTa4aOa@aaaaaaaaaaaaaaaaaaaaaaaaaaaaaaaaaa",
"aaaaaaaaaaaaaaaaaaaaaaaaaaaaaaaaa@a@aOa4aTaOaOaOaba:b.b.b.b:b.b.b.b,b,b,b/b;bpabaOaOaOaTa4aOa@a@aaaaaaaaaaaaaaaaaaaaaaaaaaaaaaaa",
"aaaaaaaaaaaaaaaaaaaaaaaaaaaaaaaaa@a[aLa4aTaFaYaOb%b<b=b.b>b:b:b,b,b:b>b,b;b?b@abbHaYasaTa4aEa[a@aaaaaaaaaaaaaaaaaaaaaaaaaaaaaaaa",
"aaaaaaaaaaaaaaaaaaaaaaaaaaaaaaaaa@a[aLa4aTaFaYaOb%b<b=b>b[b=b=b[b,b:b>b=b:b?b]b%bHaYaSaTa4aEa[a@aaaaaaaaaaaaaaaaaaaaaaaaaaaaaaaa",
"aaaaaaaaaaaaaaaaaaaaaaaaaaaaaaaaa@a[aha4aTaFaYaOanb<b^b>b[b=b=b[b,b,b>b>b>b<b]b%bHaYaSaTa4aMa[a@aaaaaaaaaaaaaaaaaaaaaaaaaaaaaaaa",
"aaaaaaaaaaaaaaaaaaaaaaaaaaaaaaaaa@a[aha4aTaFaFbHaLa2b^b>b[b3b>b[b,b[b>b>b_b{aNaPaXaFaFaTa4aMa[a@aaaaaaaaaaaaaaaaaaaaaaaaaaaaaaaa",
"aaaaaaaaaaaaaaaaaaaaaaaaaaaaaaaaa@a[aLa4aTaFaFaLb|albCaNb[b>b>b[b>b[b>b{aeaNb}aYaXaFaFaTa4b~a[a@aaaaaaaaaaaaaaaaaaaaaaaaaaaaaaaa",
"aaaaaaaaaaaaaaaaaaaaaaaaaaaaaaaaa@a[aYa4aTaFaFaLb|cacbccbCaNaNbCaNbCaNaNajaFb}aPaXaFaFaTa4aEa[a@aaaaaaaaaaaaaaaaaaaaaaaaaaaaaaaa",
"aaaaaaaaaaaaaaaaaaaaaaaaaaaaaaaaa@a[aYaqabaFaFahb|cab}aFb}aFaFcdb5cdb5aFajaFb}aPalaFaFabaqaEa[a@aaaaaaaaaaaaaaaaaaaaaaaaaaaaaaaa",
"aaaaaaaaaaaaaaaaaaaaaaaaaaaaaaaaa@a[aYaqa)aNaFahb|ahb}aFb}aFaFb}aFb}aFaFajaFb}aPalaFaNa)aqaEa[a@aaaaaaaaaaaaaaaaaaaaaaaaaaaaaaaa",
"aaaaaaaaaaaaaaaaaaaaaaaaaaaaaaaaa@a[aYaqa)ceaNanbCanajaFb}aFaFajaFb}aFaFajaFbCaNaNaNcecfaqaYa[a@aaaaaaaaaaaaaaaaaaaaaaaaaaaaaaaa",
"aaaaaaaaaaaaaaaaaaaaaaaaaaaaaaaaa@a[bWaqa)ceceb/cgb/aeaNbCaNaNaeaNaeaNaNaeaNcgchchchcecfaqaPa[a@aaaaaaaaaaaaaaaaaaaaaaaaaaaaaaaa",
"aaaaaaaaaaaaaaaaaaaaaaaaaaaaaaaaaaabbWaqbpcichb/cgchcjchcgchchcjchcjchchcjchcgchcechcibpaqaPabaaaaaaaaaaaaaaaaaaaaaaaaaaaaaaaaaa",
"aaaaaaaaaaaaaaaaaaaaaaaaaaaaaaaaaaa@a?aNabaNcicicka<cjchchchchcjchcjchchcjceclciciciaNabaqa[a@aaaaaaaaaaaaaaaaaaaaaaaaaaaaaaaaaa",
"aaaaaaaaaaaaaaaaaaaaaaaaaaaaaaaaaaa@a?aNcmcnababababbpbpbpbpbpbpbpbpbpbpbpbpababababcncoaqa[a@aaaaaaaaaaaaaaaaaaaaaaaaaaaaaaaaaa",
"aaaaaaaaaaaaaaaaaaaaaaaaaaaaaaaaaaaaabcpcmcqcrcrcsctaqaqaqaqaqaqaqaqaqaqaqaqcscucvcwcxcscyabaaaaaaaaaaaaaaaaaaaaaaaaaaaaaaaaaaaa",
"aaaaaaaaaaaaaaaaaaaaaaaaaaaaaaaaaaaaabcmcmczczczczaPaPaPaPaPaPaPaPaPaPcAcAaPaPczczczaAcocBabaaaaaaaaaaaaaaaaaaaaaaaaaaaaaaaaaaaa",
"aaaaaaaaaaaaaaaaaaaaaaaaaaaaaaaaaaaaaaancpczaPaPaPaPaPaPaPcCcCcCcCcCcCcAcAaPaPaYaYaYcDcBabaaaaaaaaaaaaaaaaaaaaaaaaaaaaaaaaaaaaaa",
"aaaaaaaaaaaaaaaaaaaaaaaaaaaaaaaaaaaaaaaaananaAb*b*b*b*b*b*b*b*b*b*b*b*cncDaAaAaAcDcDanb%aaaaaaaaaaaaaaaaaaaaaaaaaaaaaaaaaaaaaaaa",
"aaaaaaaaaaaaaaaaaaaaaaaaaaaaaaaaaaaaaaaaaaaacEcEcEcEcEcEancFcFcFcFcFcFabcEcEcEcEcEcEaaaaaaaaaaaaaaaaaaaaaaaaaaaaaaaaaaaaaaaaaaaa",
"aaaaaaaaaaaaaaaaaaaaaaaaaaaaaaaaaaaaaaaaaaaaaaaaaaaaaaaaaaaaaaaaaaaaaaaaababaaabaaaaaaaaaaaaaaaaaaaaaaaaaaaaaaaaaaaaaaaaaaaaaaaa",
"aaaaaaaaaaaaaaaaaaaaaaaaaaaaaaaaaaaaaaaaaaaaaaaaaaaaaaaaaaaaaaaaaaaaaaaaaaaaaaaaaaaaaaaaaaaaaaaaaaaaaaaaaaaaaaaaaaaaaaaaaaaaaaaa",
"aaaaaaaaaaaaaaaaaaaaaaaaaaaaaaaaaaaaaaaaaaaaaaaaaaaaaaaaaaaaaaaaaaaaaaaaaaaaaaaaaaaaaaaaaaaaaaaaaaaaaaaaaaaaaaaaaaaaaaaaaaaaaaaa"
};
