/* XPM */
static char *car3_p1_s3[] = {
"64 64 38 2",
"aa	c #ff00ff",
"ab	c #010000",
"ac	c #353574",
"ad	c #333693",
"ae	c #1c1f4e",
"af	c #302f54",
"ag	c #414196",
"ah	c #4955cb",
"ai	c #322c29",
"aj	c #3d3a3a",
"ak	c #21256a",
"al	c #3238ce",
"am	c #3c43aa",
"an	c #4b27e0",
"ao	c #221f1d",
"ap	c #4017e6",
"aq	c #261fa9",
"ar	c #7412fb",
"as	c #430df3",
"at	c #3117c7",
"au	c #d768fe",
"av	c #8a1bfb",
"aw	c #e882fe",
"ax	c #6b22f2",
"ay	c #eb97fe",
"az	c #ad2efd",
"aA	c #693fdc",
"aB	c #9634f9",
"aC	c #c047fc",
"aD	c #2939a2",
"aE	c #f0b3fe",
"aF	c #da87fd",
"aG	c #212b82",
"aH	c #a95af7",
"aI	c #8e8581",
"aJ	c #b6a9a4",
"aK	c #706560",
"aL	c #534e63",
"aaaaaaaaaaaaaaaaaaaaaaaaaaaaaaaaaaaaaaaaaaaaaaaaaaaaaaaaaaaaaaaaaaaaaaaaaaaaaaaaaaaaaaaaaaaaaaaaaaaaaaaaaaaaaaaaaaaaaaaaaaaaaaaa",
"aaaaaaaaaaaaaaaaaaaaaaaaaaaaaaaaaaaaaaaaaaaaaaaaaaaaaaaaaaaaaaaaaaaaaaaaaaaaaaaaaaaaaaaaaaaaaaaaaaaaaaaaaaaaaaaaaaaaaaaaaaaaaaaa",
"aaaaaaaaaaaaaaaaaaaaaaaaaaaaaaaaaaaaaaaaaaaaaaaaaaaaababababababababababababaaaaaaaaaaaaaaaaaaaaaaaaaaaaaaaaaaaaaaaaaaaaaaaaaaaa",
"aaaaaaaaaaaaaaaaaaaaaaaaaaaaaaaaaaaaaaaaaaabababababacadadadadadadadadadadadabababababaaaaaaaaaaaaaaaaaaaaaaaaaaaaaaaaaaaaaaaaaa",
"aaaaaaaaaaaaaaaaaaaaaaaaaaaaaaaaaaaaaaaaabaeafafagaeahadadadadadadadadadadadaeadafafafabaaaaaaaaaaaaaaaaaaaaaaaaaaaaaaaaaaaaaaaa",
"aaaaaaaaaaaaaaaaaaaaaaaaaaaaaaaaaaaaaaabaeaeafagagafadadadaiadadajafadadadadaeadagagafaeabaaaaaaaaaaaaaaaaaaaaaaaaaaaaaaaaaaaaaa",
"aaaaaaaaaaaaaaaaaaaaaaaaaaaaaaaaaaaaabaeaeaeagagagafadadaiaiadaiaiafafadadadaeadagagafaeacabaaaaaaaaaaaaaaaaaaaaaaaaaaaaaaaaaaaa",
"aaaaaaaaaaaaaaaaaaaaaaaaaaaaaaaaaaaaabaeaeagadadaeafadaiaiaiaiaiaiafafafadadadaeadadafaeacabaaaaaaaaaaaaaaaaaaaaaaaaaaaaaaaaaaaa",
"aaaaaaaaaaaaaaaaaaaaaaaaaaaaaaaaaaaaabafafadadadaeacakaiaiaiaiaiaiaialafafadadaeadadafaeacabaaaaaaaaaaaaaaaaaaaaaaaaaaaaaaaaaaaa",
"aaaaaaaaaaaaaaaaaaaaaaaaaaaaaaaaaaabaeadafadafadaeacafaiaiaiaiaiaiaialalafacadaeadadadaeacafabaaaaaaaaaaaaaaaaaaaaaaaaaaaaaaaaaa",
"aaaaaaaaaaaaaaaaaaaaaaaaaaaaaaaaaaabakadafadafafaeacaiaiaiaiaiaiaiaiaialafaiacaeafadafabafafabaaaaaaaaaaaaaaaaaaaaaaaaaaaaaaaaaa",
"aaaaaaaaaaaaaaaaaaaaaaaaaaaaaaaaaaabakadafadamafaeacaiaiaiaiaianaiaiaialaoaiajaoafafajabafafabaaaaaaaaaaaaaaaaaaaaaaaaaaaaaaaaaa",
"aaaaaaaaaaaaaaaaaaaaaaaaaaaaaaaaaaabakacakadadaeaeacaiaiaoaiaiapapaiaiaiaiaiajaoafafajabafafabaaaaaaaaaaaaaaaaaaaaaaaaaaaaaaaaaa",
"aaaaaaaaaaaaaaaaaaaaaaaaaaaaaaaaaaabakafakadadaeaiacaiaiafafafapapaqaiaiajajajaoafafajabafaiabaaaaaaaaaaaaaaaaaaaaaaaaaaaaaaaaaa",
"aaaaaaaaaaaaaaaaaaaaaaaaaaaaaaaaaaabakakakadadaiaeacapafafafapaparasaiaiajajajaoahajajabafaiabaaaaaaaaaaaaaaaaaaaaaaaaaaaaaaaaaa",
"aaaaaaaaaaaaaaaaaaaaaaaaaaaaaaaaaaabakagakadadabaiabanabababapararapasaiaqajajaiacajajabafaiabaaaaaaaaaaaaaaaaaaaaaaaaaaaaaaaaaa",
"aaaaaaaaaaaaaaaaaaaaaaaaaaaaaaaaaaabakagakadafaeabatanababatararauavasasasaqababajajajabafaiabaaaaaaaaaaaaaaaaaaaaaaaaaaaaaaaaaa",
"aaaaaaaaaaaaaaaaaaaaaaaaaaaaaaaaaaabakagakadababaeataratatatarawawavavavasaqabaqababafafafaiabaaaaaaaaaaaaaaaaaaaaaaaaaaaaaaaaaa",
"aaaaaaaaaaaaaaaaaaaaaaaaaaaaaaaaaaaaabakakababaeatataraxarararawawayavavavasaqapanababafafababaaaaaaaaaaaaaaaaaaaaaaaaaaaaaaaaaa",
"aaaaaaaaaaaaaaaaaaaaaaaaaaaaaaaaaaaaababakabaiaiatararaxararazawayayazavavasasazapatabafababaAaaaaaaaaaaaaaaaaaaaaaaaaaaaaaaaaaa",
"aaaaaaaaaaaaaaaaaaaaaaaaaaaaaaaaababababakabaiaiataraBawazazazayayayazavavasasazapatafafababadabaaaaaaaaaaaaaaaaaaaaaaaaaaaaaaaa",
"aaaaaaaaaaaaaaaaaaaaaaaaaaaaaaabaiaiaiababafabaiaqaraBayazaCayayayayayavavasazazatafafababanadadabaaaaaaaaaaaaaaaaaaaaaaaaaaaaaa",
"aaaaaaaaaaaaaaaaaaaaaaaaaaaaaaababababanabaeafabafatavayayababababababayavaCazazatafafabananabababaaaaaaaaaaaaaaaaaaaaaaaaaaaaaa",
"aaaaaaaaaaaaaaaaaaaaaaaaaaaaaaaaaaaaabananabaeafabababababaiajajaiaiaiababababababafabananabaaaaaaaaaaaaaaaaaaaaaaaaaaaaaaaaaaaa",
"aaaaaaaaaaaaaaaaaaaaaaaaaaaaaaaaaaaaabananabaeafafaiaiabaoaiafafaiafaiacacacagacafafabananabaaaaaaaaaaaaaaaaaaaaaaaaaaaaaaaaaaaa",
"aaaaaaaaaaaaaaaaaaaaaaaaaaaaaaaaaaaAabaqanaDabafafaiabaoaoaiaiaiaiaiaiaiacacacafafabanananabaaaaaaaaaaaaaaaaaaaaaaaaaaaaaaaaaaaa",
"aaaaaaaaaaaaaaaaaaaaaaaaaaaaaaaaaaaaabaqavapabafaiaoabaoaoaoaiacacacaiacacafafaoafabananaqabaaaaaaaaaaaaaaaaaaaaaaaaaaaaaaaaaaaa",
"aaaaaaaaaaaaaaaaaaaaaaaaaaaaaaaaaaaaaqatavavabafafaoaoaiaiaiafadagagagagagafaiabafabananaqabaaahaaaaaaaaaaaaaaaaaaaaaaaaaaaaaaaa",
"aaaaaaaaaaaaaaaaaaaaaaaaaaaaaaaaaaaaatavavavabacafaoaoaiaiafadadadagagagagafaiabaiabaCanananataaaaaaaaaaaaaaaaaaaaaaaaaaaaaaaaaa",
"aaaaaaaaaaaaaaaaaaaaaaaaaaaaaaaaaaaaatavauauabacacaiaiaiafadadadadadadagagafaiabaiabaCaCaBaBataaaaaaaaaaaaaaaaaaaaaaaaaaaaaaaaaa",
"aaaaaaaaaaaaaaaaaaaaaaaaaaaaaaaaaaaaabanauauabacacafafafadadadadadadadadadafaiabaiabaEauaBaBataaaaaaaaaaaaaaaaaaaaaaaaaaaaaaaaaa",
"aaaaaaaaaaaaaaaaaaaaaaaaaaaaaaaaaaaaabakanauabafadafadadanadadadadadadadadaiaiabaiabaEaBaBakaaaaaaaaaaaaaaaaaaaaaaaaaaaaaaaaaaaa",
"aaaaaaaaaaaaaaaaaaaaaaaaaaaaaaaaaaaaabakanauabadadadadadanadadadadadadadadacacaiaiabaFaBakabaaaaaaaaaaaaaaaaaaaaaaaaaaaaaaaaaaaa",
"aaaaaaaaaaaaaaaaaaaaaaaaaaaaaaaaaaaaabakababadadadadadaqananadadadadadadadakakaiaGaGabaBakabaaaaaaaaaaaaaaaaaaaaaaaaaaaaaaaaaaaa",
"aaaaaaaaaaaaaaaaaaaaaaaaaaaaaaaaaaaaabakabakadadakakakaGaqanaeaeanaeaeaeaeaeaeaiaiaGaGabakabaaaaaaaaaaaaaaaaaaaaaaaaaaaaaaaaaaaa",
"aaaaaaaaaaaaaaaaaaaaaaaaaaaaaaaaaaaaabakakaGadabababapabatavaxaoanabababababababaiaGaGaGakabaaaaaaaaaaaaaaaaaaaaaaaaaaaaaaaaaaaa",
"aaaaaaaaaaaaaaaaaaaaaaaaaaaaaaaaaaaaabakaGaGababaoaqapataxawaxaxanajaiaiaiaiaiaiabaiaGaGaGabaaaaaaaaaaaaaaaaaaaaaaaaaaaaaaaaaaaa",
"aaaaaaaaaaaaaaaaaaaaaaaaaaaaaaaaaaaaabakaGaeabaoaoaeaAaHawawawaHananaiaiaiaiaiaiaiabaeaGakabaaaaaaaaaaaaaaaaaaaaaaaaaaaaaaaaaaaa",
"aaaaaaaaaaaaaaaaaaaaaaaaaaaaaaaaaaaaabakaeaeababababababababababababababababababababaeaeaeabaaaaaaaaaaaaaaaaaaaaaaaaaaaaaaaaaaaa",
"aaaaaaaaaaaaaaaaaaaaaaaaaaaaaaaaaaaaabagaeaeaeaeaeaeaeaeaeaeaeaeaeaeaeaeaeaeaeaeaeaeaeaeagabaaaaaaaaaaaaaaaaaaaaaaaaaaaaaaaaaaaa",
"aaaaaaaaaaaaaaaaaaaaaaaaaaaaaaaaaaaaabagababaeaeaeaeaeaeaeaeaeaeaeaeaeaeaoaoaoaoaeaeaeabagabaaaaaaaaaaaaaaaaaaaaaaaaaaaaaaaaaaaa",
"aaaaaaaaaaaaaaaaaaaaaaaaaaaaaaaaaaaaabagabaeaeaeaeaeabaeaeaeaeaeaeaeaeaeaeaeabababaeaeabagabaaaaaaaaaaaaaaaaaaaaaaaaaaaaaaaaaaaa",
"aaaaaaaaaaaaaaaaaaaaaaaaaaaaaaaaaaaaabagabababababababababaoabababaeaeaeaeaoababababababagabaaaaaaaaaaaaaaaaaaaaaaaaaaaaaaaaaaaa",
"aaaaaaaaaaaaaaaaaaaaaaaaaaaaaaaaaaabaeagabakakabaoaiaiabakaoaoaeaeaoakaeaoaoaoabaoakaiabagacabaaaaaaaaaaaaaaaaaaaaaaaaaaaaaaaaaa",
"aaaaaaaaaaaaaaaaaaaaaaaaaaaaaaaaaaabaeagabakakabaoaiaiakaDaiaiaDaeaoakaiaoaoaoaoaoakaoabagacabaaaaaaaaaaaaaaaaaaaaaaaaaaaaaaaaaa",
"aaaaaaaaaaaaaaaaaaaaaaaaaaaaaaaaaaabaeagabakakabaeaiaDakaDaiaiaDaeaeakakakaiaoaoaoakaoabagacabaaaaaaaaaaaaaaaaaaaaaaaaaaaaaaaaaa",
"aaaaaaaaaaaaaaaaaaaaaaaaaaaaaaaaaaabaeagabakakaoaeaiaDakaDaGakaDaeaDakakadakakakaiakakabagacabaaaaaaaaaaaaaaaaaaaaaaaaaaaaaaaaaa",
"aaaaaaaaaaaaaaaaaaaaaaaaaaaaaaaaaaabaeagabakakaeaDaeaDakaDakakaDakaDakakadakaDakaiakakabagacabaaaaaaaaaaaaaaaaaaaaaaaaaaaaaaaaaa",
"aaaaaaaaaaaaaaaaaaaaaaaaaaaaaaaaaaabakagabakakaeaDaeaDakaDakakaDakaDakakadakaDakaiakakabagacabaaaaaaaaaaaaaaaaaaaaaaaaaaaaaaaaaa",
"aaaaaaaaaaaaaaaaaaaaaaaaaaaaaaaaaaabakagabakakaeaDaeaDakaDakakaDakaDakakadakaDakaeakakabagacabaaaaaaaaaaaaaaaaaaaaaaaaaaaaaaaaaa",
"aaaaaaaaaaaaaaaaaaaaaaaaaaaaaaaaaaabakagabakakaeaDaeaDakaDakakaDakaDakakadakaDakaeakakabagacabaaaaaaaaaaaaaaaaaaaaaaaaaaaaaaaaaa",
"aaaaaaaaaaaaaaaaaaaaaaaaaaaaaaaaaaabakagabakakaeaDaeadakaDakakadakaDakakadakaDakakakakabagakabaaaaaaaaaaaaaaaaaaaaaaaaaaaaaaaaaa",
"aaaaaaaaaaaaaaaaaaaaaaaaaaaaaaaaaaabakagabakakaeaDaeadakaDakakadakadakakadakaDakakakakabagakabaaaaaaaaaaaaaaaaaaaaaaaaaaaaaaaaaa",
"aaaaaaaaaaaaaaaaaaaaaaaaaaaaaaaaaaabakagabakakaeaDakadakaDakakadakadakakadakaDakakakakabagakabaaaaaaaaaaaaaaaaaaaaaaaaaaaaaaaaaa",
"aaaaaaaaaaaaaaaaaaaaaaaaaaaaaaaaaaaaabakabakakakaDaeadakakakakadakadakakadakadakakakakabagabaaaaaaaaaaaaaaaaaaaaaaaaaaaaaaaaaaaa",
"aaaaaaaaaaaaaaaaaaaaaaaaaaaaaaaaaaaaabakacababababababababababababababababababababababagagabaaaaaaaaaaaaaaaaaaaaaaaaaaaaaaaaaaaa",
"aaaaaaaaaaaaaaaaaaaaaaaaaaaaaaaaaaaaabakacacagagagagagagagagagagagagagagagagagagagagaeagadabaaaaaaaaaaaaaaaaaaaaaaaaaaaaaaaaaaaa",
"aaaaaaaaaaaaaaaaaaaaaaaaaaaaaaaaaaaaabacacakakakakakakakakakakakakakakakakakakakakakaeagacabaaaaaaaaaaaaaaaaaaaaaaaaaaaaaaaaaaaa",
"aaaaaaaaaaaaaaaaaaaaaaaaaaaaaaaaaaaaaiaeakakakakakakakakakakakakakakakakakakakakakakaeacabafaaaaaaaaaaaaaaaaaaaaaaaaaaaaaaaaaaaa",
"aaaaaaaaaaaaaaaaaaaaaaaaaaaaaaaaaaaaaiaIaeaeaeaeaeaeaeaeaeaeaeaeaeaeaeabaeaeaeaeaeaeaeaoaJajaaaaaaaaaaaaaaaaaaaaaaaaaaaaaaaaaaaa",
"aaaaaaaaaaaaaaaaaaaaaaaaaaaaaaaaaaaaabaKaLaLaLaLaLaLaLaLaeaIaIaIaIaIaIabaLaLaLaLaLaLaLafaIabaaaaaaaaaaaaaaaaaaaaaaaaaaaaaaaaaaaa",
"aaaaaaaaaaaaaaaaaaaaaaaaaaaaaaaaaaaaaaababababababababababababababababababababababababababaaaaaaaaaaaaaaaaaaaaaaaaaaaaaaaaaaaaaa",
"aaaaaaaaaaaaaaaaaaaaaaaaaaaaaaaaaaaaaaaaaaaaaaaaaaaaaaaaaaaaaaaaaaaaaaaaaaaaaaaaaaaaaaaaaaaaaaaaaaaaaaaaaaaaaaaaaaaaaaaaaaaaaaaa",
"aaaaaaaaaaaaaaaaaaaaaaaaaaaaaaaaaaaaaaaaaaaaaaaaaaaaaaaaaaaaaaaaaaaaaaaaaaaaaaaaaaaaaaaaaaaaaaaaaaaaaaaaaaaaaaaaaaaaaaaaaaaaaaaa"
};
