/* XPM */
static char *car3_p1_s4[] = {
"64 64 38 2",
"aa	c #ff00ff",
"ab	c #000000",
"ac	c #0d0d1d",
"ad	c #0c0c24",
"ae	c #070813",
"af	c #0c0b15",
"ag	c #101025",
"ah	c #121532",
"ai	c #0c0b0a",
"aj	c #0f0e0e",
"ak	c #08081a",
"al	c #0c0d33",
"am	c #0f102a",
"an	c #120938",
"ao	c #080707",
"ap	c #0f0539",
"aq	c #09072a",
"ar	c #1d043e",
"as	c #10033c",
"at	c #0b0531",
"au	c #351a3f",
"av	c #22063e",
"aw	c #39203f",
"ax	c #1a083c",
"ay	c #3a253f",
"az	c #2a0b3f",
"aA	c #1a0f37",
"aB	c #250d3e",
"aC	c #2f113f",
"aD	c #0a0e28",
"aE	c #3c2c3f",
"aF	c #36213f",
"aG	c #080a20",
"aH	c #2a163d",
"aI	c #232120",
"aJ	c #2d2a29",
"aK	c #1c1918",
"aL	c #141318",
"aaaaaaaaaaaaaaaaaaaaaaaaaaaaaaaaaaaaaaaaaaaaaaaaaaaaaaaaaaaaaaaaaaaaaaaaaaaaaaaaaaaaaaaaaaaaaaaaaaaaaaaaaaaaaaaaaaaaaaaaaaaaaaaa",
"aaaaaaaaaaaaaaaaaaaaaaaaaaaaaaaaaaaaaaaaaaaaaaaaaaaaaaaaaaaaaaaaaaaaaaaaaaaaaaaaaaaaaaaaaaaaaaaaaaaaaaaaaaaaaaaaaaaaaaaaaaaaaaaa",
"aaaaaaaaaaaaaaaaaaaaaaaaaaaaaaaaaaaaaaaaaaaaaaaaaaaaababababababababababababaaaaaaaaaaaaaaaaaaaaaaaaaaaaaaaaaaaaaaaaaaaaaaaaaaaa",
"aaaaaaaaaaaaaaaaaaaaaaaaaaaaaaaaaaaaaaaaaaabababababacadadadadadadadadadadadabababababaaaaaaaaaaaaaaaaaaaaaaaaaaaaaaaaaaaaaaaaaa",
"aaaaaaaaaaaaaaaaaaaaaaaaaaaaaaaaaaaaaaaaabaeafafagaeahadadadadadadadadadadadaeadafafafabaaaaaaaaaaaaaaaaaaaaaaaaaaaaaaaaaaaaaaaa",
"aaaaaaaaaaaaaaaaaaaaaaaaaaaaaaaaaaaaaaabaeaeafagagafadadadaiadadajafadadadadaeadagagafaeabaaaaaaaaaaaaaaaaaaaaaaaaaaaaaaaaaaaaaa",
"aaaaaaaaaaaaaaaaaaaaaaaaaaaaaaaaaaaaabaeaeaeagagagafadadaiaiadaiaiafafadadadaeadagagafaeacabaaaaaaaaaaaaaaaaaaaaaaaaaaaaaaaaaaaa",
"aaaaaaaaaaaaaaaaaaaaaaaaaaaaaaaaaaaaabaeaeagadadaeafadaiaiaiaiaiaiafafafadadadaeadadafaeacabaaaaaaaaaaaaaaaaaaaaaaaaaaaaaaaaaaaa",
"aaaaaaaaaaaaaaaaaaaaaaaaaaaaaaaaaaaaabafafadadadaeacakaiaiaiaiaiaiaialafafadadaeadadafaeacabaaaaaaaaaaaaaaaaaaaaaaaaaaaaaaaaaaaa",
"aaaaaaaaaaaaaaaaaaaaaaaaaaaaaaaaaaabaeadafadafadaeacafaiaiaiaiaiaiaialalafacadaeadadadaeacafabaaaaaaaaaaaaaaaaaaaaaaaaaaaaaaaaaa",
"aaaaaaaaaaaaaaaaaaaaaaaaaaaaaaaaaaabakadafadafafaeacaiaiaiaiaiaiaiaiaialafaiacaeafadafabafafabaaaaaaaaaaaaaaaaaaaaaaaaaaaaaaaaaa",
"aaaaaaaaaaaaaaaaaaaaaaaaaaaaaaaaaaabakadafadamafaeacaiaiaiaiaianaiaiaialaoaiajaoafafajabafafabaaaaaaaaaaaaaaaaaaaaaaaaaaaaaaaaaa",
"aaaaaaaaaaaaaaaaaaaaaaaaaaaaaaaaaaabakacakadadaeaeacaiaiaoaiaiapapaiaiaiaiaiajaoafafajabafafabaaaaaaaaaaaaaaaaaaaaaaaaaaaaaaaaaa",
"aaaaaaaaaaaaaaaaaaaaaaaaaaaaaaaaaaabakafakadadaeaiacaiaiafafafapapaqaiaiajajajaoafafajabafaiabaaaaaaaaaaaaaaaaaaaaaaaaaaaaaaaaaa",
"aaaaaaaaaaaaaaaaaaaaaaaaaaaaaaaaaaabakakakadadaiaeacapafafafapaparasaiaiajajajaoahajajabafaiabaaaaaaaaaaaaaaaaaaaaaaaaaaaaaaaaaa",
"aaaaaaaaaaaaaaaaaaaaaaaaaaaaaaaaaaabakagakadadabaiabanabababapararapasaiaqajajaiacajajabafaiabaaaaaaaaaaaaaaaaaaaaaaaaaaaaaaaaaa",
"aaaaaaaaaaaaaaaaaaaaaaaaaaaaaaaaaaabakagakadafaeabatanababatararauavasasasaqababajajajabafaiabaaaaaaaaaaaaaaaaaaaaaaaaaaaaaaaaaa",
"aaaaaaaaaaaaaaaaaaaaaaaaaaaaaaaaaaabakagakadababaeataratatatarawawavavavasaqabaqababafafafaiabaaaaaaaaaaaaaaaaaaaaaaaaaaaaaaaaaa",
"aaaaaaaaaaaaaaaaaaaaaaaaaaaaaaaaaaaaabakakababaeatataraxarararawawayavavavasaqapanababafafababaaaaaaaaaaaaaaaaaaaaaaaaaaaaaaaaaa",
"aaaaaaaaaaaaaaaaaaaaaaaaaaaaaaaaaaaaababakabaiaiatararaxararazawayayazavavasasazapatabafababaAaaaaaaaaaaaaaaaaaaaaaaaaaaaaaaaaaa",
"aaaaaaaaaaaaaaaaaaaaaaaaaaaaaaaaababababakabaiaiataraBawazazazayayayazavavasasazapatafafababadabaaaaaaaaaaaaaaaaaaaaaaaaaaaaaaaa",
"aaaaaaaaaaaaaaaaaaaaaaaaaaaaaaabaiaiaiababafabaiaqaraBayazaCayayayayayavavasazazatafafababanadadabaaaaaaaaaaaaaaaaaaaaaaaaaaaaaa",
"aaaaaaaaaaaaaaaaaaaaaaaaaaaaaaababababanabaeafabafatavayayababababababayavaCazazatafafabananabababaaaaaaaaaaaaaaaaaaaaaaaaaaaaaa",
"aaaaaaaaaaaaaaaaaaaaaaaaaaaaaaaaaaaaabananabaeafabababababaiajajaiaiaiababababababafabananabaaaaaaaaaaaaaaaaaaaaaaaaaaaaaaaaaaaa",
"aaaaaaaaaaaaaaaaaaaaaaaaaaaaaaaaaaaaabananabaeafafaiaiabaoaiafafaiafaiacacacagacafafabananabaaaaaaaaaaaaaaaaaaaaaaaaaaaaaaaaaaaa",
"aaaaaaaaaaaaaaaaaaaaaaaaaaaaaaaaaaaAabaqanaDabafafaiabaoaoaiaiaiaiaiaiaiacacacafafabanananabaaaaaaaaaaaaaaaaaaaaaaaaaaaaaaaaaaaa",
"aaaaaaaaaaaaaaaaaaaaaaaaaaaaaaaaaaaaabaqavapabafaiaoabaoaoaoaiacacacaiacacafafaoafabananaqabaaaaaaaaaaaaaaaaaaaaaaaaaaaaaaaaaaaa",
"aaaaaaaaaaaaaaaaaaaaaaaaaaaaaaaaaaaaaqatavavabafafaoaoaiaiaiafadagagagagagafaiabafabananaqabaaahaaaaaaaaaaaaaaaaaaaaaaaaaaaaaaaa",
"aaaaaaaaaaaaaaaaaaaaaaaaaaaaaaaaaaaaatavavavabacafaoaoaiaiafadadadagagagagafaiabaiabaCanananataaaaaaaaaaaaaaaaaaaaaaaaaaaaaaaaaa",
"aaaaaaaaaaaaaaaaaaaaaaaaaaaaaaaaaaaaatavauauabacacaiaiaiafadadadadadadagagafaiabaiabaCaCaBaBataaaaaaaaaaaaaaaaaaaaaaaaaaaaaaaaaa",
"aaaaaaaaaaaaaaaaaaaaaaaaaaaaaaaaaaaaabanauauabacacafafafadadadadadadadadadafaiabaiabaEauaBaBataaaaaaaaaaaaaaaaaaaaaaaaaaaaaaaaaa",
"aaaaaaaaaaaaaaaaaaaaaaaaaaaaaaaaaaaaabakanauabafadafadadanadadadadadadadadaiaiabaiabaEaBaBakaaaaaaaaaaaaaaaaaaaaaaaaaaaaaaaaaaaa",
"aaaaaaaaaaaaaaaaaaaaaaaaaaaaaaaaaaaaabakanauabadadadadadanadadadadadadadadacacaiaiabaFaBakabaaaaaaaaaaaaaaaaaaaaaaaaaaaaaaaaaaaa",
"aaaaaaaaaaaaaaaaaaaaaaaaaaaaaaaaaaaaabakababadadadadadaqananadadadadadadadakakaiaGaGabaBakabaaaaaaaaaaaaaaaaaaaaaaaaaaaaaaaaaaaa",
"aaaaaaaaaaaaaaaaaaaaaaaaaaaaaaaaaaaaabakabakadadakakakaGaqanaeaeanaeaeaeaeaeaeaiaiaGaGabakabaaaaaaaaaaaaaaaaaaaaaaaaaaaaaaaaaaaa",
"aaaaaaaaaaaaaaaaaaaaaaaaaaaaaaaaaaaaabakakaGadabababapabatavaxaoanabababababababaiaGaGaGakabaaaaaaaaaaaaaaaaaaaaaaaaaaaaaaaaaaaa",
"aaaaaaaaaaaaaaaaaaaaaaaaaaaaaaaaaaaaabakaGaGababaoaqapataxawaxaxanajaiaiaiaiaiaiabaiaGaGaGabaaaaaaaaaaaaaaaaaaaaaaaaaaaaaaaaaaaa",
"aaaaaaaaaaaaaaaaaaaaaaaaaaaaaaaaaaaaabakaGaeabaoaoaeaAaHawawawaHananaiaiaiaiaiaiaiabaeaGakabaaaaaaaaaaaaaaaaaaaaaaaaaaaaaaaaaaaa",
"aaaaaaaaaaaaaaaaaaaaaaaaaaaaaaaaaaaaabakaeaeababababababababababababababababababababaeaeaeabaaaaaaaaaaaaaaaaaaaaaaaaaaaaaaaaaaaa",
"aaaaaaaaaaaaaaaaaaaaaaaaaaaaaaaaaaaaabagaeaeaeaeaeaeaeaeaeaeaeaeaeaeaeaeaeaeaeaeaeaeaeaeagabaaaaaaaaaaaaaaaaaaaaaaaaaaaaaaaaaaaa",
"aaaaaaaaaaaaaaaaaaaaaaaaaaaaaaaaaaaaabagababaeaeaeaeaeaeaeaeaeaeaeaeaeaeaoaoaoaoaeaeaeabagabaaaaaaaaaaaaaaaaaaaaaaaaaaaaaaaaaaaa",
"aaaaaaaaaaaaaaaaaaaaaaaaaaaaaaaaaaaaabagabaeaeaeaeaeabaeaeaeaeaeaeaeaeaeaeaeabababaeaeabagabaaaaaaaaaaaaaaaaaaaaaaaaaaaaaaaaaaaa",
"aaaaaaaaaaaaaaaaaaaaaaaaaaaaaaaaaaaaabagabababababababababaoabababaeaeaeaeaoababababababagabaaaaaaaaaaaaaaaaaaaaaaaaaaaaaaaaaaaa",
"aaaaaaaaaaaaaaaaaaaaaaaaaaaaaaaaaaabaeagabakakabaoaiaiabakaoaoaeaeaoakaeaoaoaoabaoakaiabagacabaaaaaaaaaaaaaaaaaaaaaaaaaaaaaaaaaa",
"aaaaaaaaaaaaaaaaaaaaaaaaaaaaaaaaaaabaeagabakakabaoaiaiakaDaiaiaDaeaoakaiaoaoaoaoaoakaoabagacabaaaaaaaaaaaaaaaaaaaaaaaaaaaaaaaaaa",
"aaaaaaaaaaaaaaaaaaaaaaaaaaaaaaaaaaabaeagabakakabaeaiaDakaDaiaiaDaeaeakakakaiaoaoaoakaoabagacabaaaaaaaaaaaaaaaaaaaaaaaaaaaaaaaaaa",
"aaaaaaaaaaaaaaaaaaaaaaaaaaaaaaaaaaabaeagabakakaoaeaiaDakaDaGakaDaeaDakakadakakakaiakakabagacabaaaaaaaaaaaaaaaaaaaaaaaaaaaaaaaaaa",
"aaaaaaaaaaaaaaaaaaaaaaaaaaaaaaaaaaabaeagabakakaeaDaeaDakaDakakaDakaDakakadakaDakaiakakabagacabaaaaaaaaaaaaaaaaaaaaaaaaaaaaaaaaaa",
"aaaaaaaaaaaaaaaaaaaaaaaaaaaaaaaaaaabakagabakakaeaDaeaDakaDakakaDakaDakakadakaDakaiakakabagacabaaaaaaaaaaaaaaaaaaaaaaaaaaaaaaaaaa",
"aaaaaaaaaaaaaaaaaaaaaaaaaaaaaaaaaaabakagabakakaeaDaeaDakaDakakaDakaDakakadakaDakaeakakabagacabaaaaaaaaaaaaaaaaaaaaaaaaaaaaaaaaaa",
"aaaaaaaaaaaaaaaaaaaaaaaaaaaaaaaaaaabakagabakakaeaDaeaDakaDakakaDakaDakakadakaDakaeakakabagacabaaaaaaaaaaaaaaaaaaaaaaaaaaaaaaaaaa",
"aaaaaaaaaaaaaaaaaaaaaaaaaaaaaaaaaaabakagabakakaeaDaeadakaDakakadakaDakakadakaDakakakakabagakabaaaaaaaaaaaaaaaaaaaaaaaaaaaaaaaaaa",
"aaaaaaaaaaaaaaaaaaaaaaaaaaaaaaaaaaabakagabakakaeaDaeadakaDakakadakadakakadakaDakakakakabagakabaaaaaaaaaaaaaaaaaaaaaaaaaaaaaaaaaa",
"aaaaaaaaaaaaaaaaaaaaaaaaaaaaaaaaaaabakagabakakaeaDakadakaDakakadakadakakadakaDakakakakabagakabaaaaaaaaaaaaaaaaaaaaaaaaaaaaaaaaaa",
"aaaaaaaaaaaaaaaaaaaaaaaaaaaaaaaaaaaaabakabakakakaDaeadakakakakadakadakakadakadakakakakabagabaaaaaaaaaaaaaaaaaaaaaaaaaaaaaaaaaaaa",
"aaaaaaaaaaaaaaaaaaaaaaaaaaaaaaaaaaaaabakacababababababababababababababababababababababagagabaaaaaaaaaaaaaaaaaaaaaaaaaaaaaaaaaaaa",
"aaaaaaaaaaaaaaaaaaaaaaaaaaaaaaaaaaaaabakacacagagagagagagagagagagagagagagagagagagagagaeagadabaaaaaaaaaaaaaaaaaaaaaaaaaaaaaaaaaaaa",
"aaaaaaaaaaaaaaaaaaaaaaaaaaaaaaaaaaaaabacacakakakakakakakakakakakakakakakakakakakakakaeagacabaaaaaaaaaaaaaaaaaaaaaaaaaaaaaaaaaaaa",
"aaaaaaaaaaaaaaaaaaaaaaaaaaaaaaaaaaaaaiaeakakakakakakakakakakakakakakakakakakakakakakaeacabafaaaaaaaaaaaaaaaaaaaaaaaaaaaaaaaaaaaa",
"aaaaaaaaaaaaaaaaaaaaaaaaaaaaaaaaaaaaaiaIaeaeaeaeaeaeaeaeaeaeaeaeaeaeaeabaeaeaeaeaeaeaeaoaJajaaaaaaaaaaaaaaaaaaaaaaaaaaaaaaaaaaaa",
"aaaaaaaaaaaaaaaaaaaaaaaaaaaaaaaaaaaaabaKaLaLaLaLaLaLaLaLaeaIaIaIaIaIaIabaLaLaLaLaLaLaLafaIabaaaaaaaaaaaaaaaaaaaaaaaaaaaaaaaaaaaa",
"aaaaaaaaaaaaaaaaaaaaaaaaaaaaaaaaaaaaaaababababababababababababababababababababababababababaaaaaaaaaaaaaaaaaaaaaaaaaaaaaaaaaaaaaa",
"aaaaaaaaaaaaaaaaaaaaaaaaaaaaaaaaaaaaaaaaaaaaaaaaaaaaaaaaaaaaaaaaaaaaaaaaaaaaaaaaaaaaaaaaaaaaaaaaaaaaaaaaaaaaaaaaaaaaaaaaaaaaaaaa",
"aaaaaaaaaaaaaaaaaaaaaaaaaaaaaaaaaaaaaaaaaaaaaaaaaaaaaaaaaaaaaaaaaaaaaaaaaaaaaaaaaaaaaaaaaaaaaaaaaaaaaaaaaaaaaaaaaaaaaaaaaaaaaaaa"
};
