/* XPM */
static char *blue_wins[] = {
"400 400 116 2",
"aa c #000000",
"ab c #FFFFFF",
"ac c #CCCCCC",
"ad c #999999",
"ae c #666666",
"af c #333333",
"ag c #F0F0F0",
"ah c #FFFACD",
"ai c #2A2A2A",
"aj c #383838",
"ak c #444444",
"al c #555555",
"am c #F8F8F8",
"an c #282828",
"ao c #EEEEEE",
"ap c #191919",
"aq c #1B1B1B",
"ar c #3A7D44",
"as c #2A6030",
"at c #4A9A55",
"au c #8B7355",
"av c #5D4037",
"aw c #87CEEB",
"ax c #B0E0E6",
"ay c #7A7A7A",
"az c #4A4A4A",
"aA c #003300",
"aB c #1A5276",
"aC c #2471A3",
"aD c #154360",
"aE c #85C1E9",
"aF c #1A1A1A",
"aG c #F9E79F",
"aH c #222222",
"aI c #FEF9E7",
"aJ c #D6EAF8",
"aK c #2C7FB0",
"aL c #1A3E58",
"aM c #123048",
"aN c #777777",
"aO c #505050",
"aP c #303030",
"aQ c #C0392B",
"aR c #E74C3C",
"aS c #A93226",
"aT c #922B21",
"aU c #D45F3A",
"aV c #8A2820",
"aW c #6E2018",
"aX c #686868",
"aY c #484848",
"aZ c #006699",
"a0 c #0066CC",
"a1 c #FFEE66",
"a2 c #CCAA00",
"a3 c #FFFFAA",
"a4 c #0099CC",
"a5 c #330000",
"a6 c #333300",
"a7 c #336666",
"a8 c #339999",
"a9 c #3399CC",
"a! c #3399FF",
"a@ c #1A1A2E",
"a# c #111122",
"a$ c #0A0A1E",
"a% c #33CCCC",
"a^ c #33CCFF",
"a& c #660000",
"a* c #000033",
"a( c #4444AA",
"a) c #F4F4F4",
"ba c #0D0D1A",
"bb c #DC2626",
"bc c #7F1D1D",
"bd c #F87171",
"be c #E8C547",
"bf c #FDE68A",
"bg c #92400E",
"bh c #111111",
"bi c #93C5FD",
"bj c #AAAAAA",
"bk c #669999",
"bl c #6699CC",
"bm c #6699FF",
"bn c #66CC99",
"bo c #66CCCC",
"bp c #66CCFF",
"bq c #990000",
"br c #993300",
"bs c #993366",
"bt c #996600",
"bu c #996633",
"bv c #996699",
"bw c #999900",
"bx c #999933",
"by c #999966",
"bz c #9999CC",
"bA c #99CC99",
"bB c #99CCCC",
"bC c #99FFFF",
"bD c #CC3300",
"bE c #CC6600",
"bF c #CC6666",
"bG c #CC9933",
"bH c #CC9966",
"bI c #CC9999",
"bJ c #CCCC33",
"bK c #CCCC66",
"bL c #CCCC99",
"bM c #CCFF99",
"bN c #FF6666",
"bO c #FF9933",
"bP c #FF9966",
"bQ c #FFCC33",
"bR c #FFCCCC",
/* pixels */
"aaaaaaaaaaaaaaaaaaaaaaaaaaaaaaaaaaaaaaaaaaaaaaaaaaaaaaaaaaaaaaaaaaaaaaaaaaaaaaaaaaaaaaaaaaaaaaaaaaaaaaaaaaaaaaaaaaaaaaaaaaaaaaaaaaaaaaaaaaaaaaaaaaaaaaaaaaaaaaaaaaaaaaaaaaaaaaaaaaaaaaaaaaaaaaaaaaaaaaaaaaaaaaaaaaaaaaaaaaaaaaaaaaaaaaaaaaaaaaaaaaaaaaaaaaaaaaaaaaaaaaaaaaaaaaaaaaaaaaaaaaaaaaaaaaaaaaaaaaaaaaaaaaaaaaaaaaaaaaaaaaaaaaaaaaaaaaaaaaaaaaaaaaaaaaaaaaaaaaaaaaaaaaaaaaaaaaaaaaaaaaaaaaaaaaaaaaaaaaaaaaaaaaaaaaaaaaaaaaaaaaaaaaaaaaaaaaaaaaaaaaaaaaaaaaaaaaaaaaaaaaaaaaaaaaaaaaaaaaaaaaaaaaaaaaaaaaaaaaaaaaaaaaaaaaaaaaaaaaaaaaaaaaaaaaaaaaaaaaaaaaaaaaaaaaaaaaaaaaaaaaaaaaaaaaaaaaaaaaaaaaaaaaaaaaaaaaaaaaaaaaaaaaaaaaaaaaaaaaaaaaaaaaaaaaaaaaaaaaaaaaaaaaaaaaaaaaaaaaaaaaaaaaaaaaaaaaaaaaaaaaaaaaaaaaaaaaaaaaaaaaaaaaaaaaaaaaaaaaaaaaaaaaaaaaaaaaaaaaaaaaaaaaaaaaaaaaaaaaaaaaaaaaaaaaaaaaaaaaaaaaaaaaaaaaaaaaaaaaaa",
"aaaaaaaaaaaaaaaaaaaaaaaaaaaaaaaaaaaaaaaaaaaaaaaaaaaaaaaaaaaaaaaaaaaaaaaaaaaaaaaaaaaaaaaaaaaaaaaaaaaaaaaaaaaaaaaaaaaaaaaaaaaaaaaaaaaaaaaaaaaaaaaaaaaaaaaaaaaaaaaaaaaaaaaaaaaaaaaaaaaaaaaaaaaaaaaaaaaaaaaaaaaaaaaaaaaaaaaaaaaaaaaaaaaaaaaaaaaaaaaaaaaaaaaaaaaaaaaaaaaaaaaaaaaaaaaaaaaaaaaaaaaaaaaaaaaaaaaaaaaaaaaaaaaaaaaaaaaaaaaaaaaaaaaaaaaaaaaaaaaaaaaaaaaaaaaaaaaaaaaaaaaaaaaaaaaaaaaaaaaaaaaaaaaaaaaaaaaaaaaaaaaaaaaaaaaaaaaaaaaaaaaaaaaaaaaaaaaaaaaaaaaaaaaaaaaaaaaaaaaaaaaaaaaaaaaaaaaaaaaaaaaaaaaaaaaaaaaaaaaaaaaaaaaaaaaaaaaaaaaaaaaaaaaaaaaaaaaaaaaaaaaaaaaaaaaaaaaaaaaaaaaaaaaaaaaaaaaaaaaaaaaaaaaaaaaaaaaaaaaaaaaaaaaaaaaaaaaaaaaaaaaaaaaaaaaaaaaaaaaaaaaaaaaaaaaaaaaaaaaaaaaaaaaaaaaaaaaaaaaaaaaaaaaaaaaaaaaaaaaaaaaaaaaaaaaaaaaaaaaaaaaaaaaaaaaaaaaaaaaaaaaaaaaaaaaaaaaaaaaaaaaaaaaaaaaaaaaaaaaaaaaaaaaaaaaaaaaaaaaa",
"aaaaaaaaaaaaaaaaaaaaaaaaaaaaaaaaaaaaaaaaaaaaaaaaaaaaaaaaaaaaaaaaaaaaaaaaaaaaaaaaaaaaaaaaaaaaaaaaaaaaaaaaaaaaaaaaaaaaaaaaaaaaaaaaaaaaaaaaaaaaaaaaaaaaaaaaaaaaaaaaaaaaaaaaaaaaaaaaaaaaaaaaaaaaaaaaaaaaaaaaaaaaaaaaaaaaaaaaaaaaaaaaaaaaaaaaaaaaaaaaaaaaaaaaaaaaaaaaaaaaaaaaaaaaaaaaaaaaaaaaaaaaaaaaaaaaaaaaaaaaaaaaaaaaaaaaaaaaaaaaaaaaaaaaaaaaaaaaaaaaaaaaaaaaaaaaaaaaaaaaaaaaaaaaaaaaaaaaaaaaaaaaaaaaaaaaaaaaaaaaaaaaaaaaaaaaaaaaaaaaaaaaaaaaaaaaaaaaaaaaaaaaaaaaaaaaaaaaaaaaaaaaaaaaaaaaaaaaaaaaaaaaaaaaaaaaaaaaaaaaaaaaaaaaaaaaaaaaaaaaaaaaaaaaaaaaaaaaaaaaaaaaaaaaaaaaaaaaaaaaaaaaaaaaaaaaaaaaaaaaaaaaaaaaaaaaaaaaaaaaaaaaaaaaaaaaaaaaaaaaaaaaaaaaaaaaaaaaaaaaaaaaaaaaaaaaaaaaaaaaaaaaaaaaaaaaaaaaaaaaaaaaaaaaaaaaaaaaaaaaaaaaaaaaaaaaaaaaaaaaaaaaaaaaaaaaaaaaaaaaaaaaaaaaaaaaaaaaaaaaaaaaaaaaaaaaaaaaaaaaaaaaaaaaaaaaaaaaaaaa",
"aaaaaaaaaaaaaaaaaaaaaaaaaaaaaaaaaaaaaaaaaaaaaaaaaaaaaaaaaaaaaaaaaaaaaaaaaaaaaaaaaaaaaaaaaaaaaaaaaaaaaaaaaaaaaaaaaaaaaaaaaaaaaaaaaaaaaaaaaaaaaaaaaaaaaaaaaaaaaaaaaaaaaaaaaaaaaaaaaaaaaaaaaaaaaaaaaaaaaaaaaaaaaaaaaaaaaaaaaaaaaaaaaaaaaaaaaaaaaaaaaaaaaaaaaaaaaaaaaaaaaaaaaaaaaaaaaaaaaaaaaaaaaaaaaaaaaaaaaaaaaaaaaaaaaaaaaaaaaaaaaaaaaaaaaaaaaaaaaaaaaaaaaaaaaaaaaaaaaaaaaaaaaaaaaaaaaaaaaaaaaaaaaaaaaaaaaaaaaaaaaaaaaaaaaaaaaaaaaaaaaaaaaaaaaaaaaaaaaaaaaaaaaaaaaaaaaaaaaaaaaaaaaaaaaaaaaaaaaaaaaaaaaaaaaaaaaaaaaaaaaaaaaaaaaaaaaaaaaaaaaaaaaaaaaaaaaaaaaaaaaaaaaaaaaaaaaaaaaaaaaaaaaaaaaaaaaaaaaaaaaaaaaaaaaaaaaaaaaaaaaaaaaaaaaaaaaaaaaaaaaaaaaaaaaaaaaaaaaaaaaaaaaaaaaaaaaaaaaaaaaaaaaaaaaaaaaaaaaaaaaaaaaaaaaaaaaaaaaaaaaaaaaaaaaaaaaaaaaaaaaaaaaaaaaaaaaaaaaaaaaaaaaaaaaaaaaaaaaaaaaaaaaaaaaaaaaaaaaaaaaaaaaaaaaaaaaaaaaaaa",
"aaaaaaaaaaaaaaaaaaaaaaaaaaaaaaaaaaaaaaaaaaaaaaaaaaaaaaaaaaaaaaaaaaaaaaaaaaaaaaaaaaaaaaaaaaaaaaaaaaaaaaaaaaaaaaaaaaaaaaaaaaaaaaaaaaaaaaaaaaaaaaaaaaaaaaaaaaaaaaaaaaaaaaaaaaaaaaaaaaaaaaaaaaaaaaaaaaaaaaaaaaaaaaaaaaaaaaaaaaaaaaaaaaaaaaaaaaaaaaaaaaaaaaaaaaaaaaaaaaaaaaaaaaaaaaaaaaaaaaaaaaaaaaaaaaaaaaaaaaaaaaaaaaaaaaaaaaaaaaaaaaaaaaaaaaaaaaaaaaaaaaaaaaaaaaaaaaaaaaaaaaaaaaaaaaaaaaaaaaaaaaaaaaaaaaaaaaaaaaaaaaaaaaaaaaaaaaaaaaaaaaaaaaaaaaaaaaaaaaaaaaaaaaaaaaaaaaaaaaaaaaaaaaaaaaaaaaaaaaaaaaaaaaaaaaaaaaaaaaaaaaaaaaaaaaaaaaaaaaaaaaaaaaaaaaaaaaaaaaaaaaaaaaaaaaaaaaaaaaaaaaaaaaaaaaaaaaaaaaaaaaaaaaaaaaaaaaaaaaaaaaaaaaaaaaaaaaaaaaaaaaaaaaaaaaaaaaaaaaaaaaaaaaaaaaaaaaaaaaaaaaaaaaaaaaaaaaaaaaaaaaaaaaaaaaaaaaaaaaaaaaaaaaaaaaaaaaaaaaaaaaaaaaaaaaaaaaaaaaaaaaaaaaaaaaaaaaaaaaaaaaaaaaaaaaaaaaaaaaaaaaaaaaaaaaaaaaaaaaaa",
"aaaaaaaaaaaaaaaaaaaaaaaaaaaaaaaaaaaaaaaaaaaaaaaaaaaaaaaaaaaaaaaaaaaaaaaaaaaaaaaaaaaaaaaaaaaaaaaaaaaaaaaaaaaaaaaaaaaaaaaaaaaaaaaaaaaaaaaaaaaaaaaaaaaaaaaaaaaaaaaaaaaaaaaaaaaaaaaaaaaaaaaaaaaaaaaaaaaaaaaaaaaaaaaaaaaaaaaaaaaaaaaaaaaaaaaaaaaaaaaaaaaaaaaaaaaaaaaaaaaaaaaaaaaaaaaaaaaaaaaaaaaaaaaaaaaaaaaaaaaaaaaaaaaaaaaaaaaaaaaaaaaaaaaaaaaaaaaaaaaaaaaaaaaaaaaaaaaaaaaaaaaaaaaaaaaaaaaaaaaaaaaaaaaaaaaaaaaaaaaaaaaaaaaaaaaaaaaaaaaaaaaaaaaaaaaaaaaaaaaaaaaaaaaaaaaaaaaaaaaaaaaaaaaaaaaaaaaaaaaaaaaaaaaaaaaaaaaaaaaaaaaaaaaaaaaaaaaaaaaaaaaaaaaaaaaaaaaaaaaaaaaaaaaaaaaaaaaaaaaaaaaaaaaaaaaaaaaaaaaaaaaaaaaaaaaaaaaaaaaaaaaaaaaaaaaaaaaaaaaaaaaaaaaaaaaaaaaaaaaaaaaaaaaaaaaaaaaaaaaaaaaaaaaaaaaaaaaaaaaaaaaaaaaaaaaaaaaaaaaaaaaaaaaaaaaaaaaaaaaaaaaaaaaaaaaaaaaaaaaaaaaaaaaaaaaaaaaaaaaaaaaaaaaaaaaaaaaaaaaaaaaaaaaaaaaaaaaaaaaa",
"aaaaaaaaaaaaaaaaaaaaaaaaaaaaaaaaaaaaaaaaaaaaaaaaaaaaaaaaaaaaaaaaaaaaaaaaaaaaaaaaaaaaaaaaaaaaaaaaaaaaaaaaaaaaaaaaaaaaaaaaaaaaaaaaaaaaaaaaaaaaaaaaaaaaaaaaaaaaaaaaaaaaaaaaaaaaaaaaaaaaaaaaaaaaaaaaaaaaaaaaaaaaaaaaaaaaaaaaaaaaaaaaaaaaaaaaaaaaaaaaaaaaaaaaaaaaaaaaaaaaaaaaaaaaaaaaaaaaaaaaaaaaaaaaaaaaaaaaaaaaaaaaaaaaaaaaaaaaaaaaaaaaaaaaaaaaaaaaaaaaaaaaaaaaaaaaaaaaaaaaaaaaaaaaaaaaaaaaaaaaaaaaaaaaaaaaaaaaaaaaaaaaaaaaaaaaaaaaaaaaaaaaaaaaaaaaaaaaaaaaaaaaaaaaaaaaaaaaaaaaaaaaaaaaaaaaaaaaaaaaaaaaaaaaaaaaaaaaaaaaaaaaaaaaaaaaaaaaaaaaaaaaaaaaaaaaaaaaaaaaaaaaaaaaaaaaaaaaaaaaaaaaaaaaaaaaaaaaaaaaaaaaaaaaaaaaaaaaaaaaaaaaaaaaaaaaaaaaaaaaaaaaaaaaaaaaaaaaaaaaaaaaaaaaaaaaaaaaaaaaaaaaaaaaaaaaaaaaaaaaaaaaaaaaaaaaaaaaaaaaaaaaaaaaaaaaaaaaaaaaaaaaaaaaaaaaaaaaaaaaaaaaaaaaaaaaaaaaaaaaaaaaaaaaaaaaaaaaaaaaaaaaaaaaaaaaaaaaaaaa",
"aaaaaaaaaaaaaaaaaaaaaaaaaaaaaaaaaaaaaaaaaaaaaaaaaaaaaaaaaaaaaaaaaaaaaaaaaaaaaaaaaaaaaaaaaaaaaaaaaaaaaaaaaaaaaaaaaaaaaaaaaaaaaaaaaaaaaaaaaaaaaaaaaaaaaaaaaaaaaaaaaaaaaaaaaaaaaaaaaaaaaaaaaaaaaaaaaaaaaaaaaaaaaaaaaaaaaaaaaaaaaaaaaaaaaaaaaaaaaaaaaaaaaaaaaaaaaaaaaaaaaaaaaaaaaaaaaaaaaaaaaaaaaaaaaaaaaaaaaaaaaaaaaaaaaaaaaaaaaaaaaaaaaaaaaaaaaaaaaaaaaaaaaaaaaaaaaaaaaaaaaaaaaaaaaaaaaaaaaaaaaaaaaaaaaaaaaaaaaaaaaaaaaaaaaaaaaaaaaaaaaaaaaaaaaaaaaaaaaaaaaaaaaaaaaaaaaaaaaaaaaaaaaaaaaaaaaaaaaaaaaaaaaaaaaaaaaaaaaaaaaaaaaaaaaaaaaaaaaaaaaaaaaaaaaaaaaaaaaaaaaaaaaaaaaaaaaaaaaaaaaaaaaaaaaaaaaaaaaaaaaaaaaaaaaaaaaaaaaaaaaaaaaaaaaaaaaaaaaaaaaaaaaaaaaaaaaaaaaaaaaaaaaaaaaaaaaaaaaaaaaaaaaaaaaaaaaaaaaaaaaaaaaaaaaaaaaaaaaaaaaaaaaaaaaaaaaaaaaaaaaaaaaaaaaaaaaaaaaaaaaaaaaaaaaaaaaaaaaaaaaaaaaaaaaaaaaaaaaaaaaaaaaaaaaaaaaaaaaaaa",
"aaaaaaaaaaaaaaaaaaaaaaaaaaaaaaaaaaaaaaaaaaaaaaaaaaaaaaaaaaaaaaaaaaaaaaaaaaaaaaaaaaaaaaaaaaaaaaaaaaaaaaaaaaaaaaaaaaaaaaaaaaaaaaaaaaaaaaaaaaaaaaaaaaaaaaaaaaaaaaaaaaaaaaaaaaaaaaaaaaaaaaaaaaaaaaaaaaaaaaaaaaaaaaaaaaaaaaaaaaaaaaaaaaaaaaaaaaaaaaaaaaaaaaaaaaaaaaaaaaaaaaaaaaaaaaaaaaaaaaaaaaaaaaaaaaaaaaaaaaaaaaaaaaaaaaaaaaaaaaaaaaaaaaaaaaaaaaaaaaaaaaaaaaaaaaaaaaaaaaaaaaaaaaaaaaaaaaaaaaaaaaaaaaaaaaaaaaaaaaaaaaaaaaaaaaaaaaaaaaaaaaaaaaaaaaaaaaaaaaaaaaaaaaaaaaaaaaaaaaaaaaaaaaaaaaaaaaaaaaaaaaaaaaaaaaaaaaaaaaaaaaaaaaaaaaaaaaaaaaaaaaaaaaaaaaaaaaaaaaaaaaaaaaaaaaaaaaaaaaaaaaaaaaaaaaaaaaaaaaaaaaaaaaaaaaaaaaaaaaaaaaaaaaaaaaaaaaaaaaaaaaaaaaaaaaaaaaaaaaaaaaaaaaaaaaaaaaaaaaaaaaaaaaaaaaaaaaaaaaaaaaaaaaaaaaaaaaaaaaaaaaaaaaaaaaaaaaaaaaaaaaaaaaaaaaaaaaaaaaaaaaaaaaaaaaaaaaaaaaaaaaaaaaaaaaaaaaaaaaaaaaaaaaaaaaaaaaaaaaaa",
"aaaaaaaaaaaaaaaaaaaaaaaaaaaaaaaaaaaaaaaaaaaaaaaaaaaaaaaaaaaaaaaaaaaaaaaaaaaaaaaaaaaaaaaaaaaaaaaaaaaaaaaaaaaaaaaaaaaaaaaaaaaaaaaaaaaaaaaaaaaaaaaaaaaaaaaaaaaaaaaaaaaaaaaaaaaaaaaaaaaaaaaaaaaaaaaaaaaaaaaaaaaaaaaaaaaaaaaaaaaaaaaaaaaaaaaaaaaaaaaaaaaaaaaaaaaaaaaaaaaaaaaaaaaaaaaaaaaaaaaaaaaaaaaaaaaaaaaaaaaaaaaaaaaaaaaaaaaaaaaaaaaaaaaaaaaaaaaaaaaaaaaaaaaaaaaaaaaaaaaaaaaaaaaaaaaaaaaaaaaaaaaaaaaaaaaaaaaaaaaaaaaaaaaaaaaaaaaaaaaaaaaaaaaaaaaaaaaaaaaaaaaaaaaaaaaaaaaaaaaaaaaaaaaaaaaaaaaaaaaaaaaaaaaaaaaaaaaaaaaaaaaaaaaaaaaaaaaaaaaaaaaaaaaaaaaaaaaaaaaaaaaaaaaaaaaaaaaaaaaaaaaaaaaaaaaaaaaaaaaaaaaaaaaaaaaaaaaaaaaaaaaaaaaaaaaaaaaaaaaaaaaaaaaaaaaaaaaaaaaaaaaaaaaaaaaaaaaaaaaaaaaaaaaaaaaaaaaaaaaaaaaaaaaaaaaaaaaaaaaaaaaaaaaaaaaaaaaaaaaaaaaaaaaaaaaaaaaaaaaaaaaaaaaaaaaaaaaaaaaaaaaaaaaaaaaaaaaaaaaaaaaaaaaaaaaaaaaaaaaa",
"aaaaaaaaaaaaaaaaaaaaaaaaaaaaaaaaaaaaaaaaaaaaaaaaaaaaaaaaaaaaaaaaaaaaaaaaaaaaaaaaaaaaaaaaaaaaaaaaaaaaaaaaaaaaaaaaaaaaaaaaaaaaaaaaaaaaaaaaaaaaaaaaaaaaaaaaaaaaaaaaaaaaaaaaaaaaaaaaaaaaaaaaaaaaaaaaaaaaaaaaaaaaaaaaaaaaaaaaaaaaaaaaaaaaaaaaaaaaaaaaaaaaaaaaaaaaaaaaaaaaaaaaaaaaaaaaaaaaaaaaaaaaaaaaaaaaaaaaaaaaaaaaaaaaaaaaaaaaaaaaaaaaaaaaaaaaaaaaaaaaaaaaaaaaaaaaaaaaaaaaaaaaaaaaaaaaaaaaaaaaaaaaaaaaaaaaaaaaaaaaaFaFafafaaaaaaaaaaaaaaaaaaaaaaaaaaaaaaaaaaaaaaaaaaaaaaaaaaaaaaaaaaaaaaaaaaaaaaaaaaaaaaaaaaaaaaaaaaaaaaaaaaaaaaaaaaaaaaaaaaaaaaaaaaaaaaaaaaaaaaaaaaaaaaaaaaaaaaaaaaaaaaaaaaaaaaaaaaaaaaaaaaaaaaaaaaaaaaaaaaaaaaaaaaaaaaaaaaaaaaaaaaaaaaaaaaaaaaaaaaaaaaaaaaaaaaaaaaaaaaaaaaaaaaaaaaaaaaaaaaaaaaaaaaaaaaaaaaaaaaaaaaaaaaaaaaaaaaaaaaaaaaaaaaaaaaaaaaaaaaaaaaaaaaaaaaaaaaaaaaaaaaaaaaaaaaaaaaaaaaaaaaaaaaaaaaaaaaaa",
"aaaaaaaaaaaaaaaaaaaaaaaaaaaaaaaaaaaaaaaaaaaaaaaaaaaaaaaaaaaaaaaaaaaaaaaaaaaaaaaaaaaaaaaaaaaaaaaaaaaaaaaaaaaaaaaaaaaaaaaaaaaaaaaaaaaaaaaaaaaaaaaaaaaaaaaaaaaaaaaaaaaaaaaaaaaaaaaaaaaaaaaaaaaaaaaaaaaaaaaaaaaaaaaaaaaaaaaaaaaaaaaaaaaaaaaaaaaaaaaaaaaaaaaaaaaaaaaaaaaaaaaaaaaaaaaaaaaaaaaaaaaaaaaaaaaaaaaaaaaaaaaaaaaaaaaaaaaaaaaaaaaaaaaaaaaaaaaaaaaaaaaaaaaaaaaaaaaaaaaaaaaaaaaaaaaaaaaaaaaaaaaaaaaaaaaaaaaaaaaaaFaFafafaaaaaaaaaaaaaaaaaaaaaaaaaaaaaaaaaaaaaaaaaaaaaaaaaaaaaaaaaaaaaaaaaaaaaaaaaaaaaaaaaaaaaaaaaaaaaaaaaaaaaaaaaaaaaaaaaaaaaaaaaaaaaaaaaaaaaaaaaaaaaaaaaaaaaaaaaaaaaaaaaaaaaaaaaaaaaaaaaaaaaaaaaaaaaaaaaaaaaaaaaaaaaaaaaaaaaaaaaaaaaaaaaaaaaaaaaaaaaaaaaaaaaaaaaaaaaaaaaaaaaaaaaaaaaaaaaaaaaaaaaaaaaaaaaaaaaaaaaaaaaaaaaaaaaaaaaaaaaaaaaaaaaaaaaaaaaaaaaaaaaaaaaaaaaaaaaaaaaaaaaaaaaaaaaaaaaaaaaaaaaaaaaaaaaaaa",
"aaaaaaaaaaaaaaaaaaaaaaaaaaaaaaaaaaaaaaaaaaaaaaaaaaaaaaaaaaaaaaaaaaaaaaaaaaaaaaaaaaaaaaaaaaaaaaaaaaaaaaaaaaaaaaaaaaaaaaaaaaaaaaaaaaaaaaaaaaaaaaaaaaaaaaaaaaaaaaaaaaaaaaaaaaaaaaaaaaaaaaaaaaaaaaaaaaaaaaaaaaaaaaaaaaaaaaaaaaaaaaaaaaaaaaaaaaaaaaaaaaaaaaaaaaaaaaaaaaaaaaaaaaaaaaaaaaaaaaaaaaaaaaaaaaaaaaaaaaaaaaaaaaaaaaaaaaaaaaaaaaaaaaaaaaaaaaaaaaaaaaaaaaaaaaaaaaaaaaaaaaaaaaaaaaaaaaaaaaaaaaaaauauaaaaaaaaaaaaaPaPaeaeaaaaaqaqaOaOaaaaaaaaaaaaaaaaaaaaaaaaaaaaaaaaaaaaaaaaaaaaaaaaaaaaaaaaaaaaaaaaaaaaaaaaaaaaaaaaaaaaaaaaaaaaaaaaaaaaaaaaaaaaaaaaaaaaaaaaaaaaaaaaaaaaaaaaaaaaaaaaaaaaaaaaaaaaaaaaaaaaaaaaaaaaaaaaaaaaaaaaaaaaaaaaaaaaaaaaaaaaaaaaaaaaaaaaaaaaaaaaaaaaaaaaaaaaaaaaaaaaaaaaaaaaaaaaaaaaaaaaaaaaaaaaaaaaaaaaaaaaaaaaaaaaaaaaaaaaaaaaaaaaaaaaaaaaaaaaaaaaaaaaaaaaaaaaaaaaaaaaaaaaaaaaaaaaaaaaaaaaaaaaaaaaaaaaaaaa",
"aaaaaaaaaaaaaaaaaaaaaaaaaaaaaaaaaaaaaaaaaaaaaaaaaaaaaaaaaaaaaaaaaaaaaaaaaaaaaaaaaaaaaaaaaaaaaaaaaaaaaaaaaaaaaaaaaaaaaaaaaaaaaaaaaaaaaaaaaaaaaaaaaaaaaaaaaaaaaaaaaaaaaaaaaaaaaaaaaaaaaaaaaaaaaaaaaaaaaaaaaaaaaaaaaaaaaaaaaaaaaaaaaaaaaaaaaaaaaaaaaaaaaaaaaaaaaaaaaaaaaaaaaaaaaaaaaaaaaaaaaaaaaaaaaaaaaaaaaaaaaaaaaaaaaaaaaaaaaaaaaaaaaaaaaaaaaaaaaaaaaaaaaaaaaaaaaaaaaaaaaaaaaaaaaaaaaaaaaaaaaaaaauauaaaaaaaaaaaaaPaPaeaeaaaaaqaqaOaOaaaaaaaaaaaaaaaaaaaaaaaaaaaaaaaaaaaaaaaaaaaaaaaaaaaaaaaaaaaaaaaaaaaaaaaaaaaaaaaaaaaaaaaaaaaaaaaaaaaaaaaaaaaaaaaaaaaaaaaaaaaaaaaaaaaaaaaaaaaaaaaaaaaaaaaaaaaaaaaaaaaaaaaaaaaaaaaaaaaaaaaaaaaaaaaaaaaaaaaaaaaaaaaaaaaaaaaaaaaaaaaaaaaaaaaaaaaaaaaaaaaaaaaaaaaaaaaaaaaaaaaaaaaaaaaaaaaaaaaaaaaaaaaaaaaaaaaaaaaaaaaaaaaaaaaaaaaaaaaaaaaaaaaaaaaaaaaaaaaaaaaaaaaaaaaaaaaaaaaaaaaaaaaaaaaaaaaaaaaa",
"aaaaaaaaaaaaaaaaaaaaaaaaaaaaaaaaaaaaaaaaaaaaaaaaaaaaaaaaaaaaaaaaaaaaaaaaaaaaaaaaaaaaaaaaaaaaaaaaaaaaaaaaaaaaaaaaaaaaaaaaaaaaaaaaaaaaaaaaaaaaaaaaaaaaaaaaaaaaaaaaaaaaaaaaaaaaaaaaaaaaaaaaaaaaaaaaaaaaaaaaaaaaaaaaaaaaaaaaaaaaaaaaaaaaaaaaaaaaaaaaaaaaaaaaaaaaaaaaaaaaaaaaaaaaaaaaaaaaaaaaaaaaaaaaaaaaaaaaaaaaaaaaaaaaaaaaaaaaaaaaaaaaaaaaaaaaaaaaaaaaaaaaaaaaaaaaaaaaaaaaaaaaaaaaaaaaayayaaaaaaaaayayaaaaaaaaaaaaavavavavaaaaauauananaaaaaaaaaaaaaaaaaaaaaaaaaaaaaaaaaaaaaaaaaaaaaaaaaaaaaaaaaaaaaaaaaaaaaaaaaaaaaaaaaaaaaaaaaaaaaaaaaaaaaaaaaaaaaaaaaaaaaaaaaaaaaaaaaaaaaaaaaaaaaaaaaaaaaaaaaaaaaaaaaaaaaaaaaaaaaaaaaaaaaaaaaaaaaaaaaaaaaaaaaaaaaaaaaaaaaaaaaaaaaaaaaaaaaaaaaaaaaaaaaaaaaaaaaaaaaaaaaaaaaaaaaaaaaaaaaaaaaaaaaaaaaaaaaaaaaaaaaaaaaaaaaaaaaaaaaaaaaaaaaaaaaaaaaaaaaaaaaaaaaaaaaaaaaaaaaaaaaaaaaaaaaaaaaaaaaaaaaaaa",
"aaaaaaaaaaaaaaaaaaaaaaaaaaaaaaaaaaaaaaaaaaaaaaaaaaaaaaaaaaaaaaaaaaaaaaaaaaaaaaaaaaaaaaaaaaaaaaaaaaaaaaaaaaaaaaaaaaaaaaaaaaaaaaaaaaaaaaaaaaaaaaaaaaaaaaaaaaaaaaaaaaaaaaaaaaaaaaaaaaaaaaaaaaaaaaaaaaaaaaaaaaaaaaaaaaaaaaaaaaaaaaaaaaaaaaaaaaaaaaaaaaaaaaaaaaaaaaaaaaaaaaaaaaaaaaaaaaaaaaaaaaaaaaaaaaaaaaaaaaaaaaaaaaaaaaaaaaaaaaaaaaaaaaaaaaaaaaaaaaaaaaaaaaaaaaaaaaaaaaaaaaaaaaaaaaaaayayaaaaaaaaayayaaaaaaaaaaaaavavavavaaaaauauananaaaaaaaaaaaaaaaaaaaaaaaaaaaaaaaaaaaaaaaaaaaaaaaaaaaaaaaaaaaaaaaaaaaaaaaaaaaaaaaaaaaaaaaaaaaaaaaaaaaaaaaaaaaaaaaaaaaaaaaaaaaaaaaaaaaaaaaaaaaaaaaaaaaaaaaaaaaaaaaaaaaaaaaaaaaaaaaaaaaaaaaaaaaaaaaaaaaaaaaaaaaaaaaaaaaaaaaaaaaaaaaaaaaaaaaaaaaaaaaaaaaaaaaaaaaaaaaaaaaaaaaaaaaaaaaaaaaaaaaaaaaaaaaaaaaaaaaaaaaaaaaaaaaaaaaaaaaaaaaaaaaaaaaaaaaaaaaaaaaaaaaaaaaaaaaaaaaaaaaaaaaaaaaaaaaaaaaaaaaa",
"aaaaaaaaaaaaaaaaaaaaaaaaaaaaaaaaaaaaaaaaaaaaaaaaaaaaaaaaaaaaaaaaaaaaaaaaaaaaaaaaaaaaaaaaaaaaaaaaaaaaaaaaaaaaaaaaaaaaaaaaaaaaaaaaaaaaaaaaaaaaaaaaaaaaaaaaaaaaaaaaaaaaaaaaaaaaaaaaaaaaaaaaaaaaaaaaaaaaaaaaaaaaaaaaaaaaaaaaaaaaaaaaaaaaaaaaaaaaaaaaaaaaaaaaaaaaaaaaaaaaaaaaaaaaaaaaaaaaaaaaaaaaaaaaaaaaaaaaaaaaaaaaaaaaaaaaaaaaaaaaaaaaaaaaaaaaaaaaaaaaaaaaaaaaaaaaaaaaaOaOaPaPaaaaaaaaauauauauaaaabhbhbybyapapaaaaauauaaaaaaaaauauaaaaaaaaaaaabhbhajajaaaaaaaaaaaaaaaaaaaaaaaaaaaaaaaaaaaaaaaaaaaaaaaaaaaaaaaaaaaaaaaaaaaaaaaaaaaaaaaaaaaaaaaaaaaaaaaaaaaaaaaaaaaaaaaaaaaaaaaaaaaaaaaaaaaaaaaaaaaaaaaaaaaaaaaaaaaaaaaaaaaaaaaaaaaaaaaaaaaaaPaPaaaaaaaaaaaaaaaaaaaaaaaaaaaaaaaaaaaaaaaaaaaaaaaaaaaaaaaaaaaaaaaaaaaaaaaaaaaaaaaaaaaaaaaaaaaaaaaaaaaaaaaaaaaaaaaaaaaaaaaaaaaaaaaaaaaaaaaaaaaaaaaaaaaaaaaaaaaaaaaaaaaaaaaaaaaaaaaaaaaa",
"aaaaaaaaaaaaaaaaaaaaaaaaaaaaaaaaaaaaaaaaaaaaaaaaaaaaaaaaaaaaaaaaaaaaaaaaaaaaaaaaaaaaaaaaaaaaaaaaaaaaaaaaaaaaaaaaaaaaaaaaaaaaaaaaaaaaaaaaaaaaaaaaaaaaaaaaaaaaaaaaaaaaaaaaaaaaaaaaaaaaaaaaaaaaaaaaaaaaaaaaaaaaaaaaaaaaaaaaaaaaaaaaaaaaaaaaaaaaaaaaaaaaaaaaaaaaaaaaaaaaaaaaaaaaaaaaaaaaaaaaaaaaaaaaaaaaaaaaaaaaaaaaaaaaaaaaaaaaaaaaaaaaaaaaaaaaaaaaaaaaaaaaaaaaaaaaaaaaaOaOaPaPaaaaaaaaauauauauaaaabhbhbybyapapaaaaauauaaaaaaaaauauaaaaaaaaaaaabhbhajajaaaaaaaaaaaaaaaaaaaaaaaaaaaaaaaaaaaaaaaaaaaaaaaaaaaaaaaaaaaaaaaaaaaaaaaaaaaaaaaaaaaaaaaaaaaaaaaaaaaaaaaaaaaaaaaaaaaaaaaaaaaaaaaaaaaaaaaaaaaaaaaaaaaaaaaaaaaaaaaaaaaaaaaaaaaaaaaaaaaaaPaPaaaaaaaaaaaaaaaaaaaaaaaaaaaaaaaaaaaaaaaaaaaaaaaaaaaaaaaaaaaaaaaaaaaaaaaaaaaaaaaaaaaaaaaaaaaaaaaaaaaaaaaaaaaaaaaaaaaaaaaaaaaaaaaaaaaaaaaaaaaaaaaaaaaaaaaaaaaaaaaaaaaaaaaaaaaaaaaaaaaa",
"aaaaaaaaaaaaaaaaaaaaaaaaaaaaaaaaaaaaaaaaaaaaaaaaaaaaaaaaaaaaaaaaaaaaaaaaaaaaaaaaaaaaaaaaaaaaaaaaaaaaaaaaaaaaaaaaaaaaaaaaaaaaaaaaaaaaaaaaaaaaaaaaaaaaaaaaaaaaaaaaaaaaaaaaaaaaaaaaaaaaaaaaaaaaaaaaaaaaaaaaaaaaaaaaaaaaaaaaaaaaaaaaaaaaaaaaaaaaaaaaaaaaaaaaaaaaaaaaaaaaaaaaaaaaaaaaaaaaaaaaaaaaaaaaaaaaaaaaaaaaaaaaaaaaaaaaaaaaaaaaaaaaaaaaaaaaaaaaaaaaaaaaaaaaaaaaaaaaaYaYaeaeajajaaaaaaaaauauajajaaaaauauavavaaaaavavaaaaaPaPaeaeaaaaaaaabhbhauauaPaPaaaaaaaaaaaaaaaaaaaaaaaaaaaaaaaaaaaaaaaaaaaaaaaaaaaaaaaaaaaaaaaaaaaaaaaaaaaaaaaaaaaaaaaaaaaaaaaaaaaaaaaaaaaaaaaaaaaaaaaaaaaaaaaaaaaaaaaaaaaaaaaaaaaaaaaaaaaaaNaNaqaqaaaaaaaaaaaaaHaHbkbkaaaaaaaaaaaaaaaaaaaaaaaaaaaaaaaaaaaaaaaaaaaaaaaaaaaaaaaaaaaaaaaaaaaaaaaaaaaaaaaaaaaaaaaaaaaaaaaaaaaaaaaaaaaaaaaaaaaaaaaaaaaaaaaaaaaaaaaaaaaaaaaaaaaaaaaaaaaaaaaaaaaaaaaaaaaaaaaaaaaa",
"aaaaaaaaaaaaaaaaaaaaaaaaaaaaaaaaaaaaaaaaaaaaaaaaaaaaaaaaaaaaaaaaaaaaaaaaaaaaaaaaaaaaaaaaaaaaaaaaaaaaaaaaaaaaaaaaaaaaaaaaaaaaaaaaaaaaaaaaaaaaaaaaaaaaaaaaaaaaaaaaaaaaaaaaaaaaaaaaaaaaaaaaaaaaaaaaaaaaaaaaaaaaaaaaaaaaaaaaaaaaaaaaaaaaaaaaaaaaaaaaaaaaaaaaaaaaaaaaaaaaaaaaaaaaaaaaaaaaaaaaaaaaaaaaaaaaaaaaaaaaaaaaaaaaaaaaaaaaaaaaaaaaaaaaaaaaaaaaaaaaaaaaaaaaaaaaaaaaaYaYaeaeajajaaaaaaaaauauajajaaaaauauavavaaaaavavaaaaaPaPaeaeaaaaaaaabhbhauauaPaPaaaaaaaaaaaaaaaaaaaaaaaaaaaaaaaaaaaaaaaaaaaaaaaaaaaaaaaaaaaaaaaaaaaaaaaaaaaaaaaaaaaaaaaaaaaaaaaaaaaaaaaaaaaaaaaaaaaaaaaaaaaaaaaaaaaaaaaaaaaaaaaaaaaaaaaaaaaaaNaNaqaqaaaaaaaaaaaaaHaHbkbkaaaaaaaaaaaaaaaaaaaaaaaaaaaaaaaaaaaaaaaaaaaaaaaaaaaaaaaaaaaaaaaaaaaaaaaaaaaaaaaaaaaaaaaaaaaaaaaaaaaaaaaaaaaaaaaaaaaaaaaaaaaaaaaaaaaaaaaaaaaaaaaaaaaaaaaaaaaaaaaaaaaaaaaaaaaaaaaaaaaa",
"aaaaaaaaaaaaaaaaaaaaaaaaaaaaaaaaaaaaaaaaaaaaaaaaaaaaaaaaaaaaaaaaaaaaaaaaaaaaaaaaaaaaaaaaaaaaaaaaaaaaaaaaaaaaaaaaaaaaaaaaaaaaaaaaaaaaaaaaaaaaaaaaaaaaaaaaaaaaaaaaaaaaaaaaaaaaaaaaaaaaaaaaaaaaaaaaaaaaaaaaaaaaaaaaaaaaaaaaaaaaaaaaaaaaaaaaaaaaaaaaaaaaaaaaaaaaaaaaaaaaaaaaaaaaaaaaaaaaaaaaaaaaaaaaaaaaaaaaaaaaaaaaaaaaaaaaaaaaaaaaaaaaaaaaaaaaaaaaaaaaaaaaaaaaaaaaaaaaaaaaaaaaauauaPaPaaaaavavbIbIbhbhavavalalaaaaavavaaaaauauaiaiaaaaaaaaauauaiaiaaaaaFaFauauaaaaaaaaaaaaaaaaaaaaaaaaaaaaaaaaaaaaaaaaaaaaaaaaaaaaaaaaaaaaaaaaaaaaaaaaaaaaaaaaaaaaaaaaaaaaaaaaaaaaaaaaaaaaaaaaaaaaaaaaaaaaaaaaaeaeaaaaaaaaaaaaaaaaayayajajaaaaaaaaaaaaaaaaaNaNaaaaaaaaaaaaalalakakaaaaaaaaalaladadaaaaaaaaaaaaaaaaaaaaaaaaaaaaaaaaaaaaaaaaaaaaaaaaaaaaaaaaaaaaaaaaaaaaaaaaaaaaaaaaaaaaaaaaaaaaaaaaaaaaaaaaaaaaaaaaaaaaaaaaaaaaaaaaaaaaaaaaaaaaaaaa",
"aaaaaaaaaaaaaaaaaaaaaaaaaaaaaaaaaaaaaaaaaaaaaaaaaaaaaaaaaaaaaaaaaaaaaaaaaaaaaaaaaaaaaaaaaaaaaaaaaaaaaaaaaaaaaaaaaaaaaaaaaaaaaaaaaaaaaaaaaaaaaaaaaaaaaaaaaaaaaaaaaaaaaaaaaaaaaaaaaaaaaaaaaaaaaaaaaaaaaaaaaaaaaaaaaaaaaaaaaaaaaaaaaaaaaaaaaaaaaaaaaaaaaaaaaaaaaaaaaaaaaaaaaaaaaaaaaaaaaaaaaaaaaaaaaaaaaaaaaaaaaaaaaaaaaaaaaaaaaaaaaaaaaaaaaaaaaaaaaaaaaaaaaaaaaaaaaaaaaaaaaaaaauauaPaPaaaaavavbIbIbhbhavavalalaaaaavavaaaaauauaiaiaaaaaaaaauauaiaiaaaaaFaFauauaaaaaaaaaaaaaaaaaaaaaaaaaaaaaaaaaaaaaaaaaaaaaaaaaaaaaaaaaaaaaaaaaaaaaaaaaaaaaaaaaaaaaaaaaaaaaaaaaaaaaaaaaaaaaaaaaaaaaaaaaaaaaaaaaeaeaaaaaaaaaaaaaaaaayayajajaaaaaaaaaaaaaaaaaNaNaaaaaaaaaaaaalalakakaaaaaaaaalaladadaaaaaaaaaaaaaaaaaaaaaaaaaaaaaaaaaaaaaaaaaaaaaaaaaaaaaaaaaaaaaaaaaaaaaaaaaaaaaaaaaaaaaaaaaaaaaaaaaaaaaaaaaaaaaaaaaaaaaaaaaaaaaaaaaaaaaaaaaaaaaaaa",
"aaaaaaaaaaaaaaaaaaaaaaaaaaaaaaaaaaaaaaaaaaaaaaaaaaaaaaaaaaaaaaaaaaaaaaaaaaaaaaaaaaaaaaaaaaaaaaaaaaaaaaaaaaaaaaaaaaaaaaaaaaaaaaaaaaaaaaaaaaaaaaaaaaaaaaaaaaaaaaaaaaaaaaaaaaaaaaaaananaaaaaaaaaeaeaNaNaaaaaaaaaaaaananacacaaaaaaaaaaaaaaaaaaaaaaaaaaaaaaaaaaaaaaaaaaaaaaaaaaaaaaaaaaaaaaaaaaaaaaaaaaaaaaaaaaaaaaaaaaaaaaaaaaaaaaaaaaaaaaaaaaaaaaaaaaaaajajajajaaaaaaaaaFaFaiaiaaaaalalaPaPaaaaauaua5a5avavalalaaaaavavaaaaavavaaaaaaaaauauafafaaaaauauadadapapaaaaavavafafaaaaaaaaaaaaaaaaaaaaaaaaaaaaaaaaaaaaaaaaaaaaaaaaaaaaaaaaaaaaaaaaaaaaaaaaaaaaaaaaaaaaaaaaaaaaaaaaaaaaaaaaaaaaaaaaaaaaajajayayaaaaaaaaaaaaaeaeaiaiaaaaaaaaaaaaakakaNaNaaaaaaaaaaaabBbBaPaPaaaaalalbBbBananaaaaaaaaaaaaaaaaaaaaaaaaaaaaaaaaaaaaaaaaaaaaaaaaaaaaaaaaaaaaaaaaaaaaaaaaaaaaaaaaaaaaaaaaaaaaaaaaaaaaaaaaaaaaaaaaaaaaaaaaaaaaaaaaaaaaaaaaaaaaaaaa",
"aaaaaaaaaaaaaaaaaaaaaaaaaaaaaaaaaaaaaaaaaaaaaaaaaaaaaaaaaaaaaaaaaaaaaaaaaaaaaaaaaaaaaaaaaaaaaaaaaaaaaaaaaaaaaaaaaaaaaaaaaaaaaaaaaaaaaaaaaaaaaaaaaaaaaaaaaaaaaaaaaaaaaaaaaaaaaaaaananaaaaaaaaaeaeaNaNaaaaaaaaaaaaananacacaaaaaaaaaaaaaaaaaaaaaaaaaaaaaaaaaaaaaaaaaaaaaaaaaaaaaaaaaaaaaaaaaaaaaaaaaaaaaaaaaaaaaaaaaaaaaaaaaaaaaaaaaaaaaaaaaaaaaaaaaaaaajajajajaaaaaaaaaFaFaiaiaaaaalalaPaPaaaaauaua5a5avavalalaaaaavavaaaaavavaaaaaaaaauauafafaaaaauauadadapapaaaaavavafafaaaaaaaaaaaaaaaaaaaaaaaaaaaaaaaaaaaaaaaaaaaaaaaaaaaaaaaaaaaaaaaaaaaaaaaaaaaaaaaaaaaaaaaaaaaaaaaaaaaaaaaaaaaaaaaaaaaaajajayayaaaaaaaaaaaaaeaeaiaiaaaaaaaaaaaaakakaNaNaaaaaaaaaaaabBbBaPaPaaaaalalbBbBananaaaaaaaaaaaaaaaaaaaaaaaaaaaaaaaaaaaaaaaaaaaaaaaaaaaaaaaaaaaaaaaaaaaaaaaaaaaaaaaaaaaaaaaaaaaaaaaaaaaaaaaaaaaaaaaaaaaaaaaaaaaaaaaaaaaaaaaaaaaaaaaa",
"aaaaaaaaaaaaaaaaaaaaaaaaaaaaaaaaaaaaaaaaaaaaaaaaaaaaaaaaaaaaaaaaaaaaaaaaaaaaaaaaaaaaaaaaaaaaaaaaaaaaaaaaaaaaaaaaaaaaaaaaaaaaaaaaaaaaaaaaaaaaaaaaaaaaaaaaaaaaaHaHalalaaaaaaaaaOaOadadaaaaaaaaaeaeayayaaaaaaaaaaaaadadayayaaaaaaaaaaaaazazaaaaaaaaaaaaaaaaaaaaaaaaaaaaaaaaaaaaaaaaaaaaaaaaaaaaaaaaaaaaaaaaaaaaaaaaaaaaaaaaaaaaaaaaaaaaaaaaaaaaaaaaaaaaaOaOadadadadaaaaaqaqayayaPaPaaaaauauapapavava5a5avavavavajajaOaOaaaaavavaaaaajajauauaaaaaqaqbIbIbhbhaaaaaeaeaXaXazazaaaaaaaaaaaaaaaaaaaaaaaaaaaaaaaaaaaaaaaaaaaaaaaaaaaaaaaaaaaaaaaaaaaaaaaaaaaaaaaaaaaaaaaaaaaaaaaaaaaaa#a#ajajaaaaaaaaaaaabkbkafafaaaaaaaaaXaXaNaNaaaaaaaaaaaabkbka@a@aaaaaaaaaNaNaNaNaaaaalalbBbBaHaHaaaaaaaaaaaaaaaaaaaaaaaaaaaaaaaaaaaaaaaaaaaaaaaaaaaaaaaaaaaaaaaaaaaaaaaaaaaaaaaaaaaaaaaaaaaaaaaaaaaaaaaaaaaaaaaaaaaaaaaaaaaaaaaaaaaaaaaaaaaaaaaaaaaa",
"aaaaaaaaaaaaaaaaaaaaaaaaaaaaaaaaaaaaaaaaaaaaaaaaaaaaaaaaaaaaaaaaaaaaaaaaaaaaaaaaaaaaaaaaaaaaaaaaaaaaaaaaaaaaaaaaaaaaaaaaaaaaaaaaaaaaaaaaaaaaaaaaaaaaaaaaaaaaaHaHalalaaaaaaaaaOaOadadaaaaaaaaaeaeayayaaaaaaaaaaaaadadayayaaaaaaaaaaaaazazaaaaaaaaaaaaaaaaaaaaaaaaaaaaaaaaaaaaaaaaaaaaaaaaaaaaaaaaaaaaaaaaaaaaaaaaaaaaaaaaaaaaaaaaaaaaaaaaaaaaaaaaaaaaaOaOadadadadaaaaaqaqayayaPaPaaaaauauapapavava5a5avavavavajajaOaOaaaaavavaaaaajajauauaaaaaqaqbIbIbhbhaaaaaeaeaXaXazazaaaaaaaaaaaaaaaaaaaaaaaaaaaaaaaaaaaaaaaaaaaaaaaaaaaaaaaaaaaaaaaaaaaaaaaaaaaaaaaaaaaaaaaaaaaaaaaaaaaaa#a#ajajaaaaaaaaaaaabkbkafafaaaaaaaaaXaXaNaNaaaaaaaaaaaabkbka@a@aaaaaaaaaNaNaNaNaaaaalalbBbBaHaHaaaaaaaaaaaaaaaaaaaaaaaaaaaaaaaaaaaaaaaaaaaaaaaaaaaaaaaaaaaaaaaaaaaaaaaaaaaaaaaaaaaaaaaaaaaaaaaaaaaaaaaaaaaaaaaaaaaaaaaaaaaaaaaaaaaaaaaaaaaaaaaaaaaa",
"aaaaaaaaaaaaaaaaaaaaaaaaaaaaaaaaaaaaaaaaaaaaaaaaaaaaaaaaaaaaaaaaaaaaaaaaaaaaaaaaaaaaaaaaaaaaaaaaaaaaaaaaaaaaaaaaaaaaaaaaaaaaaaaaaaaaaaaaaaaaaaaaaaaaaaaaaaaaaaaaayayalalaaaaavavbybyaaaaaaaaaXaXaNaNaaaaaaaaaaaabybyaqaqaaaaaaaabybybLbLaaaaaaaaayayaaaaaaaaaaaaaaaaaaaaaaaaaaaaaaaaaaaaaaaaaaaaaaaaaaaaaaaaaaaaaaaaaaaaaaaaaaaaaaaaaaaaaaaaaaaaaaaaaaaaaaaaauaubybyaaaabhbhaeaebhbhafafavavaaaaavavaPaPananbIbIaHaHapapananaaaaavavaPaPbhbhaeaebhbhajajaeaeaiaiaaaaaaaaaaaaaaaaaaaaaaaaaaaaaaaaaaaaaaaaaaaaaaaaaaaaaaaaaaaaaaaaaaaaaaaaaaaaaaaaaaaaaaaaaaaaaaaaaaaaaaaaaaaaaaaaaeaeajajaaaaaaaaajajbkbkaaaaaaaaa@a@adadaaaaajajafafaNaNaaaaaaaaaaaaadadaqaqaOaObBbBaHaHaaaaaeaeaNaNaaaaaaaaaaaaaaaaaaaaaaaaaaaaaaaaaaaaaaaaaaaaaaaaaaaaaaaaaaaaaaaaaaaaaaaaaaaaaaaaaaaaaaaaaaaaaaaaaaaaaaaaaaaaaaaaaaaaaaaaaaaaaaaaaaaaaaaaaaaa",
"aaaaaaaaaaaaaaaaaaaaaaaaaaaaaaaaaaaaaaaaaaaaaaaaaaaaaaaaaaaaaaaaaaaaaaaaaaaaaaaaaaaaaaaaaaaaaaaaaaaaaaaaaaaaaaaaaaaaaaaaaaaaaaaaaaaaaaaaaaaaaaaaaaaaaaaaaaaaaaaaayayalalaaaaavavbybyaaaaaaaaaXaXaNaNaaaaaaaaaaaabybyaqaqaaaaaaaabybybLbLaaaaaaaaayayaaaaaaaaaaaaaaaaaaaaaaaaaaaaaaaaaaaaaaaaaaaaaaaaaaaaaaaaaaaaaaaaaaaaaaaaaaaaaaaaaaaaaaaaaaaaaaaaaaaaaaaaauaubybyaaaabhbhaeaebhbhafafavavaaaaavavaPaPananbIbIaHaHapapananaaaaavavaPaPbhbhaeaebhbhajajaeaeaiaiaaaaaaaaaaaaaaaaaaaaaaaaaaaaaaaaaaaaaaaaaaaaaaaaaaaaaaaaaaaaaaaaaaaaaaaaaaaaaaaaaaaaaaaaaaaaaaaaaaaaaaaaaaaaaaaaaeaeajajaaaaaaaaajajbkbkaaaaaaaaa@a@adadaaaaajajafafaNaNaaaaaaaaaaaaadadaqaqaOaObBbBaHaHaaaaaeaeaNaNaaaaaaaaaaaaaaaaaaaaaaaaaaaaaaaaaaaaaaaaaaaaaaaaaaaaaaaaaaaaaaaaaaaaaaaaaaaaaaaaaaaaaaaaaaaaaaaaaaaaaaaaaaaaaaaaaaaaaaaaaaaaaaaaaaaaaaaaaaaa",
"aaaaaaaaaaaaaaaaaaaaaaaaaaaaaaaaaaaaaaaaaaaaaaaaaaaaaaaaaaaaaaaaaaaaaaaaaaaaaaaaaaaaaaaaaaaaaaaaaaaaaaaaaaaaaaaaaaaaaaaaaaaaaaaaaaaaaaaaaaaaaaaaaaaaaaaaaiaiaaaaajajbLbLajajbhbhauauavavaaaaaeaeaNaNaaaaakaka6a6bKbKaHaHaaaaaeaeacacaaaaaaaabybyakakaaaaaaaaaaaaaaaaaaaaaaaaaaaaaaaaaaaaaaaaaaaaaaaaaaaaaaaaaaaaaaaaaaaaaaaaaaaaaaaaaaaaaaaaaaaaaaaaaaaaaaaaaaaaaFaFalalbhbhavavbybyaaaaajajaHaHaPaPananananauauaaaaaaaaaaaaaaaaazazbhbhalala5a5afafauauaHaHaaaaaaaaaaaaaaaaaaaaaaaaaaaaaaaaaaaaaaaaaaaaaaaaaaaaaaaaaaaaaaaaaaaaaaaaaaaaaaaaaaaaaaaaaaaaaaaaaaaabkbkbjbjakakaaaaaaaaaeaeaPaPaaaaaaaabkbkaMaMaaaaaaaabkbkaaaaaOaOakakaNaNa$a$aaaaaXaXbkbkaaaabkbkajajaaaaaNaNbBbBaaaaaaaaalalbkbkaeaeaaaaaaaaaaaaaaaaaaaaaaaaaaaaaaaaaaaaaaaaaaaaaaaaaaaaaaaaaaaaaaaaaaaaaaaaaaaaaaaaaaaaaaaaaaaaaaaaaaaaaaaaaaaaaaaaaaaaaaaaaaaa",
"aaaaaaaaaaaaaaaaaaaaaaaaaaaaaaaaaaaaaaaaaaaaaaaaaaaaaaaaaaaaaaaaaaaaaaaaaaaaaaaaaaaaaaaaaaaaaaaaaaaaaaaaaaaaaaaaaaaaaaaaaaaaaaaaaaaaaaaaaaaaaaaaaaaaaaaaaiaiaaaaajajbLbLajajbhbhauauavavaaaaaeaeaNaNaaaaakaka6a6bKbKaHaHaaaaaeaeacacaaaaaaaabybyakakaaaaaaaaaaaaaaaaaaaaaaaaaaaaaaaaaaaaaaaaaaaaaaaaaaaaaaaaaaaaaaaaaaaaaaaaaaaaaaaaaaaaaaaaaaaaaaaaaaaaaaaaaaaaaFaFalalbhbhavavbybyaaaaajajaHaHaPaPananananauauaaaaaaaaaaaaaaaaazazbhbhalala5a5afafauauaHaHaaaaaaaaaaaaaaaaaaaaaaaaaaaaaaaaaaaaaaaaaaaaaaaaaaaaaaaaaaaaaaaaaaaaaaaaaaaaaaaaaaaaaaaaaaaaaaaaaaaabkbkbjbjakakaaaaaaaaaeaeaPaPaaaaaaaabkbkaMaMaaaaaaaabkbkaaaaaOaOakakaNaNa$a$aaaaaXaXbkbkaaaabkbkajajaaaaaNaNbBbBaaaaaaaaalalbkbkaeaeaaaaaaaaaaaaaaaaaaaaaaaaaaaaaaaaaaaaaaaaaaaaaaaaaaaaaaaaaaaaaaaaaaaaaaaaaaaaaaaaaaaaaaaaaaaaaaaaaaaaaaaaaaaaaaaaaaaaaaaaaaaa",
"aaaaaaaaaaaaaaaaaaaaaaaaaaaaaaaaaaaaaaaaaaaaaaaaaaaaaaaaaaaaaaaaaaaaaaaaaaaaaaaaaaaaaaaaaaaaaaaaaaaaaaaaaaaaaaaaaaaaaaaaaaaaaaaaaaaaaaaaakakaOaOaaaaaaaaaNaNalalaaaaavavbLbLaaaaauauauauaaaaalalaeaeaaaabybyaeaealalaaaaaaaabLbLafafaaaabIbIaeaeaaaaalalbybyananaaaaaNaNananaaaaaaaaaaaaaaaaaaaaaaaaaaaaaaaaaaaaaaaaaaaaaaaaaaaaaaaaaaaaaaaaaqaqakakaPaPaaaaaaaaaaaaapapalalbhbhavavapapaHaHafafbhbhafafaqaqauauaaaaaHaHaHaHaHaHaqaqaPaPbhbhafafajajaaaaaaaaaaaaaFaFajajafafaaaaaaaaaaaaaaaaaaaaaaaaaaaaaaaaaaaaaaaaaaaaaaaaaaaaaaaaaaaaaaaaaaaaaaaaaaaaaaaaaaaaaaaaalalbjbjaLaLaaaaaaaabkbkafafaaaaa7a7a7a7aaaaaaaabkbkaaaaaeaea7a7aLaLa$a$aaaabkbkbabaa7a7adadaaaaaeaebBbBbabaaPaPbkbkbjbjaaaaaaaaaaaaaaaaaaaaaaaaaaaaaaaaaaaaaaaaaaaaaaaaaaaaaaaaaaaaaaaaaaaaaaaaaaaaaaaaaaaaaaaaaaaaaaaaaaaaaaaaaaaaaaaaaaaaaaaaaaaaaaaaaaaa",
"aaaaaaaaaaaaaaaaaaaaaaaaaaaaaaaaaaaaaaaaaaaaaaaaaaaaaaaaaaaaaaaaaaaaaaaaaaaaaaaaaaaaaaaaaaaaaaaaaaaaaaaaaaaaaaaaaaaaaaaaaaaaaaaaaaaaaaaaakakaOaOaaaaaaaaaNaNalalaaaaavavbLbLaaaaauauauauaaaaalalaeaeaaaabybyaeaealalaaaaaaaabLbLafafaaaabIbIaeaeaaaaalalbybyananaaaaaNaNananaaaaaaaaaaaaaaaaaaaaaaaaaaaaaaaaaaaaaaaaaaaaaaaaaaaaaaaaaaaaaaaaaqaqakakaPaPaaaaaaaaaaaaapapalalbhbhavavapapaHaHafafbhbhafafaqaqauauaaaaaHaHaHaHaHaHaqaqaPaPbhbhafafajajaaaaaaaaaaaaaFaFajajafafaaaaaaaaaaaaaaaaaaaaaaaaaaaaaaaaaaaaaaaaaaaaaaaaaaaaaaaaaaaaaaaaaaaaaaaaaaaaaaaaaaaaaaaaalalbjbjaLaLaaaaaaaabkbkafafaaaaa7a7a7a7aaaaaaaabkbkaaaaaeaea7a7aLaLa$a$aaaabkbkbabaa7a7adadaaaaaeaebBbBbabaaPaPbkbkbjbjaaaaaaaaaaaaaaaaaaaaaaaaaaaaaaaaaaaaaaaaaaaaaaaaaaaaaaaaaaaaaaaaaaaaaaaaaaaaaaaaaaaaaaaaaaaaaaaaaaaaaaaaaaaaaaaaaaaaaaaaaaaaaaaaaaaa",
"aaaaaaaaaaaaaaaaaaaaaaaaaaaaaaaaaaaaaaaaaaaaaaaaaaaaaaaaaaaaaaaaaaaaaaaaaaaaaaaaaaaaaaaaaaaaaaaaaaaaaaaaaaaaaaaaaaaaaaaaaaaaaaaaaaaaaaaaajajahahadadajajaaaaauauaOaOaaaabIbIaeaeaqaqadadaaaaalalaXaXaaaabybyaeaeaeaeaaaaadadbybyaaaaadadbLbLaaaaayayahahaqaqaeaebybyayayaPaPaaaaaaaaaaaaaaaaaaaaaaaaaaaaaaaaaaaaaaaaaaaaaaaaaaaaaaaaaaaaaaaaaHaHavavavavbubuavavavavaaaabhbhavavbhbhaHaHbhbhajajaqaqaiaiapapauauaaaabybyaeaeapapbhbhaaaaajajafafaaaaaaaaaaaabybyaeaeavavajajaaaaaaaaaaaaaaaaaaaaaaaaaaaaaaaaaaaaaaaaaaaaaaaaaaaaaaaaaaaaaaaaaaaaaaaaaaaaaaaaaaaaaaaaaaaaaiaibBbBaLaLaaaaaLaLbBbBaPaPaaaaaXaXafafaaaaa7a7akakazazakakaOaOa$a$aMaMakaka@a@bkbkbhbhaeaebBbBbhbhazazbBbBa7a7aaaaaaaaaaaaaaaaaaaaaaaaaaaaaaaaaaaaaaaaaaaaaaaaaaaaaaaaaaaaaaaaaaaaaaaaaaaaaaaaaaaaaaaaaaaaaaaaaaaaaaaaaaaaaaaaaaaaaaaaaaaaaaaaaaaaaaaa",
"aaaaaaaaaaaaaaaaaaaaaaaaaaaaaaaaaaaaaaaaaaaaaaaaaaaaaaaaaaaaaaaaaaaaaaaaaaaaaaaaaaaaaaaaaaaaaaaaaaaaaaaaaaaaaaaaaaaaaaaaaaaaaaaaaaaaaaaaajajahahadadajajaaaaauauaOaOaaaabIbIaeaeaqaqadadaaaaalalaXaXaaaabybyaeaeaeaeaaaaadadbybyaaaaadadbLbLaaaaayayahahaqaqaeaebybyayayaPaPaaaaaaaaaaaaaaaaaaaaaaaaaaaaaaaaaaaaaaaaaaaaaaaaaaaaaaaaaaaaaaaaaHaHavavavavbubuavavavavaaaabhbhavavbhbhaHaHbhbhajajaqaqaiaiapapauauaaaabybyaeaeapapbhbhaaaaajajafafaaaaaaaaaaaabybyaeaeavavajajaaaaaaaaaaaaaaaaaaaaaaaaaaaaaaaaaaaaaaaaaaaaaaaaaaaaaaaaaaaaaaaaaaaaaaaaaaaaaaaaaaaaaaaaaaaaaiaibBbBaLaLaaaaaLaLbBbBaPaPaaaaaXaXafafaaaaa7a7akakazazakakaOaOa$a$aMaMakaka@a@bkbkbhbhaeaebBbBbhbhazazbBbBa7a7aaaaaaaaaaaaaaaaaaaaaaaaaaaaaaaaaaaaaaaaaaaaaaaaaaaaaaaaaaaaaaaaaaaaaaaaaaaaaaaaaaaaaaaaaaaaaaaaaaaaaaaaaaaaaaaaaaaaaaaaaaaaaaaaaaaaaaaa",
"aaaaaaaaaaaaaaaaaaaaaaaaaaaaaaaaaaaaaaaaaaaaaaaaaaaaaaaaaaaaaaaaaaaaaaaaaaaaaaaaaaaaaaaaaaaaaaaaaaaaaaaaaaaaaaaaaaaaaaaaaaaaaaaaaaaaaaaaaaaaaaaaaeaeahahajajaaaabRbRavavaHaHacacavavauauaqaqakakaOaOaaaabybyauauavavapapbIbIaaaabybybLbLaaaaauauaGaGaaaaalalahahajajaaaaaaaaaaaaaaaaaaaaaaaaaaaaaaaaaaaaaaaaaaaaaaaaaaaaaaaaaaaaaaaaaaaaaqaqbhbhaaaaaaaaaHaHapapadadauaubhbhapapananaqaqaiaiaqaqaaaaaiaiaiaiauauavavauaubhbhaaaaapapafafajajaaaaaaaaalalauauavavanana5a5auaubybyalalaaaaaaaaaaaaaaaaaaaaaaaaaaaaaaaaaaaaaaaaaaaaaaaaaaaaaaaaaaaaaaaaaaaaaaaaaaaaaaaaaaaaaaaaaMaMblblaLaLaaaaaYaYbBbBa@a@a@a@a7a7aaaaaaaaa7a7aLaLaMaMalala$a$a7a7a@a@aXaXaXaXaaaabkbkbhbha7a7bBbBaHaHaaaaa7a7bkbkaaaaaaaaaaaaaaaaaaaaaaaaaaaaaaaaaaaaaaaaaaaaaaaaaaaaaaaaaaaaaaaaaaaaaaaaaaaaaaaaaaaaaaaaaaaaaaaaaaaaaaaaaaaaaaaaaaaaaaaaaaaaaaaa",
"aaaaaaaaaaaaaaaaaaaaaaaaaaaaaaaaaaaaaaaaaaaaaaaaaaaaaaaaaaaaaaaaaaaaaaaaaaaaaaaaaaaaaaaaaaaaaaaaaaaaaaaaaaaaaaaaaaaaaaaaaaaaaaaaaaaaaaaaaaaaaaaaaeaeahahajajaaaabRbRavavaHaHacacavavauauaqaqakakaOaOaaaabybyauauavavapapbIbIaaaabybybLbLaaaaauauaGaGaaaaalalahahajajaaaaaaaaaaaaaaaaaaaaaaaaaaaaaaaaaaaaaaaaaaaaaaaaaaaaaaaaaaaaaaaaaaaaaqaqbhbhaaaaaaaaaHaHapapadadauaubhbhapapananaqaqaiaiaqaqaaaaaiaiaiaiauauavavauaubhbhaaaaapapafafajajaaaaaaaaalalauauavavanana5a5auaubybyalalaaaaaaaaaaaaaaaaaaaaaaaaaaaaaaaaaaaaaaaaaaaaaaaaaaaaaaaaaaaaaaaaaaaaaaaaaaaaaaaaaaaaaaaaaMaMblblaLaLaaaaaYaYbBbBa@a@a@a@a7a7aaaaaaaaa7a7aLaLaMaMalala$a$a7a7a@a@aXaXaXaXaaaabkbkbhbha7a7bBbBaHaHaaaaa7a7bkbkaaaaaaaaaaaaaaaaaaaaaaaaaaaaaaaaaaaaaaaaaaaaaaaaaaaaaaaaaaaaaaaaaaaaaaaaaaaaaaaaaaaaaaaaaaaaaaaaaaaaaaaaaaaaaaaaaaaaaaaaaaaaaaaa",
"aaaaaaaaaaaaaaaaaaaaaaaaaaaaaaaaaaaaaaaaaaaaaaaaaaaaaaaaaaaaaaaaaaaaaaaaaaaaaaaaaaaaaaaaaaaaaaaaaaaaaaaaaaaaaaaaaaaaaaaaaaaaaaaaaaaaajajahahavavaaaaalalaGaGaHaHavavauauaaaaalalauauauaubhbhakakalalaaaabLbLbybyaHaHbybyalalbhbhbIbIapapbhbhbybybhbhalalahahaqaqaaaaajajaaaaaaaaaaaaaaaaaaaaaaaaaaaaaaaaaaaaaaaaaaaaaaaaaaaaaaaaaaaaaXaXadadauauauaualalavavananaaaabhbhaNaNaHaHajajaaaaaaaaaNaNajajbhbhananauaubHbHavavaaaaavavaNaNaqaqaaaaaaaaafafavavajajbhbhavavavava5a5aaaaaaaaaaaaaaaaaaaaaaaaaaaaaaaaaaaaaaaaaaaaaaaaaaaaaaaaaaaaaaaaaOaObkbkadadaYaYaqaqaaaaakakbBbBa@a@aiaiblblaLaLaaaaa7a7a7a7babaaeaeaaaaaaaaa7a7aLaLaLaLajajaMaMajaja$a$aeaeaaaaaYaYbabaa7a7bBbBa@a@aPaPbBbBbkbkaaaaaaaaakakayayadadalalaaaaaaaaaaaaaaaaaaaaaaaaaaaaaaaaaaaaaaaaaaaaaaaaaaaaaaaaaaaaaaaaaaaaaaaaaaaaaaaaaaaaaaaaaaaaaaaaaaaaaaaaaaaa",
"aaaaaaaaaaaaaaaaaaaaaaaaaaaaaaaaaaaaaaaaaaaaaaaaaaaaaaaaaaaaaaaaaaaaaaaaaaaaaaaaaaaaaaaaaaaaaaaaaaaaaaaaaaaaaaaaaaaaaaaaaaaaaaaaaaaaajajahahavavaaaaalalaGaGaHaHavavauauaaaaalalauauauaubhbhakakalalaaaabLbLbybyaHaHbybyalalbhbhbIbIapapbhbhbybybhbhalalahahaqaqaaaaajajaaaaaaaaaaaaaaaaaaaaaaaaaaaaaaaaaaaaaaaaaaaaaaaaaaaaaaaaaaaaaXaXadadauauauaualalavavananaaaabhbhaNaNaHaHajajaaaaaaaaaNaNajajbhbhananauaubHbHavavaaaaavavaNaNaqaqaaaaaaaaafafavavajajbhbhavavavava5a5aaaaaaaaaaaaaaaaaaaaaaaaaaaaaaaaaaaaaaaaaaaaaaaaaaaaaaaaaaaaaaaaaOaObkbkadadaYaYaqaqaaaaakakbBbBa@a@aiaiblblaLaLaaaaa7a7a7a7babaaeaeaaaaaaaaa7a7aLaLaLaLajajaMaMajaja$a$aeaeaaaaaYaYbabaa7a7bBbBa@a@aPaPbBbBbkbkaaaaaaaaakakayayadadalalaaaaaaaaaaaaaaaaaaaaaaaaaaaaaaaaaaaaaaaaaaaaaaaaaaaaaaaaaaaaaaaaaaaaaaaaaaaaaaaaaaaaaaaaaaaaaaaaaaaaaaaaaaaa",
"aaaaaaaaaaaaaaaaaaaaaaaaaaaaaaaaaaaaaaaaaaaaaaaaaaaaaaaaaaaaaaaaaaaaaaaaaaaaaaaaaaaaaaaaaaaaaaaaaaaaaaaaaaaaaaaaaaaaananaeaeaaaaaaaaaaaaakakahahalalaaaaavavaGaGavavavavavavbybyavavbLbLaaaaavavavavaaaabLbLavavaaaaaNaNbhbhbHbHauauaaaaauauaHaHalala3a3ananaYaYbybyalalaaaaaaaaayaybybyananaaaaaaaaaaaaaaaaaaaaaaaaaaaaaaaaaaaaaaaaaaaaaaaaaaaaajajavavavavavavavavajajaaaaaaaaauauaeaeaaaaaaaaacacalalbhbha5a5bybybhbhavavbIbIaaaaaFaFaXaXaeaeaiaiavavavavbhbhavavauauauauavavaaaaaaaaaaaaaaaaaaaaaaaaaaaaaaaaaaaaaaaaaaaaaaaaaaaaaaaaaaaaaaaaaaaaaeaebkbkbBbBajajaaaaaLaLbBbBaPaPananblblaLaLa$a$bkbka$a$aMaMajajaaaaa7a7aLaLaLaLaaaaaMaMaLaLa@a@aMaMa#a#ajajakakbBbBaHaHafafbBbBazazaaaaaOaOaeaeaNaNajajaaaaaaaaaaaaaaaaaaaaaaaaaaaaaaaaaaaaaaaaaaaaaaaaaaaaaaaaaaaaaaaaaaaaaaaaaaaaaaaaaaaaaaaaaaaaaaaaaaaaaaaaaaaaaaaaaaaa",
"aaaaaaaaaaaaaaaaaaaaaaaaaaaaaaaaaaaaaaaaaaaaaaaaaaaaaaaaaaaaaaaaaaaaaaaaaaaaaaaaaaaaaaaaaaaaaaaaaaaaaaaaaaaaaaaaaaaaananaeaeaaaaaaaaaaaaakakahahalalaaaaavavaGaGavavavavavavbybyavavbLbLaaaaavavavavaaaabLbLavavaaaaaNaNbhbhbHbHauauaaaaauauaHaHalala3a3ananaYaYbybyalalaaaaaaaaayaybybyananaaaaaaaaaaaaaaaaaaaaaaaaaaaaaaaaaaaaaaaaaaaaaaaaaaaaajajavavavavavavavavajajaaaaaaaaauauaeaeaaaaaaaaacacalalbhbha5a5bybybhbhavavbIbIaaaaaFaFaXaXaeaeaiaiavavavavbhbhavavauauauauavavaaaaaaaaaaaaaaaaaaaaaaaaaaaaaaaaaaaaaaaaaaaaaaaaaaaaaaaaaaaaaaaaaaaaaeaebkbkbBbBajajaaaaaLaLbBbBaPaPananblblaLaLa$a$bkbka$a$aMaMajajaaaaa7a7aLaLaLaLaaaaaMaMaLaLa@a@aMaMa#a#ajajakakbBbBaHaHafafbBbBazazaaaaaOaOaeaeaNaNajajaaaaaaaaaaaaaaaaaaaaaaaaaaaaaaaaaaaaaaaaaaaaaaaaaaaaaaaaaaaaaaaaaaaaaaaaaaaaaaaaaaaaaaaaaaaaaaaaaaaaaaaaaaaaaaaaaaaa",
"aaaaaaaaaaaaaaaaaaaaaaaaaaaaaaaaaaaaaaaaaaaaaaaaaaaaaaaaaaaaaaaaaaaaaaaaaaaaaaaaaaaaaaaaaaaaaaaaaaaaaaaaaaaaaaaaaaaaaqaqadadbLbLauauaaaaaaaaaiaiaXaXbLbLbhbhavavbLbLbLbLafafavavavavbybybhbhafafbjbjananbLbLa6a6aOaObybyavavbybyaaaabybyauauavavahahaHaHavavahahakakaaaaauaubjbjalalaeaeaqaqaaaaaaaaaaaaaaaaaaaaaaaaaaaaaaaaaaaaaaaaaaaaaaaaaaaaaaaaaaaaaaaaaaaaananananaiaiaHaHaaaaalalbybyapapalalbjbjaaaaa6a6auauafafbIbIananaHaHadadaXaXajajbhbhbhbhajajavavavavavavavavaPaPaaaaaaaaaaaaaaaaaaaaaaaaaaaaaaaaaaaaaaaaaaaaaaaaaaaaaaaaaaaaaaaaaaaaaaaaa#a#akakadadbkbka#a#aiaia7a7aMaMaMaMbkbkaaaaaMaMaLaLbabaafafa@a@aLaLaLaLaLaLa$a$akakbabaa7a7a@a@afafa$a$aeaea@a@a@a@bkbkaMaMa@a@bkbka7a7afafaaaaaaaaaaaaaaaaaaaaaaaaaaaaaaaaaaaaaaaaaaaaaaaaaaaaaaaaaaaaaaaaaaaaaaaaaaaaaaaaaaaaaaaaaaaaaaaaaaaaaaaaaaaaaaaaaaaaaaaaaaaa",
"aaaaaaaaaaaaaaaaaaaaaaaaaaaaaaaaaaaaaaaaaaaaaaaaaaaaaaaaaaaaaaaaaaaaaaaaaaaaaaaaaaaaaaaaaaaaaaaaaaaaaaaaaaaaaaaaaaaaaqaqadadbLbLauauaaaaaaaaaiaiaXaXbLbLbhbhavavbLbLbLbLafafavavavavbybybhbhafafbjbjananbLbLa6a6aOaObybyavavbybyaaaabybyauauavavahahaHaHavavahahakakaaaaauaubjbjalalaeaeaqaqaaaaaaaaaaaaaaaaaaaaaaaaaaaaaaaaaaaaaaaaaaaaaaaaaaaaaaaaaaaaaaaaaaaaananananaiaiaHaHaaaaalalbybyapapalalbjbjaaaaa6a6auauafafbIbIananaHaHadadaXaXajajbhbhbhbhajajavavavavavavavavaPaPaaaaaaaaaaaaaaaaaaaaaaaaaaaaaaaaaaaaaaaaaaaaaaaaaaaaaaaaaaaaaaaaaaaaaaaaa#a#akakadadbkbka#a#aiaia7a7aMaMaMaMbkbkaaaaaMaMaLaLbabaafafa@a@aLaLaLaLaLaLa$a$akakbabaa7a7a@a@afafa$a$aeaea@a@a@a@bkbkaMaMa@a@bkbka7a7afafaaaaaaaaaaaaaaaaaaaaaaaaaaaaaaaaaaaaaaaaaaaaaaaaaaaaaaaaaaaaaaaaaaaaaaaaaaaaaaaaaaaaaaaaaaaaaaaaaaaaaaaaaaaaaaaaaaaaaaaaaaaa",
"aaaaaaaaaaaaaaaaaaaaaaaaaaaaaaaaaaaaaaaaaaaaaaaaaaaaaaaaaaaaaaaaaaaaaaaaaaaaaaaaaaaaaaaaaaaaaaaaaaaaaaaaaaaaaaaaaHaHaaaaaaaaaiaibLbLbLbLaeaebhbhaaaaauauaGaGbhbhalalbKbKauauafafavavauaubybyaHaHacacajajbLbLa6a6alalavavbybyajajapapadadajajbLbLbhbhajajaGaGavavananbLbLalalaHaHaaaaaaaaaaaaaaaaaaaaaaaaaaaaaaaaaaaaaaaaaaaaaaaaavavbybyauauavavauaubybyavavavavavavaaaaaaaaayayaYaYbhbhavavalalaaaaalalaNaNaaaaafafbIbIa6a6aqaqbybyavavaaaaaaaaaqaqaHaHa5a5aaaaa5a5avavaPaPbybyavavaaaaaaaaaaaaaaaaaaaaaaaaaaaaaaaaaaaaaaaaaaaaaaaaayayayayaNaNa7a7a@a@a@a@aaaaa$a$a7a7bkbka$a$aaaaa7a7a@a@a@a@ajajaaaaaNaNaYaYa@a@aMaMaMaMaLaLaLaLa$a$akakaMaMa@a@a$a$aLaLakaka$a$a@a@a7a7a#a#a@a@bBbBa7a7aaaaaaaaaiaia7a7bkbkbkbkadada@a@aaaaaaaaaaaaaaaaaaaaaaaaaaaaaaaaaaaaaaaaaaaaaaaaaaaaaaaaaaaaaaaaaaaaaaaaaaaaaaaaaaaaaaaaaaaaaaaaaaaa",
"aaaaaaaaaaaaaaaaaaaaaaaaaaaaaaaaaaaaaaaaaaaaaaaaaaaaaaaaaaaaaaaaaaaaaaaaaaaaaaaaaaaaaaaaaaaaaaaaaaaaaaaaaaaaaaaaaHaHaaaaaaaaaiaibLbLbLbLaeaebhbhaaaaauauaGaGbhbhalalbKbKauauafafavavauaubybyaHaHacacajajbLbLa6a6alalavavbybyajajapapadadajajbLbLbhbhajajaGaGavavananbLbLalalaHaHaaaaaaaaaaaaaaaaaaaaaaaaaaaaaaaaaaaaaaaaaaaaaaaaavavbybyauauavavauaubybyavavavavavavaaaaaaaaayayaYaYbhbhavavalalaaaaalalaNaNaaaaafafbIbIa6a6aqaqbybyavavaaaaaaaaaqaqaHaHa5a5aaaaa5a5avavaPaPbybyavavaaaaaaaaaaaaaaaaaaaaaaaaaaaaaaaaaaaaaaaaaaaaaaaaayayayayaNaNa7a7a@a@a@a@aaaaa$a$a7a7bkbka$a$aaaaa7a7a@a@a@a@ajajaaaaaNaNaYaYa@a@aMaMaMaMaLaLaLaLa$a$akakaMaMa@a@a$a$aLaLakaka$a$a@a@a7a7a#a#a@a@bBbBa7a7aaaaaaaaaiaia7a7bkbkbkbkadada@a@aaaaaaaaaaaaaaaaaaaaaaaaaaaaaaaaaaaaaaaaaaaaaaaaaaaaaaaaaaaaaaaaaaaaaaaaaaaaaaaaaaaaaaaaaaaaaaaaaaaa",
"aaaaaaaaaaaaaaaaaaaaaaaaaaaaaaaaaaaaaaaaaaaaaaaaaaaaaaaaaaaaaaaaaaaaaaaaaaaaaaaaaaaaaaaaaaaaaaaaaaaaaaaaaaaaaaaaaNaNaeaealalaaaaaaaaaiaibybybRbRafafaaaaauaubLbLaaaaavavbKbKauauaPaPavavauauaaaaayayavavaeaebhbhbybyafafauauaaaaadadauauaeaeananajaja3a3avavauaubybyaaaaaaaaaaaaaaaaaaaaaaaaaaaaaaaaaaaaaaaaaaaaaaaaaaaaaaaaaaaaaaaaaaaaaaaaaaaaaaaaaaaaaaaaaaaaaaaaaaaaaaaaalalaGaGbLbLaOaOajajbhbhaiaiacacananavavauaubhbhavavaaaabhbhavavavavavavaOaOaOaOavavalalaHaHaaaaaaaaaeaealalaaaaaaaaaaaaaaaaaaaaaaaaaaaaaaaaaaaaaaaaaaaaaaaaaaaaakaka7a7bkbkbkbka7a7a@a@aaaaaLaLbkbka@a@aaaaazaza@a@ajajaiaia$a$a7a7aLaLa@a@aLaLaLaLaMaMaMaMa7a7a@a@a$a$alalbBbBaiaia@a@aLaLa$a$ajajaNaNakakaaaaaMaMaLaLaNaNaOaOaaaaaaaaaaaaaaaaaaaaaaaaaaaaaaaaaaaaaaaaaaaaaaaaaaaaaaaaaaaaaaaaaaaaaaaaaaaaaaaaaaaaaaaaaaaaaaaaaaaaaaaaaaaaaaaaaaaa",
"aaaaaaaaaaaaaaaaaaaaaaaaaaaaaaaaaaaaaaaaaaaaaaaaaaaaaaaaaaaaaaaaaaaaaaaaaaaaaaaaaaaaaaaaaaaaaaaaaaaaaaaaaaaaaaaaaNaNaeaealalaaaaaaaaaiaibybybRbRafafaaaaauaubLbLaaaaavavbKbKauauaPaPavavauauaaaaayayavavaeaebhbhbybyafafauauaaaaadadauauaeaeananajaja3a3avavauaubybyaaaaaaaaaaaaaaaaaaaaaaaaaaaaaaaaaaaaaaaaaaaaaaaaaaaaaaaaaaaaaaaaaaaaaaaaaaaaaaaaaaaaaaaaaaaaaaaaaaaaaaaaalalaGaGbLbLaOaOajajbhbhaiaiacacananavavauaubhbhavavaaaabhbhavavavavavavaOaOaOaOavavalalaHaHaaaaaaaaaeaealalaaaaaaaaaaaaaaaaaaaaaaaaaaaaaaaaaaaaaaaaaaaaaaaaaaaaakaka7a7bkbkbkbka7a7a@a@aaaaaLaLbkbka@a@aaaaazaza@a@ajajaiaia$a$a7a7aLaLa@a@aLaLaLaLaMaMaMaMa7a7a@a@a$a$alalbBbBaiaia@a@aLaLa$a$ajajaNaNakakaaaaaMaMaLaLaNaNaOaOaaaaaaaaaaaaaaaaaaaaaaaaaaaaaaaaaaaaaaaaaaaaaaaaaaaaaaaaaaaaaaaaaaaaaaaaaaaaaaaaaaaaaaaaaaaaaaaaaaaaaaaaaaaaaaaaaaaa",
"aaaaaaaaaaaaaaaaaaaaaaaaaaaaaaaaaaaaaaaaaaaaaaaaaaaaaaaaaaaaaaaaaaaaaaaaaaaaaaaaaaaaaaaaaaaaaaaaaaaaaaaaaaaaaaaaaaaaaXaXaXaXayayaXaXaaaaaaaaalalbRbRakakaaaaaeaealalaaaaavavbybybybyaHaHauauaaaaaeaeavavavavavavauaualalajajaaaaaPaPaeaeananafafbIbIalalaeaeaaaaaaaaaaaaaaaaaaaaaeaebybyayaybybyaeaeaaaaaaaaaaaaaaaaaaaaaaaaaaaaaaaaaaaaajajalalayayadadalalalalapapaaaaaaaaaaaaavavavavaeaebjbjaXaXaaaaayayalalbIbIaaaaa5a5aeaeauaubIbIaeaeavavavavaeaeaeaeaeaeaeaeapapaaaaaaaaaaaaaaaaaaaaaaaaaaaaaaaaaaaaaaaaaaaaaaaaaaaaaaaaaaaaa@a@aNaNa7a7aLaLaaaaa@a@aDaDbkbka7a7a#a#ajajaYaYakaka$a$ajajajajafafa$a$a7a7bBbBa@a@a$a$aLaLaXaXbzbzaMaMaaaaaYaYbBbBa@a@a@a@aLaLa$a$aMaMakakaaaaa$a$aYaYaMaMa@a@aaaaaaaaaaaaaMaMaaaaaaaaaaaaaaaaaaaaaaaaaaaaaaaaaaaaaaaaaaaaaaaaaaaaaaaaaaaaaaaaaaaaaaaaaaaaaaaaaaaaaaaaaaaaaaaaaaaaaaaaaaaa",
"aaaaaaaaaaaaaaaaaaaaaaaaaaaaaaaaaaaaaaaaaaaaaaaaaaaaaaaaaaaaaaaaaaaaaaaaaaaaaaaaaaaaaaaaaaaaaaaaaaaaaaaaaaaaaaaaaaaaaXaXaXaXayayaXaXaaaaaaaaalalbRbRakakaaaaaeaealalaaaaavavbybybybyaHaHauauaaaaaeaeavavavavavavauaualalajajaaaaaPaPaeaeananafafbIbIalalaeaeaaaaaaaaaaaaaaaaaaaaaeaebybyayaybybyaeaeaaaaaaaaaaaaaaaaaaaaaaaaaaaaaaaaaaaaajajalalayayadadalalalalapapaaaaaaaaaaaaavavavavaeaebjbjaXaXaaaaayayalalbIbIaaaaa5a5aeaeauaubIbIaeaeavavavavaeaeaeaeaeaeaeaeapapaaaaaaaaaaaaaaaaaaaaaaaaaaaaaaaaaaaaaaaaaaaaaaaaaaaaaaaaaaaaa@a@aNaNa7a7aLaLaaaaa@a@aDaDbkbka7a7a#a#ajajaYaYakaka$a$ajajajajafafa$a$a7a7bBbBa@a@a$a$aLaLaXaXbzbzaMaMaaaaaYaYbBbBa@a@a@a@aLaLa$a$aMaMakakaaaaa$a$aYaYaMaMa@a@aaaaaaaaaaaaaMaMaaaaaaaaaaaaaaaaaaaaaaaaaaaaaaaaaaaaaaaaaaaaaaaaaaaaaaaaaaaaaaaaaaaaaaaaaaaaaaaaaaaaaaaaaaaaaaaaaaaaaaaaaaaa",
"aaaaaaaaaaaaaaaaaaaaaaaaaaaaaaaaaaaaaaaaaaaaaaaaaaaaaaaaaaaaaaaaaaaaaaaaaaaaaaaaaaaaaaaaaaaaaaaaaaaaaaaaaaaaaaaaapapaaaaaaaaafafavavavavaqaqaaaaaPaPaXaXakakaaaaaXaXaOaOaaaaadadbLbLbLbLavavafafaeaeavavavavajajafafauauaaaaauauajajaFaFaPaPbIbIavavauauaaaaaaaaaFaFavavbybybybyauauaYaYaOaOalalaiaiaaaaaaaaaaaaaaaaaaaaaaaaaPaPbybyayayananaHaHajajavavajajajajbhbhaHaHauauaPaPa6a6a6a6a6a6ananafafaFaFaHaHbhbhaHaHaHaHajajauauavavafafbhbhbhbhaiaiaiaiaiaiaHaHananaeaeayayaNaNananaaaaaaaaaaaaaaaaaaaaaaaaaaaaaaaaaaaaaaaaaaaaaaaaaaaaaPaPaMaMbkbkbkbkbkbka7a7aMaMa7a7aXaXa$a$a$a$a7a7ajajbabaa$a$a$a$a$a$bababkbkaLaLaaaaaMaMboboaLaLaaaaaYaYadada@a@a@a@aMaMa$a$aeaeadadaiaia$a$aLaLafafaLaLa7a7aeaea7a7bkbkbkbkbkbkayayaeaeaaaaaaaaaaaaaaaaaaaaaaaaaaaaaaaaaaaaaaaaaaaaaaaaaaaaaaaaaaaaaaaaaaaaaaaaaaaaaaaaaaaaaaaaaaaaaaaa",
"aaaaaaaaaaaaaaaaaaaaaaaaaaaaaaaaaaaaaaaaaaaaaaaaaaaaaaaaaaaaaaaaaaaaaaaaaaaaaaaaaaaaaaaaaaaaaaaaaaaaaaaaaaaaaaaaapapaaaaaaaaafafavavavavaqaqaaaaaPaPaXaXakakaaaaaXaXaOaOaaaaadadbLbLbLbLavavafafaeaeavavavavajajafafauauaaaaauauajajaFaFaPaPbIbIavavauauaaaaaaaaaFaFavavbybybybyauauaYaYaOaOalalaiaiaaaaaaaaaaaaaaaaaaaaaaaaaPaPbybyayayananaHaHajajavavajajajajbhbhaHaHauauaPaPa6a6a6a6a6a6ananafafaFaFaHaHbhbhaHaHaHaHajajauauavavafafbhbhbhbhaiaiaiaiaiaiaHaHananaeaeayayaNaNananaaaaaaaaaaaaaaaaaaaaaaaaaaaaaaaaaaaaaaaaaaaaaaaaaaaaaPaPaMaMbkbkbkbkbkbka7a7aMaMa7a7aXaXa$a$a$a$a7a7ajajbabaa$a$a$a$a$a$bababkbkaLaLaaaaaMaMboboaLaLaaaaaYaYadada@a@a@a@aMaMa$a$aeaeadadaiaia$a$aLaLafafaLaLa7a7aeaea7a7bkbkbkbkbkbkayayaeaeaaaaaaaaaaaaaaaaaaaaaaaaaaaaaaaaaaaaaaaaaaaaaaaaaaaaaaaaaaaaaaaaaaaaaaaaaaaaaaaaaaaaaaaaaaaaaaaa",
"aaaaaaaaaaaaaaaaaaaaaaaaaaaaaaaaaaaaaaaaaaaaaaaaaaaaaaaaaaaaaaaaaaaaaaaaaaaaaaaaaaaaaaaaaaaaaaaaaaaaaaaaaaaaaXaXbjbjbIbIbIbIbLbLbHbHavavajajapapaaaaaaaaadadajajaaaaaeaeajajbhbhbybyaGaGavavaPaPaiaiananavavbybyalalaaaaauauahahaHaHaHaHbIbIaPaPajajaaaaaaaabybybybyalalajajavavauaubLbLadadayayaaaaaaaaaaaaaaaaaaaaaaaaaqaqaeaebhbhaaaaaaaaaiaiaHaHa5a5alalalalavavavavafafajajavavavavaPaPaqaqbybybjbjavavaaaaaaaabhbhaqaqajajaPaPaqaqaiaiananafafafafavavavavaPaPaaaaaaaaananaXaXaiaiaqaqaaaaaaaaaaaaaaaaaaaaaaaaaaaaaaaaaHaHafafafafaMaMaMaMaMaMa#a#aLaLaXaXa7a7aLaLa@a@a7a7a7a7aMaMaMaMaaaaa@a@aLaLaMaMaaaaaLaLbkbka$a$a@a@bkbka#a#aaaaalalazaza$a$aPaPa#a#aeaeaXaXaMaMakaka#a#ajajaOaOaNaNa7a7aLaLaLaLaMaMaaaaaaaaaaaaaPaPaYaYaaaaaaaaaaaaaaaaaaaaaaaaaaaaaaaaaaaaaaaaaaaaaaaaaaaaaaaaaaaaaaaaaaaaaaaaaaaaaaaaaaaaaaaaaaaa",
"aaaaaaaaaaaaaaaaaaaaaaaaaaaaaaaaaaaaaaaaaaaaaaaaaaaaaaaaaaaaaaaaaaaaaaaaaaaaaaaaaaaaaaaaaaaaaaaaaaaaaaaaaaaaaXaXbjbjbIbIbIbIbLbLbHbHavavajajapapaaaaaaaaadadajajaaaaaeaeajajbhbhbybyaGaGavavaPaPaiaiananavavbybyalalaaaaauauahahaHaHaHaHbIbIaPaPajajaaaaaaaabybybybyalalajajavavauaubLbLadadayayaaaaaaaaaaaaaaaaaaaaaaaaaqaqaeaebhbhaaaaaaaaaiaiaHaHa5a5alalalalavavavavafafajajavavavavaPaPaqaqbybybjbjavavaaaaaaaabhbhaqaqajajaPaPaqaqaiaiananafafafafavavavavaPaPaaaaaaaaananaXaXaiaiaqaqaaaaaaaaaaaaaaaaaaaaaaaaaaaaaaaaaHaHafafafafaMaMaMaMaMaMa#a#aLaLaXaXa7a7aLaLa@a@a7a7a7a7aMaMaMaMaaaaa@a@aLaLaMaMaaaaaLaLbkbka$a$a@a@bkbka#a#aaaaalalazaza$a$aPaPa#a#aeaeaXaXaMaMakaka#a#ajajaOaOaNaNa7a7aLaLaLaLaMaMaaaaaaaaaaaaaPaPaYaYaaaaaaaaaaaaaaaaaaaaaaaaaaaaaaaaaaaaaaaaaaaaaaaaaaaaaaaaaaaaaaaaaaaaaaaaaaaaaaaaaaaaaaaaaaaa",
"aaaaaaaaaaaaaaaaaaaaaaaaaaaaaaaaaaaaaaaaaaaaaaaaaaaaaaaaaaaaaaaaaaaaaaaaaaaaaaaaaaaaaaaaaaaaaaaaaaaaaaaaaaaaaaaaaaaaaaaaaaaaajajauauadadbLbLbLbLajajaaaaaaaabLbLafafaaaaazazafafbhbhbKbKaGaGaPaPaiaiapapbybybLbLaFaFaeaeahahaiaiaHaHbybyaPaPaaaaaOaOaOaOaiaiauauavavayaybybybybybybyaiaiaaaaaaaaaaaaaaaaaaaaaHaHaOaOaaaaaaaaaaaaananaeaealalalalaeaea5a5aaaaa5a5a5a5bhbhadadbIbIauaubybyaNaNaPaPananaaaabybyavavapapapapbybyauaubybyauauaeaeauaualalaOaOalalauauavavajajavavaaaaaaaaaaaaaPaPaaaaaaaaaaaaaaaaaaaaaaaaaaaaaaaaaYaYaXaXaXaXaeaea7a7bkbkaXaXaLaLaLaLaaaaa#a#aXaXaMaMa@a@a7a7blblaLaLa7a7aNaNbzbzaLaLa#a#aNaNa$a$aPaPa7a7a$a$a7a7aLaLaaaaa$a$a#a#azazakakaaaaaaaaaaaaa#a#alalaeaeakakaXaXaXaXaeaeadadajajaaaaaaaaaaaaaaaaaaaaaaaaaaaaaaaaaaaaaaaaaaaaaaaaaaaaaaaaaaaaaaaaaaaaaaaaaaaaaaaaaaaaaaaaaaaaaaaaaaaaaaaaaaaa",
"aaaaaaaaaaaaaaaaaaaaaaaaaaaaaaaaaaaaaaaaaaaaaaaaaaaaaaaaaaaaaaaaaaaaaaaaaaaaaaaaaaaaaaaaaaaaaaaaaaaaaaaaaaaaaaaaaaaaaaaaaaaaajajauauadadbLbLbLbLajajaaaaaaaabLbLafafaaaaazazafafbhbhbKbKaGaGaPaPaiaiapapbybybLbLaFaFaeaeahahaiaiaHaHbybyaPaPaaaaaOaOaOaOaiaiauauavavayaybybybybybybyaiaiaaaaaaaaaaaaaaaaaaaaaHaHaOaOaaaaaaaaaaaaananaeaealalalalaeaea5a5aaaaa5a5a5a5bhbhadadbIbIauaubybyaNaNaPaPananaaaabybyavavapapapapbybyauaubybyauauaeaeauaualalaOaOalalauauavavajajavavaaaaaaaaaaaaaPaPaaaaaaaaaaaaaaaaaaaaaaaaaaaaaaaaaYaYaXaXaXaXaeaea7a7bkbkaXaXaLaLaLaLaaaaa#a#aXaXaMaMa@a@a7a7blblaLaLa7a7aNaNbzbzaLaLa#a#aNaNa$a$aPaPa7a7a$a$a7a7aLaLaaaaa$a$a#a#azazakakaaaaaaaaaaaaa#a#alalaeaeakakaXaXaXaXaeaeadadajajaaaaaaaaaaaaaaaaaaaaaaaaaaaaaaaaaaaaaaaaaaaaaaaaaaaaaaaaaaaaaaaaaaaaaaaaaaaaaaaaaaaaaaaaaaaaaaaaaaaaaaaaaaaa",
"aaaaaaaaaaaaaaaaaaaaaaaaaaaaaaaaaaaaaaaaaaaaaaaaaaaaaaaaaaaaaaaaaaaaaaaaaaaaaaaaaaaaaaaaaaaaaaaaaaaaaaaaaaaaaaaaaaaaaaaaaaaaaaaaaaaaaaaaaqaqakakaOaObybyaqaqavavaGaGadadbhbhajajaHaHavavaGaGbybyaHaHaqaqbybyauauaaaaacacaiaiananauauaqaqaaaaalalahahakakafafauauavavaOaObhbhaaaaaaaaakakbLbLbjbjaXaXaaaaaaaaaHaHajajaaaaaaaaaPaPaXaXaOaOajajaaaaaaaaaeaeavavavavbhbha5a5alala5a5bhbhananaaaaaOaOalalaPaPauauaFaFaYaYayayaHaHaHaHaaaaaiaialalazazaaaaaaaaaaaaaiaibIbIauaubsbsauauaPaPaaaaaaaaaaaaaaaaaaaaaaaaaaaaaaaaaaaaaaaaaaaaaaaaaaaaaaaaaaaaa@a@aMaMaLaLbkbka7a7a7a7aMaMa@a@a#a#a$a$aMaMblbla7a7aaaaajajbkbkajajalala$a$ajaja@a@a$a$aeaea#a#a$a$aaaaa#a#a$a$aaaaa7a7bkbkaNaNa$a$a#a#alala$a$aaaaaaaaaaaaajajajajaaaaaaaaaaaaaaaaaaaaaaaaaaaaaaaaaaaaaaaaaaaaaaaaaaaaaaaaaaaaaaaaaaaaaaaaaaaaaaaaaaaaaaaaaaaaaaaaaaaaaaaaaaaa",
"aaaaaaaaaaaaaaaaaaaaaaaaaaaaaaaaaaaaaaaaaaaaaaaaaaaaaaaaaaaaaaaaaaaaaaaaaaaaaaaaaaaaaaaaaaaaaaaaaaaaaaaaaaaaaaaaaaaaaaaaaaaaaaaaaaaaaaaaaqaqakakaOaObybyaqaqavavaGaGadadbhbhajajaHaHavavaGaGbybyaHaHaqaqbybyauauaaaaacacaiaiananauauaqaqaaaaalalahahakakafafauauavavaOaObhbhaaaaaaaaakakbLbLbjbjaXaXaaaaaaaaaHaHajajaaaaaaaaaPaPaXaXaOaOajajaaaaaaaaaeaeavavavavbhbha5a5alala5a5bhbhananaaaaaOaOalalaPaPauauaFaFaYaYayayaHaHaHaHaaaaaiaialalazazaaaaaaaaaaaaaiaibIbIauaubsbsauauaPaPaaaaaaaaaaaaaaaaaaaaaaaaaaaaaaaaaaaaaaaaaaaaaaaaaaaaaaaaaaaaa@a@aMaMaLaLbkbka7a7a7a7aMaMa@a@a#a#a$a$aMaMblbla7a7aaaaajajbkbkajajalala$a$ajaja@a@a$a$aeaea#a#a$a$aaaaa#a#a$a$aaaaa7a7bkbkaNaNa$a$a#a#alala$a$aaaaaaaaaaaaajajajajaaaaaaaaaaaaaaaaaaaaaaaaaaaaaaaaaaaaaaaaaaaaaaaaaaaaaaaaaaaaaaaaaaaaaaaaaaaaaaaaaaaaaaaaaaaaaaaaaaaaaaaaaaaa",
"aaaaaaaaaaaaaaaaaaaaaaaaaaaaaaaaaaaaaaaaaaaaaaaaaaaaaaaaaaaaaaaaaaaaaaaaaaaaaaaaaaaaaaaaaaaaaaaaaaaaaHaHauaubLbLadadbjbjbjbjbIbIbybyauauapapaaaaaaaaapapaeaeaiaiaiaiayaybjbjaaaabhbhbhbhbybybybybhbhbhbhbybyavavaeaeajajaaaaaHaHbhbhaFaFbIbIbIbIavavauaualalapapapapbhbhaeaeadadayaybjbjalalafafananaaaaaaaaaaaaaaaaaaaaaaaaaaaaaaaaaaaaaaaaavavadadafafaqaqaaaabhbhananavavbhbhaaaaavavbLbLajajafafbLbLavavaeaebhbhauauavavbhbhavavaPaPaaaaaaaaaHaHazazananananaHaHaaaaaaaaaHaHavavauaua5a5aaaaaaaaaaaaaaaaaaaaaaaaaaaaaaaaaHaHaHaHananaHaHa@a@a@a@babaa$a$a@a@a$a$aLaLa7a7aLaLaMaMaLaLa$a$a#a#a7a7a7a7a*a*a$a$a7a7aMaMaaaaaMaMaMaMaNaNaMaMaaaabkbkadadaaaaajajbkbkaNaNa@a@a@a@afafa$a$a$a$a@a@aLaLbkbka7a7a7a7a7a7bkbkaNaNaNaNbkbkakakaaaaaaaaaaaaaaaaaaaaaaaaaaaaaaaaaaaaaaaaaaaaaaaaaaaaaaaaaaaaaaaaaaaaaaaaaaaaaaaaaaaaaaaa",
"aaaaaaaaaaaaaaaaaaaaaaaaaaaaaaaaaaaaaaaaaaaaaaaaaaaaaaaaaaaaaaaaaaaaaaaaaaaaaaaaaaaaaaaaaaaaaaaaaaaaaHaHauaubLbLadadbjbjbjbjbIbIbybyauauapapaaaaaaaaapapaeaeaiaiaiaiayaybjbjaaaabhbhbhbhbybybybybhbhbhbhbybyavavaeaeajajaaaaaHaHbhbhaFaFbIbIbIbIavavauaualalapapapapbhbhaeaeadadayaybjbjalalafafananaaaaaaaaaaaaaaaaaaaaaaaaaaaaaaaaaaaaaaaaavavadadafafaqaqaaaabhbhananavavbhbhaaaaavavbLbLajajafafbLbLavavaeaebhbhauauavavbhbhavavaPaPaaaaaaaaaHaHazazananananaHaHaaaaaaaaaHaHavavauaua5a5aaaaaaaaaaaaaaaaaaaaaaaaaaaaaaaaaHaHaHaHananaHaHa@a@a@a@babaa$a$a@a@a$a$aLaLa7a7aLaLaMaMaLaLa$a$a#a#a7a7a7a7a*a*a$a$a7a7aMaMaaaaaMaMaMaMaNaNaMaMaaaabkbkadadaaaaajajbkbkaNaNa@a@a@a@afafa$a$a$a$a@a@aLaLbkbka7a7a7a7a7a7bkbkaNaNaNaNbkbkakakaaaaaaaaaaaaaaaaaaaaaaaaaaaaaaaaaaaaaaaaaaaaaaaaaaaaaaaaaaaaaaaaaaaaaaaaaaaaaaaaaaaaaaaa",
"aaaaaaaaaaaaaaaaaaaaaaaaaaaaaaaaaaaaaaaaaaaaaaaaaaaaaaaaaaaaaaaaaaaaaaaaaaaaaaaaaaaaaaaaaaaaajajaHaHadadbybyaHaHaaaaaaaaaaaaaaaaadadbybyayaybIbIavavafafaaaaaXaXaXaXbhbhauaubjbjananaaaaavavbHbHalalaaaaauaubhbhauaubhbhazazbybyajajauauavavaFaFavavaaaaaaaaafafauauauauananaaaaaaaaaaaaaaaaaaaaaaaaaaaaaaaaaaaaaaaaaaaaaaaaaaaaaaaaananaXaXafafaaaaaaaaaaaaavavavavaYaYbhbhaaaaajajadadavavaqaqaeaebybyaaaabybyajajafafaGaGavavaaaaavavbRbRajajaaaaaaaaazazavavafafaaaaaaaaaaaaaaaaa5a5ajajaaaaaaaaaaaaaaaaaaaaaaaaaaaaayaybkbkaNaNayayaNaNaNaNaXaXaYaYazazakaka@a@a@a@aMaMaLaLbkbkbkbkayayaMaMa$a$aLaLa7a7a@a@a$a$aeaeaMaMaaaaaNaNaNaNa$a$azaza@a@aaaaajajazazbabaa$a$a@a@a@a@aiaiajajaeaea7a7a7a7a7a7a@a@aaaaaaaaaaaaaaaaaaaaajajbkbkaeaeaaaaaaaaaaaaaaaaaaaaaaaaaaaaaaaaaaaaaaaaaaaaaaaaaaaaaaaaaaaaaaaaaaaaaaaaaaaaaaaaaaaa",
"aaaaaaaaaaaaaaaaaaaaaaaaaaaaaaaaaaaaaaaaaaaaaaaaaaaaaaaaaaaaaaaaaaaaaaaaaaaaaaaaaaaaaaaaaaaaajajaHaHadadbybyaHaHaaaaaaaaaaaaaaaaadadbybyayaybIbIavavafafaaaaaXaXaXaXbhbhauaubjbjananaaaaavavbHbHalalaaaaauaubhbhauaubhbhazazbybyajajauauavavaFaFavavaaaaaaaaafafauauauauananaaaaaaaaaaaaaaaaaaaaaaaaaaaaaaaaaaaaaaaaaaaaaaaaaaaaaaaaananaXaXafafaaaaaaaaaaaaavavavavaYaYbhbhaaaaajajadadavavaqaqaeaebybyaaaabybyajajafafaGaGavavaaaaavavbRbRajajaaaaaaaaazazavavafafaaaaaaaaaaaaaaaaa5a5ajajaaaaaaaaaaaaaaaaaaaaaaaaaaaaayaybkbkaNaNayayaNaNaNaNaXaXaYaYazazakaka@a@a@a@aMaMaLaLbkbkbkbkayayaMaMa$a$aLaLa7a7a@a@a$a$aeaeaMaMaaaaaNaNaNaNa$a$azaza@a@aaaaajajazazbabaa$a$a@a@a@a@aiaiajajaeaea7a7a7a7a7a7a@a@aaaaaaaaaaaaaaaaaaaaajajbkbkaeaeaaaaaaaaaaaaaaaaaaaaaaaaaaaaaaaaaaaaaaaaaaaaaaaaaaaaaaaaaaaaaaaaaaaaaaaaaaaaaaaaaaaa",
"aaaaaaaaaaaaaaaaaaaaaaaaaaaaaaaaaaaaaaaaaaaaaaaaaaaaaaaaaaaaaaaaaaaaaaaaaaaaaaaaaaaaaaaaaaaaaOaOaHaHaaaaaaaaaaaaaaaaaaaaaaaaaaaaaaaaaaaaaaaaajajaOaObybybybyafafbhbhaqaqbhbhaOaOaXaXayayaaaaauaualalaaaaavavadadajajauauaGaGajajauauafafaaaaapapavavauaubLbLauauaaaabhbhazazavavbybybybybybyauaubybyadadaaaaaaaaaaaaaaaaaaaaaaaaafafavavaaaaaaaaaaaaaeaeauaualalbhbhaaaaaaaaazazaXaXaaaaapapbLbLaiaiavavbhbhauauaHaHaaaaafafbLbLakakaaaaavavbRbRajajbhbhaqaqaaaaalalauauauauajajaaaaaaaaaaaaaaaaaaaaaaaaaaaaaaaaaaaaapapaeaeaaaaaaaaaaaaaaaaaaaaaaaaaaaaaaaaaaaaajajaLaLaMaMa@a@aaaaaaaaaMaMa7a7a7a7a$a$aaaaa@a@a$a$aMaMalala#a#aNaNa@a@aLaLa#a#aaaaakaka@a@aaaaaaaaa#a#aLaLaLaLaLaLa@a@aaaaaaaaaaaaaaaaaaaaaaaaaaaaaaaaaaaaaaaaaaaaaaaaaaaaaaaaaaaaaaaaaaaaaaaaaaaaaaaaaaaaaaaaaaaaaaaaaaaaaaaaaaaaaaaaaaaaaaaaaaaaaaaaaaaaaaaa",
"aaaaaaaaaaaaaaaaaaaaaaaaaaaaaaaaaaaaaaaaaaaaaaaaaaaaaaaaaaaaaaaaaaaaaaaaaaaaaaaaaaaaaaaaaaaaaOaOaHaHaaaaaaaaaaaaaaaaaaaaaaaaaaaaaaaaaaaaaaaaajajaOaObybybybyafafbhbhaqaqbhbhaOaOaXaXayayaaaaauaualalaaaaavavadadajajauauaGaGajajauauafafaaaaapapavavauaubLbLauauaaaabhbhazazavavbybybybybybyauaubybyadadaaaaaaaaaaaaaaaaaaaaaaaaafafavavaaaaaaaaaaaaaeaeauaualalbhbhaaaaaaaaazazaXaXaaaaapapbLbLaiaiavavbhbhauauaHaHaaaaafafbLbLakakaaaaavavbRbRajajbhbhaqaqaaaaalalauauauauajajaaaaaaaaaaaaaaaaaaaaaaaaaaaaaaaaaaaaapapaeaeaaaaaaaaaaaaaaaaaaaaaaaaaaaaaaaaaaaaajajaLaLaMaMa@a@aaaaaaaaaMaMa7a7a7a7a$a$aaaaa@a@a$a$aMaMalala#a#aNaNa@a@aLaLa#a#aaaaakaka@a@aaaaaaaaa#a#aLaLaLaLaLaLa@a@aaaaaaaaaaaaaaaaaaaaaaaaaaaaaaaaaaaaaaaaaaaaaaaaaaaaaaaaaaaaaaaaaaaaaaaaaaaaaaaaaaaaaaaaaaaaaaaaaaaaaaaaaaaaaaaaaaaaaaaaaaaaaaaaaaaaaaaa",
"aaaaaaaaaaaaaaaaaaaaaaaaaaaaaaaaaaaaaaaaaaaaaaaaaaaaaaaaaaaaaaaaaaaaaaaaaaaaaaaaaaaaaaaaaaaaaaaaaaaaaaaaaaaaauaubjbjadadbybyayayaNaNayayavavajajaiaiananafafbLbLbHbHbybyaiaibhbhaOaObIbIbybyaiaibybybhbhananbybybhbhbjbjajajaeaeananaaaaauaubHbHbKbKaGaGbLbLbybyauaubybybybybybyajajajajajajaPaPaOaOazazadadadadaaaaaaaaaaaaaaaaaaaaaaaaaaaaavavadadavavaiaiaaaaaaaaaHaHadadaeaeaaaaaaaaauauauauaaaaaiaiavavauauaqaqaHaHaaaaajajadadbhbhaaaaavavacacavavaHaHalalaaaaapapalalbLbLafafaaaaaaaaaaaaaaaaaaaaaaaaaaaaaaaaaaaaaaaaaaaaaaaaaaaaazazayayaeaeaXaXaeaeaLaLaaaaa$a$aLaLa7a7aXaXaLaLa$a$a$a$a@a@aXaXbzbzaXaXaLaLa#a#a@a@aMaMaMaMa$a$aLaLaOaOaNaNaMaMa$a$a#a#a$a$aaaaa#a#aLaLaLaLakakazazalalalalbkbkaNaNbkbkaNaNbkbka@a@aaaaaaaaaaaaaaaaaaaaaaaaaaaaaaaaaaaaaaaaaaaaaaaaaaaaaaaaaaaaaaaaaaaaaaaaaaaaaaaaaaaaaaaaaaaaaaaaaaaa",
"aaaaaaaaaaaaaaaaaaaaaaaaaaaaaaaaaaaaaaaaaaaaaaaaaaaaaaaaaaaaaaaaaaaaaaaaaaaaaaaaaaaaaaaaaaaaaaaaaaaaaaaaaaaaauaubjbjadadbybyayayaNaNayayavavajajaiaiananafafbLbLbHbHbybyaiaibhbhaOaObIbIbybyaiaibybybhbhananbybybhbhbjbjajajaeaeananaaaaauaubHbHbKbKaGaGbLbLbybyauaubybybybybybyajajajajajajaPaPaOaOazazadadadadaaaaaaaaaaaaaaaaaaaaaaaaaaaaavavadadavavaiaiaaaaaaaaaHaHadadaeaeaaaaaaaaauauauauaaaaaiaiavavauauaqaqaHaHaaaaajajadadbhbhaaaaavavacacavavaHaHalalaaaaapapalalbLbLafafaaaaaaaaaaaaaaaaaaaaaaaaaaaaaaaaaaaaaaaaaaaaaaaaaaaaazazayayaeaeaXaXaeaeaLaLaaaaa$a$aLaLa7a7aXaXaLaLa$a$a$a$a@a@aXaXbzbzaXaXaLaLa#a#a@a@aMaMaMaMa$a$aLaLaOaOaNaNaMaMa$a$a#a#a$a$aaaaa#a#aLaLaLaLakakazazalalalalbkbkaNaNbkbkaNaNbkbka@a@aaaaaaaaaaaaaaaaaaaaaaaaaaaaaaaaaaaaaaaaaaaaaaaaaaaaaaaaaaaaaaaaaaaaaaaaaaaaaaaaaaaaaaaaaaaaaaaaaaaa",
"aaaaaaaaaaaaaaaaaaaaaaaaaaaaaaaaaaaaaaaaaaaaaaaaaaaaaaaaaaaaaaaaaaaaaaaaaaaaaaaaaaaaaaaaaaaaaaaaafafacacbjbjavavaaaaaPaPalalavavavavavavavavauauavavaiaiadadbLbLbHbHbybybybybybyaHaHaaaabybyauauavavaiaiananavavbhbhapapaaaaaqaqananbybybHbHauauavavavavavavbybyavavavavafafaPaPaHaHaPaPaPaPananaaaaaaaaaaaaaaaaaaaaaaaaaaaaaaaaaaaaaaaaapapbIbIavavbhbhafafaaaaananayayapapa5a5aaaaananbLbLananaaaaauauajajbybyananananafafananalalananafafaaaaaqaqaXaXaqaqaPaPalalaaaaaaaaaaaaalalavavaaaaaaaaaaaaaaaaaaaaaaaaaaaaaaaaaaaaa#a#aPaPaMaMakakakakajajaMaMaMaMaLaLbzbzbkbka7a7a#a#aMaMaLaLaLaLa@a@aaaaaMaMa@a@a@a@a$a$aMaMa$a$a$a$aaaaa@a@ajaja#a#a#a#aOaOaeaealalaXaXaMaMaLaLa@a@a$a$a$a$a$a$a$a$a$a$a@a@a@a@aMaMa#a#a7a7bkbkayayalalaiaiaaaaaaaaaaaaaaaaaaaaaaaaaaaaaaaaaaaaaaaaaaaaaaaaaaaaaaaaaaaaaaaaaaaaaaaaaaaaaaaaaaaaaaaa",
"aaaaaaaaaaaaaaaaaaaaaaaaaaaaaaaaaaaaaaaaaaaaaaaaaaaaaaaaaaaaaaaaaaaaaaaaaaaaaaaaaaaaaaaaaaaaaaaaafafacacbjbjavavaaaaaPaPalalavavavavavavavavauauavavaiaiadadbLbLbHbHbybybybybybyaHaHaaaabybyauauavavaiaiananavavbhbhapapaaaaaqaqananbybybHbHauauavavavavavavbybyavavavavafafaPaPaHaHaPaPaPaPananaaaaaaaaaaaaaaaaaaaaaaaaaaaaaaaaaaaaaaaaapapbIbIavavbhbhafafaaaaananayayapapa5a5aaaaananbLbLananaaaaauauajajbybyananananafafananalalananafafaaaaaqaqaXaXaqaqaPaPalalaaaaaaaaaaaaalalavavaaaaaaaaaaaaaaaaaaaaaaaaaaaaaaaaaaaaa#a#aPaPaMaMakakakakajajaMaMaMaMaLaLbzbzbkbka7a7a#a#aMaMaLaLaLaLa@a@aaaaaMaMa@a@a@a@a$a$aMaMa$a$a$a$aaaaa@a@ajaja#a#a#a#aOaOaeaealalaXaXaMaMaLaLa@a@a$a$a$a$a$a$a$a$a$a$a@a@a@a@aMaMa#a#a7a7bkbkayayalalaiaiaaaaaaaaaaaaaaaaaaaaaaaaaaaaaaaaaaaaaaaaaaaaaaaaaaaaaaaaaaaaaaaaaaaaaaaaaaaaaaaaaaaaaaaa",
"aaaaaaaaaaaaaaaaaaaaaaaaaaaaaaaaaaaaaaaaaaaaaaaaaaaaaaaaaaaaaaaaaaaaaaaaaaaaaaaaaaaaaaaaaaaaaaaaaNaNaXaXaaaaaaaaaaaaaHaHayayaeaeaeaealalavavalalaeaealalalalafafaiaiananapapalalbybyavavaaaaaOaOazazaqaqaaaaaiaiauaubHbHaXaXalalalalavavaHaHaaaaaaaaaaaaaaaabhbhalalavavalalavavauaubybyauauaeaeaaaaaaaaaaaaaaaaaaaaaaaaaaaaaaaaaaaaaaaaaaaaaaaaapapavavaaaaaiaiayayaaaaavavavavbhbhbjbjauauaaaaaHaHbybyaaaabIbIaHaHapapajajbhbhbhbhapapalalaqaqajajaaaaaaaaaaaaananbybyajajaaaaaaaaalalaaaaaaaaaaaaaaaaaaaaaaaaaaaaaaaaananbkbkbkbkaXaXaeaea7a7azazaLaLaLaLaLaLaLaLaaaaa$a$a$a$a$a$aaaaaPaPaYaYa7a7alalaaaaaaaaajaja$a$aaaababaaaaaafafaaaaaaaaa@a@aMaMaMaMaMaMaeaebkbkayaya@a@aiaiajajaLaLaLaLaLaLa#a#aaaaaaaaaaaaaaaaaaaaaaaaafafayayakakaaaaaaaaaaaaaaaaaaaaaaaaaaaaaaaaaaaaaaaaaaaaaaaaaaaaaaaaaaaaaaaaaaaaaaaaaaaaaaaaaaaa",
"aaaaaaaaaaaaaaaaaaaaaaaaaaaaaaaaaaaaaaaaaaaaaaaaaaaaaaaaaaaaaaaaaaaaaaaaaaaaaaaaaaaaaaaaaaaaaaaaaNaNaXaXaaaaaaaaaaaaaHaHayayaeaeaeaealalavavalalaeaealalalalafafaiaiananapapalalbybyavavaaaaaOaOazazaqaqaaaaaiaiauaubHbHaXaXalalalalavavaHaHaaaaaaaaaaaaaaaabhbhalalavavalalavavauaubybyauauaeaeaaaaaaaaaaaaaaaaaaaaaaaaaaaaaaaaaaaaaaaaaaaaaaaaapapavavaaaaaiaiayayaaaaavavavavbhbhbjbjauauaaaaaHaHbybyaaaabIbIaHaHapapajajbhbhbhbhapapalalaqaqajajaaaaaaaaaaaaananbybyajajaaaaaaaaalalaaaaaaaaaaaaaaaaaaaaaaaaaaaaaaaaananbkbkbkbkaXaXaeaea7a7azazaLaLaLaLaLaLaLaLaaaaa$a$a$a$a$a$aaaaaPaPaYaYa7a7alalaaaaaaaaajaja$a$aaaababaaaaaafafaaaaaaaaa@a@aMaMaMaMaMaMaeaebkbkayaya@a@aiaiajajaLaLaLaLaLaLa#a#aaaaaaaaaaaaaaaaaaaaaaaaafafayayakakaaaaaaaaaaaaaaaaaaaaaaaaaaaaaaaaaaaaaaaaaaaaaaaaaaaaaaaaaaaaaaaaaaaaaaaaaaaaaaaaaaaa",
"aaaaaaaaaaaaaaaaaaaaaaaaaaaaaaaaaaaaaaaaaaaaaaaaaaaaaaaaaaaaaaaaaaaaaaaaaaaaaaaaaaaaaaaaaaaaaaaaaaaaaaaaaaaaaaaaaaaaaHaHbybyauauavavavavavavavavavavavavbhbhaiaiaPaPaiaiaqaqaaaaaaaabybybybyavavaFaFaaaaaiaiadadalalalalbIbIalalbhbhavavavavavavavavbybybybybybyavavavavavavavavavavajajauaubybyadadajajaaaaaaaaaaaaaaaaaaaaaaaaaaaaaaaaaaaaaPaPavavaaaaananayaybhbhafafaPaPa5a5aiaibybyananaaaaajajaPaPaaaaadadavavaPaPavavajajaPaPavavaqaqaYaYbhbhavavaaaaaaaaaaaaaHaHbIbIalalaaaaaaaaaaaaaaaaaaaaaaaaaaaaaaaaaaaaaaaaaHaHafafaaaababaazazaLaLaLaLa7a7aLaLaLaLaLaLaLaLa$a$aaaaaLaLayaybkbkaYaYaMaMa$a$a#a#ayayakakbabaaPaPa$a$babaaaaaakakaYaYaMaMaLaLaXaXbkbka7a7aaaaaaaaa$a$aMaMaLaLajajafafakakaXaXaeaebkbka7a7aaaaaaaaaaaaaaaaaaaaajajaaaaaaaaaaaaaaaaaaaaaaaaaaaaaaaaaaaaaaaaaaaaaaaaaaaaaaaaaaaaaaaaaaaaaaaaaaaaaaaaaaaa",
"aaaaaaaaaaaaaaaaaaaaaaaaaaaaaaaaaaaaaaaaaaaaaaaaaaaaaaaaaaaaaaaaaaaaaaaaaaaaaaaaaaaaaaaaaaaaaaaaaaaaaaaaaaaaaaaaaaaaaHaHbybyauauavavavavavavavavavavavavbhbhaiaiaPaPaiaiaqaqaaaaaaaabybybybyavavaFaFaaaaaiaiadadalalalalbIbIalalbhbhavavavavavavavavbybybybybybyavavavavavavavavavavajajauaubybyadadajajaaaaaaaaaaaaaaaaaaaaaaaaaaaaaaaaaaaaaPaPavavaaaaananayaybhbhafafaPaPa5a5aiaibybyananaaaaajajaPaPaaaaadadavavaPaPavavajajaPaPavavaqaqaYaYbhbhavavaaaaaaaaaaaaaHaHbIbIalalaaaaaaaaaaaaaaaaaaaaaaaaaaaaaaaaaaaaaaaaaHaHafafaaaababaazazaLaLaLaLa7a7aLaLaLaLaLaLaLaLa$a$aaaaaLaLayaybkbkaYaYaMaMa$a$a#a#ayayakakbabaaPaPa$a$babaaaaaakakaYaYaMaMaLaLaXaXbkbka7a7aaaaaaaaa$a$aMaMaLaLajajafafakakaXaXaeaebkbka7a7aaaaaaaaaaaaaaaaaaaaajajaaaaaaaaaaaaaaaaaaaaaaaaaaaaaaaaaaaaaaaaaaaaaaaaaaaaaaaaaaaaaaaaaaaaaaaaaaaaaaaaaaaa",
"aaaaaaaaaaaaaaaaaaaaaaaaaaaaaaaaaaaaaaaaaaaaaaaaaaaaaaaaaaaaaaaaaaaaaaaaaaaaaaaaaaaaaaaaaaaaaaaaaaaaananaHaHbybybLbLbybyavavaiaiaHaHavavavavavavaFaFapapapapbIbIbybyauaubhbhazazacacbLbLavavaHaHbhbhaaaabhbhaPaPaaaaaaaaaaaaa6a6aHaHafafafafananapapavavbHbHbHbHbLbLajajavavajajakakavavajajaHaHaeaebLbLbLbLaHaHaaaaaaaaaaaaaaaaaaaaaaaaapapaOaOaaaaaHaHbLbLaOaOanana6a6aHaHbhbhavavaWaWaaaabhbhavavapapaHaHauauaPaPafafbhbhalalbhbhalalaHaHaPaPavavavavananaaaaaaaaaaaaaHaHadadaYaYaaaaaaaaaaaaaaaaaaaaaaaaaaaaaaaaaaaaaaaaalaladadayayaLaLa@a@a#a#a@a@aMaMaMaMa@a@ajajbkbkbkbkadada7a7a@a@aaaaaaaaaaaabkbka7a7a$a$aaaaaiaiaPaPaaaababaa#a#akakayayaMaMa$a$a$a$aXaXaXaXbkbkbkbka#a#aaaaaaaaa$a$a#a#aMaMa@a@aMaMblblbkbkbkbka@a@aaaaaaaaaaaaaaaaaaaaaaaaaaaaaaaaaaaaaaaaaaaaaaaaaaaaaaaaaaaaaaaaaaaaaaaaaaaaaaaaaaaaaaaaaaaaaaaa",
"aaaaaaaaaaaaaaaaaaaaaaaaaaaaaaaaaaaaaaaaaaaaaaaaaaaaaaaaaaaaaaaaaaaaaaaaaaaaaaaaaaaaaaaaaaaaaaaaaaaaananaHaHbybybLbLbybyavavaiaiaHaHavavavavavavaFaFapapapapbIbIbybyauaubhbhazazacacbLbLavavaHaHbhbhaaaabhbhaPaPaaaaaaaaaaaaa6a6aHaHafafafafananapapavavbHbHbHbHbLbLajajavavajajakakavavajajaHaHaeaebLbLbLbLaHaHaaaaaaaaaaaaaaaaaaaaaaaaapapaOaOaaaaaHaHbLbLaOaOanana6a6aHaHbhbhavavaWaWaaaabhbhavavapapaHaHauauaPaPafafbhbhalalbhbhalalaHaHaPaPavavavavananaaaaaaaaaaaaaHaHadadaYaYaaaaaaaaaaaaaaaaaaaaaaaaaaaaaaaaaaaaaaaaalaladadayayaLaLa@a@a#a#a@a@aMaMaMaMa@a@ajajbkbkbkbkadada7a7a@a@aaaaaaaaaaaabkbka7a7a$a$aaaaaiaiaPaPaaaababaa#a#akakayayaMaMa$a$a$a$aXaXaXaXbkbkbkbka#a#aaaaaaaaa$a$a#a#aMaMa@a@aMaMblblbkbkbkbka@a@aaaaaaaaaaaaaaaaaaaaaaaaaaaaaaaaaaaaaaaaaaaaaaaaaaaaaaaaaaaaaaaaaaaaaaaaaaaaaaaaaaaaaaaaaaaaaaaa",
"aaaaaaaaaaaaaaaaaaaaaaaaaaaaaaaaaaaaaaaaaaaaaaaaaaaaaaaaaaaaaaaaaaaaaaaaaaaaaaaaaaaaaaaaaaaaaPaPalaladadbLbLakakaaaaaaaaaaaaajajavavauauauaualalafafajajbLbLbLbLbybyajajaaaabjbjalalaaaaaaaaajajbhbhbhbhapapalalalalalalafafavavavavauauaGaGaGaGavavaaaaaaaaaaaaapapaeaealalavavauaubybyavavazazaiaiaaaaayayayayaaaaaaaaaaaaaaaaaaaaaaaaaaaaaaaaaaaaayayaXaXbhbhavavaPaPaPaPaHaHbybyaaaaajajaPaPavavavavavavaaaaaHaHajajaaaabybyaaaaavavajajbhbhalalbhbhauauaaaaaaaaaaaaaaaaaaaaaaaaaaaaaaaaaaaaaaaaaaaaaaaaaaaaaaaaaaaaadadaiaiaaaaaaaaaaaaaaaaaiaiaLaLalala7a7a7a7bkbkbkbka$a$a$a$a@a@ajajaaaaa#a#a#a#babaaaaaakaka#a#a@a@aYaYa#a#a$a$a#a#aLaLa#a#aeaea$a$a@a@aaaaaaaaajajaNaNayayalala#a#akaka7a7bkbka7a7aMaMa@a@aaaaaeaeadadbkbkaaaaaaaaaaaaaaaaaaaaaaaaaaaaaaaaaaaaaaaaaaaaaaaaaaaaaaaaaaaaaaaaaaaaaaaaaaaaaaaaaaaaaaaaaaaa",
"aaaaaaaaaaaaaaaaaaaaaaaaaaaaaaaaaaaaaaaaaaaaaaaaaaaaaaaaaaaaaaaaaaaaaaaaaaaaaaaaaaaaaaaaaaaaaPaPalaladadbLbLakakaaaaaaaaaaaaajajavavauauauaualalafafajajbLbLbLbLbybyajajaaaabjbjalalaaaaaaaaajajbhbhbhbhapapalalalalalalafafavavavavauauaGaGaGaGavavaaaaaaaaaaaaapapaeaealalavavauaubybyavavazazaiaiaaaaayayayayaaaaaaaaaaaaaaaaaaaaaaaaaaaaaaaaaaaaayayaXaXbhbhavavaPaPaPaPaHaHbybyaaaaajajaPaPavavavavavavaaaaaHaHajajaaaabybyaaaaavavajajbhbhalalbhbhauauaaaaaaaaaaaaaaaaaaaaaaaaaaaaaaaaaaaaaaaaaaaaaaaaaaaaaaaaaaaaadadaiaiaaaaaaaaaaaaaaaaaiaiaLaLalala7a7a7a7bkbkbkbka$a$a$a$a@a@ajajaaaaa#a#a#a#babaaaaaakaka#a#a@a@aYaYa#a#a$a$a#a#aLaLa#a#aeaea$a$a@a@aaaaaaaaajajaNaNayayalala#a#akaka7a7bkbka7a7aMaMa@a@aaaaaeaeadadbkbkaaaaaaaaaaaaaaaaaaaaaaaaaaaaaaaaaaaaaaaaaaaaaaaaaaaaaaaaaaaaaaaaaaaaaaaaaaaaaaaaaaaaaaaaaaaa",
"aaaaaaaaaaaaaaaaaaaaaaaaaaaaaaaaaaaaaaaaaaaaaaaaaaaaaaaaaaaaaaaaaaaaaaaaaaaaaaaaaaaaaaaaaaaaaOaOadadaaaaaaaaaaaaaaaaaeaebjbjadadazazaaaaaaaaaeaeaIaIbLbLalalananbhbhaaaaaqaqaHaHaaaaaaaaaeaeajajajajauaubhbhaaaaazazbybybIbIaaaaavavavavajajauauacacbhbhakakbhbhaaaaazazazazavavauauauaubHbHauauaNaNadadalalaaaaaaaaaaaaaaaaaaaaaaaaaaaaaaaaaaaaaaaaaaaaaaaaavava5a5alalaaaaadadafafbhbhaPaPaWaWaiaialalaXaXaaaaaPaPavavapapalalavavaaaaavava5a5afafajajavavavavaaaaaaaaaaaaaaaaaaaaaaaaaaaaaaaaaaaaaaaaaaaaaaaaaaaaaaaaaaaaaaaaaaaaaaaaa7a7aXaXalalaMaMaaaaa$a$a7a7aaaaaaaaaMaMaLaLajajaaaaakakazaza@a@aaaaaeaeaLaLaaaaaLaLaMaMaMaMaLaLa$a$a@a@a7a7ajaja#a#ajajakakaiaiaaaaaaaaa$a$bkbkaXaXazazaaaaa#a#a7a7aeaebkbkalalaaaaaaaaaXaXaHaHaaaaaaaaaaaaaaaaaaaaaaaaaaaaaaaaaaaaaaaaaaaaaaaaaaaaaaaaaaaaaaaaaaaaaaaaaaaaaaaaaaaaaaaa",
"aaaaaaaaaaaaaaaaaaaaaaaaaaaaaaaaaaaaaaaaaaaaaaaaaaaaaaaaaaaaaaaaaaaaaaaaaaaaaaaaaaaaaaaaaaaaaOaOadadaaaaaaaaaaaaaaaaaeaebjbjadadazazaaaaaaaaaeaeaIaIbLbLalalananbhbhaaaaaqaqaHaHaaaaaaaaaeaeajajajajauaubhbhaaaaazazbybybIbIaaaaavavavavajajauauacacbhbhakakbhbhaaaaazazazazavavauauauaubHbHauauaNaNadadalalaaaaaaaaaaaaaaaaaaaaaaaaaaaaaaaaaaaaaaaaaaaaaaaaavava5a5alalaaaaadadafafbhbhaPaPaWaWaiaialalaXaXaaaaaPaPavavapapalalavavaaaaavava5a5afafajajavavavavaaaaaaaaaaaaaaaaaaaaaaaaaaaaaaaaaaaaaaaaaaaaaaaaaaaaaaaaaaaaaaaaaaaaaaaaa7a7aXaXalalaMaMaaaaa$a$a7a7aaaaaaaaaMaMaLaLajajaaaaakakazaza@a@aaaaaeaeaLaLaaaaaLaLaMaMaMaMaLaLa$a$a@a@a7a7ajaja#a#ajajakakaiaiaaaaaaaaa$a$bkbkaXaXazazaaaaa#a#a7a7aeaebkbkalalaaaaaaaaaXaXaHaHaaaaaaaaaaaaaaaaaaaaaaaaaaaaaaaaaaaaaaaaaaaaaaaaaaaaaaaaaaaaaaaaaaaaaaaaaaaaaaaaaaaaaaaa",
"aaaaaaaaaaaaaaaaaaaaaaaaaaaaaaaaaaaaaaaaaaaaaaaaaaaaaaaaaaaaaaaaaaaaaaaaaaaaaaaaaaaaaaaaaaaaaaaaaaaaaaaaalalbLbLbybyavavafafaaaabhbhadadbybybybyajajapapaaaaaaaaaaaaavavbybyaFaFavavadadavavaaaaauauavavbhbhananananavavajajananaiaiauauaXaXaqaqananbhbhaHaHauauauauakakajajaiaialalaOaOauaubybyayayaeaeavavaaaaaaaaaaaaaaaaaaaaaaaaaaaaaaaaaaaaaaaaaaaaajajavavaiaiaiaiaaaaaHaHaHaHaPaPaWaWaiaiananalalaXaXaaaaavavauaua5a5aPaPayayaaaaalala5a5aiaiaHaHaaaabIbIaqaqaaaaaaaaaaaaaaaaaaaaaaaaaaaaaaaaaaaaaaaaaaaaaaaaaaaaaaaaaaaaaaaabkbkaNaNajajaaaaaaaaaLaLa7a7aaaaa$a$akakaMaMa$a$ajajaeaeajaja@a@aaaaa7a7a7a7a$a$a7a7a7a7a@a@a@a@a7a7a$a$aaaaaMaMayayaaaaaaaaaMaMaXaXaeaea@a@a$a$aaaaa#a#aYaYaNaNakakaaaaaaaaafafayaybkbka7a7aaaaaaaaaaaaaaaaaaaaaaaaaaaaaaaaaaaaaaaaaaaaaaaaaaaaaaaaaaaaaaaaaaaaaaaaaaaaaaaaaaaaaaaaaaaaaaaa",
"aaaaaaaaaaaaaaaaaaaaaaaaaaaaaaaaaaaaaaaaaaaaaaaaaaaaaaaaaaaaaaaaaaaaaaaaaaaaaaaaaaaaaaaaaaaaaaaaaaaaaaaaalalbLbLbybyavavafafaaaabhbhadadbybybybyajajapapaaaaaaaaaaaaavavbybyaFaFavavadadavavaaaaauauavavbhbhananananavavajajananaiaiauauaXaXaqaqananbhbhaHaHauauauauakakajajaiaialalaOaOauaubybyayayaeaeavavaaaaaaaaaaaaaaaaaaaaaaaaaaaaaaaaaaaaaaaaaaaaajajavavaiaiaiaiaaaaaHaHaHaHaPaPaWaWaiaiananalalaXaXaaaaavavauaua5a5aPaPayayaaaaalala5a5aiaiaHaHaaaabIbIaqaqaaaaaaaaaaaaaaaaaaaaaaaaaaaaaaaaaaaaaaaaaaaaaaaaaaaaaaaaaaaaaaaabkbkaNaNajajaaaaaaaaaLaLa7a7aaaaa$a$akakaMaMa$a$ajajaeaeajaja@a@aaaaa7a7a7a7a$a$a7a7a7a7a@a@a@a@a7a7a$a$aaaaaMaMayayaaaaaaaaaMaMaXaXaeaea@a@a$a$aaaaa#a#aYaYaNaNakakaaaaaaaaafafayaybkbka7a7aaaaaaaaaaaaaaaaaaaaaaaaaaaaaaaaaaaaaaaaaaaaaaaaaaaaaaaaaaaaaaaaaaaaaaaaaaaaaaaaaaaaaaaaaaaaaaaa",
"aaaaaaaaaaaaaaaaaaaaaaaaaaaaaaaaaaaaaaaaaaaaaaaaaaaaaaaaaaaaaaaaaaaaaaaaaaaaaaaaaaaaaaaaaaaaaaaaaaaaakakacacalalbhbhaaaaaqaqbybybLbLauauaaaaaHaHananalalananajajbybyajajaaaaavavaGaGajajbhbhafafadadaPaPaHaHalalbhbhbybyauauaiaiaHaHaqaqafafauaubybybybyaHaHbhbhananauauavavananaaaaaaaaaaaaananaOaObjbjajajaHaHaaaaaaaaaaaaaaaaaaaaaaaaaaaaaaaaaaaaaaaaayaybhbhalalaaaaaaaaaaaaalalaaaaavavafafavavavavalalaaaaavavauaua5a5avavauauaaaaavavavavaaaaaiaiaaaaavavaeaeaaaaaaaaaaaaaaaaaaaaaaaaaaaaaaaaaaaaaaaaaaaaaaaaaaaaaaaaapapaXaXaMaMaaaaaaaaaLaLaeaealala#a#aHaHaLaLaMaMaaaaakakbkbka@a@aaaaaaaabkbkaXaXa$a$a$a$aXaXazaza@a@a@a@a7a7a7a7aaaaaaaaafafbkbkbabaa$a$bhbhalalbBbBaaaaa#a#a$a$aaaaafafbkbkaLaLa#a#aaaaaaaaa@a@bkbkaNaNaaaaaaaaaaaaaaaaaaaaaaaaaaaaaaaaaaaaaaaaaaaaaaaaaaaaaaaaaaaaaaaaaaaaaaaaaaaaaaaaaaaaaaaaaaaa",
"aaaaaaaaaaaaaaaaaaaaaaaaaaaaaaaaaaaaaaaaaaaaaaaaaaaaaaaaaaaaaaaaaaaaaaaaaaaaaaaaaaaaaaaaaaaaaaaaaaaaakakacacalalbhbhaaaaaqaqbybybLbLauauaaaaaHaHananalalananajajbybyajajaaaaavavaGaGajajbhbhafafadadaPaPaHaHalalbhbhbybyauauaiaiaHaHaqaqafafauaubybybybyaHaHbhbhananauauavavananaaaaaaaaaaaaananaOaObjbjajajaHaHaaaaaaaaaaaaaaaaaaaaaaaaaaaaaaaaaaaaaaaaayaybhbhalalaaaaaaaaaaaaalalaaaaavavafafavavavavalalaaaaavavauaua5a5avavauauaaaaavavavavaaaaaiaiaaaaavavaeaeaaaaaaaaaaaaaaaaaaaaaaaaaaaaaaaaaaaaaaaaaaaaaaaaaaaaaaaaapapaXaXaMaMaaaaaaaaaLaLaeaealala#a#aHaHaLaLaMaMaaaaakakbkbka@a@aaaaaaaabkbkaXaXa$a$a$a$aXaXazaza@a@a@a@a7a7a7a7aaaaaaaaafafbkbkbabaa$a$bhbhalalbBbBaaaaa#a#a$a$aaaaafafbkbkaLaLa#a#aaaaaaaaa@a@bkbkaNaNaaaaaaaaaaaaaaaaaaaaaaaaaaaaaaaaaaaaaaaaaaaaaaaaaaaaaaaaaaaaaaaaaaaaaaaaaaaaaaaaaaaaaaaaaaaa",
"aaaaaaaaaaaaaaaaaaaaaaaaaaaaaaaaaaaaaaaaaaaaaaaaaaaaaaaaaaaaaaaaaaaaaaaaaaaaaaaaaaaaaaaaaaaaaaaaaaaaaXaXaaaaaaaaafafadadacacauauaaaabhbhalalavavafafapapaGaGbybyaaaaaaaaavavaGaGavavaqaqaOaOalalacacaaaaapapadadaHaHaaaabLbLadadaiaiakakavavaaaaavavauauaGaGauauaaaaaaaaaeaebjbjaeaeaHaHaaaaaaaaaaaaaaaabybybjbjakakaaaaaaaaaaaaaaaaaaaaaaaaaaaaaaaaalalananalalavavaaaaaaaaaaaaaNaNaaaaavavavavauauaPaPajajaaaaavavauaua5a5afafaeaeaaaaa5a5auauaaaaaqaqaaaaananaeaeaaaaaaaaaaaaaaaaaaaaaaaaaaaaaaaaaaaaaaaaaaaaaaaaaaaaananaXaXapapaaaaa@a@bzbza7a7aaaaa#a#akakaXaXaMaMaaaaaOaObzbza@a@aaaaaMaMaqaqbzbzaMaMaMaMaaaaayaya$a$aPaPaMaMaMaMbkbka#a#bababababBbBa7a7a#a#a$a$aaaaaeaeaOaOa@a@azazajajaaaaaaaaa7a7bjbjananaaaaaaaaaaaaadadaNaNaaaaaaaaaaaaaaaaaaaaaaaaaaaaaaaaaaaaaaaaaaaaaaaaaaaaaaaaaaaaaaaaaaaaaaaaaaaaaaaaaaaaaaaa",
"aaaaaaaaaaaaaaaaaaaaaaaaaaaaaaaaaaaaaaaaaaaaaaaaaaaaaaaaaaaaaaaaaaaaaaaaaaaaaaaaaaaaaaaaaaaaaaaaaaaaaXaXaaaaaaaaafafadadacacauauaaaabhbhalalavavafafapapaGaGbybyaaaaaaaaavavaGaGavavaqaqaOaOalalacacaaaaapapadadaHaHaaaabLbLadadaiaiakakavavaaaaavavauauaGaGauauaaaaaaaaaeaebjbjaeaeaHaHaaaaaaaaaaaaaaaabybybjbjakakaaaaaaaaaaaaaaaaaaaaaaaaaaaaaaaaalalananalalavavaaaaaaaaaaaaaNaNaaaaavavavavauauaPaPajajaaaaavavauaua5a5afafaeaeaaaaa5a5auauaaaaaqaqaaaaananaeaeaaaaaaaaaaaaaaaaaaaaaaaaaaaaaaaaaaaaaaaaaaaaaaaaaaaaananaXaXapapaaaaa@a@bzbza7a7aaaaa#a#akakaXaXaMaMaaaaaOaObzbza@a@aaaaaMaMaqaqbzbzaMaMaMaMaaaaayaya$a$aPaPaMaMaMaMbkbka#a#bababababBbBa7a7a#a#a$a$aaaaaeaeaOaOa@a@azazajajaaaaaaaaa7a7bjbjananaaaaaaaaaaaaadadaNaNaaaaaaaaaaaaaaaaaaaaaaaaaaaaaaaaaaaaaaaaaaaaaaaaaaaaaaaaaaaaaaaaaaaaaaaaaaaaaaaaaaaaaaaa",
"aaaaaaaaaaaaaaaaaaaaaaaaaaaaaaaaaaaaaaaaaaaaaaaaaaaaaaaaaaaaaaaaaaaaaaaaaaaaaaaaaaaaaaaaaaaaaaaaaaaaaaaaaaaaaeaeaGaGauauapapaaaaauauauaualalaeaeauaubLbLbybyaaaaaaaaalalahahajajaaaaavavaHaHalalalalafafaFaFauaualalaaaaaHaHbLbLadadaaaaauauauauaaaaaaaaauaubIbIbybyalalaaaaaaaabybybLbLaHaHaaaaaaaaaaaaaaaaaaaaaYaYaaaaaaaaaaaaaaaaaaaaaaaaaaaaaaaaadadaaaaaeaeavavaaaaaaaaaqaqbIbIaaaaauauavavavavajajajajaaaaajajauaua6a6avavauauaaaaaaaaa5a5aaaaaaaaaaaaaaaaaXaXavavaaaaaaaaaaaaaaaaaaaaaaaaaaaaaaaaaaaaaaaaaaaaaaaaaPaPaqaqaaaaaOaOaXaXazazaaaaa#a#bkbkalalaaaaaaaaaeaebzbzaPaPaaaaaLaLa@a@aXaXbkbka$a$a#a#a@a@adadaaaaaYaYaLaLa@a@bkbkaMaMajajbabaa@a@a@a@a@a@afafaaaaaaaaakakaaaaaHaHazazaLaLaaaaaaaaaOaObkbkaXaXa#a#aaaaa#a#aOaOaaaaaaaaaaaaaaaaaaaaaaaaaaaaaaaaaaaaaaaaaaaaaaaaaaaaaaaaaaaaaaaaaaaaaaaaaaaaaaaaaaaaaaaa",
"aaaaaaaaaaaaaaaaaaaaaaaaaaaaaaaaaaaaaaaaaaaaaaaaaaaaaaaaaaaaaaaaaaaaaaaaaaaaaaaaaaaaaaaaaaaaaaaaaaaaaaaaaaaaaeaeaGaGauauapapaaaaauauauaualalaeaeauaubLbLbybyaaaaaaaaalalahahajajaaaaavavaHaHalalalalafafaFaFauaualalaaaaaHaHbLbLadadaaaaauauauauaaaaaaaaauaubIbIbybyalalaaaaaaaabybybLbLaHaHaaaaaaaaaaaaaaaaaaaaaYaYaaaaaaaaaaaaaaaaaaaaaaaaaaaaaaaaadadaaaaaeaeavavaaaaaaaaaqaqbIbIaaaaauauavavavavajajajajaaaaajajauaua6a6avavauauaaaaaaaaa5a5aaaaaaaaaaaaaaaaaXaXavavaaaaaaaaaaaaaaaaaaaaaaaaaaaaaaaaaaaaaaaaaaaaaaaaaPaPaqaqaaaaaOaOaXaXazazaaaaa#a#bkbkalalaaaaaaaaaeaebzbzaPaPaaaaaLaLa@a@aXaXbkbka$a$a#a#a@a@adadaaaaaYaYaLaLa@a@bkbkaMaMajajbabaa@a@a@a@a@a@afafaaaaaaaaakakaaaaaHaHazazaLaLaaaaaaaaaOaObkbkaXaXa#a#aaaaa#a#aOaOaaaaaaaaaaaaaaaaaaaaaaaaaaaaaaaaaaaaaaaaaaaaaaaaaaaaaaaaaaaaaaaaaaaaaaaaaaaaaaaaaaaaaaaa",
"aaaaaaaaaaaaaaaaaaaaaaaaaaaaaaaaaaaaaaaaaaaaaaaaaaaaaaaaaaaaaaaaaaaaaaaaaaaaaaaaaaaaaaaaaaaaaaaaaaaaaaaaaXaXaNaNaHaHaaaaapapauaubybyauaubybybIbIafafavavavavbhbhbhbhayaybybyaaaaavavavavaaaaauauaNaNalalaPaPauauaeaeaaaaaeaeaFaFbLbLbybyaaaaayayayaybhbhaaaaauauauaubybyalalbhbhaaaaauaubLbLaHaHaaaaaaaaaaaaaaaaaaaaaaaaaaaaaaaaaaaaaaaaaaaaaaaaaaaaaaaaaaaaapapaaaaaaaaaaaaajajajajaaaaauaualalaaaaafafafafaaaabybya6a6afafavavbybyaaaaaaaaaPaPaaaaaaaaaaaaaaaaaaaaaaaaaaaaaaaaaaaaaaaaaaaaaaaaaaaaaaaaaaaaaaaaaaaaaaaaaaaaaaaabkbkbkbkbabaaaaaaiaibjbjalalaaaaaaaaafafaYaYa@a@aaaaakakaNaNa$a$a#a#a$a$aLaLaaaabkbkaOaOaaaaalalaYaYaaaaa7a7aLaLaLaLa#a#aaaaaaaaaaaaaeaeaMaMaaaaajajaaaaaaaaaaaaaiaiaNaNaPaPaaaaaHaHaNaNbkbkaaaaaaaaaaaaaaaaaaaaaaaaaaaaaaaaaaaaaaaaaaaaaaaaaaaaaaaaaaaaaaaaaaaaaaaaaaaaaaaaaaaaaaaaaaaaaaaaaaaa",
"aaaaaaaaaaaaaaaaaaaaaaaaaaaaaaaaaaaaaaaaaaaaaaaaaaaaaaaaaaaaaaaaaaaaaaaaaaaaaaaaaaaaaaaaaaaaaaaaaaaaaaaaaXaXaNaNaHaHaaaaapapauaubybyauaubybybIbIafafavavavavbhbhbhbhayaybybyaaaaavavavavaaaaauauaNaNalalaPaPauauaeaeaaaaaeaeaFaFbLbLbybyaaaaayayayaybhbhaaaaauauauaubybyalalbhbhaaaaauaubLbLaHaHaaaaaaaaaaaaaaaaaaaaaaaaaaaaaaaaaaaaaaaaaaaaaaaaaaaaaaaaaaaaapapaaaaaaaaaaaaajajajajaaaaauaualalaaaaafafafafaaaabybya6a6afafavavbybyaaaaaaaaaPaPaaaaaaaaaaaaaaaaaaaaaaaaaaaaaaaaaaaaaaaaaaaaaaaaaaaaaaaaaaaaaaaaaaaaaaaaaaaaaaaabkbkbkbkbabaaaaaaiaibjbjalalaaaaaaaaafafaYaYa@a@aaaaakakaNaNa$a$a#a#a$a$aLaLaaaabkbkaOaOaaaaalalaYaYaaaaa7a7aLaLaLaLa#a#aaaaaaaaaaaaaeaeaMaMaaaaajajaaaaaaaaaaaaaiaiaNaNaPaPaaaaaHaHaNaNbkbkaaaaaaaaaaaaaaaaaaaaaaaaaaaaaaaaaaaaaaaaaaaaaaaaaaaaaaaaaaaaaaaaaaaaaaaaaaaaaaaaaaaaaaaaaaaaaaaaaaaa",
"aaaaaaaaaaaaaaaaaaaaaaaaaaaaaaaaaaaaaaaaaaaaaaaaaaaaaaaaaaaaaaaaaaaaaaaaaaaaaaaaaaaaaaaaaaaaaaaaaaaaafafaNaNaaaaaaaaaeaebLbLavavavavbIbIavavaaaaaOaObLbLbhbhajajalalaFaFaiaiavavalalaPaPajajaOaOalalaeaeavavavavbLbLbhbhananaPaPauaubLbLaOaOaaaaaHaHayayafafaaaabybyauauauauaGaGananaaaaaaaabjbjbLbLaaaaaaaaaaaaaaaaaaaaaaaaaaaaaaaaaaaaaaaaaaaaaaaaaaaaaaaaaaaaaaaaaaaaaaaaauauananaaaaauauavavaaaaaaaaaaaaaaaabybyaaaaauauavavauauaaaabhbhadadaaaaaaaaaaaaaaaaaaaaaaaaaaaaaaaaaaaaaaaaaaaaaaaaaaaaaaaaaaaaaaaaaaaaaaaaaaaaaiaiaNaNaaaaa#a#ajajaeaeaaaaaaaaaaaaaLaLajajaLaLaaaaalalbkbka$a$azazaaaaazaza#a#afafbBbBaMaMbabaaeaea7a7aaaaakaka7a7aMaMa7a7aaaaajajanana$a$bkbkaYaYbabaazaza$a$aaaaaaaaakakbBbBafafaaaaaaaaaXaXadadaaaaaaaaaaaaaaaaaaaaaaaaaaaaaaaaaaaaaaaaaaaaaaaaaaaaaaaaaaaaaaaaaaaaaaaaaaaaaaaaaaaaaaaaaaaaaaaa",
"aaaaaaaaaaaaaaaaaaaaaaaaaaaaaaaaaaaaaaaaaaaaaaaaaaaaaaaaaaaaaaaaaaaaaaaaaaaaaaaaaaaaaaaaaaaaaaaaaaaaafafaNaNaaaaaaaaaeaebLbLavavavavbIbIavavaaaaaOaObLbLbhbhajajalalaFaFaiaiavavalalaPaPajajaOaOalalaeaeavavavavbLbLbhbhananaPaPauaubLbLaOaOaaaaaHaHayayafafaaaabybyauauauauaGaGananaaaaaaaabjbjbLbLaaaaaaaaaaaaaaaaaaaaaaaaaaaaaaaaaaaaaaaaaaaaaaaaaaaaaaaaaaaaaaaaaaaaaaaaauauananaaaaauauavavaaaaaaaaaaaaaaaabybyaaaaauauavavauauaaaabhbhadadaaaaaaaaaaaaaaaaaaaaaaaaaaaaaaaaaaaaaaaaaaaaaaaaaaaaaaaaaaaaaaaaaaaaaaaaaaaaaiaiaNaNaaaaa#a#ajajaeaeaaaaaaaaaaaaaLaLajajaLaLaaaaalalbkbka$a$azazaaaaazaza#a#afafbBbBaMaMbabaaeaea7a7aaaaakaka7a7aMaMa7a7aaaaajajanana$a$bkbkaYaYbabaazaza$a$aaaaaaaaakakbBbBafafaaaaaaaaaXaXadadaaaaaaaaaaaaaaaaaaaaaaaaaaaaaaaaaaaaaaaaaaaaaaaaaaaaaaaaaaaaaaaaaaaaaaaaaaaaaaaaaaaaaaaaaaaaaaaa",
"aaaaaaaaaaaaaaaaaaaaaaaaaaaaaaaaaaaaaaaaaaaaaaaaaaaaaaaaaaaaaaaaaaaaaaaaaaaaaaaaaaaaaaaaaaaaaaaaaaaaaaaaaaaaaaaaaNaNalalapapaGaGauauaaaaaaaaalalbLbLaqaqajajauauavavauauavavajajauauapapajajaaaaaaaabLbLbybyaaaabybyajajbhbhaeaeaPaPajajafafauauaaaabhbhbIbIauauaaaaajajbybyauauaGaGaiaiaaaaaaaabLbLbLbLaaaaaaaaaYaYajajaaaaaaaaaaaaananaaaaaaaaaaaaaaaaaaaaaaaaaaaaaaaaaaaaayayafafaaaaauauakakaaaaaaaaaaaaaaaabybyaaaaadadaeaeapapaaaaaaaaavavaaaaaaaaaaaaaaaaaaaaaaaaaaaaaaaaaaaaaaaaaaaaaaaaaaaaaaaaaaaaaaaaaaaaaaaaaaaaazazaaaaaaaaalalaxaxaaaaaaaaaaaaaLaLakakaLaLa#a#a#a#adada#a#aiaia$a$a@a@aLaLa@a@a@a@ajajafafaMaMaeaeaOaOaaaaa7a7bkbka$a$bkbkaaaaaaaaajaja@a@a@a@blblajaja#a#aOaOaaaaaaaaaaaaakakbBbBafafaaaaaaaaaNaNaXaXaaaaaaaaaaaaaaaaaaaaaaaaaaaaaaaaaaaaaaaaaaaaaaaaaaaaaaaaaaaaaaaaaaaaaaaaaaaaaaaaaaaaaaaaaaaa",
"aaaaaaaaaaaaaaaaaaaaaaaaaaaaaaaaaaaaaaaaaaaaaaaaaaaaaaaaaaaaaaaaaaaaaaaaaaaaaaaaaaaaaaaaaaaaaaaaaaaaaaaaaaaaaaaaaNaNalalapapaGaGauauaaaaaaaaalalbLbLaqaqajajauauavavauauavavajajauauapapajajaaaaaaaabLbLbybyaaaabybyajajbhbhaeaeaPaPajajafafauauaaaabhbhbIbIauauaaaaajajbybyauauaGaGaiaiaaaaaaaabLbLbLbLaaaaaaaaaYaYajajaaaaaaaaaaaaananaaaaaaaaaaaaaaaaaaaaaaaaaaaaaaaaaaaaayayafafaaaaauauakakaaaaaaaaaaaaaaaabybyaaaaadadaeaeapapaaaaaaaaavavaaaaaaaaaaaaaaaaaaaaaaaaaaaaaaaaaaaaaaaaaaaaaaaaaaaaaaaaaaaaaaaaaaaaaaaaaaaaazazaaaaaaaaalalaxaxaaaaaaaaaaaaaLaLakakaLaLa#a#a#a#adada#a#aiaia$a$a@a@aLaLa@a@a@a@ajajafafaMaMaeaeaOaOaaaaa7a7bkbka$a$bkbkaaaaaaaaajaja@a@a@a@blblajaja#a#aOaOaaaaaaaaaaaaakakbBbBafafaaaaaaaaaNaNaXaXaaaaaaaaaaaaaaaaaaaaaaaaaaaaaaaaaaaaaaaaaaaaaaaaaaaaaaaaaaaaaaaaaaaaaaaaaaaaaaaaaaaaaaaaaaaa",
"aaaaaaaaaaaaaaaaaaaaaaaaaaaaaaaaaaaaaaaaaaaaaaaaaaaaaaaaaaaaaaaaaaaaaaaaaaaaaaaaaaaaaaaaaaaaaaaaaaaaaaaaaaaaaaaaajajbhbhaGaGauauaaaaaaaaalalbLbLaqaqaYaYaeaebhbhbLbLavavaaaaaeaeaFaFalalaqaqaPaPaaaabLbLbybyaaaaauauananaHaHapapauauaqaqaPaPauaubybyaaaabhbhbIbIbybyaaaaafafbhbhaeaeaGaGaHaHaaaaaaaabjbjbLbLaaaaafafaiaiaaaaaaaaajajbkbkaaaaaaaaaaaaaaaaaaaaaaaaaaaaaaaaaaaaaHaHaaaaaaaaaeaeakakaaaaaaaaalalaPaPaiaiaaaaaiaibybyaaaaaaaaaaaaaaaaaaaaaaaaaaaaaaaaaaaaaaaaaaaaaaaaaaaaaaaaa5a5aeaeaqaqaaaaaaaaaaaaaaaaaaaaaaaaaaaaaaaaaHaHadadaOaOaaaaaaaaakakaLaLaLaLa#a#aaaaaeaea#a#aPaPakakaaaaa7a7aPaPbabaaOaOaaaaa$a$aMaMaeaeayayaaaaa@a@a@a@a$a$adadaMaMaaaaaaaaakaka@a@a@a@bzbzaYaYapapa7a7aaaaaaaaaaaaajajbBbBafafaaaaaaaaaqaqaaaaaaaaaaaaaaaaaaaaaaaaaaaaaaaaaaaaaaaaaaaaaaaaaaaaaaaaaaaaaaaaaaaaaaaaaaaaaaaaaaaaaaaaaaaa",
"aaaaaaaaaaaaaaaaaaaaaaaaaaaaaaaaaaaaaaaaaaaaaaaaaaaaaaaaaaaaaaaaaaaaaaaaaaaaaaaaaaaaaaaaaaaaaaaaaaaaaaaaaaaaaaaaajajbhbhaGaGauauaaaaaaaaalalbLbLaqaqaYaYaeaebhbhbLbLavavaaaaaeaeaFaFalalaqaqaPaPaaaabLbLbybyaaaaauauananaHaHapapauauaqaqaPaPauaubybyaaaabhbhbIbIbybyaaaaafafbhbhaeaeaGaGaHaHaaaaaaaabjbjbLbLaaaaafafaiaiaaaaaaaaajajbkbkaaaaaaaaaaaaaaaaaaaaaaaaaaaaaaaaaaaaaHaHaaaaaaaaaeaeakakaaaaaaaaalalaPaPaiaiaaaaaiaibybyaaaaaaaaaaaaaaaaaaaaaaaaaaaaaaaaaaaaaaaaaaaaaaaaaaaaaaaaa5a5aeaeaqaqaaaaaaaaaaaaaaaaaaaaaaaaaaaaaaaaaHaHadadaOaOaaaaaaaaakakaLaLaLaLa#a#aaaaaeaea#a#aPaPakakaaaaa7a7aPaPbabaaOaOaaaaa$a$aMaMaeaeayayaaaaa@a@a@a@a$a$adadaMaMaaaaaaaaakaka@a@a@a@bzbzaYaYapapa7a7aaaaaaaaaaaaajajbBbBafafaaaaaaaaaqaqaaaaaaaaaaaaaaaaaaaaaaaaaaaaaaaaaaaaaaaaaaaaaaaaaaaaaaaaaaaaaaaaaaaaaaaaaaaaaaaaaaaaaaaaaaaa",
"aaaaaaaaaaaaaaaaaaaaaaaaaaaaaaaaaaaaaaaaaaaaaaaaaaaaaaaaaaaaaaaaaaaaaaaaaaaaaaaaaaaaaaaaaaaaaaaaaaaaaaaaaaaaaaaaapapahahaeaeaaaaaaaaauauaXaXaaaaaOaOauauaaaabybybLbLavavaqaqauauapapaXaXaHaHavavaaaabLbLbybyaaaabhbhbybybhbhaaaabybyapapapapbhbhbybyananaaaabhbhbLbLbybyaaaabhbhaaaaauauaGaGananaaaaaaaabIbIaaaaaaaaaaaaaaaaaaaaakakaNaNaaaaaaaaaaaaaaaaaaaaaaaaaaaaaaaaaaaaaaaaaaaaaaaaaaaaaaaaaaaaaaaaaaaaaaaaaaaaaaaaaaaaalalaaaaaaaaaaaaaaaaaaaaaaaaaaaaaaaaaaaaaaaaaaaaaaaaaaaaa5a5avavauauaHaHaaaaaaaaaaaaaaaaaaaaaaaaaaaaaaaabBbBaXaXaaaaaaaaakakakakaNaNaOaObhbhbkbkaMaMaaaaaeaea#a#a$a$bkbkaMaMa#a#ajajaPaPa@a@ajaja$a$a7a7aMaMaMaMajaja@a@aMaMbkbkaLaLa#a#aaaaaOaOa@a@a@a@bBbBajaja#a#alalaaaaaaaaaaaaaOaOalalaaaaaaaaaaaaaaaaaaaaaaaaaaaaaaaaaaaaaaaaaaaaaaaaaaaaaaaaaaaaaaaaaaaaaaaaaaaaaaaaaaaaaaaaaaaaaaaaaaaaaaaa",
"aaaaaaaaaaaaaaaaaaaaaaaaaaaaaaaaaaaaaaaaaaaaaaaaaaaaaaaaaaaaaaaaaaaaaaaaaaaaaaaaaaaaaaaaaaaaaaaaaaaaaaaaaaaaaaaaapapahahaeaeaaaaaaaaauauaXaXaaaaaOaOauauaaaabybybLbLavavaqaqauauapapaXaXaHaHavavaaaabLbLbybyaaaabhbhbybybhbhaaaabybyapapapapbhbhbybyananaaaabhbhbLbLbybyaaaabhbhaaaaauauaGaGananaaaaaaaabIbIaaaaaaaaaaaaaaaaaaaaakakaNaNaaaaaaaaaaaaaaaaaaaaaaaaaaaaaaaaaaaaaaaaaaaaaaaaaaaaaaaaaaaaaaaaaaaaaaaaaaaaaaaaaaaaalalaaaaaaaaaaaaaaaaaaaaaaaaaaaaaaaaaaaaaaaaaaaaaaaaaaaaa5a5avavauauaHaHaaaaaaaaaaaaaaaaaaaaaaaaaaaaaaaabBbBaXaXaaaaaaaaakakakakaNaNaOaObhbhbkbkaMaMaaaaaeaea#a#a$a$bkbkaMaMa#a#ajajaPaPa@a@ajaja$a$a7a7aMaMaMaMajaja@a@aMaMbkbkaLaLa#a#aaaaaOaOa@a@a@a@bBbBajaja#a#alalaaaaaaaaaaaaaOaOalalaaaaaaaaaaaaaaaaaaaaaaaaaaaaaaaaaaaaaaaaaaaaaaaaaaaaaaaaaaaaaaaaaaaaaaaaaaaaaaaaaaaaaaaaaaaaaaaaaaaaaaaa",
"aaaaaaaaaaaaaaaaaaaaaaaaaaaaaaaaaaaaaaaaaaaaaaaaaaaaaaaaaaaaaaaaaaaaaaaaaaaaaaaaaaaaaaaaaaaaaaaaaaaaaaaaaaaaananahahaXaXaaaaaaaaauauaeaeaaaaalalaXaXaaaaaiaibLbLavavaaaabybybhbhalalaHaHaqaqaeaeavavbLbLbybyananaiaibybyavavavavazazajajafafalalbhbhayayaHaHaaaaavavahahaOaOaaaaaaaaajajahahbLbLaaaaaaaaaaaaaaaaaaaaaaaaaaaaaaaaaaaaaaaaaaaaaaaaaaaaaaaaaaaaaaaaaaaaaaaaaaaaaaaaaaaaaaaaaaaaaaaaaaaaaaaaaaaaaaaaavavananaaaaaaaaaaaaaaaaaaaaaaaaaaaaaaaaaaaaaaaaaaaaaaaaaaaaaaaaaaaaaaaaaaaaaaaaaaaaaaaaaaaaaaaaaaaaaaaaaaaaaaaaaaaabjbjajajaaaaakakaiaia7a7aNaNaaaaa7a7bkbkaaaaa@a@aNaNa#a#aLaLbkbkaMaMazazaaaaakaka@a@aLaLa$a$aLaLaMaMaLaLakakakakaMaMbkbka7a7a@a@aaaaa@a@aLaLaaaaaLaLaNaNaaaaaHaHa7a7aaaaaaaaaaaaaaaaaaaaaaaaaaaaaaaaaaaaaaaaaaaaaaaaaaaaaaaaaaaaaaaaaaaaaaaaaaaaaaaaaaaaaaaaaaaaaaaaaaaaaaaaaaaaaaaaaaaaaaaa",
"aaaaaaaaaaaaaaaaaaaaaaaaaaaaaaaaaaaaaaaaaaaaaaaaaaaaaaaaaaaaaaaaaaaaaaaaaaaaaaaaaaaaaaaaaaaaaaaaaaaaaaaaaaaaananahahaXaXaaaaaaaaauauaeaeaaaaalalaXaXaaaaaiaibLbLavavaaaabybybhbhalalaHaHaqaqaeaeavavbLbLbybyananaiaibybyavavavavazazajajafafalalbhbhayayaHaHaaaaavavahahaOaOaaaaaaaaajajahahbLbLaaaaaaaaaaaaaaaaaaaaaaaaaaaaaaaaaaaaaaaaaaaaaaaaaaaaaaaaaaaaaaaaaaaaaaaaaaaaaaaaaaaaaaaaaaaaaaaaaaaaaaaaaaaaaaaaavavananaaaaaaaaaaaaaaaaaaaaaaaaaaaaaaaaaaaaaaaaaaaaaaaaaaaaaaaaaaaaaaaaaaaaaaaaaaaaaaaaaaaaaaaaaaaaaaaaaaaaaaaaaaaabjbjajajaaaaakakaiaia7a7aNaNaaaaa7a7bkbkaaaaa@a@aNaNa#a#aLaLbkbkaMaMazazaaaaakaka@a@aLaLa$a$aLaLaMaMaLaLakakakakaMaMbkbka7a7a@a@aaaaa@a@aLaLaaaaaLaLaNaNaaaaaHaHa7a7aaaaaaaaaaaaaaaaaaaaaaaaaaaaaaaaaaaaaaaaaaaaaaaaaaaaaaaaaaaaaaaaaaaaaaaaaaaaaaaaaaaaaaaaaaaaaaaaaaaaaaaaaaaaaaaaaaaaaaaa",
"aaaaaaaaaaaaaaaaaaaaaaaaaaaaaaaaaaaaaaaaaaaaaaaaaaaaaaaaaaaaaaaaaaaaaaaaaaaaaaaaaaaaaaaaaaaaaaaaaaaaaaaaajajahahaeaeaaaaaaaaaNaNaeaeaaaaaOaOaNaNaaaaananbHbHbLbLaaaaavavavavaqaqbHbHaFaFaqaqalalavavafafbybyaqaqaHaHadadavavaeaeaaaaadadaaaaayaybhbhafafbLbLaqaqaaaabybybLbLaqaqaeaeaaaaajajaGaGaOaOaaaaaaaaaaaaaaaaaaaaaaaaaaaaaaaaaaaaaaaaaaaaaaaaaaaaaaaaaaaaaaaaaaaaaaaaaaaaaaaaaaaaaaaaaaaaaaaaaaaaaaaaaaaabIbIauauaaaaaaaaaaaaaaaaaaaaaaaaaaaaaaaaaaaaaaaaaaaaaaaaaaaaaaaaaaaaaaaaaaaaaaaaaaaaaaaaaaaaaaaaaaaaaaaaaaaaaaaaaaaaazazaaaaaaaaaeaea@a@adada#a#a#a#bzbzaMaMaaaaaNaNajajaaaablblaXaXaaaaa7a7aaaaaPaPa@a@aLaLa$a$aLaLaMaMaLaLbabaaeaeaMaMa@a@a7a7aLaLaaaaa@a@bkbkaLaLa$a$bkbkaNaNaaaaaqaqaOaOaaaaaaaaaaaaaaaaaaaaajajaiaiaaaaaaaaaaaaaaaaaaaaaaaaaaaaaaaaaaaaaaaaaaaaaaaaaaaaaaaaaaaaaaaaaaaaaaaaaaaaaaaaaaaaaaaa",
"aaaaaaaaaaaaaaaaaaaaaaaaaaaaaaaaaaaaaaaaaaaaaaaaaaaaaaaaaaaaaaaaaaaaaaaaaaaaaaaaaaaaaaaaaaaaaaaaaaaaaaaaajajahahaeaeaaaaaaaaaNaNaeaeaaaaaOaOaNaNaaaaananbHbHbLbLaaaaavavavavaqaqbHbHaFaFaqaqalalavavafafbybyaqaqaHaHadadavavaeaeaaaaadadaaaaayaybhbhafafbLbLaqaqaaaabybybLbLaqaqaeaeaaaaajajaGaGaOaOaaaaaaaaaaaaaaaaaaaaaaaaaaaaaaaaaaaaaaaaaaaaaaaaaaaaaaaaaaaaaaaaaaaaaaaaaaaaaaaaaaaaaaaaaaaaaaaaaaaaaaaaaaaabIbIauauaaaaaaaaaaaaaaaaaaaaaaaaaaaaaaaaaaaaaaaaaaaaaaaaaaaaaaaaaaaaaaaaaaaaaaaaaaaaaaaaaaaaaaaaaaaaaaaaaaaaaaaaaaaaazazaaaaaaaaaeaea@a@adada#a#a#a#bzbzaMaMaaaaaNaNajajaaaablblaXaXaaaaa7a7aaaaaPaPa@a@aLaLa$a$aLaLaMaMaLaLbabaaeaeaMaMa@a@a7a7aLaLaaaaa@a@bkbkaLaLa$a$bkbkaNaNaaaaaqaqaOaOaaaaaaaaaaaaaaaaaaaaajajaiaiaaaaaaaaaaaaaaaaaaaaaaaaaaaaaaaaaaaaaaaaaaaaaaaaaaaaaaaaaaaaaaaaaaaaaaaaaaaaaaaaaaaaaaaa",
"aaaaaaaaaaaaaaaaaaaaaaaaaaaaaaaaaaaaaaaaaaaaaaaaaaaaaaaaaaaaaaaaaaaaaaaaaaaaaaaaaaaaaaaaaaaaaaaaaaaaaaaaaHaHajajaaaaaaaaaXaXaXaXaaaaaOaOahahbhbhaHaHbHbHbfbfajajaaaabybyafafbybybybyaqaqaHaHalalavavavavbybyaqaqaHaHajajalalauauajajafafalalbhbhbybyaaaabybyavavaaaaaaaabLbLavavalalaXaXaaaaaOaOadadaaaaaaaaaaaaaaaaaaaaaaaaaaaaaaaaaaaaaaaaaaaaalalaXaXaaaaaaaaaaaaaaaaaaaaaaaaaaaaaaaaaaaaaaaaaaaaaaaaaaaaaaaaajajaeaeaaaaaaaaaaaaaaaaaaaaaaaaaaaaaaaaaaaaaaaaaaaaaaaaaaaaaaaaaaaaaaaaaaaaaaaaaaaaaaaaaaaaaaaaaaaaaaaaaaaaaaaaaaaaaaaaaaaaaOaOa#a#a7a7aeaeaaaaa7a7bkbkaaaaaMaMaXaXbhbhaLaLbkbkaeaea$a$aNaNaaaaalalaLaLa7a7a$a$aYaYaMaMazazaaaaa7a7aMaMaMaMa#a#bkbkaaaaazaza7a7a7a7a$a$babaadada#a#aaaaaYaYazazaXaXaaaaaaaaaaaaaXaXalalaaaaaYaYalalaaaaaaaaaaaaaaaaaaaaaaaaaaaaaaaaaaaaaaaaaaaaaaaaaaaaaaaaaaaaaaaaaaaaaaaaaaaa",
"aaaaaaaaaaaaaaaaaaaaaaaaaaaaaaaaaaaaaaaaaaaaaaaaaaaaaaaaaaaaaaaaaaaaaaaaaaaaaaaaaaaaaaaaaaaaaaaaaaaaaaaaaHaHajajaaaaaaaaaXaXaXaXaaaaaOaOahahbhbhaHaHbHbHbfbfajajaaaabybyafafbybybybyaqaqaHaHalalavavavavbybyaqaqaHaHajajalalauauajajafafalalbhbhbybyaaaabybyavavaaaaaaaabLbLavavalalaXaXaaaaaOaOadadaaaaaaaaaaaaaaaaaaaaaaaaaaaaaaaaaaaaaaaaaaaaalalaXaXaaaaaaaaaaaaaaaaaaaaaaaaaaaaaaaaaaaaaaaaaaaaaaaaaaaaaaaaajajaeaeaaaaaaaaaaaaaaaaaaaaaaaaaaaaaaaaaaaaaaaaaaaaaaaaaaaaaaaaaaaaaaaaaaaaaaaaaaaaaaaaaaaaaaaaaaaaaaaaaaaaaaaaaaaaaaaaaaaaaOaOa#a#a7a7aeaeaaaaa7a7bkbkaaaaaMaMaXaXbhbhaLaLbkbkaeaea$a$aNaNaaaaalalaLaLa7a7a$a$aYaYaMaMazazaaaaa7a7aMaMaMaMa#a#bkbkaaaaazaza7a7a7a7a$a$babaadada#a#aaaaaYaYazazaXaXaaaaaaaaaaaaaXaXalalaaaaaYaYalalaaaaaaaaaaaaaaaaaaaaaaaaaaaaaaaaaaaaaaaaaaaaaaaaaaaaaaaaaaaaaaaaaaaaaaaaaaaa",
"aaaaaaaaaaaaaaaaaaaaaaaaaaaaaaaaaaaaaaaaaaaaaaaaaaaaaaaaaaaaaaaaaaaaaaaaaaaaaaaaaaaaaaaaaaaaaaaaaaaaaaaaalalajajaaaaavavbybyaaaaaFaFaGaGakakbhbhauaubfbfbHbHaaaaananbybyananbIbIbKbKaPaPananalalavavavavbybyavavavavbhbhaeaeazazbHbHafafauauaaaabLbLbhbhauaubKbKaPaPaaaaaeaea3a3aaaaayayalalaaaaaaaaaaaaaaaaaaaaaaaaaaaaaaaaaaaaaaaaaaaaaaaaafafayayaeaeaaaaaaaaaaaaaaaaaaaaaaaaaaaaaaaaaaaaaaaaaaaaaaaaaaaaaaaaaaaaaaaaaaaaaaaaaqaqaaaaaaaaaaaaaaaaaaaaaaaaaaaaaaaaaaaaaaaaaaaaaaaaaaaaaaaaaaaaaaaaaaaaaaaaaaaaaaaaaaaaaaaaaaaaaaaaaaaaaaaaaaaaajajaNaNaaaaaaaabjbjakakaaaabkbkbkbka$a$aCaCbkbkaaaaaLaLbkbkaaaaaeaeaLaLaXaXa$a$aXaXa@a@aeaeaMaMa7a7a$a$aLaLaLaLbkbkbhbhaaaaaXaXa7a7a7a7aaaaaXaXbAbAayayaaaaadadayayaaaaaaaaaaaaaXaXajajaaaabjbjafafaaaaaaaaaaaaaaaaaaaaaaaaaaaaaaaaaaaaaaaaaaaaaaaaaaaaaaaaaaaaaaaaaaaaaaaaaaaa",
"aaaaaaaaaaaaaaaaaaaaaaaaaaaaaaaaaaaaaaaaaaaaaaaaaaaaaaaaaaaaaaaaaaaaaaaaaaaaaaaaaaaaaaaaaaaaaaaaaaaaaaaaalalajajaaaaavavbybyaaaaaFaFaGaGakakbhbhauaubfbfbHbHaaaaananbybyananbIbIbKbKaPaPananalalavavavavbybyavavavavbhbhaeaeazazbHbHafafauauaaaabLbLbhbhauaubKbKaPaPaaaaaeaea3a3aaaaayayalalaaaaaaaaaaaaaaaaaaaaaaaaaaaaaaaaaaaaaaaaaaaaaaaaafafayayaeaeaaaaaaaaaaaaaaaaaaaaaaaaaaaaaaaaaaaaaaaaaaaaaaaaaaaaaaaaaaaaaaaaaaaaaaaaaqaqaaaaaaaaaaaaaaaaaaaaaaaaaaaaaaaaaaaaaaaaaaaaaaaaaaaaaaaaaaaaaaaaaaaaaaaaaaaaaaaaaaaaaaaaaaaaaaaaaaaaaaaaaaaaajajaNaNaaaaaaaabjbjakakaaaabkbkbkbka$a$aCaCbkbkaaaaaLaLbkbkaaaaaeaeaLaLaXaXa$a$aXaXa@a@aeaeaMaMa7a7a$a$aLaLaLaLbkbkbhbhaaaaaXaXa7a7a7a7aaaaaXaXbAbAayayaaaaadadayayaaaaaaaaaaaaaXaXajajaaaabjbjafafaaaaaaaaaaaaaaaaaaaaaaaaaaaaaaaaaaaaaaaaaaaaaaaaaaaaaaaaaaaaaaaaaaaaaaaaaaaa",
"aaaaaaaaaaaaaaaaaaaaaaaaaaaaaaaaaaaaaaaaaaaaaaaaaaaaaaaaaaaaaaaaaaaaaaaaaqaqaqaqaaaaaHaHaeaeaaaaaaaaaaaaaYaYakakaaaaayayauauaaaabybybybyaaaaapapbKbKbKbKavavaaaaaeaeaeaeaaaaavavbHbHalalafafalalavavavavadadavavauauaHaHauauaaaabybyavavbybybhbhauauauauananbHbHbLbLaaaaaaaaauauazazafafadadaaaaaaaaaaaaaaaaaaaaaaaaaaaaaaaaaaaaaaaaaaaaaaaaaaaaaaaaaaaaaaaaaaaaaaaaaaaaaaaaaaaaaaaaaaaaaaaaaaaaaaaaaaaaaaaaaaaaaaaaaaaaaaaaaNaNadadaYaYaaaaaaaaaaaaaaaaaaaaaaaaaaaaaaaaaaaaaaaaaaaaaaaaaaaaaaaaaaaaaaaaaaaaaaaaaaaaaaaaa#a#a@a@aaaaaaaaaaaaaaaaayayajajaaaaalalbkbkaaaaaaaabkbkazazaLaLblblbkbkaaaaa7a7a@a@aaaaa7a7aLaLaXaXa$a$aXaXa#a#aiaiaLaLa7a7aLaLaLaLaLaLaLaLajajaaaaakakaNaNbkbkapapaaaaadadbnbnaXaXajajajajadadaaaaaPaPaeaeaaaaaHaHaeaeaaaaaaaaaaaaaHaHaiaiaaaaaaaaaaaaaaaaaaaaaaaaaaaaaaaaaaaaaaaaaaaaaaaaaaaaaaaaaaaa",
"aaaaaaaaaaaaaaaaaaaaaaaaaaaaaaaaaaaaaaaaaaaaaaaaaaaaaaaaaaaaaaaaaaaaaaaaaqaqaqaqaaaaaHaHaeaeaaaaaaaaaaaaaYaYakakaaaaayayauauaaaabybybybyaaaaapapbKbKbKbKavavaaaaaeaeaeaeaaaaavavbHbHalalafafalalavavavavadadavavauauaHaHauauaaaabybyavavbybybhbhauauauauananbHbHbLbLaaaaaaaaauauazazafafadadaaaaaaaaaaaaaaaaaaaaaaaaaaaaaaaaaaaaaaaaaaaaaaaaaaaaaaaaaaaaaaaaaaaaaaaaaaaaaaaaaaaaaaaaaaaaaaaaaaaaaaaaaaaaaaaaaaaaaaaaaaaaaaaaaNaNadadaYaYaaaaaaaaaaaaaaaaaaaaaaaaaaaaaaaaaaaaaaaaaaaaaaaaaaaaaaaaaaaaaaaaaaaaaaaaaaaaaaaaa#a#a@a@aaaaaaaaaaaaaaaaayayajajaaaaalalbkbkaaaaaaaabkbkazazaLaLblblbkbkaaaaa7a7a@a@aaaaa7a7aLaLaXaXa$a$aXaXa#a#aiaiaLaLa7a7aLaLaLaLaLaLaLaLajajaaaaakakaNaNbkbkapapaaaaadadbnbnaXaXajajajajadadaaaaaPaPaeaeaaaaaHaHaeaeaaaaaaaaaaaaaHaHaiaiaaaaaaaaaaaaaaaaaaaaaaaaaaaaaaaaaaaaaaaaaaaaaaaaaaaaaaaaaaaa",
"aaaaaaaaaaaaaaaaaaaaaaaaaaaaaaaaaaaaaaaaaaaaaaaaaaaaaaaaaaaaaaaaaaaaaaaaaiaiadadaqaqbhbhaOaOafafaaaaaaaaaXaXa@a@babaayayapapayayaGaGananaaaaauaubKbKbybyaFaFaaaaaXaXauauavavalalauauafafavavauauavavajajaPaPaPaPbHbHaPaPaXaXaaaabHbHbubuauauakakaaaabLbLaHaHauaubLbLaaaaaaaaaaaabLbLaaaaajajaaaaaaaaajajaNaNaOaOaaaaaaaaaaaaaaaaaaaaaaaaaaaaaaaaaaaaaaaaaaaaaaaaaaaaaaaaaaaaaaaaaaaaaaaaaaaaaaaaaaaaaaaaaaaaaaaaaaaaaaaaaaaaananaPaPaaaaaaaaaaaaaaaaaaaaaaaaaaaaaaaaaaaaaaaaaaaaaaaaaaaaa#a#aXaXaqaqaaaaaaaaaaaaaaaaaaaaaNaNafafaaaaaaaaaaaaaaaabkbkaaaaaaaaadadaPaPaaaaaaaaadadaaaaa7a7bBbBaLaLaaaabkbkaMaMbabaadadaLaLbkbka$a$aNaNa@a@aiaiaLaLaMaMa7a7aLaLbkbka@a@aNaNaaaabhbhadadalalbAbAbhbhaOaOasasayayapapaaaaadadafafbhbhakakaaaaapapaXaXaaaaaaaaaHaHayayaHaHaaaaananakakaaaaaaaaaaaaaaaaaaaaaaaaaaaaaaaaaaaaaaaaaaaaaaaa",
"aaaaaaaaaaaaaaaaaaaaaaaaaaaaaaaaaaaaaaaaaaaaaaaaaaaaaaaaaaaaaaaaaaaaaaaaaiaiadadaqaqbhbhaOaOafafaaaaaaaaaXaXa@a@babaayayapapayayaGaGananaaaaauaubKbKbybyaFaFaaaaaXaXauauavavalalauauafafavavauauavavajajaPaPaPaPbHbHaPaPaXaXaaaabHbHbubuauauakakaaaabLbLaHaHauaubLbLaaaaaaaaaaaabLbLaaaaajajaaaaaaaaajajaNaNaOaOaaaaaaaaaaaaaaaaaaaaaaaaaaaaaaaaaaaaaaaaaaaaaaaaaaaaaaaaaaaaaaaaaaaaaaaaaaaaaaaaaaaaaaaaaaaaaaaaaaaaaaaaaaaaananaPaPaaaaaaaaaaaaaaaaaaaaaaaaaaaaaaaaaaaaaaaaaaaaaaaaaaaaa#a#aXaXaqaqaaaaaaaaaaaaaaaaaaaaaNaNafafaaaaaaaaaaaaaaaabkbkaaaaaaaaadadaPaPaaaaaaaaadadaaaaa7a7bBbBaLaLaaaabkbkaMaMbabaadadaLaLbkbka$a$aNaNa@a@aiaiaLaLaMaMa7a7aLaLbkbka@a@aNaNaaaabhbhadadalalbAbAbhbhaOaOasasayayapapaaaaadadafafbhbhakakaaaaapapaXaXaaaaaaaaaHaHayayaHaHaaaaananakakaaaaaaaaaaaaaaaaaaaaaaaaaaaaaaaaaaaaaaaaaaaaaaaa",
"aaaaaaaaaaaaaaaaaaaaaaaaaaaaaaaaaaaaaaaaaaaaaaaaaaaaaaaaaaaaayayajajaaaaaaaaazazayayaaaaananadadapapananaeaeaaaaaPaPaeaeaaaabybyakakayayapapbKbKbKbKauauaaaaaaaaaeaeaXaXalalalalauauavavavavauauavavafafaaaaafafbHbHbhbhaOaOaOaObybybHbHavavaXaXaaaaauauauauaPaPaGaGauauaaaaaaaaaaaaaaaaaaaaaaaaaaaaalaladadaaaaaaaaaaaaaaaaaaaaaaaaaaaaaaaaaaaaaaaaaaaaaaaaaaaaaaaaaaaaaaaaaaaaaaaaazazaiaiaaaaaaaaaaaaaaaaaaaaaaaaaaaaaaaaaaaaaaaaaaaaaaaaaaaaaeaeaeaeaaaaaaaaaaaaaaaaaaaaaaaaaaaaaYaYaNaNalalaaaaaaaaaaaaaaaaaaaaa#a#bkbka@a@aaaaaaaaaaaaaNaNaNaNaaaaaaaabkbkaaaaaaaaaeaeadada$a$bkbkblblaaaaaaaabkbka@a@a#a#bkbkaMaMaNaNaaaabkbkaaaaafafa7a7aaaabkbkbhbhaNaNajajalalaaaabhbhaNaNazazatatatatalalaXaXbhbhadadaaaaayayafafbhbhazazaaaaayayaYaYaaaaaFaFadadbhbhaaaaaiaiaNaNaaaaaaaaaaaaaaaaaaaaaaaaaaaaaaaaaaaaaaaaaaaaaaaaaaaa",
"aaaaaaaaaaaaaaaaaaaaaaaaaaaaaaaaaaaaaaaaaaaaaaaaaaaaaaaaaaaaayayajajaaaaaaaaazazayayaaaaananadadapapananaeaeaaaaaPaPaeaeaaaabybyakakayayapapbKbKbKbKauauaaaaaaaaaeaeaXaXalalalalauauavavavavauauavavafafaaaaafafbHbHbhbhaOaOaOaObybybHbHavavaXaXaaaaauauauauaPaPaGaGauauaaaaaaaaaaaaaaaaaaaaaaaaaaaaalaladadaaaaaaaaaaaaaaaaaaaaaaaaaaaaaaaaaaaaaaaaaaaaaaaaaaaaaaaaaaaaaaaaaaaaaaaaazazaiaiaaaaaaaaaaaaaaaaaaaaaaaaaaaaaaaaaaaaaaaaaaaaaaaaaaaaaeaeaeaeaaaaaaaaaaaaaaaaaaaaaaaaaaaaaYaYaNaNalalaaaaaaaaaaaaaaaaaaaaa#a#bkbka@a@aaaaaaaaaaaaaNaNaNaNaaaaaaaabkbkaaaaaaaaaeaeadada$a$bkbkblblaaaaaaaabkbka@a@a#a#bkbkaMaMaNaNaaaabkbkaaaaafafa7a7aaaabkbkbhbhaNaNajajalalaaaabhbhaNaNazazatatatatalalaXaXbhbhadadaaaaayayafafbhbhazazaaaaayayaYaYaaaaaFaFadadbhbhaaaaaiaiaNaNaaaaaaaaaaaaaaaaaaaaaaaaaaaaaaaaaaaaaaaaaaaaaaaaaaaa",
"aaaaaaaaaaaaaaaaaaaaaaaaaaaaaaaaaaaaaaaaaaaaaaaaaaaaaaaaaaaaaaaaaYaYazazaaaaaaaaaXaXananaaaaavavaHaHaHaHalalaaaaaNaNazazaaaaaqaqadadafafaHaHbKbKbLbLayayaaaabhbhaNaNazazalalalalauauavavavavauaualalajajaaaaaaaaauauapapazazaeaebububLbLavavbjbjbhbhavavaGaGaaaabybybLbLaaaaaaaaaaaaaaaaaaaaaaaaaaaaaaaaaaaaaaaaaaaaaaaaaaaaaaaaaaaaaaaaaaaaaaaaaaaaaaaaaaaaaaaaaaaaaaaaaaaaaaaaaaaaaaaaaaaaaaaaaaaaaaaaaaaaaaaaaaaaaaaaaaaaaaaaaaaaaaaaaaaaaaaaajajaoaoananaaaaaaaaaaaaaaaaaaaaaaaaaaaaaaaaaaaaaaaaaaaaaaaaaaaaaaaaaaaaaaaaaaaaaaaaaaaaaaaaaOaOaaaaaaaaaaaaaeaeaaaaaaaabkbkbabaa#a#bkbkbBbBaaaaaLaLbzbzaaaaaiaiafafaaaabkbkaaaaalalaaaaajaja7a7aaaabkbkaaaaayayakakbkbkakakaaaaaiaibkbkasasararbAbAaeaeaaaaaNaNapapaOaOaHaHaHaHazazaaaaalalaaaaaaaaadadayayaaaaaNaNayayaaaaaaaaakakananaaaaaaaaaaaaaaaaaaaaaaaaaaaaaaaaaaaaaaaa",
"aaaaaaaaaaaaaaaaaaaaaaaaaaaaaaaaaaaaaaaaaaaaaaaaaaaaaaaaaaaaaaaaaYaYazazaaaaaaaaaXaXananaaaaavavaHaHaHaHalalaaaaaNaNazazaaaaaqaqadadafafaHaHbKbKbLbLayayaaaabhbhaNaNazazalalalalauauavavavavauaualalajajaaaaaaaaauauapapazazaeaebububLbLavavbjbjbhbhavavaGaGaaaabybybLbLaaaaaaaaaaaaaaaaaaaaaaaaaaaaaaaaaaaaaaaaaaaaaaaaaaaaaaaaaaaaaaaaaaaaaaaaaaaaaaaaaaaaaaaaaaaaaaaaaaaaaaaaaaaaaaaaaaaaaaaaaaaaaaaaaaaaaaaaaaaaaaaaaaaaaaaaaaaaaaaaaaaaaaaaajajaoaoananaaaaaaaaaaaaaaaaaaaaaaaaaaaaaaaaaaaaaaaaaaaaaaaaaaaaaaaaaaaaaaaaaaaaaaaaaaaaaaaaaOaOaaaaaaaaaaaaaeaeaaaaaaaabkbkbabaa#a#bkbkbBbBaaaaaLaLbzbzaaaaaiaiafafaaaabkbkaaaaalalaaaaajaja7a7aaaabkbkaaaaayayakakbkbkakakaaaaaiaibkbkasasararbAbAaeaeaaaaaNaNapapaOaOaHaHaHaHazazaaaaalalaaaaaaaaadadayayaaaaaNaNayayaaaaaaaaakakananaaaaaaaaaaaaaaaaaaaaaaaaaaaaaaaaaaaaaaaa",
"aaaaaaaaaaaaaaaaaaaaaaaaaaaaaaaaaaaaaaaaaaaaaaaaaaaaaaaaaaaaaaaaaaaaavavazazaaaaajajalalaaaaavavaHaHa@a@alalaaaaaXaXa$a$aaaaayayajajajajaeaebKbKauauafafaaaaajajadadaaaaauaualalayayauaualalauauauauavavafafaaaabjbjaqaqalalayayanana3a3auaualalaiaiapapbLbLajajaaaaa3a3alalaaaaaPaPazazaaaaaaaaaaaaaaaaaaaaaaaaaaaaaaaaaaaaaaaaaaaaaaaaaaaaaaaaaaaaaaaaaaaaaaaaaaaaaaaaaaaaaaaaaaaaaaaaaaaaaaaaaaaaaaaaaaaaaaaaaaaaaaaaaaaaaaaaaaaaaaaaaaaaaaaaaaaaajajaqaqaaaaaaaaaaaaaaaaaaaaaaaaaaaaaaaaaaaaaaaaaaaaaaaaaaaaaaaaaaaaaaaaaaaaaaaaaaaaaaaaaaaaaaaaaaaaaaaaaaaaaaaaaaaaadadaqaqa$a$bkbka7a7aaaaaMaMbjbjaaaaajajazazaaaaaNaNa@a@a@a@aaaaakakaeaeaaaabkbka#a#a7a7akakadadadadayayapapaNaNazazaiaibhbhaNaNananananaOaOaOaOafafaNaNajajaaaaaeaeaaaaakakaXaXaaaaananaNaNaaaaaqaqacacaNaNafafaaaaaaaaaaaaaaaaaaaaaaaaaaaaaaaaaaaaaaaa",
"aaaaaaaaaaaaaaaaaaaaaaaaaaaaaaaaaaaaaaaaaaaaaaaaaaaaaaaaaaaaaaaaaaaaavavazazaaaaajajalalaaaaavavaHaHa@a@alalaaaaaXaXa$a$aaaaayayajajajajaeaebKbKauauafafaaaaajajadadaaaaauaualalayayauaualalauauauauavavafafaaaabjbjaqaqalalayayanana3a3auaualalaiaiapapbLbLajajaaaaa3a3alalaaaaaPaPazazaaaaaaaaaaaaaaaaaaaaaaaaaaaaaaaaaaaaaaaaaaaaaaaaaaaaaaaaaaaaaaaaaaaaaaaaaaaaaaaaaaaaaaaaaaaaaaaaaaaaaaaaaaaaaaaaaaaaaaaaaaaaaaaaaaaaaaaaaaaaaaaaaaaaaaaaaaaaajajaqaqaaaaaaaaaaaaaaaaaaaaaaaaaaaaaaaaaaaaaaaaaaaaaaaaaaaaaaaaaaaaaaaaaaaaaaaaaaaaaaaaaaaaaaaaaaaaaaaaaaaaaaaaaaaaadadaqaqa$a$bkbka7a7aaaaaMaMbjbjaaaaajajazazaaaaaNaNa@a@a@a@aaaaakakaeaeaaaabkbka#a#a7a7akakadadadadayayapapaNaNazazaiaibhbhaNaNananananaOaOaOaOafafaNaNajajaaaaaeaeaaaaakakaXaXaaaaananaNaNaaaaaqaqacacaNaNafafaaaaaaaaaaaaaaaaaaaaaaaaaaaaaaaaaaaaaaaa",
"aaaaaaaaaaaaaaaaaaaaaaaaaaaaaaaaaaaaaaaaaaaaaeaeaNaNa@a@aaaaafafajajaaaaavavaYaYaaaaaXaXaaaaavava5a5a@a@aeaeaaaaaPaPaaaaaOaOakakaaaaaNaNacacbLbLaFaFajajaNaNaPaPadadaaaabybyaHaHaaaabybyaPaPaaaaauauavavbybyaaaabjbjaqaqalalayayaaaaahahauaualalajajaaaabybyaOaOaaaaahahaeaeaaaaalaladadaaaaaaaaaaaaaaaaaaaaaaaaaaaaaaaaaaaaaaaaaaaaaaaaaaaaaaaaaaaaaaaaaaaaaaaaaaaaaaaaaaaaaaaaaaaaaaaaaaaaazazaeaeaaaaaaaaaaaaaaaaaaaaaaaaaaaaaaaaaaaaaaaaaaaaaaaaaaaaaaaaaaaaaaaaaaaaaaaaaaaaaaaaaaaaaaaaaaaaaaaaaaaaaaaaaaaaaaaaaaaaaaaaaaaaaaaaaaaaaaaaaaaaaaaaaaaaaaaaaaaaaaaaaaaaa@a@babaa#a#blblananaaaaa7a7alalaaaaaOaOalalaaaaaXaXazazaOaOaaaaaYaYaeaeaaaabkbkaMaMaLaLaMaMaqaqaaaaadadbAbAaXaXapapayayaaaaakakaXaXaHaHaeaeaOaOakakadadaaaabhbhapapaaaabjbjaiaiapapalalaaaaalalaNaNajajaaaaaaaaaaaaaaaaaaaaaaaaaaaaaaaaaaaaaaaaaaaaaaaa",
"aaaaaaaaaaaaaaaaaaaaaaaaaaaaaaaaaaaaaaaaaaaaaeaeaNaNa@a@aaaaafafajajaaaaavavaYaYaaaaaXaXaaaaavava5a5a@a@aeaeaaaaaPaPaaaaaOaOakakaaaaaNaNacacbLbLaFaFajajaNaNaPaPadadaaaabybyaHaHaaaabybyaPaPaaaaauauavavbybyaaaabjbjaqaqalalayayaaaaahahauaualalajajaaaabybyaOaOaaaaahahaeaeaaaaalaladadaaaaaaaaaaaaaaaaaaaaaaaaaaaaaaaaaaaaaaaaaaaaaaaaaaaaaaaaaaaaaaaaaaaaaaaaaaaaaaaaaaaaaaaaaaaaaaaaaaaaazazaeaeaaaaaaaaaaaaaaaaaaaaaaaaaaaaaaaaaaaaaaaaaaaaaaaaaaaaaaaaaaaaaaaaaaaaaaaaaaaaaaaaaaaaaaaaaaaaaaaaaaaaaaaaaaaaaaaaaaaaaaaaaaaaaaaaaaaaaaaaaaaaaaaaaaaaaaaaaaaaaaaaaaaaa@a@babaa#a#blblananaaaaa7a7alalaaaaaOaOalalaaaaaXaXazazaOaOaaaaaYaYaeaeaaaabkbkaMaMaLaLaMaMaqaqaaaaadadbAbAaXaXapapayayaaaaakakaXaXaHaHaeaeaOaOakakadadaaaabhbhapapaaaabjbjaiaiapapalalaaaaalalaNaNajajaaaaaaaaaaaaaaaaaaaaaaaaaaaaaaaaaaaaaaaaaaaaaaaa",
"aaaaaaaaaaaaaaaaaaaaaaaaaaaaaaaaaaaaaaaaaaaaaqaqaeaeayayaiaiaaaaaOaOanana5a5alalbabaaMaMaYaYavavafafaNaNakakaaaaaaaabhbhaeaeaMaMapapalalbhbhaHaHajajazazbhbhazazbybyaaaabIbIaaaaaaaabybyananaaaabybyalalbybyaaaabjbjapapakakbybybhbhakakbybyapapauaualalaeaeazazaaaaaeaeaeaeaaaaajajaXaXaaaaaaaaaaaaaaaaaaaaaaaaaaaaaaaaaaaaaaaaaaaaaaaaaaaaaaaaaaaaaaaaaaaaaaaaaaaaaaaaaaaaaaaaaaaaaaaaaaaaaaaaaNaNaYaYaaaaaaaaaaaaaaaaaOaOaXaXaaaaaaaaaaaaaaaaaaaaaaaaaaaaaaaaaaaaaaaaaaaaaaaaaaaaaaaaaaaaaaaaaaaaaaaaaaaaaaaaaaaaaaaaaaaaaaaaaaaaaaaaaaaaaaaaa#a#bkbkaiaiaaaaaaaaaaaaaaaaa@a@akakalalaPaPaaaaaeaeajajaaaaaOaOalalaaaaaaaaalala7a7aaaaazazaeaeaaaaakakaNaNaLaLbkbkaaaaaaaaaaaaafafaNaNbhbhbybyadadaaaaalalananapapafafaPaPayayaaaaaaaaaHaHaHaHaPaPbhbhalalaaaaaOaObybybhbhaaaaaaaaaaaaaaaaaaaaaaaaaaaaaaaaaaaaaaaaaaaaaaaaaaaa",
"aaaaaaaaaaaaaaaaaaaaaaaaaaaaaaaaaaaaaaaaaaaaaqaqaeaeayayaiaiaaaaaOaOanana5a5alalbabaaMaMaYaYavavafafaNaNakakaaaaaaaabhbhaeaeaMaMapapalalbhbhaHaHajajazazbhbhazazbybyaaaabIbIaaaaaaaabybyananaaaabybyalalbybyaaaabjbjapapakakbybybhbhakakbybyapapauaualalaeaeazazaaaaaeaeaeaeaaaaajajaXaXaaaaaaaaaaaaaaaaaaaaaaaaaaaaaaaaaaaaaaaaaaaaaaaaaaaaaaaaaaaaaaaaaaaaaaaaaaaaaaaaaaaaaaaaaaaaaaaaaaaaaaaaaNaNaYaYaaaaaaaaaaaaaaaaaOaOaXaXaaaaaaaaaaaaaaaaaaaaaaaaaaaaaaaaaaaaaaaaaaaaaaaaaaaaaaaaaaaaaaaaaaaaaaaaaaaaaaaaaaaaaaaaaaaaaaaaaaaaaaaaaaaaaaaaa#a#bkbkaiaiaaaaaaaaaaaaaaaaa@a@akakalalaPaPaaaaaeaeajajaaaaaOaOalalaaaaaaaaalala7a7aaaaazazaeaeaaaaakakaNaNaLaLbkbkaaaaaaaaaaaaafafaNaNbhbhbybyadadaaaaalalananapapafafaPaPayayaaaaaaaaaHaHaHaHaPaPbhbhalalaaaaaOaObybybhbhaaaaaaaaaaaaaaaaaaaaaaaaaaaaaaaaaaaaaaaaaaaaaaaaaaaa",
"aaaaaaaaaaaaaaaaaaaaaaaaaaaaaaaaaaaaaaaaaaaaaaaaaaaaakakalalaiaiaaaaauauaiaiaHaHa@a@a#a#akakakakajajalalaaaababaaaaaajajaYaYaaaaalalaiaiaHaHadadazazaaaaaaaabLbLaFaFaaaabLbLapapaaaaadadaPaPaaaaaOaOajajadadaaaaaeaeaeaeaaaabybyalalaaaaaXaXaeaeaaaabybyaaaaaaaaaaaaaaaaaaaaaaaaaaaaaaaaaaaaaaaaaaaaaaaaaaaaaaaaaaaaaaaaaaaaaaaaaaaaaXaXaaaaaaaaaaaaaaaaaaaaaaaaaaaaaaaaaaaaaaaaaaaaaaaaaaaaaaaaaaaaaaaaaaaaaaaaaaaaaaaaaPaPakakaaaaaaaaaaaaaaaaaaaaaaaaaaaaaaaaa@a@aaaaaaaaaaaaaaaaaaaaaaaaaaaaaaaaaaaaaaaaaaaaaaaaaaaaaaaaaaaaaaaaaaaaaaaaaaaaa#a#bkbkaPaPaaaaaaaaaaaaajaja@a@alalaaaaaaaaaaaaaeaeakakaaaaakakaOaOaaaaaaaaalalaYaYaaaaaOaOaeaeaaaaaHaHajajaeaebAbAaOaOaPaPbhbhaaaabhbhalalaHaHaNaNajajananananbhbhaiaiapapaNaNaaaaafafaiaiaPaPapapaeaebhbhazazaNaNaaaaaaaaaaaaaaaaazazaeaeananaaaaaaaaaaaaaaaaaaaaaaaaaaaaaaaa",
"aaaaaaaaaaaaaaaaaaaaaaaaaaaaaaaaaaaaaaaaaaaaaaaaaaaaakakalalaiaiaaaaauauaiaiaHaHa@a@a#a#akakakakajajalalaaaababaaaaaajajaYaYaaaaalalaiaiaHaHadadazazaaaaaaaabLbLaFaFaaaabLbLapapaaaaadadaPaPaaaaaOaOajajadadaaaaaeaeaeaeaaaabybyalalaaaaaXaXaeaeaaaabybyaaaaaaaaaaaaaaaaaaaaaaaaaaaaaaaaaaaaaaaaaaaaaaaaaaaaaaaaaaaaaaaaaaaaaaaaaaaaaXaXaaaaaaaaaaaaaaaaaaaaaaaaaaaaaaaaaaaaaaaaaaaaaaaaaaaaaaaaaaaaaaaaaaaaaaaaaaaaaaaaaPaPakakaaaaaaaaaaaaaaaaaaaaaaaaaaaaaaaaa@a@aaaaaaaaaaaaaaaaaaaaaaaaaaaaaaaaaaaaaaaaaaaaaaaaaaaaaaaaaaaaaaaaaaaaaaaaaaaaa#a#bkbkaPaPaaaaaaaaaaaaajaja@a@alalaaaaaaaaaaaaaeaeakakaaaaakakaOaOaaaaaaaaalalaYaYaaaaaOaOaeaeaaaaaHaHajajaeaebAbAaOaOaPaPbhbhaaaabhbhalalaHaHaNaNajajananananbhbhaiaiapapaNaNaaaaafafaiaiaPaPapapaeaebhbhazazaNaNaaaaaaaaaaaaaaaaazazaeaeananaaaaaaaaaaaaaaaaaaaaaaaaaaaaaaaa",
"aaaaaaaaaaaaaaaaaaaaaaaaaaaaaaaaaaaaaaaaaaaaaaaaaaaaaaaaaaaaazazaHaHaPaPaNaNaaaaafafa#a#babaalalafafaeaeaaaaaaaababaajajapapajajananaqaqalalajajaaaaaaaabhbhadadaaaaaaaabIbIapapaaaabjbjaiaiaaaaaaaaaaaaadadajajaiaibjbjaaaaadadaOaOaaaaaNaNalalaaaabybyaaaaaaaaaaaaaaaaaaaaaaaaaaaaaaaaaaaaaaaaaaaaaaaaaaaaaFaFaaaaaaaaaaaaapapaNaNavavaaaaaaaaaaaaaaaaaaaaaaaaaaaaaaaaaaaaaaaaaaaaaaaaaaaaaaaaaaaaaaaaaaaaaaaaaaaaaaaaaaaaaaaaaaaaaaaaaaaaaaaaaaaaaaaaaaaaaPaPayaya7a7aaaaaaaaaaaaaaaaaaaaaaaaaaaaaaaaaaaaaaaaaaaaaaaaaaaaaaaaaaaaaaaaaaaaaaaaaaaaaeaeajajaaaaaaaaaaaaafafaNaNaeaeaaaaaaaaaaaaaeaeaYaYaaaaajajazazaaaaaaaaalalazazaaaaakakalalaaaaaaaaaaaaa7a7a7a7aYaYaXaXayayadadaPaPaaaaaOaOaqaqaiaibhbhakakbhbhafafaqaqayayaaaaadadajajajajaaaaaHaHalalalalaaaaaaaaaHaHadadaHaHakakalalaHaHaaaaaaaaaaaaaaaaaaaaaaaaaaaaaaaa",
"aaaaaaaaaaaaaaaaaaaaaaaaaaaaaaaaaaaaaaaaaaaaaaaaaaaaaaaaaaaaazazaHaHaPaPaNaNaaaaafafa#a#babaalalafafaeaeaaaaaaaababaajajapapajajananaqaqalalajajaaaaaaaabhbhadadaaaaaaaabIbIapapaaaabjbjaiaiaaaaaaaaaaaaadadajajaiaibjbjaaaaadadaOaOaaaaaNaNalalaaaabybyaaaaaaaaaaaaaaaaaaaaaaaaaaaaaaaaaaaaaaaaaaaaaaaaaaaaaFaFaaaaaaaaaaaaapapaNaNavavaaaaaaaaaaaaaaaaaaaaaaaaaaaaaaaaaaaaaaaaaaaaaaaaaaaaaaaaaaaaaaaaaaaaaaaaaaaaaaaaaaaaaaaaaaaaaaaaaaaaaaaaaaaaaaaaaaaaaPaPayaya7a7aaaaaaaaaaaaaaaaaaaaaaaaaaaaaaaaaaaaaaaaaaaaaaaaaaaaaaaaaaaaaaaaaaaaaaaaaaaaaeaeajajaaaaaaaaaaaaafafaNaNaeaeaaaaaaaaaaaaaeaeaYaYaaaaajajazazaaaaaaaaalalazazaaaaakakalalaaaaaaaaaaaaa7a7a7a7aYaYaXaXayayadadaPaPaaaaaOaOaqaqaiaibhbhakakbhbhafafaqaqayayaaaaadadajajajajaaaaaHaHalalalalaaaaaaaaaHaHadadaHaHakakalalaHaHaaaaaaaaaaaaaaaaaaaaaaaaaaaaaaaa",
"aaaaaaaaaaaaaaaaaaaaaaaaaaaaaaaaaaaaajajaNaNazaza@a@aYaYaPaPaaaaakakbabaaiaiajajbhbhakakbhbhaOaOa@a@aeaeaaaaaeaeaiaiananaaaababaa@a@aOaObhbhaaaaa$a$a@a@ajajacacaeaeaaaabjbjapapaaaaadadaiaiaaaaaaaaaaaabybyalalalalayayaaaaayayakakaaaaaaaaayayakakbybyaaaaaaaaaaaaaaaaaaaaaaaaaaaaaaaaaaaaaaaaaaaaaaaaaaaaaiaiaqaqaaaaaaaaaaaaaFaFaaaaaaaaaaaaaaaaaaaaaaaaaaaaaaaaaaaaaaaaaaaaaaaaaaaaaaaaaaaaaaaaaaaaaaaaaaaaaaaaaaaaaaaaaaaaaaaaaaaaaaaaaaaaaaaaaaaaaaaaaaaaazazbkbkaaaaaaaaaaaaaaaaaaaaaaaaavavayayaaaaaaaaaaaaaaaaaaaaaaaaaaaaaaaaaaaaaaaaaaaaa$a$aaaaaaaaaaaaaaaaaaaabzbzaeaeaaaaaaaaaaaaaaaaaaaaaaaaaaaaaOaOaHaHaaaaazazakakaaaaaaaaaaaaaaaaaHaHaaaaaNaNaqaqaaaaaaaabhbhararbAbAananapapasasalalaHaHaHaHaaaaajajaiaiakakakakalalaaaaaaaaakakaeaealalaaaaaaaaayayaXaXafafaHaHaqaqayayadadaeaeaaaaaaaaaaaaaaaaaaaaaaaaaaaa",
"aaaaaaaaaaaaaaaaaaaaaaaaaaaaaaaaaaaaajajaNaNazaza@a@aYaYaPaPaaaaakakbabaaiaiajajbhbhakakbhbhaOaOa@a@aeaeaaaaaeaeaiaiananaaaababaa@a@aOaObhbhaaaaa$a$a@a@ajajacacaeaeaaaabjbjapapaaaaadadaiaiaaaaaaaaaaaabybyalalalalayayaaaaayayakakaaaaaaaaayayakakbybyaaaaaaaaaaaaaaaaaaaaaaaaaaaaaaaaaaaaaaaaaaaaaaaaaaaaaiaiaqaqaaaaaaaaaaaaaFaFaaaaaaaaaaaaaaaaaaaaaaaaaaaaaaaaaaaaaaaaaaaaaaaaaaaaaaaaaaaaaaaaaaaaaaaaaaaaaaaaaaaaaaaaaaaaaaaaaaaaaaaaaaaaaaaaaaaaaaaaaaaaazazbkbkaaaaaaaaaaaaaaaaaaaaaaaaavavayayaaaaaaaaaaaaaaaaaaaaaaaaaaaaaaaaaaaaaaaaaaaaa$a$aaaaaaaaaaaaaaaaaaaabzbzaeaeaaaaaaaaaaaaaaaaaaaaaaaaaaaaaOaOaHaHaaaaazazakakaaaaaaaaaaaaaaaaaHaHaaaaaNaNaqaqaaaaaaaabhbhararbAbAananapapasasalalaHaHaHaHaaaaajajaiaiakakakakalalaaaaaaaaakakaeaealalaaaaaaaaayayaXaXafafaHaHaqaqayayadadaeaeaaaaaaaaaaaaaaaaaaaaaaaaaaaa",
"aaaaaaaaaaaaaaaaaaaaaaaaaaaaaaaaaaaaaaaaaaaaa@a@aNaNaOaOayayaOaOaaaaajaja#a#afafaHaHaHaHaaaaaiaia@a@alalakakakakaaaaaaaaaaaaaPaPalalaaaaaaaaaiaiaYaYaNaNaqaqayayajajaPaPbjbjaaaaaaaaadadananaaaaaaaaaaaabybyaaaaaaaaaaaaaaaaaaaaaaaaaaaaaaaaaeaeavavbybyaaaaaaaaaaaaaaaaaaaaaaaaaaaaaaaaaaaaaaaaaaaaaaaaaaaaaaaaaaaaaaaaaaaaaaaaaaaaaaaaaaaaaaaaaaaaaaaaaaaaaaaaaaaaaaaaaaaaaaaaaaaaaaaaaaaaaaaaaaaaaaaaaaaaaaaaaaaaaaaaaaaaaaaaaaaaaaaaaaaaaaaaaaaaaaaaaaaaaaaaaaaaaaaaaaaaaaaaaaaaaaaaaaaaaaaaaaaaaeaeauauaPaPaaaaaaaaaaaaaaaaaaaaafafaaaaaaaaaaaaaaaaaaaaaaaaaaaaaaaaaaaaaXaXaYaYaaaaaaaaaaaaaaaaaaaaaaaaaaaaakakaHaHaaaaaaaaaaaaaaaaaaaaaaaaaaaaaXaXaNaNaNaNbkbkaXaXajajajajaaaabhbhalalaOaOaYaYapapaaaaadadananaPaPananafafaNaNajajaaaaaXaXaOaOafafaaaaaaaaajajakakaPaPaPaPazazalalaaaaaaaaaaaaaaaaaaaaaaaaaaaaaaaaaaaaaaaa",
"aaaaaaaaaaaaaaaaaaaaaaaaaaaaaaaaaaaaaaaaaaaaa@a@aNaNaOaOayayaOaOaaaaajaja#a#afafaHaHaHaHaaaaaiaia@a@alalakakakakaaaaaaaaaaaaaPaPalalaaaaaaaaaiaiaYaYaNaNaqaqayayajajaPaPbjbjaaaaaaaaadadananaaaaaaaaaaaabybyaaaaaaaaaaaaaaaaaaaaaaaaaaaaaaaaaeaeavavbybyaaaaaaaaaaaaaaaaaaaaaaaaaaaaaaaaaaaaaaaaaaaaaaaaaaaaaaaaaaaaaaaaaaaaaaaaaaaaaaaaaaaaaaaaaaaaaaaaaaaaaaaaaaaaaaaaaaaaaaaaaaaaaaaaaaaaaaaaaaaaaaaaaaaaaaaaaaaaaaaaaaaaaaaaaaaaaaaaaaaaaaaaaaaaaaaaaaaaaaaaaaaaaaaaaaaaaaaaaaaaaaaaaaaaaaaaaaaaaeaeauauaPaPaaaaaaaaaaaaaaaaaaaaafafaaaaaaaaaaaaaaaaaaaaaaaaaaaaaaaaaaaaaXaXaYaYaaaaaaaaaaaaaaaaaaaaaaaaaaaaakakaHaHaaaaaaaaaaaaaaaaaaaaaaaaaaaaaXaXaNaNaNaNbkbkaXaXajajajajaaaabhbhalalaOaOaYaYapapaaaaadadananaPaPananafafaNaNajajaaaaaXaXaOaOafafaaaaaaaaajajakakaPaPaPaPazazalalaaaaaaaaaaaaaaaaaaaaaaaaaaaaaaaaaaaaaaaa",
"aaaaaaaaaaaaaaaaaaaaaaaaaaaaazazaOaOazazananbhbhaaaaaaaaajajaXaXaeaeaaaaa@a@apapapapakakaaaaakakafafaOaOakakakakaaaaaHaHafafajajaaaaaaaaajajazazakakafafakakaeaeazazaYaYakakaaaaaaaaaPaPaaaaaaaaaaaaaaaabjbjaaaaaaaaaaaaaaaaaaaaaaaaaaaaaaaaaaaaaaaaaeaeananaaaaaaaaaaaaakakafafaaaaaaaaaaaaaaaaaaaaaaaaaaaaaaaaaaaaaaaaaaaaaaaaaaaaaaaaaaaaaaaaaaaaaaaaaaaaaaaaaaaaaaaaaaaaaaaaaaaaaaaaaaaaaaaaaaaaaaaaaaaaaaaaaaaaaaaaaaaaaaaaaaaaa@a@aOaOaaaaaaaaaaaaaaaaaaaaaaaaaaaaaaaaaaaaaaaaaaaaaaaaaaaaaaaaaaaaaaaaaaaaaaaaaaaaaaaaaaaaa#a#acacadadaaaaaaaaaaaaaaaaaaaaaaaaaaaaaaaaaaaaaaaaaaaaaaaaaaaaaaaaaaaaaaaaaaaaaaaaaaaaaaaaaaaaaaaaaaaaaaaaaaaaaaaaaaaaaaaaaaaaalalaeaeaeaealalaeaeakakaaaaaaaaayayakakaaaabhbhayayakakbhbhafafayayaaaaaXaXaXaXaaaaaqaqaNaNalalaPaPaOaOajajajajajajalalaXaXaeaeaaaaaaaaaaaaaaaaaaaaaaaaaaaaaaaa",
"aaaaaaaaaaaaaaaaaaaaaaaaaaaaazazaOaOazazananbhbhaaaaaaaaajajaXaXaeaeaaaaa@a@apapapapakakaaaaakakafafaOaOakakakakaaaaaHaHafafajajaaaaaaaaajajazazakakafafakakaeaeazazaYaYakakaaaaaaaaaPaPaaaaaaaaaaaaaaaabjbjaaaaaaaaaaaaaaaaaaaaaaaaaaaaaaaaaaaaaaaaaeaeananaaaaaaaaaaaaakakafafaaaaaaaaaaaaaaaaaaaaaaaaaaaaaaaaaaaaaaaaaaaaaaaaaaaaaaaaaaaaaaaaaaaaaaaaaaaaaaaaaaaaaaaaaaaaaaaaaaaaaaaaaaaaaaaaaaaaaaaaaaaaaaaaaaaaaaaaaaaaaaaaaaaaa@a@aOaOaaaaaaaaaaaaaaaaaaaaaaaaaaaaaaaaaaaaaaaaaaaaaaaaaaaaaaaaaaaaaaaaaaaaaaaaaaaaaaaaaaaaa#a#acacadadaaaaaaaaaaaaaaaaaaaaaaaaaaaaaaaaaaaaaaaaaaaaaaaaaaaaaaaaaaaaaaaaaaaaaaaaaaaaaaaaaaaaaaaaaaaaaaaaaaaaaaaaaaaaaaaaaaaaalalaeaeaeaealalaeaeakakaaaaaaaaayayakakaaaabhbhayayakakbhbhafafayayaaaaaXaXaXaXaaaaaqaqaNaNalalaPaPaOaOajajajajajajalalaXaXaeaeaaaaaaaaaaaaaaaaaaaaaaaaaaaaaaaa",
"aaaaaaaaaaaaaaaaaaaaaaaaaaaaaPaPafafafafaeaeauauaXaXaXaXaaaabhbhaHaHapapaOaOaaaaaaaaaYaYajajakakaiaiajajazazbhbhapapaXaXaqaqaaaaananakakaiaialalakakananajajaPaPaaaaaaaaaaaaaaaaaaaaaaaaaaaaaaaaaaaaaaaaaiaiaaaaaaaaaaaaaaaaaaaaaaaaaaaaaaaaaaaaaaaaakakaNaNaaaaaaaaaaaaadadaeaeaaaaaaaaaaaaaaaaaaaaaaaaaaaaaaaaaaaaaaaaaaaaaaaaaaaaaaaaaaaaaaaaaaaaaaaaaaaaaaaaaaaaaaaaaaaaaaaaaaaaaaaaaaaaaaaaaiaiaYaYaaaaaaaaaaaaaaaaaaaaaaaaa@a@bkbkaLaLaaaaaaaaaaaaaaaaaaaaaaaaaaaabhbhauauafafaaaaaaaaaaaaaaaaaaaaaaaaaaaaaaaaaaaaaaaaaaaaaaaaaiaiajajaaaaaaaaaaaaaaaaaaaaaHaHayayaHaHaaaaaaaaaaaaaaaaaaaaaaaaaaaaaaaaaaaaaOaOananaaaaaaaaaaaaaaaaaaaaaaaaaaaaaaaaalalaOaOaaaaaaaaaaaaaaaaakakaiaiakakaqaqaaaaaeaealalaaaaaOaOaNaNaaaaakakaNaNaaaaadadaaaaafafbAbAalalananbhbhbhbhaeaeazazafafazazaYaYazazaaaaaaaaaaaaaaaaaaaaaaaaaaaaaaaa",
"aaaaaaaaaaaaaaaaaaaaaaaaaaaaaPaPafafafafaeaeauauaXaXaXaXaaaabhbhaHaHapapaOaOaaaaaaaaaYaYajajakakaiaiajajazazbhbhapapaXaXaqaqaaaaananakakaiaialalakakananajajaPaPaaaaaaaaaaaaaaaaaaaaaaaaaaaaaaaaaaaaaaaaaiaiaaaaaaaaaaaaaaaaaaaaaaaaaaaaaaaaaaaaaaaaakakaNaNaaaaaaaaaaaaadadaeaeaaaaaaaaaaaaaaaaaaaaaaaaaaaaaaaaaaaaaaaaaaaaaaaaaaaaaaaaaaaaaaaaaaaaaaaaaaaaaaaaaaaaaaaaaaaaaaaaaaaaaaaaaaaaaaaaaiaiaYaYaaaaaaaaaaaaaaaaaaaaaaaaa@a@bkbkaLaLaaaaaaaaaaaaaaaaaaaaaaaaaaaabhbhauauafafaaaaaaaaaaaaaaaaaaaaaaaaaaaaaaaaaaaaaaaaaaaaaaaaaiaiajajaaaaaaaaaaaaaaaaaaaaaHaHayayaHaHaaaaaaaaaaaaaaaaaaaaaaaaaaaaaaaaaaaaaOaOananaaaaaaaaaaaaaaaaaaaaaaaaaaaaaaaaalalaOaOaaaaaaaaaaaaaaaaakakaiaiakakaqaqaaaaaeaealalaaaaaOaOaNaNaaaaakakaNaNaaaaadadaaaaafafbAbAalalananbhbhbhbhaeaeazazafafazazaYaYazazaaaaaaaaaaaaaaaaaaaaaaaaaaaaaaaa",
"aaaaaaaaaaaaaaaaaaaaaaaaaaaaaaaaaaaaaaaaaaaaaaaaaaaaaaaaaOaOakakbabaaaaaajajalalbhbhbhbhaeaebhbhaaaaakakaOaOaaaaaNaNaqaqaaaaaNaNaeaebhbhbabaa@a@aPaPaPaPalalaOaOaeaealalapapaaaaaaaaaaaaaaaaaeaeaNaNaaaaaaaaaaaaaaaaaaaaaaaaaaaaaaaaaaaaaaaaaaaaaaaaaOaOayayaaaaaaaaaaaaaaaaaaaaaaaaaaaaaaaaaaaaaaaaaaaaaaaaaaaaaaaaaaaaaaaaaaaaaaaaaaaaaaaaaaaaaaaaaaaaaaaaananaaaaaaaaaaaaaaaaaaaaaaaaaaaaaaaaazazayayaaaaaaaaaaaaaaaaaaaaaaaaaaaaa#a#aaaaaaaaaaaaaaaaaaaaaaaaaaaaaaaaaaaaavavbvbvaaaaaaaaaaaaaaaaaaaaaaaaaaaaaaaaaaaaaaaaaaaaaaaaaaaaaaaaaaaaaaaaaaaaaaaaaaaaaaaaaNaNakakaaaaaaaaaaaaaaaaaaaaaaaaaaaaaaaaaaaaalalananaaaaaaaaaaaaaaaaaaaaaaaaaeaeayayadadadadaXaXaNaNaeaeaeaealalajajbhbhadadananaaaaananafafapapaNaNazazaaaabhbhaNaNaXaXaiaiayayaHaHaaaaaaaaaHaHananbhbhbhbhapapaOaOaXaXbybyadadaPaPaaaaaaaaaaaaaaaaaaaaaaaa",
"aaaaaaaaaaaaaaaaaaaaaaaaaaaaaaaaaaaaaaaaaaaaaaaaaaaaaaaaaOaOakakbabaaaaaajajalalbhbhbhbhaeaebhbhaaaaakakaOaOaaaaaNaNaqaqaaaaaNaNaeaebhbhbabaa@a@aPaPaPaPalalaOaOaeaealalapapaaaaaaaaaaaaaaaaaeaeaNaNaaaaaaaaaaaaaaaaaaaaaaaaaaaaaaaaaaaaaaaaaaaaaaaaaOaOayayaaaaaaaaaaaaaaaaaaaaaaaaaaaaaaaaaaaaaaaaaaaaaaaaaaaaaaaaaaaaaaaaaaaaaaaaaaaaaaaaaaaaaaaaaaaaaaaaananaaaaaaaaaaaaaaaaaaaaaaaaaaaaaaaaazazayayaaaaaaaaaaaaaaaaaaaaaaaaaaaaa#a#aaaaaaaaaaaaaaaaaaaaaaaaaaaaaaaaaaaaavavbvbvaaaaaaaaaaaaaaaaaaaaaaaaaaaaaaaaaaaaaaaaaaaaaaaaaaaaaaaaaaaaaaaaaaaaaaaaaaaaaaaaaNaNakakaaaaaaaaaaaaaaaaaaaaaaaaaaaaaaaaaaaaalalananaaaaaaaaaaaaaaaaaaaaaaaaaeaeayayadadadadaXaXaNaNaeaeaeaealalajajbhbhadadananaaaaananafafapapaNaNazazaaaabhbhaNaNaXaXaiaiayayaHaHaaaaaaaaaHaHananbhbhbhbhapapaOaOaXaXbybyadadaPaPaaaaaaaaaaaaaaaaaaaaaaaa",
"aaaaaaaaaaaaaaaaaaaaaaaaaPaPakakakakakakajajakakajajakakajajaaaaaPaPajajaaaaapapaXaXaiaiaHaHaXaXbhbhafafakakaXaXafafaaaaayayaXaXaaaaa#a#aPaPaiaialalazazaiaiajajajajaYaYaaaaaaaaaaaaaaaaaaaaajajaYaYaaaaaaaaaaaaacacajajaaaaaaaaaaaaaaaaaaaaaaaaaaaaalalayayaaaaaaaaaaaaaaaaaaaaaaaaaaaaaaaaaaaaaaaaaaaaaaaaaaaaaaaaaaaaaaaaaaaaaaaaaaaaaaaaaaaaaaaaaaaaananbjbjaNaNazazaaaaaaaaalalaoaobjbjaHaHaHaHajajaaaaaaaaaaaaaaaaaaaaaaaaaaaaaaaaaaaaaaaaaaaaaaaaaaaaaaaaaaaaaaaaaaaaaaaaaaaaauaubybyauaubxbxauauauaubybybybyauaubybyauaubybyauaubybya6a6aaaaaaaaaaaaaaaaaaaaajajaiaiaaaaaaaaaaaaaaaaaaaaaaaaaaaaaaaaaaaaaaaaaaaaaaaaaXaXalalaaaaaaaaaaaaaaaaaaaaaaaaaaaaaaaaaaaaaaaaaaaaaaaaaHaHaqaqalalacacadadaOaOaYaYananbhbhadadbhbhaNaNararaPaPaHaHaaaaananajajajajajajajajazazaOaOazazaaaaaaaaaaaaananayayakakaaaaaaaaaaaaaaaaaaaa",
"aaaaaaaaaaaaaaaaaaaaaaaaaPaPakakakakakakajajakakajajakakajajaaaaaPaPajajaaaaapapaXaXaiaiaHaHaXaXbhbhafafakakaXaXafafaaaaayayaXaXaaaaa#a#aPaPaiaialalazazaiaiajajajajaYaYaaaaaaaaaaaaaaaaaaaaajajaYaYaaaaaaaaaaaaacacajajaaaaaaaaaaaaaaaaaaaaaaaaaaaaalalayayaaaaaaaaaaaaaaaaaaaaaaaaaaaaaaaaaaaaaaaaaaaaaaaaaaaaaaaaaaaaaaaaaaaaaaaaaaaaaaaaaaaaaaaaaaaaananbjbjaNaNazazaaaaaaaaalalaoaobjbjaHaHaHaHajajaaaaaaaaaaaaaaaaaaaaaaaaaaaaaaaaaaaaaaaaaaaaaaaaaaaaaaaaaaaaaaaaaaaaaaaaaaaaauaubybyauaubxbxauauauaubybybybyauaubybyauaubybyauaubybya6a6aaaaaaaaaaaaaaaaaaaaajajaiaiaaaaaaaaaaaaaaaaaaaaaaaaaaaaaaaaaaaaaaaaaaaaaaaaaXaXalalaaaaaaaaaaaaaaaaaaaaaaaaaaaaaaaaaaaaaaaaaaaaaaaaaHaHaqaqalalacacadadaOaOaYaYananbhbhadadbhbhaNaNararaPaPaHaHaaaaananajajajajajajajajazazaOaOazazaaaaaaaaaaaaananayayakakaaaaaaaaaaaaaaaaaaaa",
"aaaaaaaaaaaaaaaaaaaaaaaaafafakakakakakakaYaYakakakakazazakakakakaiaibjbjaNaNafafbhbhajajaqaqaOaOayayaaaaajajaeaeaaaaakakakakaaaaaaaababaaiaia@a@aaaaaaaaa@a@akakazazazazajajaeaeaPaPaaaaaaaaaaaaaaaaaaaaaaaaaaaaakakaaaaaaaaaaaaaaaaaaaaaaaaaaaaaaaaananaPaPaaaaaaaaaaaaaaaaaaaaaaaaaaaaaaaaaaaaaaaaaaaaaaaaaaaaaaaaaaaaaaaaaaaaaaaaaaaaaaaaadadalalananbhbhadadababamamaaaaaqaqayayababababaeaeadada)a)akakaaaaaaaaaaaaaaaaaaaaaaaaaaaaaaaaaaaaaaaaaaaaaaaaaaaaaaaaaaaaaPaPbIbIbHbHbHbHbHbHbGbGbHbHbHbHbHbHbHbHbGbGbHbHbHbHbHbHbHbHbGbGbfbfbLbLbybya5a5aaaaaaaaaaaaaaaaaaaaaaaaaaaaaaaaaaaaaaaaaaaaaaaaaaaaaaaaaaaaaaaaaaaaakakajajaaaaaaaaaaaaaaaaaaaaazazazazayayaNaNaXaXaNaNaaaaaaaaaaaaaaaaakakaOaOalalbAbAafafbhbhayayaOaOadadaaaaajajaeaeaXaXbAbAaXaXajajajajakakaOaOalalaOaOaaaaaaaaaaaaaaaaaaaaaaaaaaaaaaaaaaaaaaaaaaaa",
"aaaaaaaaaaaaaaaaaaaaaaaaafafakakakakakakaYaYakakakakazazakakakakaiaibjbjaNaNafafbhbhajajaqaqaOaOayayaaaaajajaeaeaaaaakakakakaaaaaaaababaaiaia@a@aaaaaaaaa@a@akakazazazazajajaeaeaPaPaaaaaaaaaaaaaaaaaaaaaaaaaaaaakakaaaaaaaaaaaaaaaaaaaaaaaaaaaaaaaaananaPaPaaaaaaaaaaaaaaaaaaaaaaaaaaaaaaaaaaaaaaaaaaaaaaaaaaaaaaaaaaaaaaaaaaaaaaaaaaaaaaaaadadalalananbhbhadadababamamaaaaaqaqayayababababaeaeadada)a)akakaaaaaaaaaaaaaaaaaaaaaaaaaaaaaaaaaaaaaaaaaaaaaaaaaaaaaaaaaaaaaPaPbIbIbHbHbHbHbHbHbGbGbHbHbHbHbHbHbHbHbGbGbHbHbHbHbHbHbHbHbGbGbfbfbLbLbybya5a5aaaaaaaaaaaaaaaaaaaaaaaaaaaaaaaaaaaaaaaaaaaaaaaaaaaaaaaaaaaaaaaaaaaaakakajajaaaaaaaaaaaaaaaaaaaaazazazazayayaNaNaXaXaNaNaaaaaaaaaaaaaaaaakakaOaOalalbAbAafafbhbhayayaOaOadadaaaaajajaeaeaXaXbAbAaXaXajajajajakakaOaOalalaOaOaaaaaaaaaaaaaaaaaaaaaaaaaaaaaaaaaaaaaaaaaaaa",
"aaaaaaaaaaaaaaaaaaaaaaaaaaaaaaaaa$a$a$a$a$a$a$a$a$a$a$a$aaaabhbhbhbhananadadaNaNazazalalafafaHaHayayafafaOaOaaaaakaka#a#a@a@aeaeaeaeaXaXalalaeaeaeaealalalalaaaaaaaaaaaaaaaaazazalalaaaaaaaaaaaaaaaaaaaaaaaaaaaaaaaaaaaaaaaaaaaaaaaaaaaaaaaaaaaaaaaaaaaaaaaaaaaaaaaaaaaaaaaaaaaaaaaaaaaaaaaaaaaaaaaaaaaaaaaaaaaaaaaaaaaaaaaaaaaaaaaaaaaaadadababaoaoakakaPaPakakazazajajaPaPaPaPaqaqaoaobjbjaFaFagagababaNaNaaaaaaaaaaaaaaaaaaaaaaaaaaaaaaaaaaaaaPaPajajavavananaaaaaHaHbLbLauaubububgbgbgbgbtbtbtbtbgbgbgbgbgbgbgbgbtbtbtbtbgbgbgbgbgbgbgbgbububHbHbHbHa5a5aaaabhbhavavavavaPaPaaaaaaaaaaaaaaaaaaaaayayaHaHaaaaaaaaaaaaaaaaaaaaaaaaaaaaaaaaaOaOadadaXaXazazbhbhananajajasasakakaaaaananakakananaqaqaAaAapapapapaHaHaHaHbhbhbhbhbhbhananananalalakakbhbhapapaaaaaiaiakakasasafafajajaXaXaNaNadadaiaiaaaaaaaaaaaaaaaaaaaaaaaaaaaa",
"aaaaaaaaaaaaaaaaaaaaaaaaaaaaaaaaa$a$a$a$a$a$a$a$a$a$a$a$aaaabhbhbhbhananadadaNaNazazalalafafaHaHayayafafaOaOaaaaakaka#a#a@a@aeaeaeaeaXaXalalaeaeaeaealalalalaaaaaaaaaaaaaaaaazazalalaaaaaaaaaaaaaaaaaaaaaaaaaaaaaaaaaaaaaaaaaaaaaaaaaaaaaaaaaaaaaaaaaaaaaaaaaaaaaaaaaaaaaaaaaaaaaaaaaaaaaaaaaaaaaaaaaaaaaaaaaaaaaaaaaaaaaaaaaaaaaaaaaaaaadadababaoaoakakaPaPakakazazajajaPaPaPaPaqaqaoaobjbjaFaFagagababaNaNaaaaaaaaaaaaaaaaaaaaaaaaaaaaaaaaaaaaaPaPajajavavananaaaaaHaHbLbLauaubububgbgbgbgbtbtbtbtbgbgbgbgbgbgbgbgbtbtbtbtbgbgbgbgbgbgbgbgbububHbHbHbHa5a5aaaabhbhavavavavaPaPaaaaaaaaaaaaaaaaaaaaayayaHaHaaaaaaaaaaaaaaaaaaaaaaaaaaaaaaaaaOaOadadaXaXazazbhbhananajajasasakakaaaaananakakananaqaqaAaAapapapapaHaHaHaHbhbhbhbhbhbhananananalalakakbhbhapapaaaaaiaiakakasasafafajajaXaXaNaNadadaiaiaaaaaaaaaaaaaaaaaaaaaaaaaaaa",
"aaaaaaaaaaaaaaaaaaaaaaaaafafajajaXaXaXaXaXaXaeaealalazazaaaabhbhaqaqaqaqaqaqa@a@aiaialalapapaaaaalalaPaPajajbhbhaPaPayayaNaNaXaXbabaaaaaaHaHaiaiaPaPafafajajaPaPaPaPajajaaaaaaaaaaaaaaaaaaaaaaaaaaaaaaaaaaaaaaaaaaaaaaaaaaaaaaaaaaaaaaaaaaaaaaaaaaaaaaaaaeaeajajaaaaaaaaaaaaaaaaaaaaaaaaaaaaaaaaaaaaaaaaaaaaaaaaaaaaaaaaaaaaaaaaaaaaaaaaaiaiacacaXaXaPaPamamababakakaaaaakakaoaoababalalbhbhaaaaaoaoadadaaaaaaaaaaaaaaaaaaaaaaaaaaaaaaaaaaaaauauahahbLbLaGaGbLbLa6a6a6a6aGaGbGbGbububububububgbgaWaWavavaWaWbgbgbgbgbgbgbgbgbgbgaWaWbgbgbububgbgbKbKbKbKa5a5ajajbIbIaGaGbLbLaGaGauauaaaaaaaaaaaaaaaaauaubLbLaPaPaaaaaaaaaaaaaaaaaaaaaaaaafafaOaOaaaaaaaabhbhajajaPaPazazakakasasalalaOaOaHaHakakaOaOalalaiaiaqaqaPaPayayafafaaaaaaaaaaaaaqaqaPaPajajaPaPaPaPaeaeararakakasasasasakakaaaaaaaaaaaaaNaNayayaaaaaaaaaaaaaaaaaaaaaaaa",
"aaaaaaaaaaaaaaaaaaaaaaaaafafajajaXaXaXaXaXaXaeaealalazazaaaabhbhaqaqaqaqaqaqa@a@aiaialalapapaaaaalalaPaPajajbhbhaPaPayayaNaNaXaXbabaaaaaaHaHaiaiaPaPafafajajaPaPaPaPajajaaaaaaaaaaaaaaaaaaaaaaaaaaaaaaaaaaaaaaaaaaaaaaaaaaaaaaaaaaaaaaaaaaaaaaaaaaaaaaaaaeaeajajaaaaaaaaaaaaaaaaaaaaaaaaaaaaaaaaaaaaaaaaaaaaaaaaaaaaaaaaaaaaaaaaaaaaaaaaaiaiacacaXaXaPaPamamababakakaaaaakakaoaoababalalbhbhaaaaaoaoadadaaaaaaaaaaaaaaaaaaaaaaaaaaaaaaaaaaaaauauahahbLbLaGaGbLbLa6a6a6a6aGaGbGbGbububububububgbgaWaWavavaWaWbgbgbgbgbgbgbgbgbgbgaWaWbgbgbububgbgbKbKbKbKa5a5ajajbIbIaGaGbLbLaGaGauauaaaaaaaaaaaaaaaaauaubLbLaPaPaaaaaaaaaaaaaaaaaaaaaaaaafafaOaOaaaaaaaabhbhajajaPaPazazakakasasalalaOaOaHaHakakaOaOalalaiaiaqaqaPaPayayafafaaaaaaaaaaaaaqaqaPaPajajaPaPaPaPaeaeararakakasasasasakakaaaaaaaaaaaaaNaNayayaaaaaaaaaaaaaaaaaaaaaaaa",
"aaaaaaaaaaaaaaaaaHaHalalalalakakaaaaaaaaaaaaajajajajakakaOaOadadaeaeaPaPajajakakaiaibhbhakakavavaaaaaaaababaaPaPanana@a@aaaaaaaaaPaPakakaPaPafafafafajajakakaOaOalalalalazazafafaaaaaaaaaaaaaaaaaaaaaaaaaaaaaPaPaHaHaaaaaaaaaaaaaaaaaaaaaaaaaaaaaaaaaaaaaeaeajajaaaaaaaaaaaaaaaaaaaaayayaHaHaaaaaaaaaaaaaaaaaaaaaaaaaaaaaaaaaaaaaaaaaaaaaaaaaaaaaHaHafafagagayayadadadadaNaNayayadadayayazazadadacacaaaaaaaaalalaaaaaaaaaaaaaaaaaaaaaaaaauaua3a3auaua6a6a6a6bGbGbLbLaWaWbububebebfbfaGaGbLbLbybybybyadadbybybybybybybybybybybybyauaubHbHa3a3bfbfbebebgbgbgbgbfbfbxbxa6a6a6a6bybyahahavavaaaaaaaaaaaaaaaaauaualalaaaaaaaaaaaaaaaaaaaaaaaaaaaaaaaaafafaXaXaeaeaXaXalalaaaabhbhajajananaqaqbLbLadadaXaXadadalalananaHaHaaaabAbAaHaHapapbhbhayayalalaNaNadadaNaNaPaPakakatatararararaOaOafafajajaaaaaaaaaaaaajajaaaaaaaaaaaaaaaaaaaa",
"aaaaaaaaaaaaaaaaaHaHalalalalakakaaaaaaaaaaaaajajajajakakaOaOadadaeaeaPaPajajakakaiaibhbhakakavavaaaaaaaababaaPaPanana@a@aaaaaaaaaPaPakakaPaPafafafafajajakakaOaOalalalalazazafafaaaaaaaaaaaaaaaaaaaaaaaaaaaaaPaPaHaHaaaaaaaaaaaaaaaaaaaaaaaaaaaaaaaaaaaaaeaeajajaaaaaaaaaaaaaaaaaaaaayayaHaHaaaaaaaaaaaaaaaaaaaaaaaaaaaaaaaaaaaaaaaaaaaaaaaaaaaaaHaHafafagagayayadadadadaNaNayayadadayayazazadadacacaaaaaaaaalalaaaaaaaaaaaaaaaaaaaaaaaaauaua3a3auaua6a6a6a6bGbGbLbLaWaWbububebebfbfaGaGbLbLbybybybyadadbybybybybybybybybybybybyauaubHbHa3a3bfbfbebebgbgbgbgbfbfbxbxa6a6a6a6bybyahahavavaaaaaaaaaaaaaaaaauaualalaaaaaaaaaaaaaaaaaaaaaaaaaaaaaaaaafafaXaXaeaeaXaXalalaaaabhbhajajananaqaqbLbLadadaXaXadadalalananaHaHaaaabAbAaHaHapapbhbhayayalalaNaNadadaNaNaPaPakakatatararararaOaOafafajajaaaaaaaaaaaaajajaaaaaaaaaaaaaaaaaaaa",
"aaaaaaaaaaaaaaaaaHaHaaaaaaaaaaaaaPaPaNaNalalaPaPafafajajafafananavavalalaeaeaXaXafafajajajajafafalalaaaaaqaqaPaPafafakakaXaXaiaiaHaHalalaeaeaPaPaOaOalalaPaPaaaaaaaaaaaaananazazajajaaaaaaaaaaaaaaaaaaaaaaaaaXaXaOaOaaaaaaaaaaaaaaaaaaaaaaaaaaaaaaaaaaaaaeaeajajaaaaaaaaaaaaaaaaacacacacaaaaaaaaaaaaaaaaaaaaaaaaaaaaaaaaaeaeaaaaaaaaaaaaaaaaaaaaaHaHadadalalaaaaalalababababayayaaaaaaaaadadababababayayaeaeababa#a#aaaaaaaaaaaaaaaabubuaGaGauauaaaaaaaaaaaaa6a6bHbHbububububGbGbtbtbtbtbfbfa3a3ahahaGaGaGaGaGaGaGaGaGaGaGaGbfbfbfbfbKbKbtbtbtbtbububububGbGbxbxbhbhaaaaaaaaa5a5bHbHaGaGaPaPaaaaaaaaaaaaaaaaaaaaaaaaaaaaaaaaaaaaaaaaaaaaaaaaakakacacalalaqaqaaaaaaaaayayayayakakapapaHaHaOaOaaaabhbhbhbhaaaaaeaeananasasalalaiaiaOaOakakaFaFafafaaaaaaaaazazaPaPaaaaaaaaapapaNaNaeaeayayalaladadaqaqaaaaaaaaaaaaaaaaaaaaaaaaaaaa",
"aaaaaaaaaaaaaaaaaHaHaaaaaaaaaaaaaPaPaNaNalalaPaPafafajajafafananavavalalaeaeaXaXafafajajajajafafalalaaaaaqaqaPaPafafakakaXaXaiaiaHaHalalaeaeaPaPaOaOalalaPaPaaaaaaaaaaaaananazazajajaaaaaaaaaaaaaaaaaaaaaaaaaXaXaOaOaaaaaaaaaaaaaaaaaaaaaaaaaaaaaaaaaaaaaeaeajajaaaaaaaaaaaaaaaaacacacacaaaaaaaaaaaaaaaaaaaaaaaaaaaaaaaaaeaeaaaaaaaaaaaaaaaaaaaaaHaHadadalalaaaaalalababababayayaaaaaaaaadadababababayayaeaeababa#a#aaaaaaaaaaaaaaaabubuaGaGauauaaaaaaaaaaaaa6a6bHbHbububububGbGbtbtbtbtbfbfa3a3ahahaGaGaGaGaGaGaGaGaGaGaGaGbfbfbfbfbKbKbtbtbtbtbububububGbGbxbxbhbhaaaaaaaaa5a5bHbHaGaGaPaPaaaaaaaaaaaaaaaaaaaaaaaaaaaaaaaaaaaaaaaaaaaaaaaaakakacacalalaqaqaaaaaaaaayayayayakakapapaHaHaOaOaaaabhbhbhbhaaaaaeaeananasasalalaiaiaOaOakakaFaFafafaaaaaaaaazazaPaPaaaaaaaaapapaNaNaeaeayayalaladadaqaqaaaaaaaaaaaaaaaaaaaaaaaaaaaa",
"aaaaaaaaaaaaaaaaaaaaaaaaaYaYayayalalbhbhapapbhbhaHaHakakananaHaHayayaiaiananananbhbhananaPaPajajazazapapaqaqajajalala@a@babaalalaOaOajajbhbhbhbhaHaHajajalalaNaNaOaOaHaHaaaaaaaaaaaaaaaaaaaaaaaaaaaaaaaaadadaaaaaaaaaaaaaaaaaaaaaaaaaaaaaaaaaaaaaaaaaaaaaaaaauauapapaaaaaaaaaaaaananaaaaaaaaaaaaaaaaaaaaaaaaaaaaaaaaaaaaadadayayaaaaaaaaaaaaazazacacababadadaiaiaPaPalalacacacacalalajajafafbjbjacacaXaXamamaoaoafafaaaaaaaaaaaaaaaabHbHbfbfa6a6aaaabhbhapapa5a5bHbHbgbgbebebObObGbGbebebububububtbtbtbtbtbtbtbtbtbtbtbtbtbtbtbtbtbtbtbtbGbGbtbtbHbHbububububububhbhbhbhaaaabhbhavavbfbfavavaaaaaaaaaaaaaaaaaaaaaaaaaaaaaHaHaOaOaaaaaaaaaaaaaaaaaaaaaaaaaaaaaeaeayayananbhbhbhbhaHaHaeaeaPaPbhbhbhbhaeaebjbjaqaqazazbAbAaHaHararbhbhadadananapapaXaXaPaPbhbhaaaaajajazazbhbhafafaHaHaaaaaaaaananayayaNaNaaaaaaaaaaaaaaaaaaaaaaaa",
"aaaaaaaaaaaaaaaaaaaaaaaaaYaYayayalalbhbhapapbhbhaHaHakakananaHaHayayaiaiananananbhbhananaPaPajajazazapapaqaqajajalala@a@babaalalaOaOajajbhbhbhbhaHaHajajalalaNaNaOaOaHaHaaaaaaaaaaaaaaaaaaaaaaaaaaaaaaaaadadaaaaaaaaaaaaaaaaaaaaaaaaaaaaaaaaaaaaaaaaaaaaaaaaauauapapaaaaaaaaaaaaananaaaaaaaaaaaaaaaaaaaaaaaaaaaaaaaaaaaaadadayayaaaaaaaaaaaaazazacacababadadaiaiaPaPalalacacacacalalajajafafbjbjacacaXaXamamaoaoafafaaaaaaaaaaaaaaaabHbHbfbfa6a6aaaabhbhapapa5a5bHbHbgbgbebebObObGbGbebebububububtbtbtbtbtbtbtbtbtbtbtbtbtbtbtbtbtbtbtbtbGbGbtbtbHbHbububububububhbhbhbhaaaabhbhavavbfbfavavaaaaaaaaaaaaaaaaaaaaaaaaaaaaaHaHaOaOaaaaaaaaaaaaaaaaaaaaaaaaaaaaaeaeayayananbhbhbhbhaHaHaeaeaPaPbhbhbhbhaeaebjbjaqaqazazbAbAaHaHararbhbhadadananapapaXaXaPaPbhbhaaaaajajazazbhbhafafaHaHaaaaaaaaananayayaNaNaaaaaaaaaaaaaaaaaaaaaaaa",
"aaaaaaaaaaaaaaaaaaaaazazaiaiaaaaaaaaajajajajalalaeaeaHaHaaaababaa@a@aHaHananbhbhajajaOaOajajaXaXajajaYaYaiaiakakaaaaajajafafaiaiaaaaaaaaaFaFananbhbhalalalalaaaaaqaqaXaXakakaHaHaaaaaaaaaaaaaaaaaaaaaaaaaaaaaaaaaaaaaaaaaaaaaaaaaaaaaaaaaaaaaaaaaaaaaaaaaaaaayayaFaFaaaaaaaaaaaaaaaaaaaaaaaaaaaaaaaaaaaaaaaaaaaaaaaaaaaaaaaaayayajajaaaaaaaaaaaabjbjacacaaaaadadababaoaoaaaabhbhaHaHababababaOaOaaaaaaaaayayaeaeafafaaaaaaaaaaaaaaaabybybfbfa6a6aaaaa6a6bLbLbGbGbHbHaWaWbebebObObGbGbebea3a3aGaGaGaGbebebQbQbQbQbebebQbQbQbQbQbQbQbQbebebGbGbtbtbHbHaUaUbgbgbebebHbHbybybhbhbhbhbgbgbKbKavavaaaaaaaaaaaaaaaaa@a@aaaaaaaaaPaPaeaeaaaaaaaaaaaaaaaaaaaaaOaObAbAananaaaaaaaaaqaqayayalalaqaqaaaaaaaaaeaeazazaaaabhbhayayaOaOaaaabAbAaAaAalalbMbMaPaPaaaaaNaNadadaiaiaaaaaaaaaaaaafafaYaYakakaaaaaaaaaaaaananakakaaaaaaaaaaaaaaaaaaaa",
"aaaaaaaaaaaaaaaaaaaaazazaiaiaaaaaaaaajajajajalalaeaeaHaHaaaababaa@a@aHaHananbhbhajajaOaOajajaXaXajajaYaYaiaiakakaaaaajajafafaiaiaaaaaaaaaFaFananbhbhalalalalaaaaaqaqaXaXakakaHaHaaaaaaaaaaaaaaaaaaaaaaaaaaaaaaaaaaaaaaaaaaaaaaaaaaaaaaaaaaaaaaaaaaaaaaaaaaaaayayaFaFaaaaaaaaaaaaaaaaaaaaaaaaaaaaaaaaaaaaaaaaaaaaaaaaaaaaaaaaayayajajaaaaaaaaaaaabjbjacacaaaaadadababaoaoaaaabhbhaHaHababababaOaOaaaaaaaaayayaeaeafafaaaaaaaaaaaaaaaabybybfbfa6a6aaaaa6a6bLbLbGbGbHbHaWaWbebebObObGbGbebea3a3aGaGaGaGbebebQbQbQbQbebebQbQbQbQbQbQbQbQbebebGbGbtbtbHbHaUaUbgbgbebebHbHbybybhbhbhbhbgbgbKbKavavaaaaaaaaaaaaaaaaa@a@aaaaaaaaaPaPaeaeaaaaaaaaaaaaaaaaaaaaaOaObAbAananaaaaaaaaaqaqayayalalaqaqaaaaaaaaaeaeazazaaaabhbhayayaOaOaaaabAbAaAaAalalbMbMaPaPaaaaaNaNadadaiaiaaaaaaaaaaaaafafaYaYakakaaaaaaaaaaaaananakakaaaaaaaaaaaaaaaaaaaa",
"aaaaaaaaaaaaaaaaaaaaaaaaaaaaaaaaayayaXaXajajaaaaaaaaaaaaalalaYaYaPaPa@a@bhbhaXaXalalaaaaajajaNaNbhbhaXaXaaaaayayaeaeaaaaakakaNaNakakaaaaaHaHafafazazananaaaaaaaaaaaaaaaaafafaYaYafafaaaaaaaaaaaaaaaaaaaaaaaaaaaaaaaaaaaaaaaaaaaaaaaaaaaaaaaaaaaaaaaaaaaaaaaaauauaaaaaaaaaaaaaaaaaaaaaaaaaaaaaaaaaaaaaaaaaaaaaaaaaaaaaaaaaaaaaaaaaaaaaaaaaaaaaaaaaOaOaiaibhbhajajaoaoaNaNalalbjbjadadayayaNaNadadadadbjbjaeaeaaaaaqaqaaaaaaaaaaaaaaaabybybfbfa6a6aaaabhbhauaububua6a6aaaabebebGbGbGbGbebebfbfaGaGbHbHbebebQbQbQbQbQbQbQbQbQbQbGbGbebebebebGbGbtbtbGbGbGbGa5a5avavauaualalbhbhaaaabgbga1a1avavaaaaaaaaaaaaaHaHaeaeaaaaaaaaaaaaananaaaaaaaaaaaaaaaaazazalalaqaqaaaaaaaaayayaXaXapapaaaaaaaaaaaaaeaeaOaOaaaaaPaPadadaaaaaPaPapapadadaiaiaaaaazazaeaeaiaiaaaabhbhayayafafaaaaaOaOaaaaaPaPaXaXaNaNaNaNaaaaaaaaaaaaaaaaaaaaaaaaaaaaaaaa",
"aaaaaaaaaaaaaaaaaaaaaaaaaaaaaaaaayayaXaXajajaaaaaaaaaaaaalalaYaYaPaPa@a@bhbhaXaXalalaaaaajajaNaNbhbhaXaXaaaaayayaeaeaaaaakakaNaNakakaaaaaHaHafafazazananaaaaaaaaaaaaaaaaafafaYaYafafaaaaaaaaaaaaaaaaaaaaaaaaaaaaaaaaaaaaaaaaaaaaaaaaaaaaaaaaaaaaaaaaaaaaaaaaauauaaaaaaaaaaaaaaaaaaaaaaaaaaaaaaaaaaaaaaaaaaaaaaaaaaaaaaaaaaaaaaaaaaaaaaaaaaaaaaaaaOaOaiaibhbhajajaoaoaNaNalalbjbjadadayayaNaNadadadadbjbjaeaeaaaaaqaqaaaaaaaaaaaaaaaabybybfbfa6a6aaaabhbhauaububua6a6aaaabebebGbGbGbGbebebfbfaGaGbHbHbebebQbQbQbQbQbQbQbQbQbQbGbGbebebebebGbGbtbtbGbGbGbGa5a5avavauaualalbhbhaaaabgbga1a1avavaaaaaaaaaaaaaHaHaeaeaaaaaaaaaaaaananaaaaaaaaaaaaaaaaazazalalaqaqaaaaaaaaayayaXaXapapaaaaaaaaaaaaaeaeaOaOaaaaaPaPadadaaaaaPaPapapadadaiaiaaaaazazaeaeaiaiaaaabhbhayayafafaaaaaOaOaaaaaPaPaXaXaNaNaNaNaaaaaaaaaaaaaaaaaaaaaaaaaaaaaaaa",
"aaaaaaaaaaaaaaaaaaaaaaaaaaaaalalananaaaaaaaaaaaaakakaXaXajaja#a#aaaababaalalaqaqaaaaalalapapa#a#aaaaaNaNaPaPbhbhadadalalaaaaa#a#aNaNazazaaaaaaaaananaOaOayayaaaaaaaaaaaaaaaaaaaaaqaqaaaaaaaaaaaaaaaaaaaaaaaaaaaaazazaaaaaaaaakakaeaeaaaaaaaaaaaaaaaaaaaaaaaabybyaFaFaaaaaaaaaaaaaaaaaaaaaaaaaaaaaaaaaaaaaaaaaaaaaaaaaaaaaaaaaaaaaaaaaaaaaaaaaaaaaaaaaaaaalalacacaXaXaHaHaPaPacacababadadaaaaazazagagababadadaaaaaaaaaaaaaaaaaaaaaaaabGbGbfbfa6a6aaaaaaaaaaaaaaaaaaaaaaaaa1a1bebebGbGbebea3a3bHbHbHbHbGbGbQbQbQbQbQbQbQbQbebebebebGbGbebebGbGbtbtbGbGbGbGa5a5aaaaaaaaaaaaaaaaaaaabgbga1a1avavaaaaaaaaaaaaaaaaaaaaaaaaaaaaaaaaaaaaaaaaaaaaaaaaaaaaaHaHaaaaaaaaalaladadajajajajazazaaaaakakadadajajaaaaananbjbjajajaaaaaYaYafafaNaNananananaaaaaPaPadadapapaaaabhbhayayananazazalalaaaaaaaaafafayayadadaaaaaaaaaaaaaaaaaaaaaaaaaaaa",
"aaaaaaaaaaaaaaaaaaaaaaaaaaaaalalananaaaaaaaaaaaaakakaXaXajaja#a#aaaababaalalaqaqaaaaalalapapa#a#aaaaaNaNaPaPbhbhadadalalaaaaa#a#aNaNazazaaaaaaaaananaOaOayayaaaaaaaaaaaaaaaaaaaaaqaqaaaaaaaaaaaaaaaaaaaaaaaaaaaaazazaaaaaaaaakakaeaeaaaaaaaaaaaaaaaaaaaaaaaabybyaFaFaaaaaaaaaaaaaaaaaaaaaaaaaaaaaaaaaaaaaaaaaaaaaaaaaaaaaaaaaaaaaaaaaaaaaaaaaaaaaaaaaaaaalalacacaXaXaHaHaPaPacacababadadaaaaazazagagababadadaaaaaaaaaaaaaaaaaaaaaaaabGbGbfbfa6a6aaaaaaaaaaaaaaaaaaaaaaaaa1a1bebebGbGbebea3a3bHbHbHbHbGbGbQbQbQbQbQbQbQbQbebebebebGbGbebebGbGbtbtbGbGbGbGa5a5aaaaaaaaaaaaaaaaaaaabgbga1a1avavaaaaaaaaaaaaaaaaaaaaaaaaaaaaaaaaaaaaaaaaaaaaaaaaaaaaaHaHaaaaaaaaalaladadajajajajazazaaaaakakadadajajaaaaananbjbjajajaaaaaYaYafafaNaNananananaaaaaPaPadadapapaaaabhbhayayananazazalalaaaaaaaaafafayayadadaaaaaaaaaaaaaaaaaaaaaaaaaaaa",
"aaaaaaaaaaaaaaaaaaaaaaaaazazaaaaaaaaaaaaafafaXaXakakaHaHaaaaaaaaalalaXaXbabaaaaaalalaNaNaaaaaiaia@a@aeaeaiaiaaaaa#a#ayayaOaOaaaababaayayaOaOaaaaajajaaaaaaaaaXaXaNaNaOaOaaaaaaaaaaaaaaaaaaaaaaaaaaaaaaaaaaaaaaaaauaubvbvaFaFaXaXa@a@aaaaaaaaaaaaaaaaaaaaaaaaaXaXaaaaaaaaaaaaaaaaaaaaajajadadaaaaaaaaaaaaaaaaaaaaaaaaaaaaaaaaaaaaaaaaaaaaaaaaaaaaaaaaaPaPa)a)ababayayaHaHaaaaaeaeacacacacajajaHaHaaaaazazaaaaaaaaaaaaaaaaaaaaaaaaaaaabububebeaWaWaaaaaaaaaaaaaaaaaaaaaaaabKbKbebebGbGa1a1bfbfbebebKbKbGbGbebebQbQbQbQbQbQbQbQbebebxbxbGbGbEbEbEbEbGbGbHbHbhbhaaaaaaaaaaaaaaaabhbhbububHbHaWaWaaaaaaaaaaaaaaaaaaaaaaaaaaaaaaaaaaaaaaaaaaaaaaaaaaaaaaaaaaaaajajbLbLapapananajajaaaaaOaOaeaeaHaHaiaibhbhaXaXbjbjaaaaapapaeaeaHaHaNaNapapaHaHaPaPajajaOaOakakaHaHaaaaaaaaaXaXaaaaazazadadaPaPaaaaaaaaaNaNadadaaaaaaaaaaaaaaaaaaaaaaaa",
"aaaaaaaaaaaaaaaaaaaaaaaaazazaaaaaaaaaaaaafafaXaXakakaHaHaaaaaaaaalalaXaXbabaaaaaalalaNaNaaaaaiaia@a@aeaeaiaiaaaaa#a#ayayaOaOaaaababaayayaOaOaaaaajajaaaaaaaaaXaXaNaNaOaOaaaaaaaaaaaaaaaaaaaaaaaaaaaaaaaaaaaaaaaaauaubvbvaFaFaXaXa@a@aaaaaaaaaaaaaaaaaaaaaaaaaXaXaaaaaaaaaaaaaaaaaaaaajajadadaaaaaaaaaaaaaaaaaaaaaaaaaaaaaaaaaaaaaaaaaaaaaaaaaaaaaaaaaPaPa)a)ababayayaHaHaaaaaeaeacacacacajajaHaHaaaaazazaaaaaaaaaaaaaaaaaaaaaaaaaaaabububebeaWaWaaaaaaaaaaaaaaaaaaaaaaaabKbKbebebGbGa1a1bfbfbebebKbKbGbGbebebQbQbQbQbQbQbQbQbebebxbxbGbGbEbEbEbEbGbGbHbHbhbhaaaaaaaaaaaaaaaabhbhbububHbHaWaWaaaaaaaaaaaaaaaaaaaaaaaaaaaaaaaaaaaaaaaaaaaaaaaaaaaaaaaaaaaaajajbLbLapapananajajaaaaaOaOaeaeaHaHaiaibhbhaXaXbjbjaaaaapapaeaeaHaHaNaNapapaHaHaPaPajajaOaOakakaHaHaaaaaaaaaXaXaaaaazazadadaPaPaaaaaaaaaNaNadadaaaaaaaaaaaaaaaaaaaaaaaa",
"aaaaaaaaaaaaaaaaaaaaaaaaaaaaaaaaaqaqayayalalaaaaafafaiaibabaaOaOalalbhbhaaaaa@a@ayaybhbhbhbhaOaOa@a@alalafafafafaaaaajajaNaNaiaiaaaaaaaaakakaXaXaFaFalalaaaaaaaaaaaaazazaeaeaaaaaaaaaaaaaaaaaaaaaaaaaaaaaaaaaaaaajajavavaaaaaaaaaaaaaaaaaaaaaaaaaaaaaaaaaaaaaaaaaaaaaaaaaaaaaaaaaaaaaaaaaaaaaaaaaaaaaaaaaaaaaaaaa@a@aaaaaaaaaaaaaaaaaaaaaaaaaaaaaaaaaaaaacacadadaeaeaaaaaaaaaaaaaaaaaXaXayayaaaaaaaaaaaaaaaaaaaaaaaaaaaaaaaaaaaaaaaaa5a5bHbHbxbxbhbhaaaaaaaaaaaaaaaaaaaabububebebGbGbfbfbHbHbHbHbtbtbebebebebQbQbQbQbQbQbQbQbwbwbebebGbGbGbGbtbtbGbGbubuaaaaaaaaaaaaaaaaaaaaa6a6bLbLauauaaaaaaaaaaaaaaaaaaaaaaaaaaaaaaaaaaaaaaaaaaaaayayaaaaaaaaaaaaaaaaaaaaaaaaajajajajaaaaaOaOaXaXbhbhaXaXalalapapbLbLaiaiaaaaaeaeaXaXaaaabybybhbhapapasasaaaaaeaeaiaiafafbhbhafafaaaaaaaaaaaaaHaHaXaXafafaaaaaaaaalalajajaaaaaaaaaaaaaaaaaaaa",
"aaaaaaaaaaaaaaaaaaaaaaaaaaaaaaaaaqaqayayalalaaaaafafaiaibabaaOaOalalbhbhaaaaa@a@ayaybhbhbhbhaOaOa@a@alalafafafafaaaaajajaNaNaiaiaaaaaaaaakakaXaXaFaFalalaaaaaaaaaaaaazazaeaeaaaaaaaaaaaaaaaaaaaaaaaaaaaaaaaaaaaaajajavavaaaaaaaaaaaaaaaaaaaaaaaaaaaaaaaaaaaaaaaaaaaaaaaaaaaaaaaaaaaaaaaaaaaaaaaaaaaaaaaaaaaaaaaaa@a@aaaaaaaaaaaaaaaaaaaaaaaaaaaaaaaaaaaaacacadadaeaeaaaaaaaaaaaaaaaaaXaXayayaaaaaaaaaaaaaaaaaaaaaaaaaaaaaaaaaaaaaaaaa5a5bHbHbxbxbhbhaaaaaaaaaaaaaaaaaaaabububebebGbGbfbfbHbHbHbHbtbtbebebebebQbQbQbQbQbQbQbQbwbwbebebGbGbGbGbtbtbGbGbubuaaaaaaaaaaaaaaaaaaaaa6a6bLbLauauaaaaaaaaaaaaaaaaaaaaaaaaaaaaaaaaaaaaaaaaaaaaayayaaaaaaaaaaaaaaaaaaaaaaaaajajajajaaaaaOaOaXaXbhbhaXaXalalapapbLbLaiaiaaaaaeaeaXaXaaaabybybhbhapapasasaaaaaeaeaiaiafafbhbhafafaaaaaaaaaaaaaHaHaXaXafafaaaaaaaaalalajajaaaaaaaaaaaaaaaaaaaa",
"aaaaaaaaaaaaaaaaaaaaaaaaaaaaaaaaaFaFajajaaaaaYaYapapaaaaalalaHaHbhbha#a#aaaaalalaeaeaaaaakakalalbabaaNaNbhbha#a#aPaPaHaHa#a#aHaHajajanana@a@ajajaaaaaaaaaFaFalalaaaaaaaaaYaYaeaeaaaaaaaaaaaaaaaaaaaaaaaaaaaaaaaaaaaaaaaaaaaaaaaaaaaaaaaaaaaaaaaaa#a#aqaqaaaaaaaaaaaaaaaaaaaaaaaaaaaaaaaaaaaaaaaaaaaaaaaaaaaaaXaXa7a7aaaaaaaaaaaaaaaaaaaaaaaaaaaaaaaaaaaaaiaiaaaaaaaaaaaaaaaaaaaaaaaaaaaaajajaaaaaaaaaaaaaaaaaaaaaaaaaaaaaaaaaaaaaaaaaaaaavavbHbHa6a6aaaababaaaaaaaaaaaaaaWaWbfbfbgbgbububKbKbHbHbfbfbebebebebQbQbQbQbQbQbQbQbebebGbGbebebtbtbtbtbubua5a5aaaaaaaaaaaaaaaaaaaaavavbKbKaPaPaaaaaaaaaaaaaaaaaaaaaaaaaaaaaaaaaaaaaaaaaaaaaHaHaaaaaaaaaaaaaaaaaaaaajajakakaaaaaYaYaXaXaaaaajajaHaHaaaaaYaYayayaYaYaaaaazazaqaqbhbhadadafafafafaHaHaOaOaqaqaNaNaaaaajajalalaeaeaaaaaaaaaaaaaaaaaXaXakakaaaaaaaaaaaaaaaaaaaaaaaaaaaaaaaa",
"aaaaaaaaaaaaaaaaaaaaaaaaaaaaaaaaaFaFajajaaaaaYaYapapaaaaalalaHaHbhbha#a#aaaaalalaeaeaaaaakakalalbabaaNaNbhbha#a#aPaPaHaHa#a#aHaHajajanana@a@ajajaaaaaaaaaFaFalalaaaaaaaaaYaYaeaeaaaaaaaaaaaaaaaaaaaaaaaaaaaaaaaaaaaaaaaaaaaaaaaaaaaaaaaaaaaaaaaaa#a#aqaqaaaaaaaaaaaaaaaaaaaaaaaaaaaaaaaaaaaaaaaaaaaaaaaaaaaaaXaXa7a7aaaaaaaaaaaaaaaaaaaaaaaaaaaaaaaaaaaaaiaiaaaaaaaaaaaaaaaaaaaaaaaaaaaaajajaaaaaaaaaaaaaaaaaaaaaaaaaaaaaaaaaaaaaaaaaaaaavavbHbHa6a6aaaababaaaaaaaaaaaaaaWaWbfbfbgbgbububKbKbHbHbfbfbebebebebQbQbQbQbQbQbQbQbebebGbGbebebtbtbtbtbubua5a5aaaaaaaaaaaaaaaaaaaaavavbKbKaPaPaaaaaaaaaaaaaaaaaaaaaaaaaaaaaaaaaaaaaaaaaaaaaHaHaaaaaaaaaaaaaaaaaaaaajajakakaaaaaYaYaXaXaaaaajajaHaHaaaaaYaYayayaYaYaaaaazazaqaqbhbhadadafafafafaHaHaOaOaqaqaNaNaaaaajajalalaeaeaaaaaaaaaaaaaaaaaXaXakakaaaaaaaaaaaaaaaaaaaaaaaaaaaaaaaa",
"aaaaaaaaaaaaaaaaaaaaaaaaaaaaaaaaaaaaaaaaaOaObhbhaaaaalalaFaFapapafafbhbha#a#ayayaqaqaaaaakakakakbabaaXaXaiaiananaeaeaaaaakaka#a#aiaialalajajaHaHaaaaaaaaaaaaalalayayaaaaaaaaaHaHaaaaaaaaaYaYaPaPaaaaaaaaaaaaaaaaaaaaaaaaaaaaaaaaaaaaaaaaaaaaaaaaaaaaaaaaaaaaadadaaaaaaaaaaaaaaaaaaaaaaaaaaaaaaaaaaaaaaaaaaaaayayaYaYaaaaaaaaaaaaaaaaaaaaaaaaaaaaaaaaaaaaaaaaaaaabhbhapapapapapapananaaaaaaaaakakaaaaaaaaaaaaaaaaaaaaaaaaaaaaaaaaaaaaaaaaapapbLbLauaubhbhbhbhbhbhaaaaaaaaavavbfbfbxbxbGbGbGbGbGbGbebebQbQbQbQbQbQbQbQbQbQbQbQbQbQbebebHbHbtbtbtbtbHbHaPaPaaaabhbhaaaaaaaaaaaabKbKbHbHaaaaaaaaaaaaaaaaaaaaaaaaaaaaaaaaaaaaaaaaakakafafaaaaaaaaaaaaaaaaaaaaaOaOaeaeaaaaazazacacaqaqaiaiaaaaajajapapayayaiaibhbhaFaFafafaPaPafafaNaNaPaPaPaPapapayayaaaabAbAaaaaaYaYaPaPaqaqayayaaaaaaaaaaaaaaaaaXaXaiaiaaaaaaaaaaaaaaaaaaaaaaaaaaaa",
"aaaaaaaaaaaaaaaaaaaaaaaaaaaaaaaaaaaaaaaaaOaObhbhaaaaalalaFaFapapafafbhbha#a#ayayaqaqaaaaakakakakbabaaXaXaiaiananaeaeaaaaakaka#a#aiaialalajajaHaHaaaaaaaaaaaaalalayayaaaaaaaaaHaHaaaaaaaaaYaYaPaPaaaaaaaaaaaaaaaaaaaaaaaaaaaaaaaaaaaaaaaaaaaaaaaaaaaaaaaaaaaaadadaaaaaaaaaaaaaaaaaaaaaaaaaaaaaaaaaaaaaaaaaaaaayayaYaYaaaaaaaaaaaaaaaaaaaaaaaaaaaaaaaaaaaaaaaaaaaabhbhapapapapapapananaaaaaaaaakakaaaaaaaaaaaaaaaaaaaaaaaaaaaaaaaaaaaaaaaaapapbLbLauaubhbhbhbhbhbhaaaaaaaaavavbfbfbxbxbGbGbGbGbGbGbebebQbQbQbQbQbQbQbQbQbQbQbQbQbQbebebHbHbtbtbtbtbHbHaPaPaaaabhbhaaaaaaaaaaaabKbKbHbHaaaaaaaaaaaaaaaaaaaaaaaaaaaaaaaaaaaaaaaaakakafafaaaaaaaaaaaaaaaaaaaaaOaOaeaeaaaaazazacacaqaqaiaiaaaaajajapapayayaiaibhbhaFaFafafaPaPafafaNaNaPaPaPaPapapayayaaaabAbAaaaaaYaYaPaPaqaqayayaaaaaaaaaaaaaaaaaXaXaiaiaaaaaaaaaaaaaaaaaaaaaaaaaaaa",
"aaaaaaaaaaaaaaaaaaaaaaaaaaaaaaaaaaaaalalaqaqaaaaaXaXafafbhbhaiaiajajbhbha@a@a@a@bhbhbhbhajajaaaaapapaXaXafafaPaPavavapapakakajajaqaqalalbhbhaOaOananaaaaaaaaaaaaalalalalaaaaaaaaaaaaaaaaaPaPaaaaaaaaaaaaaaaaaaaaaaaaaaaaaaaaaaaaaaaaaaaaaaaaaaaaaaaaaaaaaaaaaaaaaaaaaaaaaaaaaaaaaaaaaaaaaaaaaaaaaaaaaaaaaaaaaaaaaaaaaaaaaaaaaaaaaaaaaaaaaaaaaaaaaaaaaaaaaaaaaaaaalalavavavavavavaXaXaaaaaaaaaiaiaXaXaXaXaqaqaaaaaaaaaaaaaaaaaaaaaaaaaaaaaaaaa6a6bfbfavavaaaaaaaaaaaaaaaaa6a6bKbKbGbGbGbGbGbGbebebebebebebQbQbQbQbQbQbQbQbQbQbGbGbebebGbGbGbGbtbtbxbxapapaaaabhbhaaaaaaaabububKbKa6a6aaaaaaaaaaaaaaaaaaaaaaaaaaaaaaaaaaaaaaaaaaaaaaaaaaaaaaaaaaaaaaaaaaaaaaaaaaaaaaaaadadakakananakakazazaPaPakakalalaaaaakakananaiaiaXaXajajaaaaajajaiaiaaaaaXaXapapaeaeananaPaPaYaYaaaaadadaeaeaaaaaaaaaaaaaaaaaaaaaaaaaaaaaaaaaaaaaaaaaaaaaaaa",
"aaaaaaaaaaaaaaaaaaaaaaaaaaaaaaaaaaaaalalaqaqaaaaaXaXafafbhbhaiaiajajbhbha@a@a@a@bhbhbhbhajajaaaaapapaXaXafafaPaPavavapapakakajajaqaqalalbhbhaOaOananaaaaaaaaaaaaalalalalaaaaaaaaaaaaaaaaaPaPaaaaaaaaaaaaaaaaaaaaaaaaaaaaaaaaaaaaaaaaaaaaaaaaaaaaaaaaaaaaaaaaaaaaaaaaaaaaaaaaaaaaaaaaaaaaaaaaaaaaaaaaaaaaaaaaaaaaaaaaaaaaaaaaaaaaaaaaaaaaaaaaaaaaaaaaaaaaaaaaaaaaalalavavavavavavaXaXaaaaaaaaaiaiaXaXaXaXaqaqaaaaaaaaaaaaaaaaaaaaaaaaaaaaaaaaa6a6bfbfavavaaaaaaaaaaaaaaaaa6a6bKbKbGbGbGbGbGbGbebebebebebebQbQbQbQbQbQbQbQbQbQbGbGbebebGbGbGbGbtbtbxbxapapaaaabhbhaaaaaaaabububKbKa6a6aaaaaaaaaaaaaaaaaaaaaaaaaaaaaaaaaaaaaaaaaaaaaaaaaaaaaaaaaaaaaaaaaaaaaaaaaaaaaaaaadadakakananakakazazaPaPakakalalaaaaakakananaiaiaXaXajajaaaaajajaiaiaaaaaXaXapapaeaeananaPaPaYaYaaaaadadaeaeaaaaaaaaaaaaaaaaaaaaaaaaaaaaaaaaaaaaaaaaaaaaaaaa",
"aaaaaaaaaaaaaaaaaaaaaaaaaaaaaaaaaHaHaHaHaaaaaeaeayaybhbhananakakaqaqaaaabkbkalalapapaHaHajajananaHaHananafafaiaibhbhayayaaaaaNaNaaaaavavavavaaaaaNaNaaaaaaaaaaaaaaaaaPaPaaaaaaaaaaaaaaaaaaaaaaaaaaaaaaaaaaaaaaaaaaaaaaaaaaaaaaaaaaaaaaaaaaaaaaaaaaaaaaaaaaaaaaaaaaaaaaaaaaaaaaaaa7a7afafaaaaaaaaaaaaaaaaaaaaaaaaaaaaaaaaaaaaaaaaaaaaaaaaaaaaaaaaaaaaaaaaaaaaavavavavbybybybybybyavavaaaaaaaaaaaaaeaeadadaeaeaaaaaaaaaaaaaaaaaaaaaaaaaaaaaaaaaaaaauaubKbKa5a5aaaaaaaaaaaaaaaabububebebtbtbGbGbxbxbxbxbGbGbebebQbQbQbQbQbQbGbGbxbxbGbGbububgbgbHbHa6a6aaaaaaaaaaaaaaaaavavbLbLavavaaaaaaaaaaaaaaaaaaaaaaaaaaaaaaaaaaaaaaaaaaaaaaaaaaaaaaaaaaaaaaaaaaaaaaaaaaaaaaaaaaaaaaaaafafaeaeaHaHadadaaaaalalapapaiaiakakaiaiaHaHaXaXajajaaaaajajaPaPaPaPaPaPaOaOaaaaaXaXaaaaakakananaaaaaNaNaHaHaaaaaaaaaaaaaaaaaaaaaaaaaaaaaaaaaaaaaaaaaaaa",
"aaaaaaaaaaaaaaaaaaaaaaaaaaaaaaaaaHaHaHaHaaaaaeaeayaybhbhananakakaqaqaaaabkbkalalapapaHaHajajananaHaHananafafaiaibhbhayayaaaaaNaNaaaaavavavavaaaaaNaNaaaaaaaaaaaaaaaaaPaPaaaaaaaaaaaaaaaaaaaaaaaaaaaaaaaaaaaaaaaaaaaaaaaaaaaaaaaaaaaaaaaaaaaaaaaaaaaaaaaaaaaaaaaaaaaaaaaaaaaaaaaaa7a7afafaaaaaaaaaaaaaaaaaaaaaaaaaaaaaaaaaaaaaaaaaaaaaaaaaaaaaaaaaaaaaaaaaaaaavavavavbybybybybybyavavaaaaaaaaaaaaaeaeadadaeaeaaaaaaaaaaaaaaaaaaaaaaaaaaaaaaaaaaaaauaubKbKa5a5aaaaaaaaaaaaaaaabububebebtbtbGbGbxbxbxbxbGbGbebebQbQbQbQbQbQbGbGbxbxbGbGbububgbgbHbHa6a6aaaaaaaaaaaaaaaaavavbLbLavavaaaaaaaaaaaaaaaaaaaaaaaaaaaaaaaaaaaaaaaaaaaaaaaaaaaaaaaaaaaaaaaaaaaaaaaaaaaaaaaaaaaaaaaaafafaeaeaHaHadadaaaaalalapapaiaiakakaiaiaHaHaXaXajajaaaaajajaPaPaPaPaPaPaOaOaaaaaXaXaaaaakakananaaaaaNaNaHaHaaaaaaaaaaaaaaaaaaaaaaaaaaaaaaaaaaaaaaaaaaaa",
"aaaaaaaaaaaaaaaaaaaaaaaaaaaaaaaaaaaaaaaaakakaeaeaaaaaiaiananalalaaaaalalaPaPbabaakakananaiaialalafafaaaaakakaPaPaaaaananaaaaa@a@azazbhbhaOaObhbhajajajajaaaaaaaaaaaaaaaaaaaaaaaaaaaaaaaaaaaaaaaaaaaaaaaaaaaaaaaaaaaaaaaaaaaaaaaaaaaaaaaaaaaaa@a@aDaDaDaDaMaMaMaMaMaMaMaMaMaMaDaDblblaBaBaBaBaBaBaBaBaBaBaBaBaBaBaBaBaDaDaBaBaLaLa#a#a#a#a#a#aaaaaaaaaaaaaqaqa6a6auauauaubLbLavavaaaaaaaaaaaaaaaaaYaYakakaaaaaaaaaaaaaaaaaaaaaaaaaaaaaaaaaaaaaaaabhbhbHbHbHbHa5a5aaaabhbhaaaabububebebGbGbfbfbGbGbfbfbtbtbebebQbQbQbQbGbGbtbta1a1bGbGbGbGbgbgbHbHa6a6aaaaaaaaaaaaavavbfbfbubuaaaaaaaaaaaaaaaaaaaaaaaaaaaaaaaaaaaaaaaaaaaaa#a#aNaNa@a@aaaaaaaaaaaaaaaaaaaaaaaaaaaaaaaaajajaNaNaaaaayayaHaHaaaaaaaaajajalalaPaPajajalalaeaeajajaaaaalalazazaXaXakakazazaaaaaXaXaiaiaaaaakakaaaaaeaeakakaaaaaaaaaaaaaaaaaaaaaaaaaaaaaaaaaaaaaaaaaaaa",
"aaaaaaaaaaaaaaaaaaaaaaaaaaaaaaaaaaaaaaaaakakaeaeaaaaaiaiananalalaaaaalalaPaPbabaakakananaiaialalafafaaaaakakaPaPaaaaananaaaaa@a@azazbhbhaOaObhbhajajajajaaaaaaaaaaaaaaaaaaaaaaaaaaaaaaaaaaaaaaaaaaaaaaaaaaaaaaaaaaaaaaaaaaaaaaaaaaaaaaaaaaaaa@a@aDaDaDaDaMaMaMaMaMaMaMaMaMaMaDaDblblaBaBaBaBaBaBaBaBaBaBaBaBaBaBaBaBaDaDaBaBaLaLa#a#a#a#a#a#aaaaaaaaaaaaaqaqa6a6auauauaubLbLavavaaaaaaaaaaaaaaaaaYaYakakaaaaaaaaaaaaaaaaaaaaaaaaaaaaaaaaaaaaaaaabhbhbHbHbHbHa5a5aaaabhbhaaaabububebebGbGbfbfbGbGbfbfbtbtbebebQbQbQbQbGbGbtbta1a1bGbGbGbGbgbgbHbHa6a6aaaaaaaaaaaaavavbfbfbubuaaaaaaaaaaaaaaaaaaaaaaaaaaaaaaaaaaaaaaaaaaaaa#a#aNaNa@a@aaaaaaaaaaaaaaaaaaaaaaaaaaaaaaaaajajaNaNaaaaayayaHaHaaaaaaaaajajalalaPaPajajalalaeaeajajaaaaalalazazaXaXakakazazaaaaaXaXaiaiaaaaakakaaaaaeaeakakaaaaaaaaaaaaaaaaaaaaaaaaaaaaaaaaaaaaaaaaaaaa",
"aaaaaaaaaaaaaaaaaaaaaaaaaaaaaaaaaaaaaaaaaaaaaaaaaaaaaqaqaeaeaaaaaaaaaaaaaaaaaPaPajajaPaPajajavavaPaPaaaaazazakakajajaPaPakakaaaaalalaPaPadadbhbhananalalaaaaaaaaaaaaaaaaaaaaaaaaaaaaaaaaalalaaaaaaaaaaaaaaaaaaaaaaaaaaaaaMaMa7a7a7a7a7a7aBaBaBaBa9a9bmbmaEaEaEaEblblblblblblblblboboboboa9a9blblblblblblblblblblblblbkbkbkbkbkbka7a7a7a7aeaeaOaOajajaHaHaPaPbybybHbHavavahahauauaaaaaaaaaaaaa7a7bzbzaMaMaaaaaaaaaaaaaiaiaHaHaiaiaaaaaaaaaaaaaaaaaaaaa5a5bHbHbHbHa5a5aaaaaaaabububebebGbGbGbGbGbGbububxbxbGbGbGbGbGbGbGbGbGbGbGbGbebebtbtbtbtbHbHa6a6aaaaaaaaavavaGaGbubua5a5aaaaaaaaaaaaaaaaaaaaaaaaaaaaaaaaaaaaaaaaaYaYayayakakaaaaaaaaaaaaaaaaaaaaaaaaaaaaaaaaaaaabLbLakakaaaaaNaNaaaaaaaaaqaqaNaNaaaaazazakakayayafafaiaiaaaaaXaXalalalalaPaPadadbhbhafafayayaaaaaNaNaaaaaeaealalaaaaaaaaaaaaaaaaaaaaaaaaaaaaaaaaaaaaaaaaaaaa",
"aaaaaaaaaaaaaaaaaaaaaaaaaaaaaaaaaaaaaaaaaaaaaaaaaaaaaqaqaeaeaaaaaaaaaaaaaaaaaPaPajajaPaPajajavavaPaPaaaaazazakakajajaPaPakakaaaaalalaPaPadadbhbhananalalaaaaaaaaaaaaaaaaaaaaaaaaaaaaaaaaalalaaaaaaaaaaaaaaaaaaaaaaaaaaaaaMaMa7a7a7a7a7a7aBaBaBaBa9a9bmbmaEaEaEaEblblblblblblblblboboboboa9a9blblblblblblblblblblblblbkbkbkbkbkbka7a7a7a7aeaeaOaOajajaHaHaPaPbybybHbHavavahahauauaaaaaaaaaaaaa7a7bzbzaMaMaaaaaaaaaaaaaiaiaHaHaiaiaaaaaaaaaaaaaaaaaaaaa5a5bHbHbHbHa5a5aaaaaaaabububebebGbGbGbGbGbGbububxbxbGbGbGbGbGbGbGbGbGbGbGbGbebebtbtbtbtbHbHa6a6aaaaaaaaavavaGaGbubua5a5aaaaaaaaaaaaaaaaaaaaaaaaaaaaaaaaaaaaaaaaaYaYayayakakaaaaaaaaaaaaaaaaaaaaaaaaaaaaaaaaaaaabLbLakakaaaaaNaNaaaaaaaaaqaqaNaNaaaaazazakakayayafafaiaiaaaaaXaXalalalalaPaPadadbhbhafafayayaaaaaNaNaaaaaeaealalaaaaaaaaaaaaaaaaaaaaaaaaaaaaaaaaaaaaaaaaaaaa",
"aaaaaaaaaaaaaaaaaaaaaaaaaaaaaaaaaaaaaaaaaaaaaaaaaaaaaaaaajajaaaaaaaaaaaaazazaHaHajajafafazazalalajajaaaaazazakakaYaYakakaOaOaaaaalalbhbhalalaHaHaaaaalalaiaiaaaaaaaaaaaaaaaaaaaaaaaaaaaaaHaHaaaaaaaaaaaaaaaaaaaaaaaaa@a@aLaLa7a7a7a7a7a7aBaBboboaKaKaCaCboboa7a7aBaBaBaBaBaBaBaBa7a7a7a7ajajapapaHaHaqaqaHaHaiaiaFaFaYaYafafakakaYaYazazaYaYaOaOakaka7a7aiaiajajaGaGbHbHbubuaGaGajajaaaaaaaabkbkbkbkaMaMaaaaa@a@aLaLakakakakakakakakaaaaaaaaaaaaaaaaaaaaapapbHbHbLbLavavaaaaaaaabHbHbGbGbebebKbKbxbxbxbxbububububububGbGbGbGbtbtbtbtbgbgbGbGbubuaaaabhbhbybybfbfavavaaaaaaaaaaaaaaaaaaaaaaaaaaaaaaaaaaaaaaaaaaaaaaaaaaaaajajaaaaaaaaaaaaaaaaaaaaaaaaaaaaaaaaaaaaaqaqayayaaaaajajadadaaaaaaaaaaaaayayaaaaayayajajakakajajaiaiaaaaalalalalakakaiaibAbAaqaqaFaFalalaaaaaaaaaaaaaaaaadadapapaaaaaaaaaaaaaaaaaaaaaaaaaaaaaaaaaaaaaaaa",
"aaaaaaaaaaaaaaaaaaaaaaaaaaaaaaaaaaaaaaaaaaaaaaaaaaaaaaaaajajaaaaaaaaaaaaazazaHaHajajafafazazalalajajaaaaazazakakaYaYakakaOaOaaaaalalbhbhalalaHaHaaaaalalaiaiaaaaaaaaaaaaaaaaaaaaaaaaaaaaaHaHaaaaaaaaaaaaaaaaaaaaaaaaa@a@aLaLa7a7a7a7a7a7aBaBboboaKaKaCaCboboa7a7aBaBaBaBaBaBaBaBa7a7a7a7ajajapapaHaHaqaqaHaHaiaiaFaFaYaYafafakakaYaYazazaYaYaOaOakaka7a7aiaiajajaGaGbHbHbubuaGaGajajaaaaaaaabkbkbkbkaMaMaaaaa@a@aLaLakakakakakakakakaaaaaaaaaaaaaaaaaaaaapapbHbHbLbLavavaaaaaaaabHbHbGbGbebebKbKbxbxbxbxbububububububGbGbGbGbtbtbtbtbgbgbGbGbubuaaaabhbhbybybfbfavavaaaaaaaaaaaaaaaaaaaaaaaaaaaaaaaaaaaaaaaaaaaaaaaaaaaaajajaaaaaaaaaaaaaaaaaaaaaaaaaaaaaaaaaaaaaqaqayayaaaaajajadadaaaaaaaaaaaaayayaaaaayayajajakakajajaiaiaaaaalalalalakakaiaibAbAaqaqaFaFalalaaaaaaaaaaaaaaaaadadapapaaaaaaaaaaaaaaaaaaaaaaaaaaaaaaaaaaaaaaaa",
"aaaaaaaaaaaaaaaaaaaaaaaaaaaaaaaaaaaaaaaaaaaaaaaaaaaaaeaeaaaaaaaaaaaaaqaqayayaaaaaOaOajajaOaOaYaYafafaaaaaYaYajajazazajajaOaOaaaaakakafafaaaaaaaaaaaaazazaNaNaaaaaaaaaaaaaaaaaaaaaaaaaYaYaeaeaeaeaeaeaeaeaeaea7a7aXaXa7a7a@a@a@a@a@a@afafaMaMaBaBblblaBaBa#a#aHaHajajaPaPaiaiaPaPaiaialalalalalalaeaeaeaeaeaeaNaNaeaeaNaNadadadadacacbjbjacacacacayayajajaOaOaiaiavavbHbHbIbIauaubhbha#a#bkbkbkbka7a7aaaaaMaMbkbkaLaLaOaOazazakaka@a@afafaaaaaaaaaaaaaaaaaaaaa5a5auaubLbLbybyaaaabububebebGbGbfbfa3a3bebebGbGbebebQbQbGbGbGbGbGbGbububgbgbGbGavava5a5bKbKbHbHa6a6aaaaaaaaaaaaaaaaaaaaaaaaaaaaaaaaaaaaaaaaaaaaaaaaaaaaaaaaaaaaaaaaaaaaaaaaaaaaaaaaaaaaaaaaaaaaaaaaaqaqadadaaaaadadakakaaaaaaaaaeaeadadaaaaayayaqaqaaaaaOaOaHaHbhbhbjbjajajaHaHalalbybyafafaqaqaeaeaaaaaaaaaaaaaaaaayayaqaqaaaaaaaaaaaaaaaaaaaaaaaaaaaaaaaaaaaaaaaa",
"aaaaaaaaaaaaaaaaaaaaaaaaaaaaaaaaaaaaaaaaaaaaaaaaaaaaaeaeaaaaaaaaaaaaaqaqayayaaaaaOaOajajaOaOaYaYafafaaaaaYaYajajazazajajaOaOaaaaakakafafaaaaaaaaaaaaazazaNaNaaaaaaaaaaaaaaaaaaaaaaaaaYaYaeaeaeaeaeaeaeaeaeaea7a7aXaXa7a7a@a@a@a@a@a@afafaMaMaBaBblblaBaBa#a#aHaHajajaPaPaiaiaPaPaiaialalalalalalaeaeaeaeaeaeaNaNaeaeaNaNadadadadacacbjbjacacacacayayajajaOaOaiaiavavbHbHbIbIauaubhbha#a#bkbkbkbka7a7aaaaaMaMbkbkaLaLaOaOazazakaka@a@afafaaaaaaaaaaaaaaaaaaaaa5a5auaubLbLbybyaaaabububebebGbGbfbfa3a3bebebGbGbebebQbQbGbGbGbGbGbGbububgbgbGbGavava5a5bKbKbHbHa6a6aaaaaaaaaaaaaaaaaaaaaaaaaaaaaaaaaaaaaaaaaaaaaaaaaaaaaaaaaaaaaaaaaaaaaaaaaaaaaaaaaaaaaaaaaaaaaaaaaqaqadadaaaaadadakakaaaaaaaaaeaeadadaaaaayayaqaqaaaaaOaOaHaHbhbhbjbjajajaHaHalalbybyafafaqaqaeaeaaaaaaaaaaaaaaaaayayaqaqaaaaaaaaaaaaaaaaaaaaaaaaaaaaaaaaaaaaaaaa",
"aaaaaaaaaaaaaaaaaaaaaaaaaaaaaaaaaaaaaaaaaaaaaaaaaaaaaNaNaaaaaaaaaaaaaHaHayayaaaaaeaeajajaOaOaOaOafafaaaaakakakakaYaYakakazazaaaaaHaHaeaeaaaaaaaaaaaaaaaaayayaFaFaaaaaaaaaaaaaaaaaaaaaeaeakakafafaMaMaMaMaMaMaMaMaLaLaMaMaeaebhbhakakaXaXalala@a@bkbkaDaDajajadadaNaNayayayayayayayayaNaNakakazazazazakakalalazazazazajajayayayayayayadadayaybjbjacacacacakakakakafafavavaeaebabaa7a7bkbkaKaKa7a7a@a@babaa7a7aMaMaXaXadadadadayaya#a#aMaMaaaaaaaaaaaaaaaaaaaaaaaaaaaaa6a6bybybybya5a5bebebGbGa1a1aGaGbebebebebQbQbQbQbQbQbGbGbGbGbtbtbGbGbubua5a5bIbIbHbHbhbhaaaaaaaaaaaaaaaaaaaaaaaaaaaaaaaaaaaaaaaaaaaaaaaaaaaaaaaaaaaaaaaaaaaaaaaaaaaaaaaaaaaaaaaaaaaaaaaaaaaaaaaaaqaqaaaaaaaaaaaaaaaaaaaaayayaHaHaaaaaNaNaHaHaaaaakakbhbhaPaPadadaaaaaHaHaeaealalakakaaaaakakaPaPaaaaaaaaaaaaaaaaaaaaaaaaaaaaaaaaaaaaaaaaaaaaaaaaaaaaaaaaaaaa",
"aaaaaaaaaaaaaaaaaaaaaaaaaaaaaaaaaaaaaaaaaaaaaaaaaaaaaNaNaaaaaaaaaaaaaHaHayayaaaaaeaeajajaOaOaOaOafafaaaaakakakakaYaYakakazazaaaaaHaHaeaeaaaaaaaaaaaaaaaaayayaFaFaaaaaaaaaaaaaaaaaaaaaeaeakakafafaMaMaMaMaMaMaMaMaLaLaMaMaeaebhbhakakaXaXalala@a@bkbkaDaDajajadadaNaNayayayayayayayayaNaNakakazazazazakakalalazazazazajajayayayayayayadadayaybjbjacacacacakakakakafafavavaeaebabaa7a7bkbkaKaKa7a7a@a@babaa7a7aMaMaXaXadadadadayaya#a#aMaMaaaaaaaaaaaaaaaaaaaaaaaaaaaaa6a6bybybybya5a5bebebGbGa1a1aGaGbebebebebQbQbQbQbQbQbGbGbGbGbtbtbGbGbubua5a5bIbIbHbHbhbhaaaaaaaaaaaaaaaaaaaaaaaaaaaaaaaaaaaaaaaaaaaaaaaaaaaaaaaaaaaaaaaaaaaaaaaaaaaaaaaaaaaaaaaaaaaaaaaaaaaaaaaaaqaqaaaaaaaaaaaaaaaaaaaaayayaHaHaaaaaNaNaHaHaaaaakakbhbhaPaPadadaaaaaHaHaeaealalakakaaaaakakaPaPaaaaaaaaaaaaaaaaaaaaaaaaaaaaaaaaaaaaaaaaaaaaaaaaaaaaaaaaaaaa",
"aaaaaaaaaaaaaaaaaaaaaaaaaaaaaaaaaaaaaaaaaaaaaaaaaaaaakakaaaaaaaaaaaaauauaeaeaaaaalalaLaLa7a7aiaiaqaqbhbhaNaNaPaPazazajajavavaaaaaiaialalaaaaaaaaaaaaaaaaaXaXaaaaaaaaaaaaaaaaaaaaaaaaazaza@a@aLaLaLaLaLaLaPaPayayaNaNbabaafafaOaObhbhakakalala#a#a7a7aBaBaLaLayayayayaNaNayayaNaNayayalalakakakakalalaOaOakakalalaOaOayayadadadadadadayaybjbjadadacacadadaeaeazazazazajajaMaMaCaCbkbkaKaKaBaBa#a#aaaaajajajajbhbhadadayayayayayayafafaLaLaaaaaaaaaaaaaaaaaaaaaaaaaaaaaaaaaaaaauauauaubGbGbGbGbebeaGaGbKbKbebebQbQbQbQbObObGbGbtbtbgbgbGbGbububHbHbHbHaaaaaaaaaaaaaaaaaaaaaaaaaaaaaaaaaaaaaaaaaaaaazazaaaaaaaaaaaaaaaaaaaaaaaaaaaaaaaaaaaaaaaaaaaaaaaaaaaaaaaaaaaaaaaaaaaaaaaaaaaaaaaaaaaaaaaaadadaaaaaaaaadadaHaHaaaaaaaaaHaHajajaXaXaaaaananalalaNaNazazaaaaalalaOaOaaaaaaaaaaaaaaaaaaaaaaaaaaaaaaaaaaaaaaaaaaaaaaaaaaaaaaaaaaaa",
"aaaaaaaaaaaaaaaaaaaaaaaaaaaaaaaaaaaaaaaaaaaaaaaaaaaaakakaaaaaaaaaaaaauauaeaeaaaaalalaLaLa7a7aiaiaqaqbhbhaNaNaPaPazazajajavavaaaaaiaialalaaaaaaaaaaaaaaaaaXaXaaaaaaaaaaaaaaaaaaaaaaaaazaza@a@aLaLaLaLaLaLaPaPayayaNaNbabaafafaOaObhbhakakalala#a#a7a7aBaBaLaLayayayayaNaNayayaNaNayayalalakakakakalalaOaOakakalalaOaOayayadadadadadadayaybjbjadadacacadadaeaeazazazazajajaMaMaCaCbkbkaKaKaBaBa#a#aaaaajajajajbhbhadadayayayayayayafafaLaLaaaaaaaaaaaaaaaaaaaaaaaaaaaaaaaaaaaaauauauaubGbGbGbGbebeaGaGbKbKbebebQbQbQbQbObObGbGbtbtbgbgbGbGbububHbHbHbHaaaaaaaaaaaaaaaaaaaaaaaaaaaaaaaaaaaaaaaaaaaaazazaaaaaaaaaaaaaaaaaaaaaaaaaaaaaaaaaaaaaaaaaaaaaaaaaaaaaaaaaaaaaaaaaaaaaaaaaaaaaaaaaaaaaaaaadadaaaaaaaaadadaHaHaaaaaaaaaHaHajajaXaXaaaaananalalaNaNazazaaaaalalaOaOaaaaaaaaaaaaaaaaaaaaaaaaaaaaaaaaaaaaaaaaaaaaaaaaaaaaaaaaaaaa",
"aaaaaaaaaaaaaaaaaaaaaaaaaaaaaaaaaaaaaaaaaaaaaaaaaaaaaaaaaaaaaaaaaaaaaeaeaaaaaaaaaeaea@a@azazaHaHaaaaaiaiaNaNaaaaalalajajavavaaaaaiaialalaaaaaaaaaaaaaaaaaaaaajajaaaaaaaaaaaaaaaaaaaaayaya@a@aLaLa7a7babaayayayayadada@a@akakaHaHaeaeaaaaaHaHbhbha#a#blblaMaMafafaXaXayayayayayayaXaXajajaYaYaYaYalalalalakakaXaXaNaNaXaXaeaeaNaNadadalalayayacacayayalalbzbzbBbBalala7a7aLaLaDaDaXaXa7a7a#a#aaaabhbhajajajajadadadadayayayayadadalalaMaMaiaiaaaaaaaaaaaaaaaaaaaaaaaaa5a5auauavava1a1aWaWbGbGbGbGbfbfa3a3bebebQbQbQbQbQbQbEbEbtbtbGbGbububububPbPaWaWauauaaaaaaaaaaaaaaaaaaaaaaaaaaaaaaaaaaaaadadacacaHaHaaaaaaaaaaaaaaaaaaaaaaaaaaaaaaaaaaaaaaaaaaaaaaaaaaaaaaaaaaaaaaaaaaaaaaaaaaaaaaaaaaaaayayaaaaaaaaadadaHaHaaaaaaaaadadaOaOayayaaaaaHaHaeaeajajananaaaaaPaPaiaiaaaaaaaaaaaaaaaaaaaaaaaaaaaaaaaaaaaaaaaaaaaaaaaaaaaaaaaaaaaa",
"aaaaaaaaaaaaaaaaaaaaaaaaaaaaaaaaaaaaaaaaaaaaaaaaaaaaaaaaaaaaaaaaaaaaaeaeaaaaaaaaaeaea@a@azazaHaHaaaaaiaiaNaNaaaaalalajajavavaaaaaiaialalaaaaaaaaaaaaaaaaaaaaajajaaaaaaaaaaaaaaaaaaaaayaya@a@aLaLa7a7babaayayayayadada@a@akakaHaHaeaeaaaaaHaHbhbha#a#blblaMaMafafaXaXayayayayayayaXaXajajaYaYaYaYalalalalakakaXaXaNaNaXaXaeaeaNaNadadalalayayacacayayalalbzbzbBbBalala7a7aLaLaDaDaXaXa7a7a#a#aaaabhbhajajajajadadadadayayayayadadalalaMaMaiaiaaaaaaaaaaaaaaaaaaaaaaaaa5a5auauavava1a1aWaWbGbGbGbGbfbfa3a3bebebQbQbQbQbQbQbEbEbtbtbGbGbububububPbPaWaWauauaaaaaaaaaaaaaaaaaaaaaaaaaaaaaaaaaaaaadadacacaHaHaaaaaaaaaaaaaaaaaaaaaaaaaaaaaaaaaaaaaaaaaaaaaaaaaaaaaaaaaaaaaaaaaaaaaaaaaaaaaaaaaaaaayayaaaaaaaaadadaHaHaaaaaaaaadadaOaOayayaaaaaHaHaeaeajajananaaaaaPaPaiaiaaaaaaaaaaaaaaaaaaaaaaaaaaaaaaaaaaaaaaaaaaaaaaaaaaaaaaaaaaaa",
"aaaaaaaaaaaaaaaaaaaaaaaaaaaaaaaaaaaaaaaaaaaaaaaaaaaaaaaaaaaaaaaaaaaaaXaXaaaaaaaaaeaebabaafafaOaOaaaaafafaeaeaaaaaeaeaaaaapapaOaOafafalalaaaaaaaaaaaaaaaaaaaaayayaaaaaaaaaaaaaaaaaaaaa7a7aMaMaOaOaaaaaiaialalalalajajajaja#a#bhbhaiaialalbhbhaHaHa#a#bpbpaBaBaiaiaOaOaOaOaOaOalalaOaOakakaYaYaYaYakakakakaYaYakakakakajajajajalaladadayayadadayayaXaXbjbjaXaXa7a7bzbza7a7aLaLaLaLajaja@a@aaaaaaaaaqaqajajazazadadayayayayadadadadalalaPaPaiaiaaaaaaaaaaaaaaaaaaaaaaaaa6a6bHbHbHbHbubua5a5bububHbHbGbGbfbfa1a1bQbQbQbQbebebtbtbtbtbHbHaWaWa5a5bxbxbHbHauauaaaaaaaaaaaaaaaaaaaaaaaaaaaaaaaaaaaaazazaaaaaaaaaaaaaaaaaaaaaaaaaaaaaaaaaaaaaaaaaaaaaaaaaaaaaaaaaaaaaaaaaaaaaaaaaaaaaaaaaaaaaaaaaaaaaaaaaaaaaaaaaHaHaaaaaaaaaaaaadadaHaHaHaHaaaaaqaqaNaNaaaaaaaaaaaaaaaaaaaaaaaaaaaaaaaaaaaaaaaaaaaaaaaaaaaaaaaaaaaaaaaaaaaaaaaaaaaaaaaa",
"aaaaaaaaaaaaaaaaaaaaaaaaaaaaaaaaaaaaaaaaaaaaaaaaaaaaaaaaaaaaaaaaaaaaaXaXaaaaaaaaaeaebabaafafaOaOaaaaafafaeaeaaaaaeaeaaaaapapaOaOafafalalaaaaaaaaaaaaaaaaaaaaayayaaaaaaaaaaaaaaaaaaaaa7a7aMaMaOaOaaaaaiaialalalalajajajaja#a#bhbhaiaialalbhbhaHaHa#a#bpbpaBaBaiaiaOaOaOaOaOaOalalaOaOakakaYaYaYaYakakakakaYaYakakakakajajajajalaladadayayadadayayaXaXbjbjaXaXa7a7bzbza7a7aLaLaLaLajaja@a@aaaaaaaaaqaqajajazazadadayayayayadadadadalalaPaPaiaiaaaaaaaaaaaaaaaaaaaaaaaaa6a6bHbHbHbHbubua5a5bububHbHbGbGbfbfa1a1bQbQbQbQbebebtbtbtbtbHbHaWaWa5a5bxbxbHbHauauaaaaaaaaaaaaaaaaaaaaaaaaaaaaaaaaaaaaazazaaaaaaaaaaaaaaaaaaaaaaaaaaaaaaaaaaaaaaaaaaaaaaaaaaaaaaaaaaaaaaaaaaaaaaaaaaaaaaaaaaaaaaaaaaaaaaaaaaaaaaaaaHaHaaaaaaaaaaaaadadaHaHaHaHaaaaaqaqaNaNaaaaaaaaaaaaaaaaaaaaaaaaaaaaaaaaaaaaaaaaaaaaaaaaaaaaaaaaaaaaaaaaaaaaaaaaaaaaaaaa",
"aaaaaaaaaaaaaaaaaaaaaaaaaaaaaaaaaaaaaaaaaaaaaaaaaaaaaaaaaaaaaaaaaaaaalalaaaaaaaaaeaea@a@aaaaaaaaaaaaaHaHaOaOaaaaaOaOaaaaajajayayananakakaaaaaaaaaaaaaaaaaaaaaaaaaaaaaaaaaaaaaaaaa$a$aLaLaMaMaMaMaHaHazazakakaOaOa#a#ajajbhbhafafa@a@ajajaeaebhbhbabaaKaKa7a7aHaHaYaYazazakakaYaYakakaYaYakakazazazazaYaYakakaYaYaYaYaYaYaYaYakakayayadadakakaOaOaXaXalalaNaNaNaNakakadadalalazazakakaaaababaaaaaaHaHafafa#a#ajaja@a@aYaYadadayayafafajajaqaqaaaaaaaaaaaaaaaaaaaaaaaaaaaaaqaqaPaPaaaaaaaaaaaaauaubHbHbebea1a1bebebQbQbGbGbtbtbHbHavavaaaaaaaaa6a6avavapapaaaaaaaaaaaaaaaaaaaaaaaaaaaaaaaaaaaaaaaaaaaaaaaaaaaaaaaaaaaaaaaaaaaaaaaaaaaaaHaHaaaaaaaaaaaaaaaaaaaaaaaaaaaaaaaaaaaaaaaaayayaaaaaaaaaaaaaaaaaaaaaaaaaaaaaaaaaaaaakakaaaaaaaaaaaaaaaaaaaaaaaaaaaaaaaaaaaaaaaaaaaaaaaaaaaaaaaaaaaaaaaaaaaaaaaaaaaaaaaaaaaaaaaaaaaaaaaaaaaa",
"aaaaaaaaaaaaaaaaaaaaaaaaaaaaaaaaaaaaaaaaaaaaaaaaaaaaaaaaaaaaaaaaaaaaalalaaaaaaaaaeaea@a@aaaaaaaaaaaaaHaHaOaOaaaaaOaOaaaaajajayayananakakaaaaaaaaaaaaaaaaaaaaaaaaaaaaaaaaaaaaaaaaa$a$aLaLaMaMaMaMaHaHazazakakaOaOa#a#ajajbhbhafafa@a@ajajaeaebhbhbabaaKaKa7a7aHaHaYaYazazakakaYaYakakaYaYakakazazazazaYaYakakaYaYaYaYaYaYaYaYakakayayadadakakaOaOaXaXalalaNaNaNaNakakadadalalazazakakaaaababaaaaaaHaHafafa#a#ajaja@a@aYaYadadayayafafajajaqaqaaaaaaaaaaaaaaaaaaaaaaaaaaaaaqaqaPaPaaaaaaaaaaaaauaubHbHbebea1a1bebebQbQbGbGbtbtbHbHavavaaaaaaaaa6a6avavapapaaaaaaaaaaaaaaaaaaaaaaaaaaaaaaaaaaaaaaaaaaaaaaaaaaaaaaaaaaaaaaaaaaaaaaaaaaaaaHaHaaaaaaaaaaaaaaaaaaaaaaaaaaaaaaaaaaaaaaaaayayaaaaaaaaaaaaaaaaaaaaaaaaaaaaaaaaaaaaakakaaaaaaaaaaaaaaaaaaaaaaaaaaaaaaaaaaaaaaaaaaaaaaaaaaaaaaaaaaaaaaaaaaaaaaaaaaaaaaaaaaaaaaaaaaaaaaaaaaaa",
"aaaaaaaaaaaaaaaaaaaaaaaaaaaaaaaaaaaaaaaaaaaaaaaaaaaaaaaaaaaaaaaaaaaaaaaaaaaaaaaaajajaaaaaaaaaaaaaaaaaaaaaaaaaaaaaaaaaaaaaaaaaaaaaaaaaPaPaXaXajajaaaaaaaaaaaaaaaaaaaaaaaaa#a#alalaLaLaLaLa$a$a#a#alalazazalalakakaHaHafafa@a@a@a@a@a@a$a$a@a@azazaaaaaLaLbkbkbabaakakazazazazakakaYaYaYaYazazakakaYaYazazakakakakakakazazazazakakaeaeaNaNalalalalaqaqaPaPaeaeadadaXaXalaladadaOaOakakaLaLaaaaa$a$aXaXa$a$a7a7blblbBbBa7a7alalazazbhbha#a#ajajaaaaaaaaaaaaaaaaaaaaaaaaaaaaaaaaaaaaaaaaaaaaaaaaaaaabububebea1a1a1a1bGbGbububHbHavavaaaaaaaaaaaaaaaaaaaaaaaaaaaaaaaaaaaaaaaaaaaaaaaaaaaaaaaaaaaaaaaaaaaaaaaaaaaabjbjakakaaaaaaaaaaaaaaaaalalayayaHaHaaaaaaaaaaaaaaaaaaaaaaaaaaaaaaaaadadaaaaaaaaaaaaaaaaaaaaaaaaaaaaaaaaaaaaajajaaaaaaaaaaaaaaaaaaaaaaaaaaaaaaaaaaaaaaaaaaaaaaaaaaaaaaaaaaaaaaaaaaaaaaaaaaaaaaaaaaaaaaaaaaaaaaaaaaaa",
"aaaaaaaaaaaaaaaaaaaaaaaaaaaaaaaaaaaaaaaaaaaaaaaaaaaaaaaaaaaaaaaaaaaaaaaaaaaaaaaaajajaaaaaaaaaaaaaaaaaaaaaaaaaaaaaaaaaaaaaaaaaaaaaaaaaPaPaXaXajajaaaaaaaaaaaaaaaaaaaaaaaaa#a#alalaLaLaLaLa$a$a#a#alalazazalalakakaHaHafafa@a@a@a@a@a@a$a$a@a@azazaaaaaLaLbkbkbabaakakazazazazakakaYaYaYaYazazakakaYaYazazakakakakakakazazazazakakaeaeaNaNalalalalaqaqaPaPaeaeadadaXaXalaladadaOaOakakaLaLaaaaa$a$aXaXa$a$a7a7blblbBbBa7a7alalazazbhbha#a#ajajaaaaaaaaaaaaaaaaaaaaaaaaaaaaaaaaaaaaaaaaaaaaaaaaaaaabububebea1a1a1a1bGbGbububHbHavavaaaaaaaaaaaaaaaaaaaaaaaaaaaaaaaaaaaaaaaaaaaaaaaaaaaaaaaaaaaaaaaaaaaaaaaaaaaabjbjakakaaaaaaaaaaaaaaaaalalayayaHaHaaaaaaaaaaaaaaaaaaaaaaaaaaaaaaaaadadaaaaaaaaaaaaaaaaaaaaaaaaaaaaaaaaaaaaajajaaaaaaaaaaaaaaaaaaaaaaaaaaaaaaaaaaaaaaaaaaaaaaaaaaaaaaaaaaaaaaaaaaaaaaaaaaaaaaaaaaaaaaaaaaaaaaaaaaaa",
"aaaaaaaaaaaaaaaaaaaaaaaaaaaaaaaaaaaaaaaaaaaaaaaaaaaaaaaaaaaaaaaaaaaaaaaaaaaaaaaaaaaaaaaaaaaaaaaaaaaaaaaaaaaaaaaaaaaaaaaaaaaaaaaaaaaaafafacacaoaoaaaaaaaaaaaaaaaaaaaaa@a@a(a(blblaLaLaLaLa@a@afafaPaPaqaqananbhbhakakaHaHa@a@a@a@aXaXbkbka7a7aMaMbabaaMaMbBbBaMaMaLaLazazakakazazazazaYaYaOaOaYaYazazazazazazazazaYaYazazakakaOaOakakaXaXbjbjaXaXaeaeaPaPapapbabaayayajajaeaeaNaNaLaLaOaOaLaLa$a$aMaMaLaLaBaBaBaBbkbkaLaLa@a@a#a#a7a7a7a7blbla#a#aaaaaaaaaaaaaaaaaaaaaaaaaaaaaaaaaaaaaaaaaaaaaaaaaaaabububGbGbgbgaWaWbgbgavavaaaaaaaaaaaaaaaaaaaaaaaaaaaaaaaaaaaaaaaaaaaaaaaaaaaaaaaaaaaaaaaaaaaaaaaaaaaaaaaaakaka@a@aaaaaaaaaaaaaaaaaaaaakakananaaaaaaaaaaaaaaaaaaaaaaaaaaaaaaaaajajaaaaaaaaaaaaaaaaaaaaaaaaaaaaaaaaaaaaapapaaaaaaaaaaaaaaaaaaaaaaaaaaaaaaaaaaaaaaaaaaaaaaaaaaaaaaaaaaaaaaaaaaaaaaaaaaaaaaaaaaaaaaaaaaaaaaaaaaaa",
"aaaaaaaaaaaaaaaaaaaaaaaaaaaaaaaaaaaaaaaaaaaaaaaaaaaaaaaaaaaaaaaaaaaaaaaaaaaaaaaaaaaaaaaaaaaaaaaaaaaaaaaaaaaaaaaaaaaaaaaaaaaaaaaaaaaaafafacacaoaoaaaaaaaaaaaaaaaaaaaaa@a@a(a(blblaLaLaLaLa@a@afafaPaPaqaqananbhbhakakaHaHa@a@a@a@aXaXbkbka7a7aMaMbabaaMaMbBbBaMaMaLaLazazakakazazazazaYaYaOaOaYaYazazazazazazazazaYaYazazakakaOaOakakaXaXbjbjaXaXaeaeaPaPapapbabaayayajajaeaeaNaNaLaLaOaOaLaLa$a$aMaMaLaLaBaBaBaBbkbkaLaLa@a@a#a#a7a7a7a7blbla#a#aaaaaaaaaaaaaaaaaaaaaaaaaaaaaaaaaaaaaaaaaaaaaaaaaaaabububGbGbgbgaWaWbgbgavavaaaaaaaaaaaaaaaaaaaaaaaaaaaaaaaaaaaaaaaaaaaaaaaaaaaaaaaaaaaaaaaaaaaaaaaaaaaaaaaaakaka@a@aaaaaaaaaaaaaaaaaaaaakakananaaaaaaaaaaaaaaaaaaaaaaaaaaaaaaaaajajaaaaaaaaaaaaaaaaaaaaaaaaaaaaaaaaaaaaapapaaaaaaaaaaaaaaaaaaaaaaaaaaaaaaaaaaaaaaaaaaaaaaaaaaaaaaaaaaaaaaaaaaaaaaaaaaaaaaaaaaaaaaaaaaaaaaaaaaaa",
"aaaaaaaaaaaaaaaaaaaaaaaaaaaaaaaaaaaaaaaaaaaaaaaaaaaaaaaaaaaaaaaaaaaaaaaaaaaaaaaaaaaaaaaaaaaaaaaaaaaaaaaaaaaaaaaaaaaaaaaaaaaaaaaaaaaaaaaaaaaaananaaaaaaaaaaaaaaaaa#a#aCaCaKaKaKaKaMaMaMaMa#a#aOaOakakaLaLaMaMaHaHbhbhbhbha#a#aMaMblblblblbpbpaCaCa@a@a$a$aCaCaBaBaLaLakakajajajajakakajajajajakakaLaLaMaMaMaMaMaMaMaMaMaMa@a@a@a@a@a@aMaMa#a#a$a$aMaMa#a#a@a@aMaMa$a$aMaMa@a@aMaMaMaMa@a@a@a@a$a$a$a$a@a@a$a$a$a$a#a#a7a7bkbkbkbkblblaKaKaCaCaLaLaaaaaaaaaaaaaaaaaaaaaaaaaaaaaaaaaaaaaaaaaaaaaaaaaaaabububfbfbebebHbHbHbHa6a6aaaaaaaaaaaaaaaaaaaaaaaaaaaaaaaaaaaaaaaaaaaaaaaaaaaaaaaaaaaaaaaaaaaaaaaaaaaaaaaaaaaaaaaaaaaaaaaaaaaaaaaaaaaaaaaaaaaaaaaaaaaaaaaaaaaaaaaaaaaaaaaaakakaaaaaaaaaaaaaaaaaaaaaaaaaaaaaaaaaaaaaaaaaaaaaaaaaaaaaaaaaaaaaaaaaaaaaaaaaaaaaaaaaaaaaaaaaaaaaaaaaaaaaaaaaaaaaaaaaaaaaaaaaaaaaaaaaaaaaaaaaaaaaaaa",
"aaaaaaaaaaaaaaaaaaaaaaaaaaaaaaaaaaaaaaaaaaaaaaaaaaaaaaaaaaaaaaaaaaaaaaaaaaaaaaaaaaaaaaaaaaaaaaaaaaaaaaaaaaaaaaaaaaaaaaaaaaaaaaaaaaaaaaaaaaaaananaaaaaaaaaaaaaaaaa#a#aCaCaKaKaKaKaMaMaMaMa#a#aOaOakakaLaLaMaMaHaHbhbhbhbha#a#aMaMblblblblbpbpaCaCa@a@a$a$aCaCaBaBaLaLakakajajajajakakajajajajakakaLaLaMaMaMaMaMaMaMaMaMaMa@a@a@a@a@a@aMaMa#a#a$a$aMaMa#a#a@a@aMaMa$a$aMaMa@a@aMaMaMaMa@a@a@a@a$a$a$a$a@a@a$a$a$a$a#a#a7a7bkbkbkbkblblaKaKaCaCaLaLaaaaaaaaaaaaaaaaaaaaaaaaaaaaaaaaaaaaaaaaaaaaaaaaaaaabububfbfbebebHbHbHbHa6a6aaaaaaaaaaaaaaaaaaaaaaaaaaaaaaaaaaaaaaaaaaaaaaaaaaaaaaaaaaaaaaaaaaaaaaaaaaaaaaaaaaaaaaaaaaaaaaaaaaaaaaaaaaaaaaaaaaaaaaaaaaaaaaaaaaaaaaaaaaaaaaaaakakaaaaaaaaaaaaaaaaaaaaaaaaaaaaaaaaaaaaaaaaaaaaaaaaaaaaaaaaaaaaaaaaaaaaaaaaaaaaaaaaaaaaaaaaaaaaaaaaaaaaaaaaaaaaaaaaaaaaaaaaaaaaaaaaaaaaaaaaaaaaaaaa",
"aaaaaaaaaaaaaaaaaaaaaaaaaaaaaaaaaaaaaaaaaaaaaaaaaaaaaaaaaaaaaaaaaaaaaaaaaaaaaaaaaaaaaaaaaaaaaaaaaaaaaaaaaaaaaaaaaaaaaaaaaaaaaaaaaaaaaaaaaaaaaaaaaaaaaaaaaaaaaaaaaMaMaCaCaZaZaBaBaLaLaLaLaLaLaLaLaLaLaDaDaDaDaLaLafafaLaLa@a@aMaMaDaDaBaBaBaBaBaBaDaDa$a$aDaDaKaKa$a$a$a$a@a@a#a#a#a#aMaMaMaMaMaMa7a7a9a9a9a9a9a9blbla9a9aKaKaKaKaKaKaKaKblblblblblblaEaEblblblblboboboboboboaEaEboboawawblbla8a8bkbka7a7a@a@aLaLaLaLaLaLaBaBaBaBaBaBbkbka7a7aLaLaaaaaaaaaaaaaaaaaaaaaaaaaaaaaaaaaaaaaaaaaaaaaaaaaaaaa6a6bububHbHbGbGbubua5a5aaaaaaaaaaaaaaaaaaaaaaaaaaaaaaaaaaaaaaaaaaaaaaaaaaaaaaaaaaaaaaaaaaaaaaaaaaaaaaaaaaaaaaaaaaaaaaaaaaaaaaaaaaaaaaaaaaaaaaaaaXaXadadaaaaaaaaaaaaaaaaakakaaaaaaaaaaaaaaaaaaaaaaaaaaaaaaaaaaaaaaaaaaaaaaaaaaaaaaaaaaaaaaaaaaaaaaaaaaaaaaaaaaaaaaaaaaaaaaaaaaaaaaaaaaaaaaaaaaaaaaaaaaaaaaaaaaaaaaaaaaaaaaaa",
"aaaaaaaaaaaaaaaaaaaaaaaaaaaaaaaaaaaaaaaaaaaaaaaaaaaaaaaaaaaaaaaaaaaaaaaaaaaaaaaaaaaaaaaaaaaaaaaaaaaaaaaaaaaaaaaaaaaaaaaaaaaaaaaaaaaaaaaaaaaaaaaaaaaaaaaaaaaaaaaaaMaMaCaCaZaZaBaBaLaLaLaLaLaLaLaLaLaLaDaDaDaDaLaLafafaLaLa@a@aMaMaDaDaBaBaBaBaBaBaDaDa$a$aDaDaKaKa$a$a$a$a@a@a#a#a#a#aMaMaMaMaMaMa7a7a9a9a9a9a9a9blbla9a9aKaKaKaKaKaKaKaKblblblblblblaEaEblblblblboboboboboboaEaEboboawawblbla8a8bkbka7a7a@a@aLaLaLaLaLaLaBaBaBaBaBaBbkbka7a7aLaLaaaaaaaaaaaaaaaaaaaaaaaaaaaaaaaaaaaaaaaaaaaaaaaaaaaaa6a6bububHbHbGbGbubua5a5aaaaaaaaaaaaaaaaaaaaaaaaaaaaaaaaaaaaaaaaaaaaaaaaaaaaaaaaaaaaaaaaaaaaaaaaaaaaaaaaaaaaaaaaaaaaaaaaaaaaaaaaaaaaaaaaaaaaaaaaaXaXadadaaaaaaaaaaaaaaaaakakaaaaaaaaaaaaaaaaaaaaaaaaaaaaaaaaaaaaaaaaaaaaaaaaaaaaaaaaaaaaaaaaaaaaaaaaaaaaaaaaaaaaaaaaaaaaaaaaaaaaaaaaaaaaaaaaaaaaaaaaaaaaaaaaaaaaaaaaaaaaaaaa",
"aaaaaaaaaaaaaaaaaaaaaaaaaaaaaaaaaaaaaaaaaaaaaaaaaaaaaaaaaaaaaaaaaaaaaaaaaaaaaaaaaaaaaaaaaaaaaaaaaaaaaaaaaaaaaaaaaaaaaaaaaaaaaaaaaaaaaaaaaaaaaaaaaaaaaaaaaaaaaaaaaMaMaCaCaZaZaBaBaBaBawawaEaEawawbpbpbpbpbpbpbpbpblblblblaCaCaCaCaDaDaLaLaMaMa@a@aMaMa$a$aBaBa9a9aDaDaLaLaLaLaKaKa9a9a!a!a9a9a9a9aKaKa9a9a^a^blbla9a9a9a9a9a9a9a9a9a9a9a9a^a^a^a^a^a^bpbpbpbpboboboboa%a%a%a%a%a%a%a%a9a9bobobpbpbpbpa9a9a9a9awawaCaCaBaBaMaMaMaMaBaBa@a@aMaMaMaMaaaaaaaaaaaaaaaaaaaaaaaaaaaaaaaaaaaaaaaaaaaaaaaaaaaaaaaaaWaWbububgbga6a6aaaaaaaaaaaaaaaaaaaaaaaaaaaaaaaaaaaaaaaaaaaaaaaaaaaaaaaaaaaaaaaaaaaaaaaaaaaaaaaaaaaaaaaaaaaaaaaaaaaaaaaaaaaaaaaaaaaaaaaaaaaaaoaoazazaaaaaaaaaaaaaaaaaXaXaaaaaaaaaaaaaaaaaaaaaaaaaaaaaaaaaaaaaaaaaaaaaaaaaaaaaaaaaaaaaaaaaaaaaaaaaaaaaaaaaaaaaaaaaaaaaaaaaaaaaaaaaaaaaaaaaaaaaaaaaaaaaaaaaaaaaaaaaaaaaaaa",
"aaaaaaaaaaaaaaaaaaaaaaaaaaaaaaaaaaaaaaaaaaaaaaaaaaaaaaaaaaaaaaaaaaaaaaaaaaaaaaaaaaaaaaaaaaaaaaaaaaaaaaaaaaaaaaaaaaaaaaaaaaaaaaaaaaaaaaaaaaaaaaaaaaaaaaaaaaaaaaaaaMaMaCaCaZaZaBaBaBaBawawaEaEawawbpbpbpbpbpbpbpbpblblblblaCaCaCaCaDaDaLaLaMaMa@a@aMaMa$a$aBaBa9a9aDaDaLaLaLaLaKaKa9a9a!a!a9a9a9a9aKaKa9a9a^a^blbla9a9a9a9a9a9a9a9a9a9a9a9a^a^a^a^a^a^bpbpbpbpboboboboa%a%a%a%a%a%a%a%a9a9bobobpbpbpbpa9a9a9a9awawaCaCaBaBaMaMaMaMaBaBa@a@aMaMaMaMaaaaaaaaaaaaaaaaaaaaaaaaaaaaaaaaaaaaaaaaaaaaaaaaaaaaaaaaaWaWbububgbga6a6aaaaaaaaaaaaaaaaaaaaaaaaaaaaaaaaaaaaaaaaaaaaaaaaaaaaaaaaaaaaaaaaaaaaaaaaaaaaaaaaaaaaaaaaaaaaaaaaaaaaaaaaaaaaaaaaaaaaaaaaaaaaaoaoazazaaaaaaaaaaaaaaaaaXaXaaaaaaaaaaaaaaaaaaaaaaaaaaaaaaaaaaaaaaaaaaaaaaaaaaaaaaaaaaaaaaaaaaaaaaaaaaaaaaaaaaaaaaaaaaaaaaaaaaaaaaaaaaaaaaaaaaaaaaaaaaaaaaaaaaaaaaaaaaaaaaaa",
"aaaaaaaaaaaaaaaaaaaaaaaaaaaaaaaaaaaaaaaaaaaaaaaaaaaaaaaaaaaaaaaaaaaaaaaaaaaaaaaaaaaaaaaaaaaaaaaaaaaaaaaaaaaaaaaaaaaaaaaaaaaaaaaaaaaaaaaaaaaaaaaaaaaaaaaaaaaaaaaaaLaLaCaCaCaCaBaBaDaDaKaKaBaBaBaBaBaBa9a9a9a9a9a9a9a9a9a9a9a9bmbma9a9aCaCaCaCblblaLaLaBaBbpbpbpbpa9a9a9a9aCaCaDaDaBaBaKaKa9a9a9a9a9a9aKaKaKaKa9a9blblbpbpa9a9a9a9a9a9a4a4a4a4a4a4a4a4a9a9a9a9a9a9a9a9a9a9a9a9a9a9a9a9a9a9a9a9a9a9a9a9awawbpbpaKaKbpbpbpbpblblaCaCaMaMaDaDa7a7aLaLaaaaaaaaaaaaaaaaaaaaaaaaaaaaaaaaaaaaaaaaaaaaaaaaaaaaaaaabububKbKbubua6a6aaaaaaaaaaaaaaaaaaaaaaaaaaaaaaaaaaaaaaaaaaaaaaaaaaaaaaaaaaaaaaaaaaaaaaaaaaaaaaaaaaaaaaaaaaaaaaaaaaaaaaaaaaaaaaaaaaaaaaaaaaaaaiaiaaaaaaaaaaaaaaaaaaaaaiaiaaaaaaaaaaaaaaaaaaaaaaaaaaaaaaaaaaaaaaaaaaaaaaaaaaaaaaaaaaaaaaaaaaaaaaaaaaaaaaaaaaaaaaaaaaaaaaaaaaaaaaaaaaaaaaaaaaaaaaaaaaaaaaaaaaaaaaaaaaaaaaaa",
"aaaaaaaaaaaaaaaaaaaaaaaaaaaaaaaaaaaaaaaaaaaaaaaaaaaaaaaaaaaaaaaaaaaaaaaaaaaaaaaaaaaaaaaaaaaaaaaaaaaaaaaaaaaaaaaaaaaaaaaaaaaaaaaaaaaaaaaaaaaaaaaaaaaaaaaaaaaaaaaaaLaLaCaCaCaCaBaBaDaDaKaKaBaBaBaBaBaBa9a9a9a9a9a9a9a9a9a9a9a9bmbma9a9aCaCaCaCblblaLaLaBaBbpbpbpbpa9a9a9a9aCaCaDaDaBaBaKaKa9a9a9a9a9a9aKaKaKaKa9a9blblbpbpa9a9a9a9a9a9a4a4a4a4a4a4a4a4a9a9a9a9a9a9a9a9a9a9a9a9a9a9a9a9a9a9a9a9a9a9a9a9awawbpbpaKaKbpbpbpbpblblaCaCaMaMaDaDa7a7aLaLaaaaaaaaaaaaaaaaaaaaaaaaaaaaaaaaaaaaaaaaaaaaaaaaaaaaaaaabububKbKbubua6a6aaaaaaaaaaaaaaaaaaaaaaaaaaaaaaaaaaaaaaaaaaaaaaaaaaaaaaaaaaaaaaaaaaaaaaaaaaaaaaaaaaaaaaaaaaaaaaaaaaaaaaaaaaaaaaaaaaaaaaaaaaaaaiaiaaaaaaaaaaaaaaaaaaaaaiaiaaaaaaaaaaaaaaaaaaaaaaaaaaaaaaaaaaaaaaaaaaaaaaaaaaaaaaaaaaaaaaaaaaaaaaaaaaaaaaaaaaaaaaaaaaaaaaaaaaaaaaaaaaaaaaaaaaaaaaaaaaaaaaaaaaaaaaaaaaaaaaaa",
"aaaaaaaaaaaaaaaaaaaaaaaaaaaaaaaaaaaaaaaaaaaaaaaaaaaaaaaaaaaaaaaaaaaaaaaaaaaaaaaaaaaaaaaaaaaaaaaaaaaaaHaHacacaOaOaaaaaaaaaaaaaaaaaaaaaaaaaaaaaaaaaaaaaaaaaaaaaaaaaMaMaCaCaCaCaBaBaLaLaCaCblblblblblblaKaKaKaKaKaKaCaCaKaKaCaCaCaCaZaZaCaCblblblblaMaMaCaCa9a9a!a!a9a9a9a9bpbpaEaEblblaBaBaMaMaKaKa9a9a9a9a9a9aCaCaCaCaZaZblblblbla9a9a9a9a9a9a9a9a9a9a9a9a9a9a9a9a9a9a9a9a9a9a9a9a9a9a9a9a9a9a9a9a9a9a9a9a9a9a9a9aCaCblblbpbpa9a9blblaCaCaMaMaDaDaaaaaaaaaaaaaaaaaaaaaaaaaaaaaaaaaaaaaaaaaaaaaaaaaaaaavavbfbfbfbfbebebubua5a5aaaaaaaaaaaaaaaaaaaaaaaaaaaaaaaaaaaaaaaaaaaaaaaaaaaaaaaaaaaaaNaNauauaaaaaaaaaaaaaaaaaaaaaaaaaaaaaaaaaaaaaaaaaaaaaaaaaaaaaaaaaaaaaaaaaaaaaaaaaaaaaaaaaaaaaPaPadadaeaeaaaaaaaaaaaaaaaaaaaaaaaaaaaaaaaaaaaaaaaaaaaaaaaaaaaaaaaaaaaaaaaaaaaaaaaaaaaaaaaaaaaaaaaaaaaaaaaaaaaaaaaaaaaaaaaaaaaaaaaaaaaaaaaa",
"aaaaaaaaaaaaaaaaaaaaaaaaaaaaaaaaaaaaaaaaaaaaaaaaaaaaaaaaaaaaaaaaaaaaaaaaaaaaaaaaaaaaaaaaaaaaaaaaaaaaaHaHacacaOaOaaaaaaaaaaaaaaaaaaaaaaaaaaaaaaaaaaaaaaaaaaaaaaaaaMaMaCaCaCaCaBaBaLaLaCaCblblblblblblaKaKaKaKaKaKaCaCaKaKaCaCaCaCaZaZaCaCblblblblaMaMaCaCa9a9a!a!a9a9a9a9bpbpaEaEblblaBaBaMaMaKaKa9a9a9a9a9a9aCaCaCaCaZaZblblblbla9a9a9a9a9a9a9a9a9a9a9a9a9a9a9a9a9a9a9a9a9a9a9a9a9a9a9a9a9a9a9a9a9a9a9a9a9a9a9a9aCaCblblbpbpa9a9blblaCaCaMaMaDaDaaaaaaaaaaaaaaaaaaaaaaaaaaaaaaaaaaaaaaaaaaaaaaaaaaaaavavbfbfbfbfbebebubua5a5aaaaaaaaaaaaaaaaaaaaaaaaaaaaaaaaaaaaaaaaaaaaaaaaaaaaaaaaaaaaaNaNauauaaaaaaaaaaaaaaaaaaaaaaaaaaaaaaaaaaaaaaaaaaaaaaaaaaaaaaaaaaaaaaaaaaaaaaaaaaaaaaaaaaaaaPaPadadaeaeaaaaaaaaaaaaaaaaaaaaaaaaaaaaaaaaaaaaaaaaaaaaaaaaaaaaaaaaaaaaaaaaaaaaaaaaaaaaaaaaaaaaaaaaaaaaaaaaaaaaaaaaaaaaaaaaaaaaaaaaaaaaaaaa",
"aaaaaaaaaaaaaaaaaaaaaaaaaaaaaaaaaaaaaaaaaaaaaaaaaaaaaaaaaaaaaaaaaaaaaaaaaaaaaaaaaaaaaaaaaaaaaaaaaaaaaaaaakakaIaIaHaHaaaaaaaaaaaaaaaaaaaaaaaaaaaaaaaaaaaaaaaaaaaaaMaMaBaBaBaBaMaMaLaLaCaCaDaDaMaMaMaMaBaBaCaCaCaCaCaCaCaCaCaCaCaCaCaCaCaCaCaCaMaMaBaBaCaCaCaCaZaZaCaCaZaZaKaKblblbobobpbpa9a9aBaBaDaDblblboboa9a9a9a9aCaCaZaZaKaKa9a9bpbpa9a9a9a9a9a9a4a4a4a4a9a9a9a9a9a9a9a9a9a9a9a9a9a9a4a4a!a!a9a9a4a4a4a4a9a9a9a9aCaCa9a9a9a9a9a9bpbpaCaCa@a@aaaaaaaaaaaaaaaaaaaaaaaaaaaaaaaaaaaaaaaaaaaaaaaabhbhbKbKbfbfa1a1bebebGbGbubua5a5aaaaaaaaaaaaaaaaaaaaaaaaaaaaaaaaaaaaaaaaaaaaaaaaaaaaaaaaazazaeaeafafaaaaaaaaaaaaaaaaaaaaaaaaaaaaaaaaaaaaaaaaaaaaaaaaaaaaaaaaaaaaaaaaaaaaaaaaaaaaaaaaaHaHaeaebhbhaaaaaaaaaaaaaaaaaaaaaaaaaaaaaaaaaaaaaaaaaaaaaaaaaaaaaaaaaaaaaaaaaaaaaaaaaaaaaaaaaaaaaaaaaaaaaaaaaaaaaaaaaaaaaaaaaaaaaaaaaaaaaaaa",
"aaaaaaaaaaaaaaaaaaaaaaaaaaaaaaaaaaaaaaaaaaaaaaaaaaaaaaaaaaaaaaaaaaaaaaaaaaaaaaaaaaaaaaaaaaaaaaaaaaaaaaaaakakaIaIaHaHaaaaaaaaaaaaaaaaaaaaaaaaaaaaaaaaaaaaaaaaaaaaaMaMaBaBaBaBaMaMaLaLaCaCaDaDaMaMaMaMaBaBaCaCaCaCaCaCaCaCaCaCaCaCaCaCaCaCaCaCaMaMaBaBaCaCaCaCaZaZaCaCaZaZaKaKblblbobobpbpa9a9aBaBaDaDblblboboa9a9a9a9aCaCaZaZaKaKa9a9bpbpa9a9a9a9a9a9a4a4a4a4a9a9a9a9a9a9a9a9a9a9a9a9a9a9a4a4a!a!a9a9a4a4a4a4a9a9a9a9aCaCa9a9a9a9a9a9bpbpaCaCa@a@aaaaaaaaaaaaaaaaaaaaaaaaaaaaaaaaaaaaaaaaaaaaaaaabhbhbKbKbfbfa1a1bebebGbGbubua5a5aaaaaaaaaaaaaaaaaaaaaaaaaaaaaaaaaaaaaaaaaaaaaaaaaaaaaaaaazazaeaeafafaaaaaaaaaaaaaaaaaaaaaaaaaaaaaaaaaaaaaaaaaaaaaaaaaaaaaaaaaaaaaaaaaaaaaaaaaaaaaaaaaHaHaeaebhbhaaaaaaaaaaaaaaaaaaaaaaaaaaaaaaaaaaaaaaaaaaaaaaaaaaaaaaaaaaaaaaaaaaaaaaaaaaaaaaaaaaaaaaaaaaaaaaaaaaaaaaaaaaaaaaaaaaaaaaaaaaaaaaaa",
"aaaaaaaaaaaaaaaaaaaaaaaaaaaaaaaaaaaaaaaaaaaaaaaaaaaaaaaaaaaaaaaaaaaaaaaaaaaaaaaaaaaaaaaaaaaaaaaaaaaaaaaaaaaaajajapapaaaaaaaaaaaaaaaaaaaaaaaaaaaaaaaaaaaaaaaaa#a#a7a7aLaLa$a$aaaaaLaLaCaCaKaKaCaCaKaKaCaCaCaCaCaCaCaCaCaCaCaCaCaCaZaZa0a0aCaCaMaMa7a7aKaKaZaZa9a9a9a9a9a9aKaKaZaZaCaCblblbpbpbpbpaKaKa7a7a7a7blblbpbpaEaEblblblblaCaCaKaKblblbpbpbpbpbpbpbpbpbpbpaEaEboboboboboboblblbpbpbpbpbmbmblblblblblblblblboboaKaKaKaKblblaDaDaMaMaMaMafafaaaaaaaaaaaaaaaaaaaaaaaaaaaaaaaaaaaaaaaaaaaaavavbybybfbfaGaGbebebQbQbebebGbGaWaWaaaaaaaaaaaaaaaaaaaaaaaaaaaaaaaaaaaaaaaaaaaaaaaaaaaaaaaaaaaaaaaaaaaaaaaaaaaaaaaaaaaaaaaaaaaaaeaeaaaaaaaaaaaaaaaaaaaaaaaaaaaaaaaaaaaaaaaaaaaaaaaaaaaaaaaaaaaaaaaaaaaaaaaaaaaaaaaaaaaaaaaaaaaaaaaaaaaaaaaaaaaaaaaaaaaaaaaaaaaaaaaaaaaaaaaaaaaaaaaaaaaaaaaaaaaaaaaaaaaaaaaaaaaaaaaaaaaaaaaaaaaaaaaa",
"aaaaaaaaaaaaaaaaaaaaaaaaaaaaaaaaaaaaaaaaaaaaaaaaaaaaaaaaaaaaaaaaaaaaaaaaaaaaaaaaaaaaaaaaaaaaaaaaaaaaaaaaaaaaajajapapaaaaaaaaaaaaaaaaaaaaaaaaaaaaaaaaaaaaaaaaa#a#a7a7aLaLa$a$aaaaaLaLaCaCaKaKaCaCaKaKaCaCaCaCaCaCaCaCaCaCaCaCaCaCaZaZa0a0aCaCaMaMa7a7aKaKaZaZa9a9a9a9a9a9aKaKaZaZaCaCblblbpbpbpbpaKaKa7a7a7a7blblbpbpaEaEblblblblaCaCaKaKblblbpbpbpbpbpbpbpbpbpbpaEaEboboboboboboblblbpbpbpbpbmbmblblblblblblblblboboaKaKaKaKblblaDaDaMaMaMaMafafaaaaaaaaaaaaaaaaaaaaaaaaaaaaaaaaaaaaaaaaaaaaavavbybybfbfaGaGbebebQbQbebebGbGaWaWaaaaaaaaaaaaaaaaaaaaaaaaaaaaaaaaaaaaaaaaaaaaaaaaaaaaaaaaaaaaaaaaaaaaaaaaaaaaaaaaaaaaaaaaaaaaaeaeaaaaaaaaaaaaaaaaaaaaaaaaaaaaaaaaaaaaaaaaaaaaaaaaaaaaaaaaaaaaaaaaaaaaaaaaaaaaaaaaaaaaaaaaaaaaaaaaaaaaaaaaaaaaaaaaaaaaaaaaaaaaaaaaaaaaaaaaaaaaaaaaaaaaaaaaaaaaaaaaaaaaaaaaaaaaaaaaaaaaaaaaaaaaaaaa",
"aaaaaaaaaaaaaaaaaaaaaaaaaaaaaaaaaaaaaaaaaaaaaaaaaaaaaaaaaaaaaaaaaaaaaaaaaaaaaaaaaaaaaaaaaaaaaaaaaaaaaaaaaaaaaaaaaaaaaaaaaaaaaaaaaaaaaaaaaaaaaaaaaaaaaaaaaaaaaaaaa7a7aMaMaaaaaqaqaMaMaCaCaZaZaCaCaCaCaCaCaCaCaCaCaCaCaCaCaCaCaCaCa0a0a0a0aKaKaMaMaLaLaCaCaBaBaCaCaKaKa9a9a9a9aKaKaZaZaCaCaKaKaCaCaMaMbabaaaaaaLaLaLaLaLaLaMaMaMaMaMaMaDaDaBaBaKaKaKaKaCaCaLaLaLaLaLaLaLaLaLaLaLaLaLaLaMaMaMaMaMaMaMaMaMaMaMaMaMaMaLaLaBaBa7a7aMaMayayacacbjbjbybyavavaaaaaaaaaaaaaaaaaaaaaaaaaaaaaaaaaaaaavavbHbHaGaGaGaGbfbfbebebebebQbQbebebtbtavavajajaaaaaaaaaaaaaaaaaaaaaaaaaaaaaaaaaaaaaaaaaaaaaaaaaaaaaaaaaaaaaaaaaaaaaaaaaaaaaaaaaaaaaiaiaaaaaaaaaaaaaaaaaaaaaaaaaaaaaaaaaaaaaaaaaaaaaaaaaaaaaaaaaaaaaaaaaaaaaaaaaaaaaaaaaaaaaaaaaaaaaaaaaaaaaaaaaaaaaaaaaaaaaaaaaaaaaaaaaaaaaaaaaaaaaaaaaaaaaaaaaaaaaaaaaaaaaaaaaaaaaaaaaaaaaaaaaaaaaaaa",
"aaaaaaaaaaaaaaaaaaaaaaaaaaaaaaaaaaaaaaaaaaaaaaaaaaaaaaaaaaaaaaaaaaaaaaaaaaaaaaaaaaaaaaaaaaaaaaaaaaaaaaaaaaaaaaaaaaaaaaaaaaaaaaaaaaaaaaaaaaaaaaaaaaaaaaaaaaaaaaaaa7a7aMaMaaaaaqaqaMaMaCaCaZaZaCaCaCaCaCaCaCaCaCaCaCaCaCaCaCaCaCaCa0a0a0a0aKaKaMaMaLaLaCaCaBaBaCaCaKaKa9a9a9a9aKaKaZaZaCaCaKaKaCaCaMaMbabaaaaaaLaLaLaLaLaLaMaMaMaMaMaMaDaDaBaBaKaKaKaKaCaCaLaLaLaLaLaLaLaLaLaLaLaLaLaLaMaMaMaMaMaMaMaMaMaMaMaMaMaMaLaLaBaBa7a7aMaMayayacacbjbjbybyavavaaaaaaaaaaaaaaaaaaaaaaaaaaaaaaaaaaaaavavbHbHaGaGaGaGbfbfbebebebebQbQbebebtbtavavajajaaaaaaaaaaaaaaaaaaaaaaaaaaaaaaaaaaaaaaaaaaaaaaaaaaaaaaaaaaaaaaaaaaaaaaaaaaaaaaaaaaaaaiaiaaaaaaaaaaaaaaaaaaaaaaaaaaaaaaaaaaaaaaaaaaaaaaaaaaaaaaaaaaaaaaaaaaaaaaaaaaaaaaaaaaaaaaaaaaaaaaaaaaaaaaaaaaaaaaaaaaaaaaaaaaaaaaaaaaaaaaaaaaaaaaaaaaaaaaaaaaaaaaaaaaaaaaaaaaaaaaaaaaaaaaaaaaaaaaaa",
"aaaaaaaaaaaaaaaaaaaaaaaaaaaaaaaaaaaaaaaaaaaaaaaaaaaaaaaaaaaaaaaaaaaaaaaaaaaaaaaaaaaaaaaaaaaaaaaaaaaaaaaaaaaaaaaaaaaaaaaaaaaaaaaaaaaaaaaaaaaaaaaaaaaaaaaaaaaaa#a#aCaCaMaMa@a@babaaLaLaKaKaKaKaKaKaKaKaKaKaKaKaCaCaZaZaZaZaZaZaZaZaZaZaZaZaCaCaMaMaDaDa7a7aMaMaaaaa$a$aMaMaCaCblblaKaKaCaCaCaCapapauaubKbKbKbKadadaoaoacacacacacacacacaOaOa@a@aBaBaDaDa@a@a@a@a@a@a@a@a@a@a@a@a@a@aiaiakaka@a@ajajaiaiaHaHaHaHaPaPa@a@aMaMaLaLajajamamababamamadadauauaaaaaaaaaaaaaaaaaaaaaaaaaaaaaaaaavavbLbLbHbHbububububububububububtbtbtbtbtbtbebebHbHaHaHaaaaaaaaaaaaaaaaaaaaaaaaaaaaaaaaaaaaaaaaaaaaaaaaaaaaaaaaaaaaaaaaaaaaaaaaaaaaaaaaaaaaaaaaaaaaaaaaaaaaaaaaaaaaaaaaaaaaaaaaaaaaaaaaaaaaaaaaaaaaaaaaaaaaaaaaaaaaa5a5aaaaaaaaaaaaaaaaaaaaaaaaaaaaaaaaaaaaaaaaaaaaaaaaaaaaaaaaaaaaaaaaaaaaaaaaaaaaaaaaaaaaaaaaaaaaaaaaaaaaaaaaaaaaaaaaaaaa",
"aaaaaaaaaaaaaaaaaaaaaaaaaaaaaaaaaaaaaaaaaaaaaaaaaaaaaaaaaaaaaaaaaaaaaaaaaaaaaaaaaaaaaaaaaaaaaaaaaaaaaaaaaaaaaaaaaaaaaaaaaaaaaaaaaaaaaaaaaaaaaaaaaaaaaaaaaaaaa#a#aCaCaMaMa@a@babaaLaLaKaKaKaKaKaKaKaKaKaKaKaKaCaCaZaZaZaZaZaZaZaZaZaZaZaZaCaCaMaMaDaDa7a7aMaMaaaaa$a$aMaMaCaCblblaKaKaCaCaCaCapapauaubKbKbKbKadadaoaoacacacacacacacacaOaOa@a@aBaBaDaDa@a@a@a@a@a@a@a@a@a@a@a@a@a@aiaiakaka@a@ajajaiaiaHaHaHaHaPaPa@a@aMaMaLaLajajamamababamamadadauauaaaaaaaaaaaaaaaaaaaaaaaaaaaaaaaaavavbLbLbHbHbububububububububububtbtbtbtbtbtbebebHbHaHaHaaaaaaaaaaaaaaaaaaaaaaaaaaaaaaaaaaaaaaaaaaaaaaaaaaaaaaaaaaaaaaaaaaaaaaaaaaaaaaaaaaaaaaaaaaaaaaaaaaaaaaaaaaaaaaaaaaaaaaaaaaaaaaaaaaaaaaaaaaaaaaaaaaaaaaaaaaaaa5a5aaaaaaaaaaaaaaaaaaaaaaaaaaaaaaaaaaaaaaaaaaaaaaaaaaaaaaaaaaaaaaaaaaaaaaaaaaaaaaaaaaaaaaaaaaaaaaaaaaaaaaaaaaaaaaaaaaaa",
"aaaaaaaaaaaaaaaaaaaaaaaaaaaaaaaaaaaaaaaaaaaaaaaaaaaaaaaaaaaaaaaaaaaaaaaaaaaaaaaaaaaaaaaaaaaaaaaaaaaaaaaaaaaaaaaaaaaaaaaaaaaaaaaaaaaaaaaaaaaaaaaaaaaaaaaaaaaaa#a#a7a7a@a@aiaiajajaLaLblbla9a9a9a9a9a9a9a9a9a9a9a9a9a9a9a9a9a9a9a9a9a9a9a9aKaKaMaMaBaBaLaLaaaabhbhaaaaaaaaaMaMblbla9a9aCaCaBaBaiaibHbHbebebfbfbIbIacacacacacacaJaJagagaJaJbjbja$a$a7a7a@a@a@a@aqaqaHaHaHaHaHaHananaqaqaXaXababadadaqaqananaFaFaHaHapapaMaMaMaMaJaJacacacacacacbjbjajajaaaaaaaaaaaaaaaaaaaaaaaaaiaiaHaHa6a6bHbHaGaGahahaGaGaGaGbfbfaGaGbfbfbebebebebGbGbubua6a6aPaPaaaaaaaaaaaaaaaaaaaaaaaaaaaaaaaaaaaaaaaaaaaaaaaaaaaaaaaaaaaaaaaaaaaaaaaaaaaaaaaaaaaaaaaaaaaaaaaaaaaaaaaaaqaqaiaiaaaaaaaaaaaaaaaaaaaaaaaaaaaaaaaaavavavava5a5a5a5aiaiaaaaaaaaaaaaaaaaaaaaaaaaaaaaaaaaaaaaaaaaaaaaaaaaaaaaaaaaaaaaaaaaaaaaaaaaaaaaaaaaaaaaaaaaaaaaaaaaaaaaaaaaaaaa",
"aaaaaaaaaaaaaaaaaaaaaaaaaaaaaaaaaaaaaaaaaaaaaaaaaaaaaaaaaaaaaaaaaaaaaaaaaaaaaaaaaaaaaaaaaaaaaaaaaaaaaaaaaaaaaaaaaaaaaaaaaaaaaaaaaaaaaaaaaaaaaaaaaaaaaaaaaaaaa#a#a7a7a@a@aiaiajajaLaLblbla9a9a9a9a9a9a9a9a9a9a9a9a9a9a9a9a9a9a9a9a9a9a9a9aKaKaMaMaBaBaLaLaaaabhbhaaaaaaaaaMaMblbla9a9aCaCaBaBaiaibHbHbebebfbfbIbIacacacacacacaJaJagagaJaJbjbja$a$a7a7a@a@a@a@aqaqaHaHaHaHaHaHananaqaqaXaXababadadaqaqananaFaFaHaHapapaMaMaMaMaJaJacacacacacacbjbjajajaaaaaaaaaaaaaaaaaaaaaaaaaiaiaHaHa6a6bHbHaGaGahahaGaGaGaGbfbfaGaGbfbfbebebebebGbGbubua6a6aPaPaaaaaaaaaaaaaaaaaaaaaaaaaaaaaaaaaaaaaaaaaaaaaaaaaaaaaaaaaaaaaaaaaaaaaaaaaaaaaaaaaaaaaaaaaaaaaaaaaaaaaaaaaqaqaiaiaaaaaaaaaaaaaaaaaaaaaaaaaaaaaaaaavavavava5a5a5a5aiaiaaaaaaaaaaaaaaaaaaaaaaaaaaaaaaaaaaaaaaaaaaaaaaaaaaaaaaaaaaaaaaaaaaaaaaaaaaaaaaaaaaaaaaaaaaaaaaaaaaaaaaaaaaaa",
"aaaaaaaaaaaaaaaaaaaaaaaaaaaaaaaaaaaaaaaaaaaaaaaaaaaaaaaaaNaNaaaaaaaaaaaaaaaaaaaaaaaaaaaaaaaaaaaaaaaaaaaaaaaaaaaaaaaaaaaaaaaaaaaaaaaaaaaaaaaaaaaaaaaaaaaaaaaaaaaaaLaLa@a@aiaibkbkaMaMaCaCaZaZaZaZaZaZaZaZaZaZaCaCaKaKaKaKaKaKaKaKaKaKaKaKaKaKaMaMaLaLa@a@aaaaaqaqaPaPajaja$a$aDaDaCaCaCaCaCaCapapbububebebfbfbLbLacacaJaJaJaJababacacaoaoaJaJaOaOaLaLa7a7a@a@a@a@aqaqaqaqaFaFaHaHapapbhbhaOaObhbhapapaHaHa@a@aHaHaHaHa7a7aMaMaLaLajajaPaPafafaMaMaLaLa@a@aaaaaaaaaaaaaaaaaaaaavavauauavavaWaWbubuavavbububububgbgbgbgbububgbgaWaWbgbgbgbgavavavavaaaaaaaaaaaaaaaaaaaaaaaaaaaaaaaaaaaaaaaaaaaaaaaaaaaaaaaaaaaaaaaaaaaaaaaaaaaaaaaaaaaaaaaaa5a5a6a6a6a6avavavavananaaaaaaaaaaaaaaaaaaaaaaaabhbhavavaVaVbubuaWaWbububFbFauaua5a5aaaaaaaaaaaaaaaaaaaaaaaaaaaaaaaaaaaaaaaaaaaaaaaaaaaaaaaaaaaaaaaaaaaaaaaaaaaaaaaaaaaaaaaaaaaaaaaaaaaa",
"aaaaaaaaaaaaaaaaaaaaaaaaaaaaaaaaaaaaaaaaaaaaaaaaaaaaaaaaaNaNaaaaaaaaaaaaaaaaaaaaaaaaaaaaaaaaaaaaaaaaaaaaaaaaaaaaaaaaaaaaaaaaaaaaaaaaaaaaaaaaaaaaaaaaaaaaaaaaaaaaaLaLa@a@aiaibkbkaMaMaCaCaZaZaZaZaZaZaZaZaZaZaCaCaKaKaKaKaKaKaKaKaKaKaKaKaKaKaMaMaLaLa@a@aaaaaqaqaPaPajaja$a$aDaDaCaCaCaCaCaCapapbububebebfbfbLbLacacaJaJaJaJababacacaoaoaJaJaOaOaLaLa7a7a@a@a@a@aqaqaqaqaFaFaHaHapapbhbhaOaObhbhapapaHaHa@a@aHaHaHaHa7a7aMaMaLaLajajaPaPafafaMaMaLaLa@a@aaaaaaaaaaaaaaaaaaaaavavauauavavaWaWbubuavavbububububgbgbgbgbububgbgaWaWbgbgbgbgavavavavaaaaaaaaaaaaaaaaaaaaaaaaaaaaaaaaaaaaaaaaaaaaaaaaaaaaaaaaaaaaaaaaaaaaaaaaaaaaaaaaaaaaaaaaa5a5a6a6a6a6avavavavananaaaaaaaaaaaaaaaaaaaaaaaabhbhavavaVaVbubuaWaWbububFbFauaua5a5aaaaaaaaaaaaaaaaaaaaaaaaaaaaaaaaaaaaaaaaaaaaaaaaaaaaaaaaaaaaaaaaaaaaaaaaaaaaaaaaaaaaaaaaaaaaaaaaaaaa",
"aaaaaaaaaaaaaaaaaaaaaaaaaaaaaaaaaaaaaaaaaaaaaaaaaaaaaaaaacacayayaaaaaaaaaaaaaaaaaaaaaaaaaaaaaaaaaaaaaaaaaaaaaaaaaaaaaaaaaaaaaaaaaaaaaaaaaaaaaaaaakakayayaaaaaaaaa#a#a#a#afafaXaXaMaMaCaCaZaZaCaCaCaCaCaCaCaCaZaZaZaZaZaZaZaZaZaZaZaZaBaBaBaBaMaMaMaMaaaaa@a@aiaiaPaPajajaiaia$a$aMaMaMaMaLaLa#a#a6a6auauauauauauadadbjbjadadbzbzbjbjbjbjbjbjaeaeaMaMbkbkaLaLa#a#aPaPafafaiaiaHaHananaiaiaqaqafafafafafafafafaPaPa#a#aCaCaCaCaBaBaBaBaKaKblblblblaEaEaLaLaaaaaaaaaaaaaaaaaaaaananbybybybybubububububuavavbubububububububububububububububuauauavavaaaaaaaaaaaaaaaaaaaaaaaaaaaaaaaaaaaaaaaaaaaaaaaaaaaaaaaaaaaaaaaaaaaaaaaaaaaaa5a5aWaWaWaWbubububuaWaWbcbcaSaSaSaSaTaTa5a5aFaFajajajajajajaHaHaHaHaWaWaSaSaQaQaQaQaUaUbFbFbFbFa5a5aaaaaaaaaaaaaaaaaaaaaaaaaaaaaaaaaaaaaaaaaaaaaaaaaaaaaaaaaaaaaaaaaaaaaaaaaaaaaaaaaaaaaaaaaaaaaaaa",
"aaaaaaaaaaaaaaaaaaaaaaaaaaaaaaaaaaaaaaaaaaaaaaaaaaaaaaaaacacayayaaaaaaaaaaaaaaaaaaaaaaaaaaaaaaaaaaaaaaaaaaaaaaaaaaaaaaaaaaaaaaaaaaaaaaaaaaaaaaaaakakayayaaaaaaaaa#a#a#a#afafaXaXaMaMaCaCaZaZaCaCaCaCaCaCaCaCaZaZaZaZaZaZaZaZaZaZaZaZaBaBaBaBaMaMaMaMaaaaa@a@aiaiaPaPajajaiaia$a$aMaMaMaMaLaLa#a#a6a6auauauauauauadadbjbjadadbzbzbjbjbjbjbjbjaeaeaMaMbkbkaLaLa#a#aPaPafafaiaiaHaHananaiaiaqaqafafafafafafafafaPaPa#a#aCaCaCaCaBaBaBaBaKaKblblblblaEaEaLaLaaaaaaaaaaaaaaaaaaaaananbybybybybubububububuavavbubububububububububububububububuauauavavaaaaaaaaaaaaaaaaaaaaaaaaaaaaaaaaaaaaaaaaaaaaaaaaaaaaaaaaaaaaaaaaaaaaaaaaaaaaa5a5aWaWaWaWbubububuaWaWbcbcaSaSaSaSaTaTa5a5aFaFajajajajajajaHaHaHaHaWaWaSaSaQaQaQaQaUaUbFbFbFbFa5a5aaaaaaaaaaaaaaaaaaaaaaaaaaaaaaaaaaaaaaaaaaaaaaaaaaaaaaaaaaaaaaaaaaaaaaaaaaaaaaaaaaaaaaaaaaaaaaaa",
"aaaaaaaaaaaaaaaaaaaaaaaaaaaaaaaaaaaaaaaaaaaaaaaaaaaaaaaaaHaHaXaXaaaaaaaaaaaaaaaaaaaaaaaaaaaaaaaaaaaaaaaaaaaaaaaaaaaaaaaaa#a#aaaaaaaaaaaaaaaaaaaaananbRbRayayaaaaaaaaaaaaajajadada@a@aBaBaBaBaBaBaBaBaBaBaCaCaCaCaCaCaCaCaCaCaCaCaCaCaBaBaCaCaMaMaMaMbabaaqaqajajaNaNbhbhazazapapaeaea7a7aKaKblblaOaOaiaiaMaMa@a@a@a@aMaMaMaMaMaMaMaMaMaMa@a@aDaDaCaCaBaBaCaCaBaBaMaMaMaMaMaMaLaLakakakakaYaYakakaYaYaYaYakakaLaLaKaKblblawawbpbpbmbmblblbmbma9a9aCaCaMaMaaaaaaaaaaaaaaaaaaaaaPaPavava6a6avavauaububuauaububububuauaububububububububuaWaWavavavavaaaaaaaaaaaaaaaaaaaaaaaaaaaaaaaaaaaaaaaaaaaaaaaaaaaaaaaaaaaaaaaaaaaaaaaaavavavavbubuaQaQaTaTaVaVaTaTaVaVaTaTaQaQaQaQaSaSaWaWaHaHajajafafajajafafaHaHaSaSaQaQbNbNbNbNaQaQaQaQbFbFaqaqaaaaaaaaaaaaaaaaaaaaaaaaaaaaaaaaaaaaaaaaaaaaaaaaaaaaaaaaaaaaaaaaaaaaaaaaaaaaaaaaaaaaaaaaaaaa",
"aaaaaaaaaaaaaaaaaaaaaaaaaaaaaaaaaaaaaaaaaaaaaaaaaaaaaaaaaHaHaXaXaaaaaaaaaaaaaaaaaaaaaaaaaaaaaaaaaaaaaaaaaaaaaaaaaaaaaaaaa#a#aaaaaaaaaaaaaaaaaaaaananbRbRayayaaaaaaaaaaaaajajadada@a@aBaBaBaBaBaBaBaBaBaBaCaCaCaCaCaCaCaCaCaCaCaCaCaCaBaBaCaCaMaMaMaMbabaaqaqajajaNaNbhbhazazapapaeaea7a7aKaKblblaOaOaiaiaMaMa@a@a@a@aMaMaMaMaMaMaMaMaMaMa@a@aDaDaCaCaBaBaCaCaBaBaMaMaMaMaMaMaLaLakakakakaYaYakakaYaYaYaYakakaLaLaKaKblblawawbpbpbmbmblblbmbma9a9aCaCaMaMaaaaaaaaaaaaaaaaaaaaaPaPavava6a6avavauaububuauaububububuauaububububububububuaWaWavavavavaaaaaaaaaaaaaaaaaaaaaaaaaaaaaaaaaaaaaaaaaaaaaaaaaaaaaaaaaaaaaaaaaaaaaaaaavavavavbubuaQaQaTaTaVaVaTaTaVaVaTaTaQaQaQaQaSaSaWaWaHaHajajafafajajafafaHaHaSaSaQaQbNbNbNbNaQaQaQaQbFbFaqaqaaaaaaaaaaaaaaaaaaaaaaaaaaaaaaaaaaaaaaaaaaaaaaaaaaaaaaaaaaaaaaaaaaaaaaaaaaaaaaaaaaaaaaaaaaaa",
"aaaaaaaaaaaaaaaaaaaaaaaaaaaaaaaaaaaaaaaaaaaaaaaaaaaaaaaaaaaaaaaaaaaaaaaaaaaaaaaaaaaaaaaaaaaaaaaaajajakakaaaaaaaaaaaaaaaaaOaOananaaaaaaaaaaaaaaaaaaaaananbybyaaaaaaaaaaaaajajadada$a$aDaDaDaDaDaDaDaDaDaDaBaBaBaBaBaBaBaBaBaBaBaBaBaBaBaBa7a7aMaMa@a@aHaHapapaPaPbjbjaaaaaPaPapapa@a@aDaDaDaDaCaCbkbka9a9bpbpbpbpaEaEbpbpbpbpbpbpbpbpbpbpbpbpbpbpbpbpbpbpbpbpbpbpbpbpbpbpblblaBaBaCaCa7a7a7a7a7a7a7a7a7a7a7a7bkbka9a9a9a9a9a9a9a9aZaZaBaBaBaBaZaZaBaBbabaauaubybybxbxbybyauauaHaHavava6a6bKbKbfbfbfbfbfbfbfbfbfbfbfbfbfbfbebebfbfbKbKbubuaWaWavavaaaaaaaaaaaaaaaaaaaaaaaaaaaaaaaaaaaaaaaaaaaaaaaaaaaaaaaaaaaaaiaiauaububububuaTaTaVaVaSaSaQaQaQaQaSaSa&a&aTaTaQaQaQaQaQaQbubuananaHaHaeaeafafajajafafa5a5aSaSbbbbbbbbaQaQaQaQaQaQbFbFapapaaaaaaaaaaaaaaaaaaaaaaaaaaaaaaaaaaaaaaaaaaaaaaaaaaaaaaaaaaaaaaaaaaaaaaaaaaaaaaaaaaaaaaaa",
"aaaaaaaaaaaaaaaaaaaaaaaaaaaaaaaaaaaaaaaaaaaaaaaaaaaaaaaaaaaaaaaaaaaaaaaaaaaaaaaaaaaaaaaaaaaaaaaaajajakakaaaaaaaaaaaaaaaaaOaOananaaaaaaaaaaaaaaaaaaaaananbybyaaaaaaaaaaaaajajadada$a$aDaDaDaDaDaDaDaDaDaDaBaBaBaBaBaBaBaBaBaBaBaBaBaBaBaBa7a7aMaMa@a@aHaHapapaPaPbjbjaaaaaPaPapapa@a@aDaDaDaDaCaCbkbka9a9bpbpbpbpaEaEbpbpbpbpbpbpbpbpbpbpbpbpbpbpbpbpbpbpbpbpbpbpbpbpbpbpblblaBaBaCaCa7a7a7a7a7a7a7a7a7a7a7a7bkbka9a9a9a9a9a9a9a9aZaZaBaBaBaBaZaZaBaBbabaauaubybybxbxbybyauauaHaHavava6a6bKbKbfbfbfbfbfbfbfbfbfbfbfbfbfbfbebebfbfbKbKbubuaWaWavavaaaaaaaaaaaaaaaaaaaaaaaaaaaaaaaaaaaaaaaaaaaaaaaaaaaaaaaaaaaaaiaiauaububububuaTaTaVaVaSaSaQaQaQaQaSaSa&a&aTaTaQaQaQaQaQaQbubuananaHaHaeaeafafajajafafa5a5aSaSbbbbbbbbaQaQaQaQaQaQbFbFapapaaaaaaaaaaaaaaaaaaaaaaaaaaaaaaaaaaaaaaaaaaaaaaaaaaaaaaaaaaaaaaaaaaaaaaaaaaaaaaaaaaaaaaaa",
"aaaaaaaaaaaaaaaaaaaaaaaaaaaaaaaaaaaaaaaaaaaaaaaaaaaaaaaaaaaaaaaaaaaaaaaaaaaaaaaaaaaaaaaaaaaaajajayayananaaaaaaaaaaaaaaaaakakaeaeaaaaaaaaaaaaaaaaaaaaaaaaaaaaaaaaaaaaaaaaajajadada$a$aLaLaLaLaLaLaLaLaLaLaLaLaLaLaLaLaLaLaDaDaDaDaDaDaDaDaLaLaMaMa#a#aaaaayayaPaPayayaYaYalalaqaqa#a#aDaDaBaBaDaDaBaBaCaCaKaKa9a9aKaKa9a9aKaKaKaKaKaKa9a9a9a9a9a9a9a9a9a9a9a9a9a9aKaKa9a9aBaBbkbkbBbBbzbzbBbBbBbBbzbzbBbBa7a7aDaDaCaCaZaZaZaZaCaCaCaCaBaBaDaDaDaDaDaDaaaabLbLa3a3a1a1bfbfbLbLaHaHavavaWaWbfbfbebebebebebebQbQbebebebebEbEbGbGbGbGbGbGbHbHaWaWavavaaaaaaaaaaaaaaaaaaaaaaaaaaaaaaaaaaaaaaaaaaaaaaaaaaaaa6a6bubububuaTaTaSaSaSaSaSaSaQaQaQaQbbbbbbbbaQaQaQaQaQaQbbbbbbbbbbbbaSaSbIbIayayaNaNaPaPajajakakakaka5a5aSaSbbbbbbbbbbbbaQaQaQaQbFbFa5a5aaaaaaaaaaaaaaaaaaaaaaaaaaaaaaaaaaaaaaaaaaaaaaaaaaaaaaaaaaaaaaaaaaaaaaaaaaaaaaaaaaaa",
"aaaaaaaaaaaaaaaaaaaaaaaaaaaaaaaaaaaaaaaaaaaaaaaaaaaaaaaaaaaaaaaaaaaaaaaaaaaaaaaaaaaaaaaaaaaaajajayayananaaaaaaaaaaaaaaaaakakaeaeaaaaaaaaaaaaaaaaaaaaaaaaaaaaaaaaaaaaaaaaajajadada$a$aLaLaLaLaLaLaLaLaLaLaLaLaLaLaLaLaLaLaDaDaDaDaDaDaDaDaLaLaMaMa#a#aaaaayayaPaPayayaYaYalalaqaqa#a#aDaDaBaBaDaDaBaBaCaCaKaKa9a9aKaKa9a9aKaKaKaKaKaKa9a9a9a9a9a9a9a9a9a9a9a9a9a9aKaKa9a9aBaBbkbkbBbBbzbzbBbBbBbBbzbzbBbBa7a7aDaDaCaCaZaZaZaZaCaCaCaCaBaBaDaDaDaDaDaDaaaabLbLa3a3a1a1bfbfbLbLaHaHavavaWaWbfbfbebebebebebebQbQbebebebebEbEbGbGbGbGbGbGbHbHaWaWavavaaaaaaaaaaaaaaaaaaaaaaaaaaaaaaaaaaaaaaaaaaaaaaaaaaaaa6a6bubububuaTaTaSaSaSaSaSaSaQaQaQaQbbbbbbbbaQaQaQaQaQaQbbbbbbbbbbbbaSaSbIbIayayaNaNaPaPajajakakakaka5a5aSaSbbbbbbbbbbbbaQaQaQaQbFbFa5a5aaaaaaaaaaaaaaaaaaaaaaaaaaaaaaaaaaaaaaaaaaaaaaaaaaaaaaaaaaaaaaaaaaaaaaaaaaaaaaaaaaaa",
"aaaaaaaaaaaaaaaaaaaaaaaaaaaaaaaaaaaaaaaaaaaaaaaaaaaaaaaaaaaaaaaaaaaaaaaaaaaaaaaaaaaaaaaaaaaabhbhaaaaaaaaaaaaaaaaaaaaaaaaaaaaaaaaaaaaaaaaaaaaaaaaaaaaaaaaaaaaaaaaaaaaaaaaaaaaaOaOayayaaaaa#a#babaa#a#aaaaaaaaaaaaaaaaaaaaa#a#a@a@a@a@a@a@a$a$a@a@aMaMaaaaadadayayaNaNbjbjaYaYaHaHa@a@aDaDaBaBaBaBaBaBaBaBaZaZaZaZaCaCaBaBaCaCaCaCaCaCaCaCaZaZaZaZaZaZaCaCaCaCaCaCaBaBaCaCaMaMbBbBbjbjayayadadacacadada)a)aNaNa@a@aDaDaBaBaDaDaBaBa7a7a@a@a$a$a#a#bhbhaqaqbKbKa1a1bebea1a1bKbKa6a6bgbgaWaWa1a1bQbQbQbQbQbQbQbQbQbQbGbGbGbGbebebEbEbGbGbGbGaWaWavavaaaaaaaaaaaaaaaaaaaaaaaaaaaaaaaaaaaaaaaaaaaaaWaWavavbubuaVaVaTaTaSaSaSaSbbbbaQaQaQaQaQaQbbbbbbbbbbbbbbbbbbbbbbbbbbbbbbbbaQaQbdbdbIbIavavaqaqakakajajakakajaja5a5aSaSaQaQbbbbbbbbaQaQaQaQbFbFaqaqaaaaaaaaaaaaaaaaaaaaaaaaaaaaaaaaaaaaaaaaaaaaaaaaaaaaaaaaaaaaaaaaaaaaaaaaaaaaaaaa",
"aaaaaaaaaaaaaaaaaaaaaaaaaaaaaaaaaaaaaaaaaaaaaaaaaaaaaaaaaaaaaaaaaaaaaaaaaaaaaaaaaaaaaaaaaaaabhbhaaaaaaaaaaaaaaaaaaaaaaaaaaaaaaaaaaaaaaaaaaaaaaaaaaaaaaaaaaaaaaaaaaaaaaaaaaaaaOaOayayaaaaa#a#babaa#a#aaaaaaaaaaaaaaaaaaaaa#a#a@a@a@a@a@a@a$a$a@a@aMaMaaaaadadayayaNaNbjbjaYaYaHaHa@a@aDaDaBaBaBaBaBaBaBaBaZaZaZaZaCaCaBaBaCaCaCaCaCaCaCaCaZaZaZaZaZaZaCaCaCaCaCaCaBaBaCaCaMaMbBbBbjbjayayadadacacadada)a)aNaNa@a@aDaDaBaBaDaDaBaBa7a7a@a@a$a$a#a#bhbhaqaqbKbKa1a1bebea1a1bKbKa6a6bgbgaWaWa1a1bQbQbQbQbQbQbQbQbQbQbGbGbGbGbebebEbEbGbGbGbGaWaWavavaaaaaaaaaaaaaaaaaaaaaaaaaaaaaaaaaaaaaaaaaaaaaWaWavavbubuaVaVaTaTaSaSaSaSbbbbaQaQaQaQaQaQbbbbbbbbbbbbbbbbbbbbbbbbbbbbbbbbaQaQbdbdbIbIavavaqaqakakajajakakajaja5a5aSaSaQaQbbbbbbbbaQaQaQaQbFbFaqaqaaaaaaaaaaaaaaaaaaaaaaaaaaaaaaaaaaaaaaaaaaaaaaaaaaaaaaaaaaaaaaaaaaaaaaaaaaaaaaaa",
"aaaaaaaaaaaaaaaaaaaaaaaaaaaaaaaaaaaaaaaaaaaaaaaaaaaaaaaaaaaaaaaaaaaaaaaaaaaaaaaaaaaaaaaaaaaaaaaaaaaaaaaaaaaaaaaaaaaaaaaaaaaaaaaaaaaaaaaaaaaaaaaaaaaaaaaaaaaaaaaaaaaaaaaaaaaaakakaeaeaaaaaaaaaiaiafafaaaaaaaaaaaaaaaaaaaaa#a#a@a@aMaMaLaLa7a7aMaMajajaaaaaeaeacacbjbjayayaaaaafafa@a@aDaDaBaBaBaBaDaDaBaBaBaBaDaDaMaMaMaMa@a@a@a@aMaMaLaLaDaDaBaBaLaLaMaMaMaMaMaMaMaMaMaMa$a$bjbjaJaJaoaoacacacacaJaJaJaJayayaaaaa$a$aaaaa@a@bkbkaMaMaaaaaaaaa@a@babaauaua1a1bebea1a1bfbfauauaHaHbubuaWaWbfbfbebebQbQbQbQbQbQbGbGbHbHbebebEbEbGbGbGbGbHbHa6a6avavaaaaaaaaaaaaaaaaaaaaaaaaaaaaaaaaaaaaa5a5aWaWbubuaSaSbqbqaQaQaQaQaQaQaQaQaQaQaQaQaQaQaSaSaQaQbbbbbbbbbbbbbbbbbbbbbbbbaQaQaQaQbDbDaSaSaQaQaVaVaHaHakakajajajajajaja5a5aSaSaQaQaQaQbbbbbbbbaQaQbubuaaaaaaaaaaaaaaaaaaaaaaaaaaaaaaaaaaaaaaaaaaaaaaaaaaaaaaaaaaaaaaaaaaaaaaaaaaaaaaaa",
"aaaaaaaaaaaaaaaaaaaaaaaaaaaaaaaaaaaaaaaaaaaaaaaaaaaaaaaaaaaaaaaaaaaaaaaaaaaaaaaaaaaaaaaaaaaaaaaaaaaaaaaaaaaaaaaaaaaaaaaaaaaaaaaaaaaaaaaaaaaaaaaaaaaaaaaaaaaaaaaaaaaaaaaaaaaaakakaeaeaaaaaaaaaiaiafafaaaaaaaaaaaaaaaaaaaaa#a#a@a@aMaMaLaLa7a7aMaMajajaaaaaeaeacacbjbjayayaaaaafafa@a@aDaDaBaBaBaBaDaDaBaBaBaBaDaDaMaMaMaMa@a@a@a@aMaMaLaLaDaDaBaBaLaLaMaMaMaMaMaMaMaMaMaMa$a$bjbjaJaJaoaoacacacacaJaJaJaJayayaaaaa$a$aaaaa@a@bkbkaMaMaaaaaaaaa@a@babaauaua1a1bebea1a1bfbfauauaHaHbubuaWaWbfbfbebebQbQbQbQbQbQbGbGbHbHbebebEbEbGbGbGbGbHbHa6a6avavaaaaaaaaaaaaaaaaaaaaaaaaaaaaaaaaaaaaa5a5aWaWbubuaSaSbqbqaQaQaQaQaQaQaQaQaQaQaQaQaQaQaSaSaQaQbbbbbbbbbbbbbbbbbbbbbbbbaQaQaQaQbDbDaSaSaQaQaVaVaHaHakakajajajajajaja5a5aSaSaQaQaQaQbbbbbbbbaQaQbubuaaaaaaaaaaaaaaaaaaaaaaaaaaaaaaaaaaaaaaaaaaaaaaaaaaaaaaaaaaaaaaaaaaaaaaaaaaaaaaaa",
"aaaaaaaaaaaaaaaaaaaaaaaaaaaaaaaaaaaaaaaaaaaaaaaaaaaaaaaaaaaaaaaaaaaaaaaaaaaaaaaaaaaaaaaaaaaaaaaaaaaaaaaaaaaaaaaaaaaaaaaaaaaaaaaaaaaaaaaaaaaaaaaaaaaaaaaaaaaaaaaaaaaaaaaaaaaaaPaPaiaiananaaaaaPaPaqaqaaaaaaaaaaaaaaaaaaaaaaaaaaaaaaaaaaaaa@a@afafaPaPaaaaaNaNaeaeadadbjbjakakananbabaaMaMaBaBaDaDaDaDaLaLa7a7aBaBa$a$aaaaaaaaaaaaaaaaaMaMaDaDaCaCaLaLaaaaaaaaaaaaaaaaaaaaaaaaakakayayaNaNaNaNaNaNayayayayaiaiaaaaaaaaa@a@bkbka8a8aLaLaBaBaBaBaLaLakakbKbKa1a1a1a1a1a1bfbfa5a5avavavavavavbybybfbfbfbfa1a1bebebKbKbHbHbGbGbGbGbHbHbebebgbgaWaWavavajajaaaaaaaaaaaaaaaaaaaaaaaaaaaaalalaPaPbsbsaTaTaSaSaQaQbbbbbbbbbbbbaQaQbubuaUaUaQaQbbbbbbbbaQaQbDbDaQaQbbbbbbbbbbbbbbbbbbbbbDbDbbbbaQaQaQaQa5a5aHaHajajafafajajaHaHa5a5aSaSaQaQbbbbbbbbbbbbaUaUavavaaaaaaaaaaaaaaaaaaaaaaaaaaaaaaaaaaaaaaaaaaaaaaaaaaaaaaaaaaaaaaaaaaaaaaaaaaaa",
"aaaaaaaaaaaaaaaaaaaaaaaaaaaaaaaaaaaaaaaaaaaaaaaaaaaaaaaaaaaaaaaaaaaaaaaaaaaaaaaaaaaaaaaaaaaaaaaaaaaaaaaaaaaaaaaaaaaaaaaaaaaaaaaaaaaaaaaaaaaaaaaaaaaaaaaaaaaaaaaaaaaaaaaaaaaaaPaPaiaiananaaaaaPaPaqaqaaaaaaaaaaaaaaaaaaaaaaaaaaaaaaaaaaaaa@a@afafaPaPaaaaaNaNaeaeadadbjbjakakananbabaaMaMaBaBaDaDaDaDaLaLa7a7aBaBa$a$aaaaaaaaaaaaaaaaaMaMaDaDaCaCaLaLaaaaaaaaaaaaaaaaaaaaaaaaakakayayaNaNaNaNaNaNayayayayaiaiaaaaaaaaa@a@bkbka8a8aLaLaBaBaBaBaLaLakakbKbKa1a1a1a1a1a1bfbfa5a5avavavavavavbybybfbfbfbfa1a1bebebKbKbHbHbGbGbGbGbHbHbebebgbgaWaWavavajajaaaaaaaaaaaaaaaaaaaaaaaaaaaaalalaPaPbsbsaTaTaSaSaQaQbbbbbbbbbbbbaQaQbubuaUaUaQaQbbbbbbbbaQaQbDbDaQaQbbbbbbbbbbbbbbbbbbbbbDbDbbbbaQaQaQaQa5a5aHaHajajafafajajaHaHa5a5aSaSaQaQbbbbbbbbbbbbaUaUavavaaaaaaaaaaaaaaaaaaaaaaaaaaaaaaaaaaaaaaaaaaaaaaaaaaaaaaaaaaaaaaaaaaaaaaaaaaaa",
"aaaaaaaaaaaaaaaaaaaaaaaaaaaaaaaaaaaaaaaaaaaaaaaaaaaaaaaaaaaaaaaaaaaaaaaaaaaaaaaaaaaaaaaaaaaaaaaaaaaaaaaaaaaaaaaaaaaaaaaaaaaaaaaaaaaaaaaaaaaaaaaaaaaaaaaaaaaaaaaaaaaaaaaaaaaaaaaaaaaaaaaaaaaaaaaaaaaaaaaaaaaaaaaaaaaaaaaaaaaaaaaaaaaaaaaaaaaaaaaaaaaaaaaaadadayayadadbjbjbhbhafafaaaaa@a@aBaBaBaBaDaDaLaLaDaDaCaCaLaLa$a$babaa#a#a#a#a@a@aDaDaDaDa7a7aMaMa#a#a#a#a#a#a#a#babababaaaaaaaaabhbhbabababaaaaaajajaNaNaXaXbkbka7a7aMaMaLaLaLaLaLaLa@a@bububfbfa1a1a1a1a1a1bfbfananavavavava6a6a6a6avavavavavavavavavavaWaWaWaWaWaWaWaWaWaWaWaWaWaWavavalalaaaaaaaaaaaaaaaaaaaaaaaaajajaHaHavava5a5bFbFaUaUbDbDbbbbbbbbbbbbaQaQbubuaSaSbbbbbbbbbbbbaQaQaSaSaQaQbbbbbbbbbbbbbbbbbbbbaQaQaQaQaQaQaQaQaSaSa5a5akakajajajajajaja5a5bcbcaQaQaQaQbbbbbbbbaQaQaUaUananaaaaaaaaaaaaaaaaaaaaaaaaaaaaaaaaaaaaaaaaaaaaaaaaaaaaaaaaaaaaaaaaaaaaaaaa",
"aaaaaaaaaaaaaaaaaaaaaaaaaaaaaaaaaaaaaaaaaaaaaaaaaaaaaaaaaaaaaaaaaaaaaaaaaaaaaaaaaaaaaaaaaaaaaaaaaaaaaaaaaaaaaaaaaaaaaaaaaaaaaaaaaaaaaaaaaaaaaaaaaaaaaaaaaaaaaaaaaaaaaaaaaaaaaaaaaaaaaaaaaaaaaaaaaaaaaaaaaaaaaaaaaaaaaaaaaaaaaaaaaaaaaaaaaaaaaaaaaaaaaaaaadadayayadadbjbjbhbhafafaaaaa@a@aBaBaBaBaDaDaLaLaDaDaCaCaLaLa$a$babaa#a#a#a#a@a@aDaDaDaDa7a7aMaMa#a#a#a#a#a#a#a#babababaaaaaaaaabhbhbabababaaaaaajajaNaNaXaXbkbka7a7aMaMaLaLaLaLaLaLa@a@bububfbfa1a1a1a1a1a1bfbfananavavavava6a6a6a6avavavavavavavavavavaWaWaWaWaWaWaWaWaWaWaWaWaWaWavavalalaaaaaaaaaaaaaaaaaaaaaaaaajajaHaHavava5a5bFbFaUaUbDbDbbbbbbbbbbbbaQaQbubuaSaSbbbbbbbbbbbbaQaQaSaSaQaQbbbbbbbbbbbbbbbbbbbbaQaQaQaQaQaQaQaQaSaSa5a5akakajajajajajaja5a5bcbcaQaQaQaQbbbbbbbbaQaQaUaUananaaaaaaaaaaaaaaaaaaaaaaaaaaaaaaaaaaaaaaaaaaaaaaaaaaaaaaaaaaaaaaaaaaaaaaaa",
"aaaaaaaaaaaaaaaaaaaaaaaaaaaaaaaaaaaaaaaaaaaaaaaaaaaaaaaaaaaaaaaaaaaaaaaaaaaaaaaaaaaaaaaaaaaaaaaaaaaaaaaaaaaaaaaaaaaaaaaaaaaaaaaaaaaaaaaaaaaaaaaaaaaaaaaaaaaaaaaaaaaaaaaaaaaaaaaaaaaaaaaaaaaaaaaaaaaaaaaaaaaaaaaaaaaaaaaaaaaaaaaaaaaaaaaaaaaaaaaaaaaaaaaaaXaXacacalalbjbjbhbhaPaPbhbha#a#aDaDaBaBaBaBaCaCaCaCaCaCaKaKbkbkbkbkbkbkaKaKaKaKaKaKa8a8bkbkaKaKaKaKbkbkaDaDaMaMaMaMaMaMaMaMaMaMaMaMa@a@a@a@aMaMaMaMaMaMaMaMaMaMa$a$bhbhaaaaaqaqakakavava1a1a1a1a1a1bebea1a1bGbGa5a5bubububububububububububububububububububuauaububububububububuauauauauavavaaaaaaaaaaaaaaaaaaaaajajapapaOaOaXaXaHaHaPaPbFbFaQaQaQaQbbbbbbbbbbbbaQaQaQaQbbbbbbbbaQaQaSaSaQaQaQaQaQaQaQaQaSaSaQaQbbbbaQaQaSaSaSaSaSaSaSaSaWaWapapajajakakakakaHaHa5a5aTaTaQaQaQaQaQaQaQaQbFbFaVaVa5a5aaaaaaaaaaaaaaaaaaaaaaaaaaaaaaaaaaaaaaaaaaaaaaaaaaaaaaaaaaaaaaaaaaaa",
"aaaaaaaaaaaaaaaaaaaaaaaaaaaaaaaaaaaaaaaaaaaaaaaaaaaaaaaaaaaaaaaaaaaaaaaaaaaaaaaaaaaaaaaaaaaaaaaaaaaaaaaaaaaaaaaaaaaaaaaaaaaaaaaaaaaaaaaaaaaaaaaaaaaaaaaaaaaaaaaaaaaaaaaaaaaaaaaaaaaaaaaaaaaaaaaaaaaaaaaaaaaaaaaaaaaaaaaaaaaaaaaaaaaaaaaaaaaaaaaaaaaaaaaaaXaXacacalalbjbjbhbhaPaPbhbha#a#aDaDaBaBaBaBaCaCaCaCaCaCaKaKbkbkbkbkbkbkaKaKaKaKaKaKa8a8bkbkaKaKaKaKbkbkaDaDaMaMaMaMaMaMaMaMaMaMaMaMa@a@a@a@aMaMaMaMaMaMaMaMaMaMa$a$bhbhaaaaaqaqakakavava1a1a1a1a1a1bebea1a1bGbGa5a5bubububububububububububububububububububuauaububububububububuauauauauavavaaaaaaaaaaaaaaaaaaaaajajapapaOaOaXaXaHaHaPaPbFbFaQaQaQaQbbbbbbbbbbbbaQaQaQaQbbbbbbbbaQaQaSaSaQaQaQaQaQaQaQaQaSaSaQaQbbbbaQaQaSaSaSaSaSaSaSaSaWaWapapajajakakakakaHaHa5a5aTaTaQaQaQaQaQaQaQaQbFbFaVaVa5a5aaaaaaaaaaaaaaaaaaaaaaaaaaaaaaaaaaaaaaaaaaaaaaaaaaaaaaaaaaaaaaaaaaaa",
"aaaaaaaaaaaaaaaaaaaaaaaaaaaaaaaaaaaaaaaaaaaaaaaaaaaaaaaaaaaaaaaaaaaaaaaaaaaaaaaaaaaaaaaaaaaaaaaaaaaaaaaaaaaaaaaaaaaaaaaaalalaqaqaaaaaaaaaaaaaaaaaaaaaaaaaaaaaaaaaaaaaaaaaaaaaaaaaaaaaaaaaaaaaaaaaaaaaaaaaaaaaaaaaaaaaaaaaaaaaaaaaaaaaaaaaaaaaaaaaaaaaaaaaaaabjbjajajaNaNaeaeapapbhbha@a@a@a@a@a@a$a$a@a@aMaMa@a@a#a#a#a#a$a$a#a#a#a#a#a#a#a#a#a#a#a#a#a#a#a#a#a#afafavavavavavavavavavavavavavavajajaaaaaaaaaaaaa$a$a$a$aHaHananbhbhbybybfbfbfbfa1a1a1a1a1a1bebea1a1bGbGa5a5a5a5a5a5a5a5a6a6a6a6a6a6a6a6a5a5a5a5a5a5a5a5a5a5a5a5a5a5a5a5a5a5a5a5a6a6a5a5avava5a5aaaaajajbhbhalalaNaNadadaXaXakakafafbFbFaQaQbbbbbbbbbbbbbbbbbbbbbbbbbbbbaSaSaTaTaSaSaSaSaSaSaQaQaSaSaSaSaSaSaTaTaQaQaQaQaQaQaQaQaSaSavavaiaiaHaHananaOaOaiaia5a5aQaQaQaQaQaQaUaUbHbHauauaHaHaaaaaaaaaaaaaaaaaaaaaaaaaaaaaaaaaaaaaaaaaaaaaaaaaaaaaaaaaaaaaaaaaaaa",
"aaaaaaaaaaaaaaaaaaaaaaaaaaaaaaaaaaaaaaaaaaaaaaaaaaaaaaaaaaaaaaaaaaaaaaaaaaaaaaaaaaaaaaaaaaaaaaaaaaaaaaaaaaaaaaaaaaaaaaaaalalaqaqaaaaaaaaaaaaaaaaaaaaaaaaaaaaaaaaaaaaaaaaaaaaaaaaaaaaaaaaaaaaaaaaaaaaaaaaaaaaaaaaaaaaaaaaaaaaaaaaaaaaaaaaaaaaaaaaaaaaaaaaaaaabjbjajajaNaNaeaeapapbhbha@a@a@a@a@a@a$a$a@a@aMaMa@a@a#a#a#a#a$a$a#a#a#a#a#a#a#a#a#a#a#a#a#a#a#a#a#a#afafavavavavavavavavavavavavavavajajaaaaaaaaaaaaa$a$a$a$aHaHananbhbhbybybfbfbfbfa1a1a1a1a1a1bebea1a1bGbGa5a5a5a5a5a5a5a5a6a6a6a6a6a6a6a6a5a5a5a5a5a5a5a5a5a5a5a5a5a5a5a5a5a5a5a5a6a6a5a5avava5a5aaaaajajbhbhalalaNaNadadaXaXakakafafbFbFaQaQbbbbbbbbbbbbbbbbbbbbbbbbbbbbaSaSaTaTaSaSaSaSaSaSaQaQaSaSaSaSaSaSaTaTaQaQaQaQaQaQaQaQaSaSavavaiaiaHaHananaOaOaiaia5a5aQaQaQaQaQaQaUaUbHbHauauaHaHaaaaaaaaaaaaaaaaaaaaaaaaaaaaaaaaaaaaaaaaaaaaaaaaaaaaaaaaaaaaaaaaaaaa",
"aaaaaaaaaaaaaaaaaaaaaaaaaaaaaaaaaaaaaaaaaaaaaaaaaaaaaaaaaaaaaaaaaaaaaaaaaaaaaaaaaaaaaaaaaaaaaaaaaaaaaaaaaaaaaaaaaaaaaaaaafafadadaaaaaaaaaaaaaaaaaaaaaaaaalalaXaXaaaaaaaaaaaaaaaaaaaaaaaaaaaaaaaaaaaaaaaaaaaaaaaaaaaaaaaaaaaaaaaaaaaaaaaaaaaaaaaaaaaaaaaaaaaaalalayayaiaiakakaqaqa#a#afafaHaHaaaabububububububububububububububububububububububububububububububububGbGbGbGbGbGbGbGbGbGbGbGbGbGbGbGbHbHavavaaaabhbhbhbhbhbhbhbha5a5bububxbxbxbxbebea1a1a1a1a1a1a1a1a1a1bKbKbubububububububububububububububububuavavbubububububububububububububububuavavaWaWbFbFaWaWajajaqaqalalayaybjbjbjbjadadaOaOaHaHaiaibFbFaQaQaQaQbbbbaQaQaQaQbbbbaQaQaSaSaSaSaSaSaQaQaQaQaQaQaSaSbrbraSaSbFbFaTaTaTaTaTaTaSaSaSaSbubuaVaVavavaPaPapapajajaiaiaWaWaRaRaUaUaSaSaWaWaHaHaaaaaaaaaaaaaaaaaaaaaaaaaaaaaaaaaaaaaaaaaaaaaaaaaaaaaaaaaaaaaaaaaaaaaaaa",
"aaaaaaaaaaaaaaaaaaaaaaaaaaaaaaaaaaaaaaaaaaaaaaaaaaaaaaaaaaaaaaaaaaaaaaaaaaaaaaaaaaaaaaaaaaaaaaaaaaaaaaaaaaaaaaaaaaaaaaaaafafadadaaaaaaaaaaaaaaaaaaaaaaaaalalaXaXaaaaaaaaaaaaaaaaaaaaaaaaaaaaaaaaaaaaaaaaaaaaaaaaaaaaaaaaaaaaaaaaaaaaaaaaaaaaaaaaaaaaaaaaaaaaalalayayaiaiakakaqaqa#a#afafaHaHaaaabububububububububububububububububububububububububububububububububGbGbGbGbGbGbGbGbGbGbGbGbGbGbGbGbHbHavavaaaabhbhbhbhbhbhbhbha5a5bububxbxbxbxbebea1a1a1a1a1a1a1a1a1a1bKbKbubububububububububububububububububuavavbubububububububububububububububuavavaWaWbFbFaWaWajajaqaqalalayaybjbjbjbjadadaOaOaHaHaiaibFbFaQaQaQaQbbbbaQaQaQaQbbbbaQaQaSaSaSaSaSaSaQaQaQaQaQaQaSaSbrbraSaSbFbFaTaTaTaTaTaTaSaSaSaSbubuaVaVavavaPaPapapajajaiaiaWaWaRaRaUaUaSaSaWaWaHaHaaaaaaaaaaaaaaaaaaaaaaaaaaaaaaaaaaaaaaaaaaaaaaaaaaaaaaaaaaaaaaaaaaaaaaaa",
"aaaaaaaaaaaaaaaaaaaaaaaaaaaaaaaaaaaaaaaaaaaaaaaaaaaaaaaaaaaaaaaaaaaaaaaaaaaaaaaaaaaaaaaaaaaaaaaaaaaaaaaaaaaaaaaaaaaaaaaaaaaaadadaaaaaaaaaaaaaaaaaaaaajajadadaqaqaaaaaaaaaaaaaaaaaaaaaaaaaaaaaaaaaaaaaaaaaaaaaaaaaaaaaaaaaaaaaaaaaaaaaaaaaaaaaaaaaaaaaaaaaHaHajajaOaOakakajajaaaaaPaPaPaPaHaHafafbGbGbGbGbGbGbGbGbGbGbGbGbGbGbGbGbGbGbGbGbGbGbGbGbGbGbGbGbGbGbGbGbGbGbububGbGbEbEbEbEbEbEbEbEbtbtbxbxbxbxbubububuauaubububxbxbxbxbGbGbGbGbebea1a1a1a1a1a1a1a1a1a1a1a1a1a1a1a1bGbGbGbGbGbGbGbGbGbGbGbGbGbGbGbGbGbGbGbGbGbGbHbHbHbHbHbHbHbHbfbfbGbGbxbxa5a5a5a5avavaqaqaeaebjbjbjbjbjbjalalaHaHaHaHaHaHaFaFaHaHbFbFaQaQaQaQbbbbaQaQaQaQbqbqaSaSaQaQaUaUaQaQaSaSaTaTaUaUbubuaWaWavavaWaWa5a5a5a5aaaaaaaaa5a5aWaWaVaVaVaVbubuaWaWaqaqa&a&aVaVaWaWaWaWaQaQbFbFauauaaaaaaaaaaaaaaaaaaaaaaaaaaaaaaaaaaaaaaaaaaaaaaaaaaaaaaaaaaaaaaaaaaaa",
"aaaaaaaaaaaaaaaaaaaaaaaaaaaaaaaaaaaaaaaaaaaaaaaaaaaaaaaaaaaaaaaaaaaaaaaaaaaaaaaaaaaaaaaaaaaaaaaaaaaaaaaaaaaaaaaaaaaaaaaaaaaaadadaaaaaaaaaaaaaaaaaaaaajajadadaqaqaaaaaaaaaaaaaaaaaaaaaaaaaaaaaaaaaaaaaaaaaaaaaaaaaaaaaaaaaaaaaaaaaaaaaaaaaaaaaaaaaaaaaaaaaHaHajajaOaOakakajajaaaaaPaPaPaPaHaHafafbGbGbGbGbGbGbGbGbGbGbGbGbGbGbGbGbGbGbGbGbGbGbGbGbGbGbGbGbGbGbGbGbGbGbububGbGbEbEbEbEbEbEbEbEbtbtbxbxbxbxbubububuauaubububxbxbxbxbGbGbGbGbebea1a1a1a1a1a1a1a1a1a1a1a1a1a1a1a1bGbGbGbGbGbGbGbGbGbGbGbGbGbGbGbGbGbGbGbGbGbGbHbHbHbHbHbHbHbHbfbfbGbGbxbxa5a5a5a5avavaqaqaeaebjbjbjbjbjbjalalaHaHaHaHaHaHaFaFaHaHbFbFaQaQaQaQbbbbaQaQaQaQbqbqaSaSaQaQaUaUaQaQaSaSaTaTaUaUbubuaWaWavavaWaWa5a5a5a5aaaaaaaaa5a5aWaWaVaVaVaVbubuaWaWaqaqa&a&aVaVaWaWaWaWaQaQbFbFauauaaaaaaaaaaaaaaaaaaaaaaaaaaaaaaaaaaaaaaaaaaaaaaaaaaaaaaaaaaaaaaaaaaaa",
"aaaaaaaaaaaaaaaaaaaaaaaaaaaaaaaaaaaaaaaaaaaaaaaaaaaaaaaaaaaaaaaaaaaaaaaaaaaaaaaaaaaaaaaaaaaaaaaaaaaaaaaaaaaaaaaaaaaaaaaaaaaaaaaaaaaaaaaaaaaaaaaaaaaaaaaaaaaaaaaaaaaaaaaaaaaaaaaaaaaaaaaaaaaaaaaaaaaaaaaaaaaaaaaaaaaaaaaaaaaaaaaaaaaaaaaaaaaaaaaaaaaaaaaaaaaaa@a@aiaiaaaaaaaaaaaabhbhbhbha6a6bHbHbebebGbGbGbGbebebGbGbEbEbEbEbGbGbEbEbGbGbububububxbxbububububGbGbGbGbGbGbGbGbGbGbGbGbGbGbGbGbGbGbGbGbGbGbJbJbGbGbGbGbGbGbebea1a1a1a1a1a1a1a1a1a1a1a1a1a1a1a1a1a1a1a1a1a1a1a1a1a1bfbfa1a1a1a1a1a1a1a1a1a1a1a1a1a1bfbfbfbfbfbfbfbfbKbKbebebEbEbebebGbGaqaqavavaiaialalaNaNaNaNaeaeajajayayananaHaHbhbhaNaNaqaqaqaqbIbIbFbFaSaSaQaQaSaSaSaSaQaQaQaQaSaSaSaSbububFbFaWaWa5a5a5a5aaaaapapaqaqananapapaaaabhbha5a5aWaWaWaWaWaWaTaTaTaTaVaVaSaSbFbFbFbFaUaUaQaQaWaWaiaiaaaaaaaaaaaaaaaaaaaaaaaaaaaaaaaaaaaaaaaaaaaaaaaaaaaaaaaaaaaaaaaa",
"aaaaaaaaaaaaaaaaaaaaaaaaaaaaaaaaaaaaaaaaaaaaaaaaaaaaaaaaaaaaaaaaaaaaaaaaaaaaaaaaaaaaaaaaaaaaaaaaaaaaaaaaaaaaaaaaaaaaaaaaaaaaaaaaaaaaaaaaaaaaaaaaaaaaaaaaaaaaaaaaaaaaaaaaaaaaaaaaaaaaaaaaaaaaaaaaaaaaaaaaaaaaaaaaaaaaaaaaaaaaaaaaaaaaaaaaaaaaaaaaaaaaaaaaaaaaa@a@aiaiaaaaaaaaaaaabhbhbhbha6a6bHbHbebebGbGbGbGbebebGbGbEbEbEbEbGbGbEbEbGbGbububububxbxbububububGbGbGbGbGbGbGbGbGbGbGbGbGbGbGbGbGbGbGbGbGbGbJbJbGbGbGbGbGbGbebea1a1a1a1a1a1a1a1a1a1a1a1a1a1a1a1a1a1a1a1a1a1a1a1a1a1bfbfa1a1a1a1a1a1a1a1a1a1a1a1a1a1bfbfbfbfbfbfbfbfbKbKbebebEbEbebebGbGaqaqavavaiaialalaNaNaNaNaeaeajajayayananaHaHbhbhaNaNaqaqaqaqbIbIbFbFaSaSaQaQaSaSaSaSaQaQaQaQaSaSaSaSbububFbFaWaWa5a5a5a5aaaaapapaqaqananapapaaaabhbha5a5aWaWaWaWaWaWaTaTaTaTaVaVaSaSbFbFbFbFaUaUaQaQaWaWaiaiaaaaaaaaaaaaaaaaaaaaaaaaaaaaaaaaaaaaaaaaaaaaaaaaaaaaaaaaaaaaaaaa",
"aaaaaaaaaaaaaaaaaaaaaaaaaaaaaaaaaaaaaaaaaaaaaaaaaaaaaaaaaaaaaaaaaaaaaaaaaaaaaaaaaaaaaaaaaaaaaaaaaaaaaaaaaaaaaaaaaaaaaaaaaaaaaaaaaaaaaaaaaaaaaaaaaaaaaaaaaaaaaaaaaaaaaaaaaaaaaaaaaaaaaaaaaaaaaaaaaaaaaaaaaaaaaaaaaaaaaaaaaaaaaaaaaaaaaaaaaaaaaaaaaaaaaaaaaaaaaaaaaaaaaaaaaaaaavavavavavavbGbGbGbGbEbEbGbGbGbGbGbGbebebKbKbKbKbKbKbebebebebebebKbKbKbKbKbKbebebebea1a1a1a1bfbfbfbfa1a1a1a1a1a1a1a1a1a1a1a1a1a1a1a1a1a1a1a1a1a1bebea1a1a1a1a1a1a1a1a1a1a1a1a1a1a1a1a1a1a1a1a1a1a1a1a1a1a1a1a1a1bfbfbfbfbfbfbfbfaGaGbKbKbebebebebGbGbububGbGbGbGbQbQbGbGaHaHajajaOaOaXaXalalbhbhapapbhbhaNaNakakaFaFalalalalaiaiapapaiaiavavbFbFbFbFaUaUbFbFaTaTaVaVauaububuaWaWa5a5aWaWbhbhbhbhaFaFaHaHaiaiaHaHaHaHbabaaiaibhbha5a5aWaWaWaWaWaWbcbcbFbFbFbFaQaQaSaSbcbcaWaWaWaWavavaaaaaaaaaaaaaaaaaaaaaaaaaaaaaaaaaaaaaaaaaaaaaaaaaaaaaaaaaaaaaaaa",
"aaaaaaaaaaaaaaaaaaaaaaaaaaaaaaaaaaaaaaaaaaaaaaaaaaaaaaaaaaaaaaaaaaaaaaaaaaaaaaaaaaaaaaaaaaaaaaaaaaaaaaaaaaaaaaaaaaaaaaaaaaaaaaaaaaaaaaaaaaaaaaaaaaaaaaaaaaaaaaaaaaaaaaaaaaaaaaaaaaaaaaaaaaaaaaaaaaaaaaaaaaaaaaaaaaaaaaaaaaaaaaaaaaaaaaaaaaaaaaaaaaaaaaaaaaaaaaaaaaaaaaaaaaaaavavavavavavbGbGbGbGbEbEbGbGbGbGbGbGbebebKbKbKbKbKbKbebebebebebebKbKbKbKbKbKbebebebea1a1a1a1bfbfbfbfa1a1a1a1a1a1a1a1a1a1a1a1a1a1a1a1a1a1a1a1a1a1bebea1a1a1a1a1a1a1a1a1a1a1a1a1a1a1a1a1a1a1a1a1a1a1a1a1a1a1a1a1a1bfbfbfbfbfbfbfbfaGaGbKbKbebebebebGbGbububGbGbGbGbQbQbGbGaHaHajajaOaOaXaXalalbhbhapapbhbhaNaNakakaFaFalalalalaiaiapapaiaiavavbFbFbFbFaUaUbFbFaTaTaVaVauaububuaWaWa5a5aWaWbhbhbhbhaFaFaHaHaiaiaHaHaHaHbabaaiaibhbha5a5aWaWaWaWaWaWbcbcbFbFbFbFaQaQaSaSbcbcaWaWaWaWavavaaaaaaaaaaaaaaaaaaaaaaaaaaaaaaaaaaaaaaaaaaaaaaaaaaaaaaaaaaaaaaaa",
"aaaaaaaaaaaaaaaaaaaaaaaaaaaaaaaaaaaaaaaaaaaaaaaaaaaaaaaaaaaaaaaaaaaaaaaaaaaaaaaaaaaaaaaaaaaaaaaaaaaaalalaaaaaaaaaaaaaaaaaaaaaaaaaaaaaaaaaaaaaaaaaaaaaaaaaaaaaaaaaaaaaaaaaaaaaaaaaaaaaaaaaaaaaaaaaaaaaaaaaaaaaaaaaaaaaaaaaaaaaaaaaaaaaaaaaaaaaaaaaaaaaaaaaaaaaaaaaaaaaaaabhbhbHbHbebebebebGbGbGbGbGbGbGbGbGbGbGbGbGbGbGbGbGbGbebebebebfbfbfbfa3a3aGaGaGaGbfbfbfbfbfbfbfbfbfbfbfbfbfbfbfbfbfbfbfbfbfbfa1a1a1a1bfbfbfbfbfbfbfbfbfbfbfbfbfbfbfbfbfbfbfbfbfbfbfbfbfbfa1a1a1a1bfbfbfbfbfbfbfbfa1a1bebebGbGbebebGbGbGbGbGbGbGbGbGbGbGbGbGbGbGbGbGbGbQbQbebeaaaaapapalalalalazazalalananapapaYaYadadaNaNaNaNaOaObhbhaiaiananbhbhavavbFbFaTaTaTaTbFbFbubua6a6aaaaaaaaa5a5aPaPbhbhaiaiaHaHaHaHapapaHaHaHaHa@a@a@a@ananapapa5a5aVaVaTaTbFbFaUaUaVaVaWaWbcbcbcbcaWaWaWaWavavaaaaaaaaaaaaaaaaaaaaaaaaaaaaaaaaaaaaaaaaaaaaaaaaaaaaaaaaaaaaaaaa",
"aaaaaaaaaaaaaaaaaaaaaaaaaaaaaaaaaaaaaaaaaaaaaaaaaaaaaaaaaaaaaaaaaaaaaaaaaaaaaaaaaaaaaaaaaaaaaaaaaaaaalalaaaaaaaaaaaaaaaaaaaaaaaaaaaaaaaaaaaaaaaaaaaaaaaaaaaaaaaaaaaaaaaaaaaaaaaaaaaaaaaaaaaaaaaaaaaaaaaaaaaaaaaaaaaaaaaaaaaaaaaaaaaaaaaaaaaaaaaaaaaaaaaaaaaaaaaaaaaaaaaabhbhbHbHbebebebebGbGbGbGbGbGbGbGbGbGbGbGbGbGbGbGbGbGbebebebebfbfbfbfa3a3aGaGaGaGbfbfbfbfbfbfbfbfbfbfbfbfbfbfbfbfbfbfbfbfbfbfa1a1a1a1bfbfbfbfbfbfbfbfbfbfbfbfbfbfbfbfbfbfbfbfbfbfbfbfbfbfa1a1a1a1bfbfbfbfbfbfbfbfa1a1bebebGbGbebebGbGbGbGbGbGbGbGbGbGbGbGbGbGbGbGbGbGbQbQbebeaaaaapapalalalalazazalalananapapaYaYadadaNaNaNaNaOaObhbhaiaiananbhbhavavbFbFaTaTaTaTbFbFbubua6a6aaaaaaaaa5a5aPaPbhbhaiaiaHaHaHaHapapaHaHaHaHa@a@a@a@ananapapa5a5aVaVaTaTbFbFaUaUaVaVaWaWbcbcbcbcaWaWaWaWavavaaaaaaaaaaaaaaaaaaaaaaaaaaaaaaaaaaaaaaaaaaaaaaaaaaaaaaaaaaaaaaaa",
"aaaaaaaaaaaaaaaaaaaaaaaaaaaaaaaaaaaaaaaaaaaaaaaaaaaaaaaaaaaaaaaaaaaaaaaaaaaaaaaaaaaaaaaaaaaaa#a#ayayalalaaaaaaaaaaaaaaaaaaaaaaaaaaaaaaaaaaaaaaaaaaaaaaaaaaaaaaaaaaaaaaaaaaaaaaaaaaaaaaaaaaaaaaaaaaaaaaaaaHaHbjbjaiaiaaaaaaaaaaaaaaaaaaaaaaaaaaaaaaaaaaaaaaaaaaaaaaaaaaaaa5a5bGbGbQbQbGbGbGbGbGbGbGbGbGbGbGbGbGbGbGbGbGbGbGbGbebebebebebea1a1bfbfbfbfa1a1bebebebebebebebebebebebebebebebebebebebebebebebebebebebebebebebebebebebebebebebebebebebebebebebebebebebebebebebebebebebebGbGbebebebebQbQbGbGbebebGbGbGbGbGbGbGbGbGbGbGbGbGbGbGbGbGbGbQbQbGbGavavavavapapajajaeaeaOaOaOaObhbhaeaeajajaOaOaNaNapapaHaHalaladadayaybhbha5a5aVaVbubuaWaWa5a5aaaaaHaHaiaibhbhbhbhananbhbhananaqaqaHaHaHaHaHaHaqaqbhbhaqaqbhbha5a5aQaQbFbFbFbFaTaTa&a&aWaWaWaWaWaWbcbcaWaWaWaWaaaaaaaaaaaaaaaaaaaaaaaaaaaaaaaaaaaaaaaaaaaaaaaaaaaaaaaaaaaaaaaa",
"aaaaaaaaaaaaaaaaaaaaaaaaaaaaaaaaaaaaaaaaaaaaaaaaaaaaaaaaaaaaaaaaaaaaaaaaaaaaaaaaaaaaaaaaaaaaa#a#ayayalalaaaaaaaaaaaaaaaaaaaaaaaaaaaaaaaaaaaaaaaaaaaaaaaaaaaaaaaaaaaaaaaaaaaaaaaaaaaaaaaaaaaaaaaaaaaaaaaaaHaHbjbjaiaiaaaaaaaaaaaaaaaaaaaaaaaaaaaaaaaaaaaaaaaaaaaaaaaaaaaaa5a5bGbGbQbQbGbGbGbGbGbGbGbGbGbGbGbGbGbGbGbGbGbGbGbGbebebebebebea1a1bfbfbfbfa1a1bebebebebebebebebebebebebebebebebebebebebebebebebebebebebebebebebebebebebebebebebebebebebebebebebebebebebebebebebebebebebGbGbebebebebQbQbGbGbebebGbGbGbGbGbGbGbGbGbGbGbGbGbGbGbGbGbGbQbQbGbGavavavavapapajajaeaeaOaOaOaObhbhaeaeajajaOaOaNaNapapaHaHalaladadayaybhbha5a5aVaVbubuaWaWa5a5aaaaaHaHaiaibhbhbhbhananbhbhananaqaqaHaHaHaHaHaHaqaqbhbhaqaqbhbha5a5aQaQbFbFbFbFaTaTa&a&aWaWaWaWaWaWbcbcaWaWaWaWaaaaaaaaaaaaaaaaaaaaaaaaaaaaaaaaaaaaaaaaaaaaaaaaaaaaaaaaaaaaaaaa",
"aaaaaaaaaaaaaaaaaaaaaaaaaaaaaaaaaaaaaaaaaaaaaaaaaaaaaaaaaaaaaaaaaaaaaaaaaaaaaaaaaaaaaaaaaaaaaMaMaOaOaaaaaaaaaaaaaaaaaaaaaaaaaaaaaaaaaaaaaaaaaaaaaaaaaaaaaaaaaaaaaaaaaaaaaaaaaaaaaaaaaaaaaaaaaaaaaaaaaaaaaaaaalalaaaaaaaaaaaaaaaaaaaaaaaaaaaaaaaaaaaaaaaaaaaaaaaaaaaaaaaaa5a5bGbGbQbQbGbGbEbEbGbGbGbGbGbGbGbGbGbGbGbGbGbGbGbGbQbQbQbQbebea1a1a1a1a1a1a1a1bebebQbQbQbQbQbQbQbQbQbQbQbQbQbQbQbQbQbQbQbQbQbQbQbQbQbQbQbQbQbQbQbQbQbQbQbQbQbQbQbQbQbQbQbQbQbQbQbQbQbQbQbQbQbQbebebGbGa2a2bebebQbQbQbQbGbGbebebGbGbGbGbGbGbGbGbGbGbGbGbGbGbGbGbGbGbQbQbGbGbcbcbFbFa5a5afafaOaOalalajajafafaPaPapapajajayayaiaiaeaeayayakakaiaiajajaqaqauauaWaWa5a5bhbhaHaHaHaHaHaHapapbhbhaHaHbhbhaqaqaHaHaHaHaHaHananbhbhaaaaa5a5aWaWaSaSaTaTbsbsaWaWa5a5aWaWaWaWaWaWaWaWbcbcaWaWaWaWaiaiaaaaaaaaaaaaaaaaaaaaaaaaaaaaaaaaaaaaaaaaaaaaaaaaaaaaaaaaaaaa",
"aaaaaaaaaaaaaaaaaaaaaaaaaaaaaaaaaaaaaaaaaaaaaaaaaaaaaaaaaaaaaaaaaaaaaaaaaaaaaaaaaaaaaaaaaaaaaMaMaOaOaaaaaaaaaaaaaaaaaaaaaaaaaaaaaaaaaaaaaaaaaaaaaaaaaaaaaaaaaaaaaaaaaaaaaaaaaaaaaaaaaaaaaaaaaaaaaaaaaaaaaaaaalalaaaaaaaaaaaaaaaaaaaaaaaaaaaaaaaaaaaaaaaaaaaaaaaaaaaaaaaaa5a5bGbGbQbQbGbGbEbEbGbGbGbGbGbGbGbGbGbGbGbGbGbGbGbGbQbQbQbQbebea1a1a1a1a1a1a1a1bebebQbQbQbQbQbQbQbQbQbQbQbQbQbQbQbQbQbQbQbQbQbQbQbQbQbQbQbQbQbQbQbQbQbQbQbQbQbQbQbQbQbQbQbQbQbQbQbQbQbQbQbQbQbQbebebGbGa2a2bebebQbQbQbQbGbGbebebGbGbGbGbGbGbGbGbGbGbGbGbGbGbGbGbGbGbQbQbGbGbcbcbFbFa5a5afafaOaOalalajajafafaPaPapapajajayayaiaiaeaeayayakakaiaiajajaqaqauauaWaWa5a5bhbhaHaHaHaHaHaHapapbhbhaHaHbhbhaqaqaHaHaHaHaHaHananbhbhaaaaa5a5aWaWaSaSaTaTbsbsaWaWa5a5aWaWaWaWaWaWaWaWbcbcaWaWaWaWaiaiaaaaaaaaaaaaaaaaaaaaaaaaaaaaaaaaaaaaaaaaaaaaaaaaaaaaaaaaaaaa",
"aaaaaaaaaaaaaaaaaaaaaaaaaaaaaaaaaaaaaaaaaaaaaaaaaaaaaaaaaaaaaaaaaaaaaaaaaaaaaaaaaaaaaaaaaaaaaaaaaaaaaaaaaaaaaaaaaaaaaaaaaaaaaaaaaaaaapapbhbhbhbhaaaaaaaaaaaaaaaaaaaaaaaaaaaaaaaaaaaaapapapapaaaaaaaaaaaaa5a5bhbha5a5a5a5bhbhapapaaaabhbhbhbhbhbha5a5a5a5a5a5a5a5a5a5a5a5a5a5bGbGbQbQbGbGbGbGbGbGbGbGbGbGbGbGbGbGbGbGbGbGbGbGbebebebebebea1a1bfbfbfbfa1a1bebebebebebebebebQbQbQbQbQbQbQbQbQbQbQbQbQbQbQbQbQbQbQbQbQbQbQbQbQbQbQbQbQbQbQbQbQbQbQbQbQbQbQbQbQbQbQbQbQbQbebebebebGbGbGbGbebebQbQbQbQbGbGbebebGbGbGbGbGbGbGbGbGbGbGbGbGbGbGbGbGbGbQbQbGbGaWaWaSaSaVaVa5a5afafajajakakazazaYaYajajaPaPaXaXadadaOaOaaaaaqaqaPaPaHaHauauaWaWa5a5bhbhaHaHaHaHaqaqaHaHaHaHbhbhaHaHbhbhaHaHaHaHaHaHa5a5a5a5aWaWaVaVbFbFbubuaTaTa&a&aWaWaWaWa&a&aWaWaWaWaWaWaWaWaVaVaWaWaWaWavavaaaaaaaaaaaaaaaaaaaaaaaaaaaaaaaaaaaaaaaaaaaaaaaaaaaaaaaaaaaa",
"aaaaaaaaaaaaaaaaaaaaaaaaaaaaaaaaaaaaaaaaaaaaaaaaaaaaaaaaaaaaaaaaaaaaaaaaaaaaaaaaaaaaaaaaaaaaaaaaaaaaaaaaaaaaaaaaaaaaaaaaaaaaaaaaaaaaapapbhbhbhbhaaaaaaaaaaaaaaaaaaaaaaaaaaaaaaaaaaaaapapapapaaaaaaaaaaaaa5a5bhbha5a5a5a5bhbhapapaaaabhbhbhbhbhbha5a5a5a5a5a5a5a5a5a5a5a5a5a5bGbGbQbQbGbGbGbGbGbGbGbGbGbGbGbGbGbGbGbGbGbGbGbGbebebebebebea1a1bfbfbfbfa1a1bebebebebebebebebQbQbQbQbQbQbQbQbQbQbQbQbQbQbQbQbQbQbQbQbQbQbQbQbQbQbQbQbQbQbQbQbQbQbQbQbQbQbQbQbQbQbQbQbQbQbebebebebGbGbGbGbebebQbQbQbQbGbGbebebGbGbGbGbGbGbGbGbGbGbGbGbGbGbGbGbGbGbQbQbGbGaWaWaSaSaVaVa5a5afafajajakakazazaYaYajajaPaPaXaXadadaOaOaaaaaqaqaPaPaHaHauauaWaWa5a5bhbhaHaHaHaHaqaqaHaHaHaHbhbhaHaHbhbhaHaHaHaHaHaHa5a5a5a5aWaWaVaVbFbFbubuaTaTa&a&aWaWaWaWa&a&aWaWaWaWaWaWaWaWaVaVaWaWaWaWavavaaaaaaaaaaaaaaaaaaaaaaaaaaaaaaaaaaaaaaaaaaaaaaaaaaaaaaaaaaaa",
"aaaaaaaaaaaaaaaaaaaaaaaaaaaaaaaaaaaaaaaaaaaaaaaaaaaaaaaaaaaaaaaaaaaaaaaaaaaaaaaaaaaaaaaaaaaaaaaaaaaaaaaaaaaaaaaaananavavaiaibIbIaGaGbLbLaGaGaGaGbLbLaGaGbLbLbLbLbLbLbLbLbLbLbLbLbLbLbLbLbLbLbLbLbLbLbLbLbLbLbLbLbLbLbLbLbLbLbLbLbLbLbLbLbLbLbLbLbKbKbHbHbHbHbHbHbxbxbybyaWaWbGbGbebebGbGbGbGbGbGbGbGbGbGbGbGbGbGbGbGbGbGbGbGbebebQbQbebea1a1bfbfbfbfa1a1bebebebebebebebebQbQbQbQbQbQbQbQbQbQbQbQbQbQbQbQbQbQbQbQbQbQbQbQbQbQbQbQbQbQbQbQbQbQbQbQbQbQbQbQbQbQbQbQbQbQbQbQbebebGbGbGbGbebebQbQbQbQbGbGbebebGbGbGbGbGbGbGbGbGbGbGbGbGbGbGbGbGbGbQbQbGbGaWaWaQaQaQaQaWaWapapajajaOaOayayayayaNaNalalaeaeapapaNaNaOaOapapa5a5aWaWauaubhbhapapaHaHananaHaHaHaHaqaqaqaqbhbhaqaqapapananapapa5a5aWaWaSaSbFbFbFbFaSaSaVaVaWaWaWaWaWaWaWaWaWaWa&a&aWaWaVaVaWaWa&a&aWaWaTaTaWaWaaaaaaaaaaaaaaaaaaaaaaaaaaaaaaaaaaaaaaaaaaaaaaaaaaaaaaaaaaaa",
"aaaaaaaaaaaaaaaaaaaaaaaaaaaaaaaaaaaaaaaaaaaaaaaaaaaaaaaaaaaaaaaaaaaaaaaaaaaaaaaaaaaaaaaaaaaaaaaaaaaaaaaaaaaaaaaaananavavaiaibIbIaGaGbLbLaGaGaGaGbLbLaGaGbLbLbLbLbLbLbLbLbLbLbLbLbLbLbLbLbLbLbLbLbLbLbLbLbLbLbLbLbLbLbLbLbLbLbLbLbLbLbLbLbLbLbLbLbKbKbHbHbHbHbHbHbxbxbybyaWaWbGbGbebebGbGbGbGbGbGbGbGbGbGbGbGbGbGbGbGbGbGbGbGbebebQbQbebea1a1bfbfbfbfa1a1bebebebebebebebebQbQbQbQbQbQbQbQbQbQbQbQbQbQbQbQbQbQbQbQbQbQbQbQbQbQbQbQbQbQbQbQbQbQbQbQbQbQbQbQbQbQbQbQbQbQbQbQbebebGbGbGbGbebebQbQbQbQbGbGbebebGbGbGbGbGbGbGbGbGbGbGbGbGbGbGbGbGbGbQbQbGbGaWaWaQaQaQaQaWaWapapajajaOaOayayayayaNaNalalaeaeapapaNaNaOaOapapa5a5aWaWauaubhbhapapaHaHananaHaHaHaHaqaqaqaqbhbhaqaqapapananapapa5a5aWaWaSaSbFbFbFbFaSaSaVaVaWaWaWaWaWaWaWaWaWaWa&a&aWaWaVaVaWaWa&a&aWaWaTaTaWaWaaaaaaaaaaaaaaaaaaaaaaaaaaaaaaaaaaaaaaaaaaaaaaaaaaaaaaaaaaaa",
"aaaaaaaaaaaaaaaaaaaaaaaaaaaaaaaaaaaaaaaaaaaaaaaaaaaaaaaaaaaaaaaaaaaaaaaaaaaaaaaaaaaaaaaaaaaaaaaaajajavavauaububuaGaGaGaGbfbfbfbfa1a1a1a1a1a1a1a1a1a1a1a1a1a1a1a1a1a1a1a1a1a1bebebxbxbGbGbGbGbGbGbGbGbGbGbGbGbGbGbGbGbGbGbGbGbGbGbGbGbGbGbGbGbGbGbGbGbGbGbGbGbGbGbGbGbGbGavavbGbGbebebGbGbGbGbGbGbGbGbGbGbGbGbGbGbGbGbGbGbGbGbQbQbQbQbebea1a1bfbfbfbfa1a1bQbQbQbQbebebebebebebQbQbQbQbQbQbQbQbQbQbQbQbQbQbQbQbQbQbQbQbQbQbQbQbQbQbQbQbQbQbQbQbQbQbQbQbQbQbQbQbQbQbQbQbQbQbQbQbObObEbEbObObQbQbQbQbGbGbObObGbGbGbGbGbGbGbGbGbGbGbGbGbGbGbGbGbGbQbQbGbGaVaVaQaQaQaQaTaTa5a5aYaYakakaYaYakakajajajajaXaXaHaHbhbhayayafafananbubua5a5apapaqaqananaHaHaHaHaiaiaqaqaHaHbhbhananbhbha5a5a5a5bububFbFaUaUaQaQbcbcaWaWaVaVaWaWaWaWaWaWauaubsbsaTaTaVaVaVaVaWaWaWaWaTaTbcbca5a5aaaaaaaaaaaaaaaaaaaaaaaaaaaaaaaaaaaaaaaaaaaaaaaaaaaaaaaaaaaa",
"aaaaaaaaaaaaaaaaaaaaaaaaaaaaaaaaaaaaaaaaaaaaaaaaaaaaaaaaaaaaaaaaaaaaaaaaaaaaaaaaaaaaaaaaaaaaaaaaajajavavauaububuaGaGaGaGbfbfbfbfa1a1a1a1a1a1a1a1a1a1a1a1a1a1a1a1a1a1a1a1a1a1bebebxbxbGbGbGbGbGbGbGbGbGbGbGbGbGbGbGbGbGbGbGbGbGbGbGbGbGbGbGbGbGbGbGbGbGbGbGbGbGbGbGbGbGbGavavbGbGbebebGbGbGbGbGbGbGbGbGbGbGbGbGbGbGbGbGbGbGbGbQbQbQbQbebea1a1bfbfbfbfa1a1bQbQbQbQbebebebebebebQbQbQbQbQbQbQbQbQbQbQbQbQbQbQbQbQbQbQbQbQbQbQbQbQbQbQbQbQbQbQbQbQbQbQbQbQbQbQbQbQbQbQbQbQbQbQbQbObObEbEbObObQbQbQbQbGbGbObObGbGbGbGbGbGbGbGbGbGbGbGbGbGbGbGbGbGbQbQbGbGaVaVaQaQaQaQaTaTa5a5aYaYakakaYaYakakajajajajaXaXaHaHbhbhayayafafananbubua5a5apapaqaqananaHaHaHaHaiaiaqaqaHaHbhbhananbhbha5a5a5a5bububFbFaUaUaQaQbcbcaWaWaVaVaWaWaWaWaWaWauaubsbsaTaTaVaVaVaVaWaWaWaWaTaTbcbca5a5aaaaaaaaaaaaaaaaaaaaaaaaaaaaaaaaaaaaaaaaaaaaaaaaaaaaaaaaaaaa",
"aaaaaaaaaaaaaaaaaaaaaaaaaaaaaaaaaaaaaaaaaaaaaaaaaaaaaaaaaaaaaaaaaaaaaaaaaaaaaaaaaaaaaaaaaHaHbybyaGaGa3a3bfbfbfbfa1a1a1a1a1a1a1a1bebea1a1a1a1a1a1a1a1a1a1a1a1a1a1a1a1a1a1a1a1a1a1bGbGbGbGbGbGbGbGbGbGbGbGbGbGbGbGbGbGbGbGbGbGbGbGbGbGbGbGbGbGbGbGbGbGbGbGbGbGbGbGbGbGbGbGaWaWbGbGbQbQbGbGbGbGbGbGbGbGbGbGbGbGbGbGbGbGbGbGbGbGbebebQbQbebea1a1bfbfbfbfa1a1bQbQbQbQbebebQbQbQbQbQbQbQbQbQbQbQbQbQbQbQbQbQbQbQbQbQbQbQbQbQbQbQbQbQbQbQbQbQbQbQbQbQbQbQbQbQbQbQbQbQbQbQbQbQbQbQbQbObObEbEbebebQbQbebebGbGbebebGbGbGbGbGbGbGbGbGbGbGbGbGbGbGbGbGbGbQbQbGbGaWaWbFbFaQaQaQaQaSaSa5a5avavakakazazakakalalalalazazaqaqaPaPananauauaWaWbhbhapapaHaHaqaqananananaHaHananbhbhaaaaa5a5aWaWbububFbFbFbFaTaTaVaVaWaWaWaWaWaWaWaWaWaWauauavavaiaiaWaWaWaWbcbcaWaWaWaWaVaVaWaWaWaWa5a5aaaaaaaaaaaaaaaaaaaaaaaaaaaaaaaaaaaaaaaaaaaaaaaaaaaaaaaaaaaa",
"aaaaaaaaaaaaaaaaaaaaaaaaaaaaaaaaaaaaaaaaaaaaaaaaaaaaaaaaaaaaaaaaaaaaaaaaaaaaaaaaaaaaaaaaaHaHbybyaGaGa3a3bfbfbfbfa1a1a1a1a1a1a1a1bebea1a1a1a1a1a1a1a1a1a1a1a1a1a1a1a1a1a1a1a1a1a1bGbGbGbGbGbGbGbGbGbGbGbGbGbGbGbGbGbGbGbGbGbGbGbGbGbGbGbGbGbGbGbGbGbGbGbGbGbGbGbGbGbGbGbGaWaWbGbGbQbQbGbGbGbGbGbGbGbGbGbGbGbGbGbGbGbGbGbGbGbGbebebQbQbebea1a1bfbfbfbfa1a1bQbQbQbQbebebQbQbQbQbQbQbQbQbQbQbQbQbQbQbQbQbQbQbQbQbQbQbQbQbQbQbQbQbQbQbQbQbQbQbQbQbQbQbQbQbQbQbQbQbQbQbQbQbQbQbQbQbObObEbEbebebQbQbebebGbGbebebGbGbGbGbGbGbGbGbGbGbGbGbGbGbGbGbGbGbQbQbGbGaWaWbFbFaQaQaQaQaSaSa5a5avavakakazazakakalalalalazazaqaqaPaPananauauaWaWbhbhapapaHaHaqaqananananaHaHananbhbhaaaaa5a5aWaWbububFbFbFbFaTaTaVaVaWaWaWaWaWaWaWaWaWaWauauavavaiaiaWaWaWaWbcbcaWaWaWaWaVaVaWaWaWaWa5a5aaaaaaaaaaaaaaaaaaaaaaaaaaaaaaaaaaaaaaaaaaaaaaaaaaaaaaaaaaaa",
"aaaaaaaaaaaaaaaaaaaaaaaaaaaaaaaaaaaaaaaaaaaaaaaaaaaaaaaaaaaaaaaaaaaaaaaaaaaaaaaaapapbybybLbLaGaGbfbfa1a1bebea1a1a1a1a1a1a1a1a1a1a1a1bGbGbGbGa1a1a1a1a1a1a1a1a1a1a1a1a1a1a1a1a1a1a1a1bebebebebGbGbGbGbGbGbGbGbGbGbGbGbGbGbGbGbGbGbGbGbGbGbGbGbGbGbGbGbGbGbGbGbGbGbGbGbHbHaWaWbGbGbQbQbGbGbGbGbGbGbGbGbGbGbGbGbGbGbGbGbGbGbGbGbebebebebebea1a1bfbfbfbfa1a1bQbQbQbQbebebQbQbQbQbQbQbQbQbQbQbQbQbQbQbQbQbQbQbQbQbQbQbQbQbQbQbQbQbQbQbQbQbQbQbQbQbQbQbQbQbQbQbQbQbQbQbQbQbQbQbebebGbGbGbGbebebebebebebGbGbebebGbGbGbGbGbGbGbGbGbGbGbGbGbGbGbGbGbGbebebGbGa5a5bububdbdbbbbaQaQaSaSa5a5akakakakazazayayajajaYaYayaybhbhajajbsbsananbhbhaqaqaFaFaHaHaHaHaHaHaqaqbhbhaiaiaWaWbubuaSaSbdbdaTaTaWaWaWaWa6a6aWaWaVaVaWaWaWaWauauavavaaaaaaaaaaaaaaaaa5a5aWaWaWaWaWaWaWaWa6a6aaaaaaaaaaaaaaaaaaaaaaaaaaaaaaaaaaaaaaaaaaaaaaaaaaaaaaaaaaaaaaaa",
"aaaaaaaaaaaaaaaaaaaaaaaaaaaaaaaaaaaaaaaaaaaaaaaaaaaaaaaaaaaaaaaaaaaaaaaaaaaaaaaaapapbybybLbLaGaGbfbfa1a1bebea1a1a1a1a1a1a1a1a1a1a1a1bGbGbGbGa1a1a1a1a1a1a1a1a1a1a1a1a1a1a1a1a1a1a1a1bebebebebGbGbGbGbGbGbGbGbGbGbGbGbGbGbGbGbGbGbGbGbGbGbGbGbGbGbGbGbGbGbGbGbGbGbGbGbHbHaWaWbGbGbQbQbGbGbGbGbGbGbGbGbGbGbGbGbGbGbGbGbGbGbGbGbebebebebebea1a1bfbfbfbfa1a1bQbQbQbQbebebQbQbQbQbQbQbQbQbQbQbQbQbQbQbQbQbQbQbQbQbQbQbQbQbQbQbQbQbQbQbQbQbQbQbQbQbQbQbQbQbQbQbQbQbQbQbQbQbQbQbebebGbGbGbGbebebebebebebGbGbebebGbGbGbGbGbGbGbGbGbGbGbGbGbGbGbGbGbGbebebGbGa5a5bububdbdbbbbaQaQaSaSa5a5akakakakazazayayajajaYaYayaybhbhajajbsbsananbhbhaqaqaFaFaHaHaHaHaHaHaqaqbhbhaiaiaWaWbubuaSaSbdbdaTaTaWaWaWaWa6a6aWaWaVaVaWaWaWaWauauavavaaaaaaaaaaaaaaaaa5a5aWaWaWaWaWaWaWaWa6a6aaaaaaaaaaaaaaaaaaaaaaaaaaaaaaaaaaaaaaaaaaaaaaaaaaaaaaaaaaaaaaaa",
"aaaaaaaaaaaaaaaaaaaaaaaaaaaaaaaaaaaaaaaaaaaaaaaaaaaaaaaaaaaaaaaaaaaaaaaaaaaaaaaabLbLa3a3a1a1a1a1a1a1a1a1a1a1a1a1a1a1a1a1a1a1a1a1bGbGbgbgbebea1a1a1a1a1a1a1a1a1a1a1a1a1a1a1a1a1a1a1a1bfbfa1a1a1a1a1a1a1a1bGbGbGbGbGbGbGbGbGbGbGbGbGbGbGbGbGbGbGbGbGbGbGbGbGbGbGbGbGbGbGbGaWaWbGbGbQbQbGbGbGbGbGbGbGbGbGbGbGbGbGbGbGbGbGbGbGbGbebebebebebea1a1bfbfa1a1a1a1bQbQbQbQbebebebebQbQbQbQbQbQbQbQbQbQbQbQbQbQbQbQbQbQbQbQbQbQbQbQbQbQbQbQbQbQbQbQbQbQbQbQbQbQbQbQbQbQbQbQbQbQbQbQbQbQbGbGbGbGbebebQbQbQbQbGbGbebebGbGbGbGbGbGbGbGbGbGbGbGbGbGbGbGbGbGbebebGbGa6a6aVaVaSaSbNbNaQaQaSaSaTaTaHaHakakaOaOaXaXaYaYaYaYalalaPaPauauaWaWaqaqaHaHaHaHaHaHaHaHapapa5a5a5a5auaubFbFbFbFaSaSa&a&aVaVaWaWavavavavafafavavaWaWaWaWavavavavaaaaaiaiaPaPaPaPaqaqaaaaa5a5aWaWaWaWa5a5a5a5aaaaaaaaaaaaaaaaaaaaaaaaaaaaaaaaaaaaaaaaaaaaaaaaaaaaaaaaaaaaaaaa",
"aaaaaaaaaaaaaaaaaaaaaaaaaaaaaaaaaaaaaaaaaaaaaaaaaaaaaaaaaaaaaaaaaaaaaaaaaaaaaaaabLbLa3a3a1a1a1a1a1a1a1a1a1a1a1a1a1a1a1a1a1a1a1a1bGbGbgbgbebea1a1a1a1a1a1a1a1a1a1a1a1a1a1a1a1a1a1a1a1bfbfa1a1a1a1a1a1a1a1bGbGbGbGbGbGbGbGbGbGbGbGbGbGbGbGbGbGbGbGbGbGbGbGbGbGbGbGbGbGbGbGaWaWbGbGbQbQbGbGbGbGbGbGbGbGbGbGbGbGbGbGbGbGbGbGbGbGbebebebebebea1a1bfbfa1a1a1a1bQbQbQbQbebebebebQbQbQbQbQbQbQbQbQbQbQbQbQbQbQbQbQbQbQbQbQbQbQbQbQbQbQbQbQbQbQbQbQbQbQbQbQbQbQbQbQbQbQbQbQbQbQbQbQbQbGbGbGbGbebebQbQbQbQbGbGbebebGbGbGbGbGbGbGbGbGbGbGbGbGbGbGbGbGbGbebebGbGa6a6aVaVaSaSbNbNaQaQaSaSaTaTaHaHakakaOaOaXaXaYaYaYaYalalaPaPauauaWaWaqaqaHaHaHaHaHaHaHaHapapa5a5a5a5auaubFbFbFbFaSaSa&a&aVaVaWaWavavavavafafavavaWaWaWaWavavavavaaaaaiaiaPaPaPaPaqaqaaaaa5a5aWaWaWaWa5a5a5a5aaaaaaaaaaaaaaaaaaaaaaaaaaaaaaaaaaaaaaaaaaaaaaaaaaaaaaaaaaaaaaaa",
"aaaaaaaaaaaaaaaaaaaaaaaaaaaaaaaaaaaaaaaaaaaaaaaaaaaaaaaaaaaaaaaaaaaaaaaaaaaaaaaabLbLbfbfbebea1a1a1a1a1a1a1a1a1a1a1a1a1a1a1a1a1a1bGbGbGbGbfbfa1a1a1a1a1a1a1a1a1a1a1a1a1a1a1a1a1a1bKbKbxbxa1a1a1a1a1a1a1a1a1a1bebebGbGbGbGbGbGbGbGbGbGbGbGbGbGbGbGbGbGbGbGbGbGbGbGbGbGbGbGaWaWbGbGbQbQbGbGbGbGbGbGbGbGbGbGbGbGbGbGbGbGbGbGbGbGbebebebebebea1a1a1a1a1a1a1a1bebebebebebebebebQbQbQbQbQbQbQbQbQbQbQbQbQbQbQbQbQbQbQbQbQbQbQbQbQbQbQbQbQbQbQbQbQbQbQbQbQbQbQbQbQbQbQbQbQbQbQbQbQbQbObObGbGbObObQbQbQbQbGbGbebebGbGbGbGbGbGbGbGbGbGbGbGbGbGbGbGbGbGbebebGbGa&a&aWaWaWaWaSaSaQaQaTaTaSaSaTaTananaHaHazazakakaYaYaaaabubuavavaaaabhbhaiaiapapbhbha5a5a5a5aTaTbFbFbFbFbFbFaSaSaWaWaWaWaWaWavavavavavavavavaWaWaWaWaWaWaWaWaaaaaPaPbhbhananaHaHaHaHaFaFaaaaafafananaaaaaaaaaaaaaaaaaaaaaaaaaaaaaaaaaaaaaaaaaaaaaaaaaaaaaaaaaaaaaaaaaaaaaaaa",
"aaaaaaaaaaaaaaaaaaaaaaaaaaaaaaaaaaaaaaaaaaaaaaaaaaaaaaaaaaaaaaaaaaaaaaaaaaaaaaaabLbLbfbfbebea1a1a1a1a1a1a1a1a1a1a1a1a1a1a1a1a1a1bGbGbGbGbfbfa1a1a1a1a1a1a1a1a1a1a1a1a1a1a1a1a1a1bKbKbxbxa1a1a1a1a1a1a1a1a1a1bebebGbGbGbGbGbGbGbGbGbGbGbGbGbGbGbGbGbGbGbGbGbGbGbGbGbGbGbGaWaWbGbGbQbQbGbGbGbGbGbGbGbGbGbGbGbGbGbGbGbGbGbGbGbGbebebebebebea1a1a1a1a1a1a1a1bebebebebebebebebQbQbQbQbQbQbQbQbQbQbQbQbQbQbQbQbQbQbQbQbQbQbQbQbQbQbQbQbQbQbQbQbQbQbQbQbQbQbQbQbQbQbQbQbQbQbQbQbQbQbObObGbGbObObQbQbQbQbGbGbebebGbGbGbGbGbGbGbGbGbGbGbGbGbGbGbGbGbGbebebGbGa&a&aWaWaWaWaSaSaQaQaTaTaSaSaTaTananaHaHazazakakaYaYaaaabubuavavaaaabhbhaiaiapapbhbha5a5a5a5aTaTbFbFbFbFbFbFaSaSaWaWaWaWaWaWavavavavavavavavaWaWaWaWaWaWaWaWaaaaaPaPbhbhananaHaHaHaHaFaFaaaaafafananaaaaaaaaaaaaaaaaaaaaaaaaaaaaaaaaaaaaaaaaaaaaaaaaaaaaaaaaaaaaaaaaaaaaaaaa",
"aaaaaaaaaaaaaaaaaaaaaaaaaaaaaaaaaaaaaaaaaaaaaaaaaaaaaaaaaaaaaaaaaaaaaaaaaaaaaaaabHbHbfbfa1a1a1a1a1a1a1a1a1a1a1a1a1a1a1a1a1a1a1a1a1a1a1a1a1a1a1a1a1a1a1a1a1a1a1a1a1a1a1a1a1a1a1a1bKbKbGbGbKbKa1a1a1a1a1a1a1a1a1a1a1a1a1a1bebebGbGbwbwbGbGbGbGbGbGbGbGbGbGbGbGbGbGbGbGbGbGaWaWbGbGbQbQbGbGbGbGbGbGbGbGbGbGbGbGbGbGbGbGbGbGbGbGbebebebebebea1a1a1a1a1a1a1a1bebebebebebebebebQbQbQbQbQbQbQbQbQbQbQbQbQbQbQbQbQbQbQbQbQbQbQbQbQbQbQbQbQbQbQbQbQbQbQbQbQbQbQbQbQbQbQbQbQbQbQbQbQbQbObObGbGbObObQbQbQbQbGbGbebebGbGbGbGbGbGbGbGbGbGbGbGbGbGbGbGbGbGbebebGbGa&a&bcbcaWaWaWaWaUaUaRaRaSaSbubububuavavananavavaiaiavavavava5a5avavavavbhbhaHaHaWaWaVaVbFbFaUaUaQaQaVaVaWaWaWaWaWaWaWaWaTaTaWaWaWaWavavaWaWaTaTaWaWaWaWa5a5aiaibhbhalalaaaaajajajajaHaHaaaaaaaaaaaaaaaaaaaaaaaaaaaaaaaaaaaaaaaaaaaaaaaaaaaaaaaaaaaaaaaaaaaaaaaaaaaaaaaaaaaa",
"aaaaaaaaaaaaaaaaaaaaaaaaaaaaaaaaaaaaaaaaaaaaaaaaaaaaaaaaaaaaaaaaaaaaaaaaaaaaaaaabHbHbfbfa1a1a1a1a1a1a1a1a1a1a1a1a1a1a1a1a1a1a1a1a1a1a1a1a1a1a1a1a1a1a1a1a1a1a1a1a1a1a1a1a1a1a1a1bKbKbGbGbKbKa1a1a1a1a1a1a1a1a1a1a1a1a1a1bebebGbGbwbwbGbGbGbGbGbGbGbGbGbGbGbGbGbGbGbGbGbGaWaWbGbGbQbQbGbGbGbGbGbGbGbGbGbGbGbGbGbGbGbGbGbGbGbGbebebebebebea1a1a1a1a1a1a1a1bebebebebebebebebQbQbQbQbQbQbQbQbQbQbQbQbQbQbQbQbQbQbQbQbQbQbQbQbQbQbQbQbQbQbQbQbQbQbQbQbQbQbQbQbQbQbQbQbQbQbQbQbQbQbObObGbGbObObQbQbQbQbGbGbebebGbGbGbGbGbGbGbGbGbGbGbGbGbGbGbGbGbGbebebGbGa&a&bcbcaWaWaWaWaUaUaRaRaSaSbubububuavavananavavaiaiavavavava5a5avavavavbhbhaHaHaWaWaVaVbFbFaUaUaQaQaVaVaWaWaWaWaWaWaWaWaTaTaWaWaWaWavavaWaWaTaTaWaWaWaWa5a5aiaibhbhalalaaaaajajajajaHaHaaaaaaaaaaaaaaaaaaaaaaaaaaaaaaaaaaaaaaaaaaaaaaaaaaaaaaaaaaaaaaaaaaaaaaaaaaaaaaaaaaaa",
"aaaaaaaaaaaaaaaaaaaaaaaaaaaaaaaaaaaaaaaaaaaaaaaaaaaaaaaaaaaaaaaaaaaaaaaaaaaaaaaabxbxa1a1bebebebea1a1a1a1a1a1a1a1a1a1a1a1a1a1a1a1a1a1a1a1a1a1a1a1a1a1a1a1a1a1a1a1a1a1a1a1a1a1a1a1a1a1a1a1a1a1a1a1a1a1a1a1a1a1a1a1a1a1a1a1a1a1a1a1bebebebebGbGbGbGbGbGbwbwbGbGbGbGbGbGbGbGaWaWbGbGbQbQbGbGbGbGbGbGbGbGbGbGbGbGbGbGbGbGbGbGbGbGbQbQbebebebea1a1a1a1a1a1a1a1bebebebebebebebebQbQbQbQbQbQbQbQbQbQbQbQbQbQbQbQbQbQbQbQbQbQbQbQbQbQbQbQbQbQbQbQbQbQbQbQbQbQbQbQbQbQbQbQbQbQbQbQbQbQbObObGbGbObObQbQbQbQbGbGbebebGbGbGbGbGbGbGbGbGbGbGbGbGbGbGbGbGbGbebebGbGa&a&aVaVa&a&aVaVbdbdaQaQbFbFbFbFbFbFbFbFavava5a5a5a5auaua5a5aWaWbububHbHavavaWaWbFbFbFbFaSaSbcbcaWaWaVaVaWaWaVaVaWaWa&a&aVaVaVaVaWaWaTaTaSaSaVaVaWaWaWaWa5a5ajajananayayaeaealalaYaYa#a#aaaaaaaaaaaaaaaaaaaaaaaaaaaaaaaaaaaaaaaaaaaaaaaaaaaaaaaaaaaaaaaaaaaaaaaaaaaaaaaaaaaa",
"aaaaaaaaaaaaaaaaaaaaaaaaaaaaaaaaaaaaaaaaaaaaaaaaaaaaaaaaaaaaaaaaaaaaaaaaaaaaaaaabxbxa1a1bebebebea1a1a1a1a1a1a1a1a1a1a1a1a1a1a1a1a1a1a1a1a1a1a1a1a1a1a1a1a1a1a1a1a1a1a1a1a1a1a1a1a1a1a1a1a1a1a1a1a1a1a1a1a1a1a1a1a1a1a1a1a1a1a1a1bebebebebGbGbGbGbGbGbwbwbGbGbGbGbGbGbGbGaWaWbGbGbQbQbGbGbGbGbGbGbGbGbGbGbGbGbGbGbGbGbGbGbGbGbQbQbebebebea1a1a1a1a1a1a1a1bebebebebebebebebQbQbQbQbQbQbQbQbQbQbQbQbQbQbQbQbQbQbQbQbQbQbQbQbQbQbQbQbQbQbQbQbQbQbQbQbQbQbQbQbQbQbQbQbQbQbQbQbQbQbObObGbGbObObQbQbQbQbGbGbebebGbGbGbGbGbGbGbGbGbGbGbGbGbGbGbGbGbGbebebGbGa&a&aVaVa&a&aVaVbdbdaQaQbFbFbFbFbFbFbFbFavava5a5a5a5auaua5a5aWaWbububHbHavavaWaWbFbFbFbFaSaSbcbcaWaWaVaVaWaWaVaVaWaWa&a&aVaVaVaVaWaWaTaTaSaSaVaVaWaWaWaWa5a5ajajananayayaeaealalaYaYa#a#aaaaaaaaaaaaaaaaaaaaaaaaaaaaaaaaaaaaaaaaaaaaaaaaaaaaaaaaaaaaaaaaaaaaaaaaaaaaaaaaaaaa",
"aaaaaaaaaaaaaaaaaaaaaaaaaaaaaaaaaaaaaaaaaaaaaaaaaaaaaaaaaaaaaaaaaaaaaaaaaaaaaaaabGbGbebebGbGbEbEbebea1a1bfbfbfbfbfbfbfbfbfbfa1a1a1a1bfbfbfbfa1a1a1a1a1a1a1a1a1a1a1a1a1a1a1a1a1a1a1a1a1a1a1a1a1a1a1a1a1a1a1a1a1a1a1a1a1a1a1a1a1a1a1a1a1a1bfbfbebebGbGbGbGbububGbGbububGbGaWaWbGbGbQbQbGbGbGbGbGbGbGbGbGbGbGbGbGbGbGbGbGbGbGbGbebebQbQbebea1a1a1a1a1a1a1a1bebebebebebebebebQbQbQbQbQbQbQbQbQbQbQbQbQbQbQbQbQbQbQbQbQbQbQbQbQbQbQbQbQbQbQbQbQbQbQbQbQbQbQbQbQbQbQbQbQbQbQbQbQbQbObObGbGbObObQbQbQbQbGbGbebebGbGbGbGbGbGbGbGbGbGbGbGbGbGbGbGbGbGbebebGbGa5a5aWaWaWaWaTaTbFbFbcbcbhbha5a5a5a5a5a5aWaWaWaWbFbFaWaWa5a5a5a5aWaWbubububua&a&aVaVaTaTbcbcbcbcaWaWbcbcbcbcaVaVaWaWa&a&aVaVaSaSaTaTbcbcbcbcbcbcaWaWa6a6bhbhakakaNaNajajadadadadajajaaaaaaaaaaaaaaaaaaaaaaaaaaaaaaaaaaaaaaaaaaaaaaaaaaaaaaaaaaaaaaaaaaaaaaaaaaaaaaaaaaaaaaaa",
"aaaaaaaaaaaaaaaaaaaaaaaaaaaaaaaaaaaaaaaaaaaaaaaaaaaaaaaaaaaaaaaaaaaaaaaaaaaaaaaabGbGbebebGbGbEbEbebea1a1bfbfbfbfbfbfbfbfbfbfa1a1a1a1bfbfbfbfa1a1a1a1a1a1a1a1a1a1a1a1a1a1a1a1a1a1a1a1a1a1a1a1a1a1a1a1a1a1a1a1a1a1a1a1a1a1a1a1a1a1a1a1a1a1bfbfbebebGbGbGbGbububGbGbububGbGaWaWbGbGbQbQbGbGbGbGbGbGbGbGbGbGbGbGbGbGbGbGbGbGbGbGbebebQbQbebea1a1a1a1a1a1a1a1bebebebebebebebebQbQbQbQbQbQbQbQbQbQbQbQbQbQbQbQbQbQbQbQbQbQbQbQbQbQbQbQbQbQbQbQbQbQbQbQbQbQbQbQbQbQbQbQbQbQbQbQbQbQbObObGbGbObObQbQbQbQbGbGbebebGbGbGbGbGbGbGbGbGbGbGbGbGbGbGbGbGbGbebebGbGa5a5aWaWaWaWaTaTbFbFbcbcbhbha5a5a5a5a5a5aWaWaWaWbFbFaWaWa5a5a5a5aWaWbubububua&a&aVaVaTaTbcbcbcbcaWaWbcbcbcbcaVaVaWaWa&a&aVaVaSaSaTaTbcbcbcbcbcbcaWaWa6a6bhbhakakaNaNajajadadadadajajaaaaaaaaaaaaaaaaaaaaaaaaaaaaaaaaaaaaaaaaaaaaaaaaaaaaaaaaaaaaaaaaaaaaaaaaaaaaaaaaaaaaaaaa",
"aaaaaaaaaaaaaaaaaaaaaaaaaaaaaaaaaaaaaaaaaaaaaaaaaaaaaaaaaaaaaaaaaaaaaaaaaaaaaaaabxbxbebebebebGbGbGbGbububHbHbKbKbKbKbKbKbKbKbfbfbfbfaGaGaGaGbfbfbfbfbfbfbfbfbfbfbfbfbfbfbfbfbfbfbfbfbfbfbfbfbfbfbfbfbfbfbfbfbfbfbfbfbfbfbfbfbfbfbfbfbfbfbfbfbfbfbfbfbfbfbebebebebGbGbPbPbgbgbGbGbQbQbGbGbGbGbGbGbGbGbGbGbGbGbGbGbGbGbGbGbGbGbebebebebebea1a1a1a1a1a1a1a1bebebebebebebebebQbQbQbQbQbQbQbQbQbQbQbQbQbQbQbQbQbQbQbQbQbQbQbQbQbQbQbQbQbQbQbQbQbQbQbQbQbQbQbQbQbQbQbQbQbQbQbQbQbQbObObGbGbObObQbQbQbQbGbGbebebGbGbGbGbGbGbGbGbGbGbGbGbGbGbGbGbGbGbebebGbGa6a6aWaWaWaWaVaVavavaaaaaaaaaaaaa5a5aiaiavavbFbFbFbFbcbcaWaWavava6a6a5a5a5a5a5a5bcbcbcbcbcbcbcbcaWaWaWaWbcbcaVaVaVaVa&a&aTaTbcbcaWaWaWaWaVaVaWaWa6a6bhbhbhbhbhbhaqaqbjbjaXaXazazakakaaaaaaaaaaaaaaaaaaaaaaaaaaaaaaaaaaaaaaaaaaaaaaaaaaaaaaaaaaaaaaaaaaaaaaaaaaaaaaaaaaaaaaaa",
"aaaaaaaaaaaaaaaaaaaaaaaaaaaaaaaaaaaaaaaaaaaaaaaaaaaaaaaaaaaaaaaaaaaaaaaaaaaaaaaabxbxbebebebebGbGbGbGbububHbHbKbKbKbKbKbKbKbKbfbfbfbfaGaGaGaGbfbfbfbfbfbfbfbfbfbfbfbfbfbfbfbfbfbfbfbfbfbfbfbfbfbfbfbfbfbfbfbfbfbfbfbfbfbfbfbfbfbfbfbfbfbfbfbfbfbfbfbfbfbfbebebebebGbGbPbPbgbgbGbGbQbQbGbGbGbGbGbGbGbGbGbGbGbGbGbGbGbGbGbGbGbGbebebebebebea1a1a1a1a1a1a1a1bebebebebebebebebQbQbQbQbQbQbQbQbQbQbQbQbQbQbQbQbQbQbQbQbQbQbQbQbQbQbQbQbQbQbQbQbQbQbQbQbQbQbQbQbQbQbQbQbQbQbQbQbQbQbObObGbGbObObQbQbQbQbGbGbebebGbGbGbGbGbGbGbGbGbGbGbGbGbGbGbGbGbGbebebGbGa6a6aWaWaWaWaVaVavavaaaaaaaaaaaaa5a5aiaiavavbFbFbFbFbcbcaWaWavava6a6a5a5a5a5a5a5bcbcbcbcbcbcbcbcaWaWaWaWbcbcaVaVaVaVa&a&aTaTbcbcaWaWaWaWaVaVaWaWa6a6bhbhbhbhbhbhaqaqbjbjaXaXazazakakaaaaaaaaaaaaaaaaaaaaaaaaaaaaaaaaaaaaaaaaaaaaaaaaaaaaaaaaaaaaaaaaaaaaaaaaaaaaaaaaaaaaaaaa",
"aaaaaaaaaaaaaaaaaaaaaaaaaaaaaaaaaaaaaaaaaaaaaaaaaaaaaaaaaaaaaaaaaaaaaaaaaaaaaaaabGbGbebebObObGbGbGbGbGbGbGbGbGbGbGbGbGbGbububebebebebfbfbfbfbfbfbebea1a1a1a1bebebebebebebebebebebebebebebebebebebebebebebebebebebebebebebebebebebebebebebebebebebebebGbGbGbGbGbGbGbGbGbGaWaWbGbGbQbQbGbGbGbGbGbGbGbGbGbGbGbGbGbGbGbGbGbGbGbGbQbQbQbQbebea1a1a1a1a1a1a1a1bebebebebebebebebQbQbQbQbQbQbQbQbQbQbQbQbQbQbQbQbQbQbQbQbQbQbQbQbQbQbQbQbQbQbQbQbQbQbQbQbQbQbQbQbQbQbQbQbQbQbQbQbQbQbObObGbGbObObQbQbQbQbGbGbebebGbGbGbGbGbGbGbGbGbGbGbGbGbGbGbGbGbGbQbQbGbGa&a&aWaWa6a6aWaWaaaaaaaaa5a5aWaWbububFbFbFbFaUaUaQaQaQaQaWaWaTaTaVaVaWaWaWaWaWaWaWaWaWaWaWaWaWaWaWaWaTaTaSaSaSaSaWaWaWaWbcbcaVaVaVaVaWaWaWaWaWaWavavapapaaaaafafaPaPaNaNaYaYazazaqaqaaaaaaaaaaaaaaaaaaaaaaaaaaaaaaaaaaaaaaaaaaaaaaaaaaaaaaaaaaaaaaaaaaaaaaaaaaaaaaaaaaaaaaaa",
"aaaaaaaaaaaaaaaaaaaaaaaaaaaaaaaaaaaaaaaaaaaaaaaaaaaaaaaaaaaaaaaaaaaaaaaaaaaaaaaabGbGbebebObObGbGbGbGbGbGbGbGbGbGbGbGbGbGbububebebebebfbfbfbfbfbfbebea1a1a1a1bebebebebebebebebebebebebebebebebebebebebebebebebebebebebebebebebebebebebebebebebebebebebGbGbGbGbGbGbGbGbGbGaWaWbGbGbQbQbGbGbGbGbGbGbGbGbGbGbGbGbGbGbGbGbGbGbGbGbQbQbQbQbebea1a1a1a1a1a1a1a1bebebebebebebebebQbQbQbQbQbQbQbQbQbQbQbQbQbQbQbQbQbQbQbQbQbQbQbQbQbQbQbQbQbQbQbQbQbQbQbQbQbQbQbQbQbQbQbQbQbQbQbQbQbQbObObGbGbObObQbQbQbQbGbGbebebGbGbGbGbGbGbGbGbGbGbGbGbGbGbGbGbGbGbQbQbGbGa&a&aWaWa6a6aWaWaaaaaaaaa5a5aWaWbububFbFbFbFaUaUaQaQaQaQaWaWaTaTaVaVaWaWaWaWaWaWaWaWaWaWaWaWaWaWaWaWaTaTaSaSaSaSaWaWaWaWbcbcaVaVaVaVaWaWaWaWaWaWavavapapaaaaafafaPaPaNaNaYaYazazaqaqaaaaaaaaaaaaaaaaaaaaaaaaaaaaaaaaaaaaaaaaaaaaaaaaaaaaaaaaaaaaaaaaaaaaaaaaaaaaaaaaaaaaaaaa",
"aaaaaaaaaaaaaaaaaaaaaaaaaaaaaaaaaaaaaaaaaaaaaaaaaaaaaaaaaaaaaaaaaaaaaaaaaaaaaaaabGbGbebebObObEbEbGbGbGbGbGbGbGbGbGbGbebebGbGbGbGbebea1a1bfbfa1a1bebebQbQbebebQbQbQbQbQbQbQbQbQbQbQbQbQbQbQbQbQbQbQbQbQbQbQbQbQbQbQbQbQbQbQbQbQbQbQbQbQbQbQbQbQbQbObObEbEbGbGbGbGbtbtbubuaWaWbGbGbebebGbGbGbGbGbGbGbGbGbGbGbGbGbGbGbGbGbGbGbGbQbQbQbQbebea1a1a1a1a1a1a1a1bebebebebebebebebQbQbQbQbQbQbQbQbQbQbQbQbQbQbQbQbQbQbQbQbQbQbQbQbQbQbQbQbQbQbQbQbQbQbQbQbQbQbQbQbQbQbQbQbQbQbQbQbQbQbObObGbGbObObQbQbQbQbGbGbebebGbGbGbGbGbGbGbGbGbGbGbGbGbGbGbGbGbGbebebGbGa&a&aWaWaWaWa5a5aaaaaWaWaVaVaQaQbFbFaUaUaQaQaQaQaSaSaTaTbcbcaWaWbcbcaVaVaVaVaWaWaWaWbcbcaVaVaVaVaSaSaSaSaVaVaVaVaWaWaWaWaVaVaWaWaWaWaWaWaWaWaWaWa5a5aaaabhbhaiaibhbhbhbhalalaHaHaaaaaaaaaaaaaaaaaaaaaaaaaaaaaaaaaaaaaaaaaaaaaaaaaaaaaaaaaaaaaaaaaaaaaaaaaaaaaaaaaaaaaaaaaaaa",
"aaaaaaaaaaaaaaaaaaaaaaaaaaaaaaaaaaaaaaaaaaaaaaaaaaaaaaaaaaaaaaaaaaaaaaaaaaaaaaaabGbGbebebObObEbEbGbGbGbGbGbGbGbGbGbGbebebGbGbGbGbebea1a1bfbfa1a1bebebQbQbebebQbQbQbQbQbQbQbQbQbQbQbQbQbQbQbQbQbQbQbQbQbQbQbQbQbQbQbQbQbQbQbQbQbQbQbQbQbQbQbQbQbQbObObEbEbGbGbGbGbtbtbubuaWaWbGbGbebebGbGbGbGbGbGbGbGbGbGbGbGbGbGbGbGbGbGbGbGbQbQbQbQbebea1a1a1a1a1a1a1a1bebebebebebebebebQbQbQbQbQbQbQbQbQbQbQbQbQbQbQbQbQbQbQbQbQbQbQbQbQbQbQbQbQbQbQbQbQbQbQbQbQbQbQbQbQbQbQbQbQbQbQbQbQbQbObObGbGbObObQbQbQbQbGbGbebebGbGbGbGbGbGbGbGbGbGbGbGbGbGbGbGbGbGbebebGbGa&a&aWaWaWaWa5a5aaaaaWaWaVaVaQaQbFbFaUaUaQaQaQaQaSaSaTaTbcbcaWaWbcbcaVaVaVaVaWaWaWaWbcbcaVaVaVaVaSaSaSaSaVaVaVaVaWaWaWaWaVaVaWaWaWaWaWaWaWaWaWaWa5a5aaaabhbhaiaibhbhbhbhalalaHaHaaaaaaaaaaaaaaaaaaaaaaaaaaaaaaaaaaaaaaaaaaaaaaaaaaaaaaaaaaaaaaaaaaaaaaaaaaaaaaaaaaaaaaaaaaaa",
"aaaaaaaaaaaaaaaaaaaaaaaaaaaaaaaaaaaaaaaaaaaaaaaaaaaaaaaaaaaaaaaaaaaaaaaaaaaaaaaabGbGbebebObObGbGbGbGbGbGbGbGbGbGbGbGbebebGbGbObObebea1a1bfbfa1a1bebebQbQbebebebebQbQbQbQbQbQbQbQbQbQbQbQbQbQbQbQbQbQbQbQbQbQbQbQbQbQbQbQbQbQbQbQbQbQbQbQbQbQbQbQbebebGbGbGbGbGbGbtbtbubuaWaWbGbGbebebGbGbGbGbGbGbGbGbGbGbGbGbGbGbGbGbGbGbGbGbQbQbQbQbebea1a1a1a1a1a1a1a1bebebebebebebebebQbQbQbQbQbQbQbQbQbQbQbQbQbQbQbQbQbQbQbQbQbQbQbQbQbQbQbQbQbQbQbQbQbQbQbQbQbQbQbQbQbQbQbQbQbQbQbQbQbQbObObGbGbObObQbQbQbQbGbGbebebGbGbGbGbGbGbGbGbGbGbGbGbGbGbGbGbGbGbebebGbGaWaWaWaWa5a5a5a5aWaWbububFbFaQaQaTaTaSaSbcbcaSaSbubuaWaWaWaWaWaWbcbcbcbcbcbcaWaWaTaTaTaTaSaSaSaSaTaTbcbcbcbcaWaWaWaWa6a6aWaWaWaWaWaWa5a5a5a5avavavava5a5aaaaaHaHaHaHananaaaaa@a@aaaaaaaaaaaaaaaaaaaaaaaaaaaaaaaaaaaaaaaaaaaaaaaaaaaaaaaaaaaaaaaaaaaaaaaaaaaaaaaaaaaaaaaaaaaa",
"aaaaaaaaaaaaaaaaaaaaaaaaaaaaaaaaaaaaaaaaaaaaaaaaaaaaaaaaaaaaaaaaaaaaaaaaaaaaaaaabGbGbebebObObGbGbGbGbGbGbGbGbGbGbGbGbebebGbGbObObebea1a1bfbfa1a1bebebQbQbebebebebQbQbQbQbQbQbQbQbQbQbQbQbQbQbQbQbQbQbQbQbQbQbQbQbQbQbQbQbQbQbQbQbQbQbQbQbQbQbQbQbebebGbGbGbGbGbGbtbtbubuaWaWbGbGbebebGbGbGbGbGbGbGbGbGbGbGbGbGbGbGbGbGbGbGbGbQbQbQbQbebea1a1a1a1a1a1a1a1bebebebebebebebebQbQbQbQbQbQbQbQbQbQbQbQbQbQbQbQbQbQbQbQbQbQbQbQbQbQbQbQbQbQbQbQbQbQbQbQbQbQbQbQbQbQbQbQbQbQbQbQbQbQbObObGbGbObObQbQbQbQbGbGbebebGbGbGbGbGbGbGbGbGbGbGbGbGbGbGbGbGbGbebebGbGaWaWaWaWa5a5a5a5aWaWbububFbFaQaQaTaTaSaSbcbcaSaSbubuaWaWaWaWaWaWbcbcbcbcbcbcaWaWaTaTaTaTaSaSaSaSaTaTbcbcbcbcaWaWaWaWa6a6aWaWaWaWaWaWa5a5a5a5avavavava5a5aaaaaHaHaHaHananaaaaa@a@aaaaaaaaaaaaaaaaaaaaaaaaaaaaaaaaaaaaaaaaaaaaaaaaaaaaaaaaaaaaaaaaaaaaaaaaaaaaaaaaaaaaaaaaaaaa",
"aaaaaaaaaaaaaaaaaaaaaaaaaaaaaaaaaaaaaaaaaaaaaaaaaaaaaaaaaaaaaaaaaaaaaaaaaaaaaaaabGbGbebebObObGbGbGbGbGbGbGbGbGbGbGbGbObObGbGbObObQbQa1a1bfbfa1a1bQbQbebebebebebebQbQbQbQbQbQbQbQbQbQbQbQbQbQbQbQbQbQbQbQbQbQbQbQbQbQbQbQbQbQbQbQbQbQbQbQbQbQbQbQbebebGbGbGbGbGbGbtbtbubuaWaWbGbGbebebGbGbGbGbGbGbGbGbGbGbGbGbGbGbGbGbGbGbGbGbQbQbQbQbebea1a1a1a1a1a1a1a1bebebebebebebebebQbQbQbQbQbQbQbQbQbQbQbQbQbQbQbQbQbQbQbQbQbQbQbQbQbQbQbQbQbQbQbQbQbQbQbQbQbQbQbQbQbQbQbQbQbQbQbQbQbQbObObGbGbObObQbQbQbQbGbGbebebGbGbGbGbGbGbGbGbGbGbGbGbGbGbGbGbGbGbebebGbGa5a5bhbhaaaaavavbubububuaTaTaSaSaQaQaQaQaSaSaWaWa5a5aWaWaWaWaWaWbcbcbcbcaTaTaSaSaTaTaVaVaVaVbcbcbcbcbcbcaVaVaWaWa6a6a5a5aWaWa5a5a5a5avavbububGbGbHbHbubuavavaaaaaaaaaaaaaaaaaaaaaaaaaaaaaaaaaaaaaaaaaaaaaaaaaaaaaaaaaaaaaaaaaaaaaaaaaaaaaaaaaaaaaaaaaaaaaaaaaaaaaaaaaaaaaaaa",
"aaaaaaaaaaaaaaaaaaaaaaaaaaaaaaaaaaaaaaaaaaaaaaaaaaaaaaaaaaaaaaaaaaaaaaaaaaaaaaaabGbGbebebObObGbGbGbGbGbGbGbGbGbGbGbGbObObGbGbObObQbQa1a1bfbfa1a1bQbQbebebebebebebQbQbQbQbQbQbQbQbQbQbQbQbQbQbQbQbQbQbQbQbQbQbQbQbQbQbQbQbQbQbQbQbQbQbQbQbQbQbQbQbebebGbGbGbGbGbGbtbtbubuaWaWbGbGbebebGbGbGbGbGbGbGbGbGbGbGbGbGbGbGbGbGbGbGbGbQbQbQbQbebea1a1a1a1a1a1a1a1bebebebebebebebebQbQbQbQbQbQbQbQbQbQbQbQbQbQbQbQbQbQbQbQbQbQbQbQbQbQbQbQbQbQbQbQbQbQbQbQbQbQbQbQbQbQbQbQbQbQbQbQbQbQbObObGbGbObObQbQbQbQbGbGbebebGbGbGbGbGbGbGbGbGbGbGbGbGbGbGbGbGbGbebebGbGa5a5bhbhaaaaavavbubububuaTaTaSaSaQaQaQaQaSaSaWaWa5a5aWaWaWaWaWaWbcbcbcbcaTaTaSaSaTaTaVaVaVaVbcbcbcbcbcbcaVaVaWaWa6a6a5a5aWaWa5a5a5a5avavbububGbGbHbHbubuavavaaaaaaaaaaaaaaaaaaaaaaaaaaaaaaaaaaaaaaaaaaaaaaaaaaaaaaaaaaaaaaaaaaaaaaaaaaaaaaaaaaaaaaaaaaaaaaaaaaaaaaaaaaaaaaaa",
"aaaaaaaaaaaaaaaaaaaaaaaaaaaaaaaaaaaaaaaaaaaaaaaaaaaaaaaaaaaaaaaaaaaaaaaaaaaaaaaabGbGbebebObObGbGbGbGbGbGbGbGbGbGbGbGbObObGbGbObObQbQa1a1bfbfa1a1bQbQbebebebebebebQbQbQbQbQbQbQbQbQbQbQbQbQbQbQbQbQbQbQbQbQbQbQbQbQbQbQbQbQbQbQbQbQbQbQbQbQbQbQbQbebebGbGbGbGbGbGbtbtbubuaWaWbGbGbebebGbGbGbGbGbGbGbGbGbGbGbGbGbGbGbGbGbGbGbGbQbQbQbQbebea1a1a1a1a1a1a1a1bebebebebebebebebQbQbQbQbQbQbQbQbQbQbQbQbQbQbQbQbQbQbQbQbQbQbQbQbQbQbQbQbQbQbQbQbQbQbQbQbQbQbQbQbQbQbQbQbQbQbQbQbQbQbObObGbGbObObQbQbQbQbGbGbebebGbGbGbGbGbGbGbGbGbGbGbGbGbGbGbGbGbGbebebHbHaaaaaaaaa6a6aVaVbubua5a5aSaSaUaUaTaTbcbcaWaWaWaWaWaWaWaWaWaWaWaWaVaVaQaQaTaTaVaVaWaWaWaWaWaWaWaWaWaWaWaWaWaWa&a&a5a5a5a5a5a5auaubububububGbGbGbGbGbGbGbGbGbGbubuauauauauauauavavaaaaaaaaaaaaaaaaaaaaaaaaaaaaaaaaaaaaaaaaaaaaaaaaaaaaaaaaaaaaaaaaaaaaaaaaaaaaaaaaaaaaaaaaaaaa",
"aaaaaaaaaaaaaaaaaaaaaaaaaaaaaaaaaaaaaaaaaaaaaaaaaaaaaaaaaaaaaaaaaaaaaaaaaaaaaaaabGbGbebebObObGbGbGbGbGbGbGbGbGbGbGbGbObObGbGbObObQbQa1a1bfbfa1a1bQbQbebebebebebebQbQbQbQbQbQbQbQbQbQbQbQbQbQbQbQbQbQbQbQbQbQbQbQbQbQbQbQbQbQbQbQbQbQbQbQbQbQbQbQbebebGbGbGbGbGbGbtbtbubuaWaWbGbGbebebGbGbGbGbGbGbGbGbGbGbGbGbGbGbGbGbGbGbGbGbQbQbQbQbebea1a1a1a1a1a1a1a1bebebebebebebebebQbQbQbQbQbQbQbQbQbQbQbQbQbQbQbQbQbQbQbQbQbQbQbQbQbQbQbQbQbQbQbQbQbQbQbQbQbQbQbQbQbQbQbQbQbQbQbQbQbQbObObGbGbObObQbQbQbQbGbGbebebGbGbGbGbGbGbGbGbGbGbGbGbGbGbGbGbGbGbebebHbHaaaaaaaaa6a6aVaVbubua5a5aSaSaUaUaTaTbcbcaWaWaWaWaWaWaWaWaWaWaWaWaVaVaQaQaTaTaVaVaWaWaWaWaWaWaWaWaWaWaWaWaWaWa&a&a5a5a5a5a5a5auaubububububGbGbGbGbGbGbGbGbGbGbubuauauauauauauavavaaaaaaaaaaaaaaaaaaaaaaaaaaaaaaaaaaaaaaaaaaaaaaaaaaaaaaaaaaaaaaaaaaaaaaaaaaaaaaaaaaaaaaaaaaaa",
"aaaaaaaaaaaaaaaaaaaaaaaaaaaaaaaaaaaaaaaaaaaaaaaaaaaaaaaaaaaaaaaaaaaaaaaaaaaaaaaabGbGbebebObObGbGbGbGbGbGbGbGbGbGbGbGbebeaUaUbObObQbQa1a1bfbfa1a1bebebQbQbebebebebQbQbQbQbQbQbQbQbQbQbQbQbQbQbQbQbQbQbQbQbQbQbQbQbQbQbQbQbQbQbQbQbQbQbQbQbQbQbQbQbebebGbGbGbGbGbGbtbtbubuaWaWbGbGbebebGbGbGbGbGbGbGbGbGbGbGbGbGbGbGbGbGbGbGbGbQbQbQbQbebea1a1a1a1a1a1a1a1bebebebebebebebebQbQbQbQbQbQbQbQbQbQbQbQbQbQbQbQbQbQbQbQbQbQbQbQbQbQbQbQbQbQbQbQbQbQbQbQbQbQbQbQbQbQbQbQbQbQbQbQbQbQbObObGbGbObObQbQbQbQbGbGbebebGbGbGbGbGbGbGbGbGbGbGbGbGbGbGbGbGbGbebebGbGa5a5ananavavanana5a5aWaWaWaWa5a5aaaaaaaaa5a5aWaWaWaWaWaWa6a6aWaWaQaQbcbcaWaWaWaWaWaWaWaWaWaWaWaWa6a6a6a6a5a5aWaWaPaPbububGbGbGbGbxbxbGbGbGbGbGbGbGbGbGbGbGbGbGbGbGbGbGbGbGbGbGbGbHbHavavaaaaaaaaaaaaaaaaaaaaaaaaaaaaaaaaaaaaaaaaaaaaaaaaaaaaaaaaaaaaaaaaaaaaaaaaaaaaaaaaaaaa",
"aaaaaaaaaaaaaaaaaaaaaaaaaaaaaaaaaaaaaaaaaaaaaaaaaaaaaaaaaaaaaaaaaaaaaaaaaaaaaaaabGbGbebebObObGbGbGbGbGbGbGbGbGbGbGbGbebeaUaUbObObQbQa1a1bfbfa1a1bebebQbQbebebebebQbQbQbQbQbQbQbQbQbQbQbQbQbQbQbQbQbQbQbQbQbQbQbQbQbQbQbQbQbQbQbQbQbQbQbQbQbQbQbQbebebGbGbGbGbGbGbtbtbubuaWaWbGbGbebebGbGbGbGbGbGbGbGbGbGbGbGbGbGbGbGbGbGbGbGbQbQbQbQbebea1a1a1a1a1a1a1a1bebebebebebebebebQbQbQbQbQbQbQbQbQbQbQbQbQbQbQbQbQbQbQbQbQbQbQbQbQbQbQbQbQbQbQbQbQbQbQbQbQbQbQbQbQbQbQbQbQbQbQbQbQbQbObObGbGbObObQbQbQbQbGbGbebebGbGbGbGbGbGbGbGbGbGbGbGbGbGbGbGbGbGbebebGbGa5a5ananavavanana5a5aWaWaWaWa5a5aaaaaaaaa5a5aWaWaWaWaWaWa6a6aWaWaQaQbcbcaWaWaWaWaWaWaWaWaWaWaWaWa6a6a6a6a5a5aWaWaPaPbububGbGbGbGbxbxbGbGbGbGbGbGbGbGbGbGbGbGbGbGbGbGbGbGbGbGbGbGbHbHavavaaaaaaaaaaaaaaaaaaaaaaaaaaaaaaaaaaaaaaaaaaaaaaaaaaaaaaaaaaaaaaaaaaaaaaaaaaaaaaaaaaaa",
"aaaaaaaaaaaaaaaaaaaaaaaaaaaaaaaaaaaaaaaaaaaaaaaaaaaaaaaaaaaaaaaaaaaaaaaaaaaaaaaabGbGbebebObObGbGbGbGbGbGbGbGbGbGbGbGbebebGbGbObObebea1a1bfbfa1a1bebebQbQbebebebebQbQbQbQbQbQbQbQbQbQbQbQbQbQbQbQbQbQbQbQbQbQbQbQbQbQbQbQbQbQbQbQbQbQbQbQbQbQbQbQbebebGbGbGbGbGbGbubububuaWaWbGbGbebebGbGbGbGbGbGbGbGbGbGbGbGbGbGbGbGbGbGbGbGbQbQbQbQbebea1a1a1a1a1a1a1a1bebebebebebebebebQbQbQbQbQbQbQbQbQbQbQbQbQbQbQbQbQbQbQbQbQbQbQbQbQbQbQbQbQbQbQbQbQbQbQbQbQbQbQbQbQbQbQbQbQbQbQbQbQbQbObObGbGbObObQbQbQbQbGbGbebebGbGbGbGbGbGbGbGbGbGbGbGbGbGbGbGbGbGbQbQbGbGa5a5aWaWavavaPaPa5a5avava5a5aaaaaqaqbhbhaaaaa5a5aWaWaWaWaWaWa&a&aWaWaWaWaWaWaWaWaWaWaWaWaWaWa5a5a5a5a6a6avavbxbxbGbGbGbGbGbGbGbGbGbGbGbGbGbGbGbGbGbGbGbGbGbGbwbwbGbGbGbGbGbGbebebfbfbfbfauauaaaaaaaaaaaaaaaaaaaaaaaaaaaaaaaaaaaaaaaaaaaaaaaaaaaaaaaaaaaaaaaaaaaaaaaaaaaaaaaa",
"aaaaaaaaaaaaaaaaaaaaaaaaaaaaaaaaaaaaaaaaaaaaaaaaaaaaaaaaaaaaaaaaaaaaaaaaaaaaaaaabGbGbebebObObGbGbGbGbGbGbGbGbGbGbGbGbebebGbGbObObebea1a1bfbfa1a1bebebQbQbebebebebQbQbQbQbQbQbQbQbQbQbQbQbQbQbQbQbQbQbQbQbQbQbQbQbQbQbQbQbQbQbQbQbQbQbQbQbQbQbQbQbebebGbGbGbGbGbGbubububuaWaWbGbGbebebGbGbGbGbGbGbGbGbGbGbGbGbGbGbGbGbGbGbGbGbQbQbQbQbebea1a1a1a1a1a1a1a1bebebebebebebebebQbQbQbQbQbQbQbQbQbQbQbQbQbQbQbQbQbQbQbQbQbQbQbQbQbQbQbQbQbQbQbQbQbQbQbQbQbQbQbQbQbQbQbQbQbQbQbQbQbQbObObGbGbObObQbQbQbQbGbGbebebGbGbGbGbGbGbGbGbGbGbGbGbGbGbGbGbGbGbQbQbGbGa5a5aWaWavavaPaPa5a5avava5a5aaaaaqaqbhbhaaaaa5a5aWaWaWaWaWaWa&a&aWaWaWaWaWaWaWaWaWaWaWaWaWaWa5a5a5a5a6a6avavbxbxbGbGbGbGbGbGbGbGbGbGbGbGbGbGbGbGbGbGbGbGbGbGbwbwbGbGbGbGbGbGbebebfbfbfbfauauaaaaaaaaaaaaaaaaaaaaaaaaaaaaaaaaaaaaaaaaaaaaaaaaaaaaaaaaaaaaaaaaaaaaaaaaaaaaaaaa",
"aaaaaaaaaaaaaaaaaaaaaaaaaaaaaaaaaaaaaaaaaaaaaaaaaaaaaaaaaaaaaaaaaaaaaaaaaaaaaaaabGbGbQbQbObObGbGbGbGbGbGbGbGbGbGbGbGbebebGbGbebebebea1a1a1a1a1a1bQbQbQbQbebebebebQbQbQbQbQbQbQbQbQbQbQbQbQbQbQbQbQbQbQbQbQbQbQbQbQbQbQbQbQbQbQbQbQbQbQbQbQbQbQbQbQbQbGbGbGbGbGbGbubububuaWaWbGbGbQbQbGbGbGbGbGbGbGbGbGbGbGbGbGbGbGbGbGbGbGbGbQbQbQbQbebea1a1a1a1a1a1a1a1bQbQbebebebebebebQbQbQbQbQbQbQbQbQbQbQbQbQbQbQbQbQbQbQbQbQbQbQbQbQbQbQbQbQbQbQbQbQbQbQbQbQbQbQbQbQbQbQbQbQbQbQbQbQbQbObObGbGbObObQbQbQbQbGbGbebebGbGbGbGbGbGbGbGbGbGbGbGbGbGbGbGbGbGbQbQbGbGa5a5a5a5aWaWaWaWafafananaHaHananananafafaHaHaaaaaiaiavavaWaWa&a&aWaWaWaWa&a&a6a6aWaWa6a6a5a5a5a5avavbububGbGbGbGbGbGbGbGbGbGbGbGbGbGbGbGbGbGbGbGbGbGbGbGbGbGbebebebebebea1a1a1a1bebea1a1bLbLaaaaaaaaaaaaaaaaaaaaaaaaaaaaaaaaaaaaaaaaaaaaaaaaaaaaaaaaaaaaaaaaaaaaaaaaaaaaaaaa",
"aaaaaaaaaaaaaaaaaaaaaaaaaaaaaaaaaaaaaaaaaaaaaaaaaaaaaaaaaaaaaaaaaaaaaaaaaaaaaaaabGbGbQbQbObObGbGbGbGbGbGbGbGbGbGbGbGbebebGbGbebebebea1a1a1a1a1a1bQbQbQbQbebebebebQbQbQbQbQbQbQbQbQbQbQbQbQbQbQbQbQbQbQbQbQbQbQbQbQbQbQbQbQbQbQbQbQbQbQbQbQbQbQbQbQbQbGbGbGbGbGbGbubububuaWaWbGbGbQbQbGbGbGbGbGbGbGbGbGbGbGbGbGbGbGbGbGbGbGbGbQbQbQbQbebea1a1a1a1a1a1a1a1bQbQbebebebebebebQbQbQbQbQbQbQbQbQbQbQbQbQbQbQbQbQbQbQbQbQbQbQbQbQbQbQbQbQbQbQbQbQbQbQbQbQbQbQbQbQbQbQbQbQbQbQbQbQbQbObObGbGbObObQbQbQbQbGbGbebebGbGbGbGbGbGbGbGbGbGbGbGbGbGbGbGbGbGbQbQbGbGa5a5a5a5aWaWaWaWafafananaHaHananananafafaHaHaaaaaiaiavavaWaWa&a&aWaWaWaWa&a&a6a6aWaWa6a6a5a5a5a5avavbububGbGbGbGbGbGbGbGbGbGbGbGbGbGbGbGbGbGbGbGbGbGbGbGbGbGbebebebebebea1a1a1a1bebea1a1bLbLaaaaaaaaaaaaaaaaaaaaaaaaaaaaaaaaaaaaaaaaaaaaaaaaaaaaaaaaaaaaaaaaaaaaaaaaaaaaaaaa",
"aaaaaaaaaaaaaaaaaaaaaaaaaaaaaaaaaaaaaaaaaaaaaaaaaaaaaaaaaaaaaaaaaaaaaaaaaaaaaaaabGbGbQbQbObObGbGbGbGbGbGbGbGbGbGbGbGbebebGbGbebebebea1a1a1a1a1a1bQbQbQbQbebebebebQbQbQbQbQbQbQbQbQbQbQbQbQbQbQbQbQbQbQbQbQbQbQbQbQbQbQbQbQbQbQbQbQbQbQbQbQbQbQbQbQbQbGbGbGbGbGbGbubububuaWaWbGbGbQbQbGbGbGbGbGbGbGbGbGbGbGbGbGbGbGbGbGbGbGbGbQbQbQbQbebea1a1a1a1a1a1a1a1bQbQbebebebebebebQbQbQbQbQbQbQbQbQbQbQbQbQbQbQbQbQbQbQbQbQbQbQbQbQbQbQbQbQbQbQbQbQbQbQbQbQbQbQbQbQbQbQbQbQbQbQbQbQbQbObObGbGbObObQbQbQbQbGbGbebebGbGbGbGbGbGbGbGbGbGbGbGbGbGbGbGbGbGbebebGbGaWaWaWaWa5a5aWaWa5a5ajajajajaHaHapapananaiaiaqaqaaaaavavaWaWaWaWaWaWa6a6a5a5a5a5aHaHaWaWbububububGbGbGbGbububGbGbGbGbububtbtbGbGbGbGbGbGbGbGbebea1a1bebea1a1a1a1a1a1a1a1a1a1a1a1a1a1bfbfbHbHaaaaaaaaaaaaaaaaaaaaaaaaaaaaaaaaaaaaaaaaaaaaaaaaaaaaaaaaaaaaaaaaaaaaaaaaaaaaaaaa",
"aaaaaaaaaaaaaaaaaaaaaaaaaaaaaaaaaaaaaaaaaaaaaaaaaaaaaaaaaaaaaaaaaaaaaaaaaaaaaaaabGbGbQbQbObObGbGbGbGbGbGbGbGbGbGbGbGbebebGbGbebebebea1a1a1a1a1a1bQbQbQbQbebebebebQbQbQbQbQbQbQbQbQbQbQbQbQbQbQbQbQbQbQbQbQbQbQbQbQbQbQbQbQbQbQbQbQbQbQbQbQbQbQbQbQbQbGbGbGbGbGbGbubububuaWaWbGbGbQbQbGbGbGbGbGbGbGbGbGbGbGbGbGbGbGbGbGbGbGbGbQbQbQbQbebea1a1a1a1a1a1a1a1bQbQbebebebebebebQbQbQbQbQbQbQbQbQbQbQbQbQbQbQbQbQbQbQbQbQbQbQbQbQbQbQbQbQbQbQbQbQbQbQbQbQbQbQbQbQbQbQbQbQbQbQbQbQbQbObObGbGbObObQbQbQbQbGbGbebebGbGbGbGbGbGbGbGbGbGbGbGbGbGbGbGbGbGbebebGbGaWaWaWaWa5a5aWaWa5a5ajajajajaHaHapapananaiaiaqaqaaaaavavaWaWaWaWaWaWa6a6a5a5a5a5aHaHaWaWbububububGbGbGbGbububGbGbGbGbububtbtbGbGbGbGbGbGbGbGbebea1a1bebea1a1a1a1a1a1a1a1a1a1a1a1a1a1bfbfbHbHaaaaaaaaaaaaaaaaaaaaaaaaaaaaaaaaaaaaaaaaaaaaaaaaaaaaaaaaaaaaaaaaaaaaaaaaaaaaaaaa",
"aaaaaaaaaaaaaaaaaaaaaaaaaaaaaaaaaaaaaaaaaaaaaaaaaaaaaaaaaaaaaaaaaaaaaaaaaaaaaaaabGbGbQbQbObObGbGbGbGbGbGbGbGbGbGbGbGbebebGbGbebebebea1a1a1a1a1a1bQbQbQbQbebebebebQbQbQbQbQbQbQbQbQbQbQbQbQbQbQbQbQbQbQbQbQbQbQbQbQbQbQbQbQbQbQbQbQbQbQbQbQbQbQbQbQbQbGbGbGbGbGbGbubububuaWaWbGbGbQbQbGbGbGbGbGbGbGbGbGbGbGbGbGbGbGbGbGbGbGbGbQbQbQbQbebea1a1a1a1a1a1a1a1bQbQbebebebebebebQbQbQbQbQbQbQbQbQbQbQbQbQbQbQbQbQbQbQbQbQbQbQbQbQbQbQbQbQbQbQbQbQbQbQbQbQbQbQbQbQbQbQbQbQbQbQbQbQbQbObObGbGbObObQbQbQbQbGbGbebebGbGbGbGbGbGbGbGbGbGbGbGbGbGbGbGbGbGbebebGbGa&a&aWaWbFbFavavavavafafaaaaafafbjbjbhbhaHaHaFaFbhbhafafavava5a5a5a5a6a6aPaPbububGbGbGbGbGbGbGbGbGbGbxbxbxbxbtbtbGbGbGbGbGbGbJbJa1a1a1a1a1a1a1a1a1a1a1a1a1a1a1a1a1a1a1a1a1a1bfbfa1a1a1a1bHbHaaaaaaaaaaaaaaaaaaaaaaaaaaaaaaaaaaaaaaaaaaaaaaaaaaaaaaaaaaaaaaaaaaaaaaaaaaaaaaaa",
"aaaaaaaaaaaaaaaaaaaaaaaaaaaaaaaaaaaaaaaaaaaaaaaaaaaaaaaaaaaaaaaaaaaaaaaaaaaaaaaabGbGbQbQbObObGbGbGbGbGbGbGbGbGbGbGbGbebebGbGbebebebea1a1a1a1a1a1bQbQbQbQbebebebebQbQbQbQbQbQbQbQbQbQbQbQbQbQbQbQbQbQbQbQbQbQbQbQbQbQbQbQbQbQbQbQbQbQbQbQbQbQbQbQbQbQbGbGbGbGbGbGbubububuaWaWbGbGbQbQbGbGbGbGbGbGbGbGbGbGbGbGbGbGbGbGbGbGbGbGbQbQbQbQbebea1a1a1a1a1a1a1a1bQbQbebebebebebebQbQbQbQbQbQbQbQbQbQbQbQbQbQbQbQbQbQbQbQbQbQbQbQbQbQbQbQbQbQbQbQbQbQbQbQbQbQbQbQbQbQbQbQbQbQbQbQbQbQbObObGbGbObObQbQbQbQbGbGbebebGbGbGbGbGbGbGbGbGbGbGbGbGbGbGbGbGbGbebebGbGa&a&aWaWbFbFavavavavafafaaaaafafbjbjbhbhaHaHaFaFbhbhafafavava5a5a5a5a6a6aPaPbububGbGbGbGbGbGbGbGbGbGbxbxbxbxbtbtbGbGbGbGbGbGbJbJa1a1a1a1a1a1a1a1a1a1a1a1a1a1a1a1a1a1a1a1a1a1bfbfa1a1a1a1bHbHaaaaaaaaaaaaaaaaaaaaaaaaaaaaaaaaaaaaaaaaaaaaaaaaaaaaaaaaaaaaaaaaaaaaaaaaaaaaaaaa",
"aaaaaaaaaaaaaaaaaaaaaaaaaaaaaaaaaaaaaaaaaaaaaaaaaaaaaaaaaaaaaaaaaaaaaaaaaaaaaaaabGbGbQbQbObObGbGbGbGbGbGbGbGbGbGbGbGbebebGbGbebebebea1a1a1a1a1a1bQbQbQbQbebebebebQbQbQbQbQbQbQbQbQbQbQbQbQbQbQbQbQbQbQbQbQbQbQbQbQbQbQbQbQbQbQbQbQbQbQbQbQbQbQbQbQbQbGbGbGbGbGbGbubububuaWaWbGbGbQbQbGbGbGbGbGbGbGbGbGbGbGbGbGbGbGbGbGbGbGbGbQbQbQbQbebea1a1a1a1a1a1a1a1bQbQbebebebebebebQbQbQbQbQbQbQbQbQbQbQbQbQbQbQbQbQbQbQbQbQbQbQbQbQbQbQbQbQbQbQbQbQbQbQbQbQbQbQbQbQbQbQbQbQbQbQbQbQbQbObObGbGbObObQbQbQbQbGbGbebebGbGbGbGbGbGbGbGbGbGbGbGbGbGbGbGbGbGbebebGbGa&a&aWaWaVaVbubububuafafavavalalaNaNaeaeaXaXbhbhapapaiaibhbhavavavavbububGbGbxbxbxbxbxbxbxbxbxbxbububGbGbebebebebebea1a1a1a1a1a1a1a1a1a1a1a1a1a1a1a1a1a1a1a1a1a1a1a1bfbfa1a1bGbGbebebebebGbGaaaaaaaaaaaaaaaaaaaaaaaaaaaaaaaaaaaaaaaaaaaaaaaaaaaaaaaaaaaaaaaaaaaaaaaaaaaaaaaa",
"aaaaaaaaaaaaaaaaaaaaaaaaaaaaaaaaaaaaaaaaaaaaaaaaaaaaaaaaaaaaaaaaaaaaaaaaaaaaaaaabGbGbQbQbObObGbGbGbGbGbGbGbGbGbGbGbGbebebGbGbebebebea1a1a1a1a1a1bQbQbQbQbebebebebQbQbQbQbQbQbQbQbQbQbQbQbQbQbQbQbQbQbQbQbQbQbQbQbQbQbQbQbQbQbQbQbQbQbQbQbQbQbQbQbQbQbGbGbGbGbGbGbubububuaWaWbGbGbQbQbGbGbGbGbGbGbGbGbGbGbGbGbGbGbGbGbGbGbGbGbQbQbQbQbebea1a1a1a1a1a1a1a1bQbQbebebebebebebQbQbQbQbQbQbQbQbQbQbQbQbQbQbQbQbQbQbQbQbQbQbQbQbQbQbQbQbQbQbQbQbQbQbQbQbQbQbQbQbQbQbQbQbQbQbQbQbQbQbObObGbGbObObQbQbQbQbGbGbebebGbGbGbGbGbGbGbGbGbGbGbGbGbGbGbGbGbGbebebGbGa&a&aWaWaVaVbubububuafafavavalalaNaNaeaeaXaXbhbhapapaiaibhbhavavavavbububGbGbxbxbxbxbxbxbxbxbxbxbububGbGbebebebebebea1a1a1a1a1a1a1a1a1a1a1a1a1a1a1a1a1a1a1a1a1a1a1a1bfbfa1a1bGbGbebebebebGbGaaaaaaaaaaaaaaaaaaaaaaaaaaaaaaaaaaaaaaaaaaaaaaaaaaaaaaaaaaaaaaaaaaaaaaaaaaaaaaaa",
"aaaaaaaaaaaaaaaaaaaaaaaaaaaaaaaaaaaaaaaaaaaaaaaaaaaaaaaaaaaaaaaaaaaaaaaaaaaaaaaabGbGbQbQbObObGbGbGbGbGbGbGbGbGbGbGbGbebebGbGbebebebea1a1a1a1a1a1bQbQbQbQbebebebebQbQbQbQbQbQbQbQbQbQbQbQbQbQbQbQbQbQbQbQbQbQbQbQbQbQbQbQbQbQbQbQbQbQbQbQbQbQbQbQbQbQbGbGbGbGbGbGbubububuaWaWbGbGbQbQbGbGbGbGbGbGbGbGbGbGbGbGbGbGbGbGbGbGbGbGbQbQbQbQbebea1a1a1a1a1a1a1a1bQbQbebebebebebebQbQbQbQbQbQbQbQbQbQbQbQbQbQbQbQbQbQbQbQbQbQbQbQbQbQbQbQbQbQbQbQbQbQbQbQbQbQbQbQbQbQbQbQbQbQbQbQbQbQbObObGbGbObObQbQbQbQbGbGbebebGbGbGbGbGbGbGbGbGbGbGbGbGbGbGbGbGbGbebebGbGa5a5aWaWaWaWaWaWa5a5aaaaalaladadayayazazaeaebhbhaqaqa6a6bububxbxbGbGbGbGbxbxbxbxbxbxbHbHbfbfbKbKbKbKbfbfbfbfbfbfa1a1a1a1bfbfbfbfbfbfbfbfbfbfbfbfbfbfbfbfbfbfbfbfbKbKbGbGbGbGbEbEbGbGbebebHbHa5a5aaaaaaaaaaaaaaaaaaaaaaaaaaaaaaaaaaaaaaaaaaaaaaaaaaaaaaaaaaaaaaaaaaaaaaaaaaaa",
"aaaaaaaaaaaaaaaaaaaaaaaaaaaaaaaaaaaaaaaaaaaaaaaaaaaaaaaaaaaaaaaaaaaaaaaaaaaaaaaabGbGbQbQbObObGbGbGbGbGbGbGbGbGbGbGbGbebebGbGbebebebea1a1a1a1a1a1bQbQbQbQbebebebebQbQbQbQbQbQbQbQbQbQbQbQbQbQbQbQbQbQbQbQbQbQbQbQbQbQbQbQbQbQbQbQbQbQbQbQbQbQbQbQbQbQbGbGbGbGbGbGbubububuaWaWbGbGbQbQbGbGbGbGbGbGbGbGbGbGbGbGbGbGbGbGbGbGbGbGbQbQbQbQbebea1a1a1a1a1a1a1a1bQbQbebebebebebebQbQbQbQbQbQbQbQbQbQbQbQbQbQbQbQbQbQbQbQbQbQbQbQbQbQbQbQbQbQbQbQbQbQbQbQbQbQbQbQbQbQbQbQbQbQbQbQbQbQbObObGbGbObObQbQbQbQbGbGbebebGbGbGbGbGbGbGbGbGbGbGbGbGbGbGbGbGbGbebebGbGa5a5aWaWaWaWaWaWa5a5aaaaalaladadayayazazaeaebhbhaqaqa6a6bububxbxbGbGbGbGbxbxbxbxbxbxbHbHbfbfbKbKbKbKbfbfbfbfbfbfa1a1a1a1bfbfbfbfbfbfbfbfbfbfbfbfbfbfbfbfbfbfbfbfbKbKbGbGbGbGbEbEbGbGbebebHbHa5a5aaaaaaaaaaaaaaaaaaaaaaaaaaaaaaaaaaaaaaaaaaaaaaaaaaaaaaaaaaaaaaaaaaaaaaaaaaaa",
"aaaaaaaaaaaaaaaaaaaaaaaaaaaaaaaaaaaaaaaaaaaaaaaaaaaaaaaaaaaaaaaaaaaaaaaaaaaaaaaabGbGbQbQbObObGbGbGbGbGbGbGbGbGbGbGbGbebebGbGbebebebea1a1a1a1a1a1bQbQbQbQbebebebebQbQbQbQbQbQbQbQbQbQbQbQbQbQbQbQbQbQbQbQbQbQbQbQbQbQbQbQbQbQbQbQbQbQbQbQbQbQbQbQbQbQbGbGbGbGbGbGbubububuaWaWbGbGbQbQbGbGbGbGbGbGbGbGbGbGbGbGbGbGbGbGbGbGbGbGbQbQbQbQbebea1a1a1a1a1a1a1a1bQbQbebebebebebebQbQbQbQbQbQbQbQbQbQbQbQbQbQbQbQbQbQbQbQbQbQbQbQbQbQbQbQbQbQbQbQbQbQbQbQbQbQbQbQbQbQbQbQbQbQbQbQbQbQbObObGbGbObObQbQbQbQbGbGbebebGbGbGbGbGbGbGbGbGbGbGbGbGbGbGbGbGbGbebebGbGa5a5aWaWaWaWaWaWaHaHaaaaaiaiayayadadaOaOaXaXaaaabHbHbKbKbebebebebGbGbebea1a1a1a1bfbfbfbfbfbfbfbfbfbfbfbfa1a1a1a1a1a1bfbfbfbfbfbfbfbfbfbfbfbfbfbfbebebGbGbGbGbGbGbGbGbGbGbGbGbGbGbObObebebGbGaaaaaaaaaaaaaaaaaaaaaaaaaaaaaaaaaaaaaaaaaaaaaaaaaaaaaaaaaaaaaaaaaaaaaaaaaaaaaaaa",
"aaaaaaaaaaaaaaaaaaaaaaaaaaaaaaaaaaaaaaaaaaaaaaaaaaaaaaaaaaaaaaaaaaaaaaaaaaaaaaaabGbGbQbQbObObGbGbGbGbGbGbGbGbGbGbGbGbebebGbGbebebebea1a1a1a1a1a1bQbQbQbQbebebebebQbQbQbQbQbQbQbQbQbQbQbQbQbQbQbQbQbQbQbQbQbQbQbQbQbQbQbQbQbQbQbQbQbQbQbQbQbQbQbQbQbQbGbGbGbGbGbGbubububuaWaWbGbGbQbQbGbGbGbGbGbGbGbGbGbGbGbGbGbGbGbGbGbGbGbGbQbQbQbQbebea1a1a1a1a1a1a1a1bQbQbebebebebebebQbQbQbQbQbQbQbQbQbQbQbQbQbQbQbQbQbQbQbQbQbQbQbQbQbQbQbQbQbQbQbQbQbQbQbQbQbQbQbQbQbQbQbQbQbQbQbQbQbQbObObGbGbObObQbQbQbQbGbGbebebGbGbGbGbGbGbGbGbGbGbGbGbGbGbGbGbGbGbebebGbGa5a5aWaWaWaWaWaWaHaHaaaaaiaiayayadadaOaOaXaXaaaabHbHbKbKbebebebebGbGbebea1a1a1a1bfbfbfbfbfbfbfbfbfbfbfbfa1a1a1a1a1a1bfbfbfbfbfbfbfbfbfbfbfbfbfbfbebebGbGbGbGbGbGbGbGbGbGbGbGbGbGbObObebebGbGaaaaaaaaaaaaaaaaaaaaaaaaaaaaaaaaaaaaaaaaaaaaaaaaaaaaaaaaaaaaaaaaaaaaaaaaaaaaaaaa",
"aaaaaaaaaaaaaaaaaaaaaaaaaaaaaaaaaaaaaaaaaaaaaaaaaaaaaaaaaaaaaaaaaaaaaaaaaaaaaaaabGbGbQbQbObObGbGbGbGbGbGbGbGbGbGbGbGbebebGbGbebebebea1a1a1a1a1a1bQbQbQbQbebebebebQbQbQbQbQbQbQbQbQbQbQbQbQbQbQbQbQbQbQbQbQbQbQbQbQbQbQbQbQbQbQbQbQbQbQbQbQbQbQbQbQbQbGbGbGbGbGbGbubububuaWaWbGbGbQbQbGbGbGbGbGbGbGbGbGbGbGbGbGbGbGbGbGbGbGbGbQbQbQbQbebea1a1a1a1a1a1a1a1bebebQbQbebebebebQbQbQbQbQbQbQbQbQbQbQbQbQbQbQbQbQbQbQbQbQbQbQbQbQbQbQbQbQbQbQbQbQbQbQbQbQbQbQbQbQbQbQbQbQbQbQbQbQbQbObObGbGbObObQbQbQbQbGbGbebebGbGbGbGbGbGbGbGbGbGbGbGbGbGbGbGbGbGbQbQbGbGa5a5aWaWavavaWaWapapaiaiaNaNalalayayazazavava5a5avavbGbGbGbGbEbEbGbGbQbQbQbQbQbQbQbQbQbQbQbQbebebebebQbQbQbQbQbQbObObebebebea1a1a1a1a1a1bebebebebGbGbebebGbGbGbGbGbGbGbGbGbGbGbGbObObebebGbGa5a5aaaaaaaaaaaaaaaaaaaaaaaaaaaaaaaaaaaaaaaaaaaaaaaaaaaaaaaaaaaaaaaaaaaaaaaaaaaa",
"aaaaaaaaaaaaaaaaaaaaaaaaaaaaaaaaaaaaaaaaaaaaaaaaaaaaaaaaaaaaaaaaaaaaaaaaaaaaaaaabGbGbQbQbObObGbGbGbGbGbGbGbGbGbGbGbGbebebGbGbebebebea1a1a1a1a1a1bQbQbQbQbebebebebQbQbQbQbQbQbQbQbQbQbQbQbQbQbQbQbQbQbQbQbQbQbQbQbQbQbQbQbQbQbQbQbQbQbQbQbQbQbQbQbQbQbGbGbGbGbGbGbubububuaWaWbGbGbQbQbGbGbGbGbGbGbGbGbGbGbGbGbGbGbGbGbGbGbGbGbQbQbQbQbebea1a1a1a1a1a1a1a1bebebQbQbebebebebQbQbQbQbQbQbQbQbQbQbQbQbQbQbQbQbQbQbQbQbQbQbQbQbQbQbQbQbQbQbQbQbQbQbQbQbQbQbQbQbQbQbQbQbQbQbQbQbQbQbObObGbGbObObQbQbQbQbGbGbebebGbGbGbGbGbGbGbGbGbGbGbGbGbGbGbGbGbGbQbQbGbGa5a5aWaWavavaWaWapapaiaiaNaNalalayayazazavava5a5avavbGbGbGbGbEbEbGbGbQbQbQbQbQbQbQbQbQbQbQbQbebebebebQbQbQbQbQbQbObObebebebea1a1a1a1a1a1bebebebebGbGbebebGbGbGbGbGbGbGbGbGbGbGbGbObObebebGbGa5a5aaaaaaaaaaaaaaaaaaaaaaaaaaaaaaaaaaaaaaaaaaaaaaaaaaaaaaaaaaaaaaaaaaaaaaaaaaaa",
"aaaaaaaaaaaaaaaaaaaaaaaaaaaaaaaaaaaaaaaaaaaaaaaaaaaaaaaaaaaaaaaaaaaaaaaaaaaaaaaabGbGbQbQbObObGbGbGbGbGbGbGbGbGbGbGbGbebebGbGbebebebea1a1a1a1a1a1bQbQbQbQbebebebebQbQbQbQbQbQbQbQbQbQbQbQbQbQbQbQbQbQbQbQbQbQbQbQbQbQbQbQbQbQbQbQbQbQbQbQbQbQbQbQbQbQbGbGbGbGbGbGbubububuaWaWbGbGbQbQbGbGbGbGbGbGbGbGbGbGbGbGbGbGbGbGbGbGbGbGbQbQbQbQbebea1a1a1a1a1a1a1a1bebebebebebebebebQbQbQbQbQbQbQbQbQbQbQbQbQbQbQbQbQbQbQbQbQbQbQbQbQbQbQbQbQbQbQbQbQbQbQbQbQbQbQbQbQbQbQbQbQbQbQbQbQbQbObObGbGbObObQbQbQbQbGbGbebebGbGbGbGbGbGbGbGbGbGbGbGbGbGbGbGbEbEbQbQbGbGaWaWaWaWa5a5a5a5apapajajapapaPaPadadakakaaaaavavbHbHbGbGbGbGbGbGbebebQbQbQbQbQbQbQbQbQbQbQbQbQbQbQbQbQbQbQbQbQbQbebebebebebea1a1a1a1a1a1bebebebebGbGbObObGbGbGbGbGbGbGbGbGbGbGbGbObObebebGbGa5a5aaaaaaaaaaaaaaaaaaaaaaaaaaaaaaaaaaaaaaaaaaaaaaaaaaaaaaaaaaaaaaaaaaaaaaaaaaaa",
"aaaaaaaaaaaaaaaaaaaaaaaaaaaaaaaaaaaaaaaaaaaaaaaaaaaaaaaaaaaaaaaaaaaaaaaaaaaaaaaabGbGbQbQbObObGbGbGbGbGbGbGbGbGbGbGbGbebebGbGbebebebea1a1a1a1a1a1bQbQbQbQbebebebebQbQbQbQbQbQbQbQbQbQbQbQbQbQbQbQbQbQbQbQbQbQbQbQbQbQbQbQbQbQbQbQbQbQbQbQbQbQbQbQbQbQbGbGbGbGbGbGbubububuaWaWbGbGbQbQbGbGbGbGbGbGbGbGbGbGbGbGbGbGbGbGbGbGbGbGbQbQbQbQbebea1a1a1a1a1a1a1a1bebebebebebebebebQbQbQbQbQbQbQbQbQbQbQbQbQbQbQbQbQbQbQbQbQbQbQbQbQbQbQbQbQbQbQbQbQbQbQbQbQbQbQbQbQbQbQbQbQbQbQbQbQbQbObObGbGbObObQbQbQbQbGbGbebebGbGbGbGbGbGbGbGbGbGbGbGbGbGbGbGbEbEbQbQbGbGaWaWaWaWa5a5a5a5apapajajapapaPaPadadakakaaaaavavbHbHbGbGbGbGbGbGbebebQbQbQbQbQbQbQbQbQbQbQbQbQbQbQbQbQbQbQbQbQbQbebebebebebea1a1a1a1a1a1bebebebebGbGbObObGbGbGbGbGbGbGbGbGbGbGbGbObObebebGbGa5a5aaaaaaaaaaaaaaaaaaaaaaaaaaaaaaaaaaaaaaaaaaaaaaaaaaaaaaaaaaaaaaaaaaaaaaaaaaaa",
"aaaaaaaaaaaaaaaaaaaaaaaaaaaaaaaaaaaaaaaaaaaaaaaaaaaaaaaaaaaaaaaaaaaaaaaaaaaaaaaabGbGbQbQbObObGbGbGbGbGbGbGbGbGbGbGbGbebebGbGbebebebea1a1a1a1a1a1bQbQbQbQbebebebebQbQbQbQbQbQbQbQbQbQbQbQbQbQbQbQbQbQbQbQbQbQbQbQbQbQbQbQbQbQbQbQbQbQbQbQbQbQbQbQbQbQbGbGbGbGbGbGbubububuaWaWbGbGbQbQbGbGbGbGbGbGbGbGbGbGbGbGbGbGbGbGbGbGbGbGbQbQbQbQbebea1a1a1a1a1a1a1a1bebebQbQbebebebebQbQbQbQbQbQbQbQbQbQbQbQbQbQbQbQbQbQbQbQbQbQbQbQbQbQbQbQbQbQbQbQbQbQbQbQbQbQbQbQbQbQbQbQbQbQbQbQbQbQbObObGbGbObObQbQbQbQbGbGbebebGbGbGbGbGbGbGbGbGbGbGbGbGbGbGbGbEbEbQbQbGbGaWaWauauavava5a5bhbhaHaHaHaHaqaqananaaaaaPaPbybybGbGbGbGbGbGbebebQbQbebebQbQbQbQbQbQbQbQbQbQbQbQbQbQbQbQbQbQbebebebebebebebea1a1a1a1a1a1bebebebebGbGbObObGbGbGbGbGbGbGbGbGbGbGbGbObObebebGbGa5a5aaaaaaaaaaaaaaaaaaaaaaaaaaaaaaaaaaaaaaaaaaaaaaaaaaaaaaaaaaaaaaaaaaaaaaaaaaaa",
"aaaaaaaaaaaaaaaaaaaaaaaaaaaaaaaaaaaaaaaaaaaaaaaaaaaaaaaaaaaaaaaaaaaaaaaaaaaaaaaabGbGbQbQbObObGbGbGbGbGbGbGbGbGbGbGbGbebebGbGbebebebea1a1a1a1a1a1bQbQbQbQbebebebebQbQbQbQbQbQbQbQbQbQbQbQbQbQbQbQbQbQbQbQbQbQbQbQbQbQbQbQbQbQbQbQbQbQbQbQbQbQbQbQbQbQbGbGbGbGbGbGbubububuaWaWbGbGbQbQbGbGbGbGbGbGbGbGbGbGbGbGbGbGbGbGbGbGbGbGbQbQbQbQbebea1a1a1a1a1a1a1a1bebebQbQbebebebebQbQbQbQbQbQbQbQbQbQbQbQbQbQbQbQbQbQbQbQbQbQbQbQbQbQbQbQbQbQbQbQbQbQbQbQbQbQbQbQbQbQbQbQbQbQbQbQbQbQbObObGbGbObObQbQbQbQbGbGbebebGbGbGbGbGbGbGbGbGbGbGbGbGbGbGbGbEbEbQbQbGbGaWaWauauavava5a5bhbhaHaHaHaHaqaqananaaaaaPaPbybybGbGbGbGbGbGbebebQbQbebebQbQbQbQbQbQbQbQbQbQbQbQbQbQbQbQbQbQbebebebebebebebea1a1a1a1a1a1bebebebebGbGbObObGbGbGbGbGbGbGbGbGbGbGbGbObObebebGbGa5a5aaaaaaaaaaaaaaaaaaaaaaaaaaaaaaaaaaaaaaaaaaaaaaaaaaaaaaaaaaaaaaaaaaaaaaaaaaaa",
"aaaaaaaaaaaaaaaaaaaaaaaaaaaaaaaaaaaaaaaaaaaaaaaaaaaaaaaaaaaaaaaaaaaaaaaaaaaaaaaabGbGbQbQbObObGbGbGbGbGbGbGbGbGbGbGbGbebebGbGbebebebea1a1a1a1a1a1bQbQbQbQbebebebebQbQbQbQbQbQbQbQbQbQbQbQbQbQbQbQbQbQbQbQbQbQbQbQbQbQbQbQbQbQbQbQbQbQbQbQbQbQbQbQbQbQbGbGbGbGbGbGbubububuaWaWbGbGbQbQbGbGbGbGbGbGbGbGbGbGbGbGbGbGbGbGbGbGbGbGbQbQbQbQbebea1a1a1a1a1a1a1a1bebebebebebebebebQbQbQbQbQbQbQbQbQbQbQbQbQbQbQbQbQbQbQbQbQbQbQbQbQbQbQbQbQbQbQbQbQbQbQbQbQbQbQbQbQbQbQbQbQbQbQbQbQbQbObObGbGbObObQbQbQbQbGbGbebebGbGbGbGbGbGbGbGbGbGbGbGbGbGbGbGbGbGbQbQbGbGaWaWbubububububuavavapapbhbhbhbhbhbhafafbxbxbGbGbGbGbGbGbQbQbQbQbQbQbQbQbQbQbQbQbQbQbQbQbQbQbQbQbQbQbQbQbQbQbQbQbQbQbebebebea1a1a1a1a1a1bebebebebGbGbObObGbGbGbGbGbGbGbGbGbGbGbGbObObebebGbGa5a5aaaaaaaaaaaaaaaaaaaaaaaaaaaaaaaaaaaaaaaaaaaaaaaaaaaaaaaaaaaaaaaaaaaaaaaaaaaa",
"aaaaaaaaaaaaaaaaaaaaaaaaaaaaaaaaaaaaaaaaaaaaaaaaaaaaaaaaaaaaaaaaaaaaaaaaaaaaaaaabGbGbQbQbObObGbGbGbGbGbGbGbGbGbGbGbGbebebGbGbebebebea1a1a1a1a1a1bQbQbQbQbebebebebQbQbQbQbQbQbQbQbQbQbQbQbQbQbQbQbQbQbQbQbQbQbQbQbQbQbQbQbQbQbQbQbQbQbQbQbQbQbQbQbQbQbGbGbGbGbGbGbubububuaWaWbGbGbQbQbGbGbGbGbGbGbGbGbGbGbGbGbGbGbGbGbGbGbGbGbQbQbQbQbebea1a1a1a1a1a1a1a1bebebebebebebebebQbQbQbQbQbQbQbQbQbQbQbQbQbQbQbQbQbQbQbQbQbQbQbQbQbQbQbQbQbQbQbQbQbQbQbQbQbQbQbQbQbQbQbQbQbQbQbQbQbQbObObGbGbObObQbQbQbQbGbGbebebGbGbGbGbGbGbGbGbGbGbGbGbGbGbGbGbGbGbQbQbGbGaWaWbubububububuavavapapbhbhbhbhbhbhafafbxbxbGbGbGbGbGbGbQbQbQbQbQbQbQbQbQbQbQbQbQbQbQbQbQbQbQbQbQbQbQbQbQbQbQbQbQbQbebebebea1a1a1a1a1a1bebebebebGbGbObObGbGbGbGbGbGbGbGbGbGbGbGbObObebebGbGa5a5aaaaaaaaaaaaaaaaaaaaaaaaaaaaaaaaaaaaaaaaaaaaaaaaaaaaaaaaaaaaaaaaaaaaaaaaaaaa",
"aaaaaaaaaaaaaaaaaaaaaaaaaaaaaaaaaaaaaaaaaaaaaaaaaaaaaaaaaaaaaaaaaaaaaaaaaaaaaaaabGbGbQbQbObObGbGbGbGbGbGbGbGbGbGbGbGbebebGbGbebebebea1a1a1a1a1a1bQbQbQbQbebebebebQbQbQbQbQbQbQbQbQbQbQbQbQbQbQbQbQbQbQbQbQbQbQbQbQbQbQbQbQbQbQbQbQbQbQbQbQbQbQbQbQbQbGbGbGbGbGbGbubububuaWaWbGbGbQbQbGbGbGbGbGbGbGbGbGbGbGbGbGbGbGbGbGbGbGbGbQbQbQbQbebea1a1a1a1a1a1a1a1bebebebebebebebebQbQbQbQbQbQbQbQbQbQbQbQbQbQbQbQbQbQbQbQbQbQbQbQbQbQbQbQbQbQbQbQbQbQbQbQbQbQbQbQbQbQbQbQbQbQbQbQbQbQbObObGbGbObObQbQbQbQbGbGbebebGbGbGbGbGbGbGbGbGbGbGbGbGbGbGbGbGbGbebebGbGaWaWbububububububGbGbubuavavavavavavbxbxbGbGbGbGbGbGbQbQbQbQbQbQbQbQbQbQbQbQbQbQbQbQbQbQbQbQbQbQbQbQbQbQbQbQbQbQbQbQbebebebea1a1a1a1a1a1bebebebebGbGbObObGbGbGbGbGbGbGbGbGbGbGbGbObObQbQbGbGaaaaaaaaaaaaaaaaaaaaaaaaaaaaaaaaaaaaaaaaaaaaaaaaaaaaaaaaaaaaaaaaaaaaaaaaaaaaaaaa",
"aaaaaaaaaaaaaaaaaaaaaaaaaaaaaaaaaaaaaaaaaaaaaaaaaaaaaaaaaaaaaaaaaaaaaaaaaaaaaaaabGbGbQbQbObObGbGbGbGbGbGbGbGbGbGbGbGbebebGbGbebebebea1a1a1a1a1a1bQbQbQbQbebebebebQbQbQbQbQbQbQbQbQbQbQbQbQbQbQbQbQbQbQbQbQbQbQbQbQbQbQbQbQbQbQbQbQbQbQbQbQbQbQbQbQbQbGbGbGbGbGbGbubububuaWaWbGbGbQbQbGbGbGbGbGbGbGbGbGbGbGbGbGbGbGbGbGbGbGbGbQbQbQbQbebea1a1a1a1a1a1a1a1bebebebebebebebebQbQbQbQbQbQbQbQbQbQbQbQbQbQbQbQbQbQbQbQbQbQbQbQbQbQbQbQbQbQbQbQbQbQbQbQbQbQbQbQbQbQbQbQbQbQbQbQbQbQbObObGbGbObObQbQbQbQbGbGbebebGbGbGbGbGbGbGbGbGbGbGbGbGbGbGbGbGbGbebebGbGaWaWbububububububGbGbubuavavavavavavbxbxbGbGbGbGbGbGbQbQbQbQbQbQbQbQbQbQbQbQbQbQbQbQbQbQbQbQbQbQbQbQbQbQbQbQbQbQbQbQbebebebea1a1a1a1a1a1bebebebebGbGbObObGbGbGbGbGbGbGbGbGbGbGbGbObObQbQbGbGaaaaaaaaaaaaaaaaaaaaaaaaaaaaaaaaaaaaaaaaaaaaaaaaaaaaaaaaaaaaaaaaaaaaaaaaaaaaaaaa",
"aaaaaaaaaaaaaaaaaaaaaaaaaaaaaaaaaaaaaaaaaaaaaaaaaaaaaaaaaaaaaaaaaaaaaaaaaaaaaaaabGbGbQbQbObObGbGbGbGbGbGbGbGbGbGbGbGbebebGbGbObObebea1a1a1a1a1a1bQbQbQbQbebebebebQbQbQbQbQbQbQbQbQbQbQbQbQbQbQbQbQbQbQbQbQbQbQbQbQbQbQbQbQbQbQbQbQbQbQbQbQbQbQbQbQbQbGbGbGbGbGbGbubububuaWaWbGbGbQbQbGbGbGbGbGbGbGbGbGbGbGbGbGbGbGbGbGbGbGbGbQbQbQbQbebea1a1a1a1a1a1a1a1bebebQbQbebebebebQbQbQbQbQbQbQbQbQbQbQbQbQbQbQbQbQbQbQbQbQbQbQbQbQbQbQbQbQbQbQbQbQbQbQbQbQbQbQbQbQbQbQbQbQbQbQbQbQbQbObObGbGbebebQbQbQbQbGbGbebebGbGbGbGbGbGbGbGbGbGbGbGbGbGbGbGbGbGbebebGbGaWaWbububtbtbGbGbGbGbGbGbGbGbGbGbGbGbGbGbGbGbGbGbQbQbQbQbQbQbQbQbebebQbQbQbQbQbQbQbQbQbQbQbQbQbQbQbQbQbQbQbQbQbQbQbQbebebebea1a1a1a1a1a1bebebebebGbGbebebGbGbGbGbGbGbGbGbGbGbGbGbObObQbQbGbGaaaaaaaaaaaaaaaaaaaaaaaaaaaaaaaaaaaaaaaaaaaaaaaaaaaaaaaaaaaaaaaaaaaaaaaaaaaaaaaa",
"aaaaaaaaaaaaaaaaaaaaaaaaaaaaaaaaaaaaaaaaaaaaaaaaaaaaaaaaaaaaaaaaaaaaaaaaaaaaaaaabGbGbQbQbObObGbGbGbGbGbGbGbGbGbGbGbGbebebGbGbObObebea1a1a1a1a1a1bQbQbQbQbebebebebQbQbQbQbQbQbQbQbQbQbQbQbQbQbQbQbQbQbQbQbQbQbQbQbQbQbQbQbQbQbQbQbQbQbQbQbQbQbQbQbQbQbGbGbGbGbGbGbubububuaWaWbGbGbQbQbGbGbGbGbGbGbGbGbGbGbGbGbGbGbGbGbGbGbGbGbQbQbQbQbebea1a1a1a1a1a1a1a1bebebQbQbebebebebQbQbQbQbQbQbQbQbQbQbQbQbQbQbQbQbQbQbQbQbQbQbQbQbQbQbQbQbQbQbQbQbQbQbQbQbQbQbQbQbQbQbQbQbQbQbQbQbQbQbObObGbGbebebQbQbQbQbGbGbebebGbGbGbGbGbGbGbGbGbGbGbGbGbGbGbGbGbGbebebGbGaWaWbububtbtbGbGbGbGbGbGbGbGbGbGbGbGbGbGbGbGbGbGbQbQbQbQbQbQbQbQbebebQbQbQbQbQbQbQbQbQbQbQbQbQbQbQbQbQbQbQbQbQbQbQbQbebebebea1a1a1a1a1a1bebebebebGbGbebebGbGbGbGbGbGbGbGbGbGbGbGbObObQbQbGbGaaaaaaaaaaaaaaaaaaaaaaaaaaaaaaaaaaaaaaaaaaaaaaaaaaaaaaaaaaaaaaaaaaaaaaaaaaaaaaaa",
"aaaaaaaaaaaaaaaaaaaaaaaaaaaaaaaaaaaaaaaaaaaaaaaaaaaaaaaaaaaaaaaaaaaaaaaaaaaaaaaabGbGbebebebebGbGbGbGbGbGbGbGbGbGbGbGbebebGbGbObObebea1a1a1a1a1a1bebebQbQbebebebebQbQbQbQbQbQbQbQbQbQbQbQbQbQbQbQbQbQbQbQbQbQbQbQbQbQbQbQbQbQbQbQbQbQbQbQbQbQbQbQbebebGbGbGbGbGbGbubububuaWaWbGbGbQbQbGbGbGbGbGbGbGbGbGbGbGbGbGbGbGbGbGbGbGbGbQbQbQbQbebea1a1bfbfbfbfa1a1bebebebebebebebebQbQbQbQbQbQbQbQbQbQbQbQbQbQbQbQbQbQbQbQbQbQbQbQbQbQbQbQbQbQbQbQbQbQbQbQbQbQbQbQbQbQbQbQbQbQbQbQbQbQbGbGbGbGbebebebebebebGbGbebebGbGbGbGbGbGbGbGbGbGbGbGbGbGbGbGbGbGbQbQbGbGaWaWbububububGbGbGbGbGbGbGbGbGbGa2a2bebebQbQbQbQbQbQbQbQbQbQbQbQbQbQbQbQbQbQbQbQbQbQbQbQbQbQbQbQbQbQbQbQbQbQbQbQbQbQbebebebea1a1a1a1a1a1bebebebebGbGbObObGbGbGbGbGbGbGbGbGbGbGbGbObObQbQbGbGaaaaaaaaaaaaaaaaaaaaaaaaaaaaaaaaaaaaaaaaaaaaaaaaaaaaaaaaaaaaaaaaaaaaaaaaaaaaaaaa",
"aaaaaaaaaaaaaaaaaaaaaaaaaaaaaaaaaaaaaaaaaaaaaaaaaaaaaaaaaaaaaaaaaaaaaaaaaaaaaaaabGbGbebebebebGbGbGbGbGbGbGbGbGbGbGbGbebebGbGbObObebea1a1a1a1a1a1bebebQbQbebebebebQbQbQbQbQbQbQbQbQbQbQbQbQbQbQbQbQbQbQbQbQbQbQbQbQbQbQbQbQbQbQbQbQbQbQbQbQbQbQbQbebebGbGbGbGbGbGbubububuaWaWbGbGbQbQbGbGbGbGbGbGbGbGbGbGbGbGbGbGbGbGbGbGbGbGbQbQbQbQbebea1a1bfbfbfbfa1a1bebebebebebebebebQbQbQbQbQbQbQbQbQbQbQbQbQbQbQbQbQbQbQbQbQbQbQbQbQbQbQbQbQbQbQbQbQbQbQbQbQbQbQbQbQbQbQbQbQbQbQbQbQbQbGbGbGbGbebebebebebebGbGbebebGbGbGbGbGbGbGbGbGbGbGbGbGbGbGbGbGbGbQbQbGbGaWaWbububububGbGbGbGbGbGbGbGbGbGa2a2bebebQbQbQbQbQbQbQbQbQbQbQbQbQbQbQbQbQbQbQbQbQbQbQbQbQbQbQbQbQbQbQbQbQbQbQbQbQbQbebebebea1a1a1a1a1a1bebebebebGbGbObObGbGbGbGbGbGbGbGbGbGbGbGbObObQbQbGbGaaaaaaaaaaaaaaaaaaaaaaaaaaaaaaaaaaaaaaaaaaaaaaaaaaaaaaaaaaaaaaaaaaaaaaaaaaaaaaaa",
"aaaaaaaaaaaaaaaaaaaaaaaaaaaaaaaaaaaaaaaaaaaaaaaaaaaaaaaaaaaaaaaaaaaaaaaaaaaaaaaabGbGbQbQbObObGbGbGbGbGbGbGbGbGbGbGbGbebebEbEbObObebea1a1a1a1a1a1bQbQbQbQbebebebebQbQbQbQbQbQbQbQbQbQbQbQbQbQbQbQbQbQbQbQbQbQbQbQbQbQbQbQbQbQbQbQbQbQbQbQbQbQbQbQbebebGbGbGbGbGbGbubububuaWaWbGbGbebebGbGbGbGbGbGbGbGbGbGbGbGbGbGbGbGbGbGbGbGbQbQbQbQbQbQa1a1bfbfbfbfa1a1bQbQbQbQbebebebebQbQbQbQbQbQbQbQbQbQbQbQbQbQbQbQbQbQbQbQbQbQbQbQbQbQbQbQbQbQbQbQbQbQbQbQbQbQbQbQbQbQbQbQbQbQbQbQbQbQbObObEbEbObObebebQbQbGbGbObObGbGbGbGbGbGbGbGbGbGbGbGbGbGbGbGbGbGbebebGbGaWaWbububububGbGbGbGbGbGbebebQbQbQbQbQbQbQbQbQbQbQbQbQbQbQbQbQbQbQbQbQbQbQbQbQbQbQbQbQbQbQbQbQbQbQbQbQbQbQbQbQbQbQbQbebebebea1a1a1a1a1a1bebebebebGbGbObObGbGbGbGbGbGbGbGbGbGbGbGbObObQbQbGbGaaaaaaaaaaaaaaaaaaaaaaaaaaaaaaaaaaaaaaaaaaaaaaaaaaaaaaaaaaaaaaaaaaaaaaaaaaaaaaaa",
"aaaaaaaaaaaaaaaaaaaaaaaaaaaaaaaaaaaaaaaaaaaaaaaaaaaaaaaaaaaaaaaaaaaaaaaaaaaaaaaabGbGbQbQbObObGbGbGbGbGbGbGbGbGbGbGbGbebebEbEbObObebea1a1a1a1a1a1bQbQbQbQbebebebebQbQbQbQbQbQbQbQbQbQbQbQbQbQbQbQbQbQbQbQbQbQbQbQbQbQbQbQbQbQbQbQbQbQbQbQbQbQbQbQbebebGbGbGbGbGbGbubububuaWaWbGbGbebebGbGbGbGbGbGbGbGbGbGbGbGbGbGbGbGbGbGbGbGbQbQbQbQbQbQa1a1bfbfbfbfa1a1bQbQbQbQbebebebebQbQbQbQbQbQbQbQbQbQbQbQbQbQbQbQbQbQbQbQbQbQbQbQbQbQbQbQbQbQbQbQbQbQbQbQbQbQbQbQbQbQbQbQbQbQbQbQbQbQbObObEbEbObObebebQbQbGbGbObObGbGbGbGbGbGbGbGbGbGbGbGbGbGbGbGbGbGbebebGbGaWaWbububububGbGbGbGbGbGbebebQbQbQbQbQbQbQbQbQbQbQbQbQbQbQbQbQbQbQbQbQbQbQbQbQbQbQbQbQbQbQbQbQbQbQbQbQbQbQbQbQbQbQbQbebebebea1a1a1a1a1a1bebebebebGbGbObObGbGbGbGbGbGbGbGbGbGbGbGbObObQbQbGbGaaaaaaaaaaaaaaaaaaaaaaaaaaaaaaaaaaaaaaaaaaaaaaaaaaaaaaaaaaaaaaaaaaaaaaaaaaaaaaaa",
"aaaaaaaaaaaaaaaaaaaaaaaaaaaaaaaaaaaaaaaaaaaaaaaaaaaaaaaaaaaaaaaaaaaaaaaaaaaaaaaabGbGbQbQbObObGbGbGbGbGbGbGbGbGbGbGbGbebebEbEbObObebea1a1a1a1a1a1bQbQbQbQbebebQbQbQbQbQbQbQbQbQbQbQbQbQbQbQbQbQbQbQbQbQbQbQbQbQbQbQbQbQbQbQbQbQbQbQbQbQbQbQbQbQbQbebebGbGbGbGbGbGbtbtbubuaWaWbGbGbebebGbGbGbGbGbGbGbGbGbGbGbGbGbGbGbGbGbGbGbGbQbQbQbQbQbQa1a1bfbfbfbfa1a1bQbQbQbQbebebebebebebQbQbQbQbQbQbQbQbQbQbQbQbQbQbQbQbQbQbQbQbQbQbQbQbQbQbQbQbQbQbQbQbQbQbQbQbQbQbQbQbQbQbQbQbQbQbQbQbObObEbEbObObQbQbQbQbGbGbObObGbGbGbGbGbGbGbGbGbGbGbGbGbGbGbGbGbGbebebGbGaWaWbububtbtbGbGbGbGbGbGbebebebebQbQbQbQbQbQbQbQbQbQbQbQbQbQbQbQbQbQbQbQbQbQbQbQbQbQbQbQbQbQbQbQbQbQbQbQbQbQbQbQbQbQbebebebea1a1a1a1a1a1bebebebebGbGbebebGbGbGbGbGbGbGbGbGbGbGbGbObObQbQbGbGaaaaaaaaaaaaaaaaaaaaaaaaaaaaaaaaaaaaaaaaaaaaaaaaaaaaaaaaaaaaaaaaaaaaaaaaaaaaaaaa",
"aaaaaaaaaaaaaaaaaaaaaaaaaaaaaaaaaaaaaaaaaaaaaaaaaaaaaaaaaaaaaaaaaaaaaaaaaaaaaaaabGbGbQbQbObObGbGbGbGbGbGbGbGbGbGbGbGbebebEbEbObObebea1a1a1a1a1a1bQbQbQbQbebebQbQbQbQbQbQbQbQbQbQbQbQbQbQbQbQbQbQbQbQbQbQbQbQbQbQbQbQbQbQbQbQbQbQbQbQbQbQbQbQbQbQbebebGbGbGbGbGbGbtbtbubuaWaWbGbGbebebGbGbGbGbGbGbGbGbGbGbGbGbGbGbGbGbGbGbGbGbQbQbQbQbQbQa1a1bfbfbfbfa1a1bQbQbQbQbebebebebebebQbQbQbQbQbQbQbQbQbQbQbQbQbQbQbQbQbQbQbQbQbQbQbQbQbQbQbQbQbQbQbQbQbQbQbQbQbQbQbQbQbQbQbQbQbQbQbQbObObEbEbObObQbQbQbQbGbGbObObGbGbGbGbGbGbGbGbGbGbGbGbGbGbGbGbGbGbebebGbGaWaWbububtbtbGbGbGbGbGbGbebebebebQbQbQbQbQbQbQbQbQbQbQbQbQbQbQbQbQbQbQbQbQbQbQbQbQbQbQbQbQbQbQbQbQbQbQbQbQbQbQbQbQbQbebebebea1a1a1a1a1a1bebebebebGbGbebebGbGbGbGbGbGbGbGbGbGbGbGbObObQbQbGbGaaaaaaaaaaaaaaaaaaaaaaaaaaaaaaaaaaaaaaaaaaaaaaaaaaaaaaaaaaaaaaaaaaaaaaaaaaaaaaaa",
"aaaaaaaaaaaaaaaaaaaaaaaaaaaaaaaaaaaaaaaaaaaaaaaaaaaaaaaaaaaaaaaaaaaaaaaaaaaaaaaabGbGbQbQbObObGbGbGbGbGbGbGbGbGbGbGbGbebebEbEbebebebea1a1a1a1a1a1bebebebebebebebebebebQbQbQbQbQbQbQbQbQbQbQbQbQbQbQbQbQbQbQbQbQbQbQbQbQbQbQbQbQbQbQbQbQbQbQbQbebebebebGbGbGbGbGbGbubububuaWaWbGbGbebebGbGbGbGbGbGbGbGbGbGbGbGbGbGbGbGbGbGbGbGbebebQbQbebea1a1bfbfbfbfa1a1bebebebebebebebebQbQbQbQbQbQbQbQbQbQbQbQbQbQbQbQbQbQbQbQbQbQbQbQbQbQbQbQbQbQbQbQbQbQbQbQbQbQbQbQbQbQbQbQbQbQbQbQbQbQbGbGbEbEbebebebebebebGbGbebebGbGbGbGbGbGbGbGbGbGbGbGbGbGbGbGbGbGbebebGbGaWaWbububtbtbGbGbGbGbGbGbebebQbQbQbQbQbQbQbQbQbQbQbQbQbQbQbQbQbQbQbQbQbQbQbQbQbQbQbQbQbQbQbQbQbQbQbQbQbQbQbQbQbQbQbQbebebebea1a1a1a1a1a1bebebebebGbGbGbGbGbGbGbGbGbGbGbGbGbGbEbEbObObebebGbGaaaaaaaaaaaaaaaaaaaaaaaaaaaaaaaaaaaaaaaaaaaaaaaaaaaaaaaaaaaaaaaaaaaaaaaaaaaaaaaa",
"aaaaaaaaaaaaaaaaaaaaaaaaaaaaaaaaaaaaaaaaaaaaaaaaaaaaaaaaaaaaaaaaaaaaaaaaaaaaaaaabGbGbQbQbObObGbGbGbGbGbGbGbGbGbGbGbGbebebEbEbebebebea1a1a1a1a1a1bebebebebebebebebebebQbQbQbQbQbQbQbQbQbQbQbQbQbQbQbQbQbQbQbQbQbQbQbQbQbQbQbQbQbQbQbQbQbQbQbQbebebebebGbGbGbGbGbGbubububuaWaWbGbGbebebGbGbGbGbGbGbGbGbGbGbGbGbGbGbGbGbGbGbGbGbebebQbQbebea1a1bfbfbfbfa1a1bebebebebebebebebQbQbQbQbQbQbQbQbQbQbQbQbQbQbQbQbQbQbQbQbQbQbQbQbQbQbQbQbQbQbQbQbQbQbQbQbQbQbQbQbQbQbQbQbQbQbQbQbQbQbGbGbEbEbebebebebebebGbGbebebGbGbGbGbGbGbGbGbGbGbGbGbGbGbGbGbGbGbebebGbGaWaWbububtbtbGbGbGbGbGbGbebebQbQbQbQbQbQbQbQbQbQbQbQbQbQbQbQbQbQbQbQbQbQbQbQbQbQbQbQbQbQbQbQbQbQbQbQbQbQbQbQbQbQbQbQbebebebea1a1a1a1a1a1bebebebebGbGbGbGbGbGbGbGbGbGbGbGbGbGbEbEbObObebebGbGaaaaaaaaaaaaaaaaaaaaaaaaaaaaaaaaaaaaaaaaaaaaaaaaaaaaaaaaaaaaaaaaaaaaaaaaaaaaaaaa",
"aaaaaaaaaaaaaaaaaaaaaaaaaaaaaaaaaaaaaaaaaaaaaaaaaaaaaaaaaaaaaaaaaaaaaaaaaaaaaaaabHbHa1a1bebebGbGbGbGbGbGbGbGbGbGbGbGbebebGbGbebebfbfbfbfa3a3bfbfbebea1a1a1a1bebea1a1bebebebebebebebebebebebebebebebebebebebebebebebebebebebebebebebea1a1a1a1a1a1bebebGbGbGbGbHbHbubububuaWaWbGbGbebebGbGbGbGbGbGbGbGbGbGbGbGbGbGbGbGbGbGbGbGbebebebebebea1a1bfbfbfbfa1a1bebebebebQbQbQbQbQbQbQbQbQbQbQbQbQbQbQbQbQbQbQbQbQbQbQbQbQbQbQbQbQbQbQbQbQbQbQbQbQbQbQbQbQbQbQbQbQbQbQbQbQbQbQbQbebebebebGbGbebebebebebebGbGbebebGbGbGbGbGbGbGbGbGbGbGbGbGbGbGbGbGbGbebebGbGaWaWbububububHbHbGbGbGbGbebea1a1bebebebebebebebebebebebebebebebebebebebebebebebebebebebebebebebebebebebebebebebebebea1a1bfbfbfbfbfbfbfbfa1a1a1a1bebebebebGbGbGbGbGbGbGbGbGbGbGbGbebea1a1bHbHaaaaaaaaaaaaaaaaaaaaaaaaaaaaaaaaaaaaaaaaaaaaaaaaaaaaaaaaaaaaaaaaaaaaaaaaaaaaaaaa",
"aaaaaaaaaaaaaaaaaaaaaaaaaaaaaaaaaaaaaaaaaaaaaaaaaaaaaaaaaaaaaaaaaaaaaaaaaaaaaaaabHbHa1a1bebebGbGbGbGbGbGbGbGbGbGbGbGbebebGbGbebebfbfbfbfa3a3bfbfbebea1a1a1a1bebea1a1bebebebebebebebebebebebebebebebebebebebebebebebebebebebebebebebea1a1a1a1a1a1bebebGbGbGbGbHbHbubububuaWaWbGbGbebebGbGbGbGbGbGbGbGbGbGbGbGbGbGbGbGbGbGbGbGbebebebebebea1a1bfbfbfbfa1a1bebebebebQbQbQbQbQbQbQbQbQbQbQbQbQbQbQbQbQbQbQbQbQbQbQbQbQbQbQbQbQbQbQbQbQbQbQbQbQbQbQbQbQbQbQbQbQbQbQbQbQbQbQbQbebebebebGbGbebebebebebebGbGbebebGbGbGbGbGbGbGbGbGbGbGbGbGbGbGbGbGbGbebebGbGaWaWbububububHbHbGbGbGbGbebea1a1bebebebebebebebebebebebebebebebebebebebebebebebebebebebebebebebebebebebebebebebebebea1a1bfbfbfbfbfbfbfbfa1a1a1a1bebebebebGbGbGbGbGbGbGbGbGbGbGbGbebea1a1bHbHaaaaaaaaaaaaaaaaaaaaaaaaaaaaaaaaaaaaaaaaaaaaaaaaaaaaaaaaaaaaaaaaaaaaaaaaaaaaaaaa",
"aaaaaaaaaaaaaaaaaaaaaaaaaaaaaaaaaaaaaaaaaaaaaaaaaaaaaaaaaaaaaaaaaaaaaaaaaaaaa5a5avavbububgbgaWaWaWaWaVaVbgbgaWaWbgbgbgbgaWaWbgbgbubububububububububububububububububububububububububububububububububububububububububububububububububububububububububuaWaWbgbgbgbgaWaWaWaWaWaWbGbGbebebGbGbGbGbGbGbGbGbGbGbGbGbGbGbGbGbGbGbGbGbebebebebebea1a1bfbfbfbfa1a1bebebebebQbQbQbQbQbQbQbQbQbQbQbQbQbQbQbQbQbQbQbQbQbQbQbQbQbQbQbQbQbQbQbQbQbQbQbQbQbQbQbQbQbQbQbQbQbQbQbQbQbQbQbQbebebebebGbGbebebebebebebGbGbebebGbGbGbGbGbGbGbGbGbGbGbGbGbGbGbGbGbGbebebHbHa&a&aWaWaWaWaVaVaWaWaWaWbububububububububububububububububububububububububububububububububububububububububububububububububububububububububububububgbgbgbgbgbgbgbgaVaVbgbgaWaWaWaWbgbgbubuavavaaaaaaaaaaaaaaaaaaaaaaaaaaaaaaaaaaaaaaaaaaaaaaaaaaaaaaaaaaaaaaaaaaaaaaaaaaaaaaaa",
"aaaaaaaaaaaaaaaaaaaaaaaaaaaaaaaaaaaaaaaaaaaaaaaaaaaaaaaaaaaaaaaaaaaaaaaaaaaaa5a5avavbububgbgaWaWaWaWaVaVbgbgaWaWbgbgbgbgaWaWbgbgbubububububububububububububububububububububububububububububububububububububububububububububububububububububububububuaWaWbgbgbgbgaWaWaWaWaWaWbGbGbebebGbGbGbGbGbGbGbGbGbGbGbGbGbGbGbGbGbGbGbGbebebebebebea1a1bfbfbfbfa1a1bebebebebQbQbQbQbQbQbQbQbQbQbQbQbQbQbQbQbQbQbQbQbQbQbQbQbQbQbQbQbQbQbQbQbQbQbQbQbQbQbQbQbQbQbQbQbQbQbQbQbQbQbQbQbebebebebGbGbebebebebebebGbGbebebGbGbGbGbGbGbGbGbGbGbGbGbGbGbGbGbGbGbebebHbHa&a&aWaWaWaWaVaVaWaWaWaWbububububububububububububububububububububububububububububububububububububububububububububububububububububububububububububgbgbgbgbgbgbgbgaVaVbgbgaWaWaWaWbgbgbubuavavaaaaaaaaaaaaaaaaaaaaaaaaaaaaaaaaaaaaaaaaaaaaaaaaaaaaaaaaaaaaaaaaaaaaaaaaaaaaaaaa",
"aaaaaaaaaaaaaaaaaaaaaaaaaaaaaaaaaaaaaaaaaaaaaaaaaaaaaaaaaaaaaaaaaaaaa6a6bKbKbHbHbHbHbGbGbHbHbHbHbHbHbHbHbHbHbHbHbHbHbHbHbHbHbHbHbHbHbHbHbHbHbHbHbHbHbHbHbHbHbHbHbHbHbHbHbHbHbHbHbHbHbHbHbHbHbHbHbHbHbHbHbHbHbHbHbHbHbHbHbHbHbHbHbHbHbHbHbHbHbHbHbHbHbHbHbHbHbGbGbHbHbHbHaWaWbGbGbebebGbGbGbGbGbGbGbGbububGbGbGbGbububGbGbGbGbebebebebKbKbfbfbfbfbfbfbfbfbebebebebKbKbebebebebebebebebebebebebebebebebebebebebebebebebebebebebebebebebebebebebebebebebebebebebebebebebebebebebGbGbububHbHbebebebebGbGbHbHbGbGbGbGbububububGbGaUaUaUaUaUaUbububHbHbHbHaWaWbHbHbHbHbGbGbHbHbGbGbHbHbHbHbHbHbHbHbKbKbHbHbHbHbHbHbHbHbHbHbHbHbHbHbHbHbHbHbHbHbHbHbHbHbHbHbHbHbHbHbHbHbHbHbHbHbHbHbHbHbHbHbHbHbKbKbHbHbKbKbHbHbHbHbHbHbHbHbHbHbHbHbHbHbHbHbHbHbHbHbHbHbHbHbKbKa6a6aaaaaaaaaaaaaaaaaaaaaaaaaaaaaaaaaaaaaaaaaaaaaaaaaaaaaaaaaaaaaaaaaaaa",
"aaaaaaaaaaaaaaaaaaaaaaaaaaaaaaaaaaaaaaaaaaaaaaaaaaaaaaaaaaaaaaaaaaaaa6a6bKbKbHbHbHbHbGbGbHbHbHbHbHbHbHbHbHbHbHbHbHbHbHbHbHbHbHbHbHbHbHbHbHbHbHbHbHbHbHbHbHbHbHbHbHbHbHbHbHbHbHbHbHbHbHbHbHbHbHbHbHbHbHbHbHbHbHbHbHbHbHbHbHbHbHbHbHbHbHbHbHbHbHbHbHbHbHbHbHbHbGbGbHbHbHbHaWaWbGbGbebebGbGbGbGbGbGbGbGbububGbGbGbGbububGbGbGbGbebebebebKbKbfbfbfbfbfbfbfbfbebebebebKbKbebebebebebebebebebebebebebebebebebebebebebebebebebebebebebebebebebebebebebebebebebebebebebebebebebebebebGbGbububHbHbebebebebGbGbHbHbGbGbGbGbububububGbGaUaUaUaUaUaUbububHbHbHbHaWaWbHbHbHbHbGbGbHbHbGbGbHbHbHbHbHbHbHbHbKbKbHbHbHbHbHbHbHbHbHbHbHbHbHbHbHbHbHbHbHbHbHbHbHbHbHbHbHbHbHbHbHbHbHbHbHbHbHbHbHbHbHbHbHbHbKbKbHbHbKbKbHbHbHbHbHbHbHbHbHbHbHbHbHbHbHbHbHbHbHbHbHbHbHbHbKbKa6a6aaaaaaaaaaaaaaaaaaaaaaaaaaaaaaaaaaaaaaaaaaaaaaaaaaaaaaaaaaaaaaaaaaaa",
"aaaaaaaaaaaaaaaaaaaaaaaaaaaaaaaaaaaaaaaaaaaaaaaaaaaaaaaaaaaaaaaaaaaabHbHbGbGbGbGbGbGbGbGbGbGbGbGbGbGbGbGbebebebebebebebea1a1bfbfbfbfbfbfbfbfa1a1a1a1a1a1a1a1a1a1a1a1a1a1a1a1a1a1a1a1a1a1a1a1a1a1a1a1a1a1a1a1a1a1a1a1a1a1a1a1a1a1a1a1a1a1bebea1a1bGbGbGbGbGbGbGbGavavbubuavavavavbububgbgavavavavavavavavavavavavavavavavavavavavavavavavavavavavavavavavavavavavavavavavavavavavavavavavavavavavavavavavavavavavavavavavavavavavavavavavavavavavavavavavavavavavavavavavavavavavavavavavavavavavavavavavavavavavavavavavaVaVavavavavavavbgbgavavbgbgavavbububububGbGbGbGbGbGbGbGa1a1bebebebea1a1a1a1a1a1a1a1a1a1a1a1a1a1a1a1a1a1a1a1a1a1a1a1a1a1a1a1a1a1a1a1a1a1a1a1a1a1bebea1a1bfbfa1a1bfbfbfbfbfbfbfbfa1a1bebebebebebebGbGbGbGbGbGbGbGbGbGbGbGbGbGbGbGbHbHaaaaaaaaaaaaaaaaaaaaaaaaaaaaaaaaaaaaaaaaaaaaaaaaaaaaaaaaaaaaaaaaaaaa",
"aaaaaaaaaaaaaaaaaaaaaaaaaaaaaaaaaaaaaaaaaaaaaaaaaaaaaaaaaaaaaaaaaaaabHbHbGbGbGbGbGbGbGbGbGbGbGbGbGbGbGbGbebebebebebebebea1a1bfbfbfbfbfbfbfbfa1a1a1a1a1a1a1a1a1a1a1a1a1a1a1a1a1a1a1a1a1a1a1a1a1a1a1a1a1a1a1a1a1a1a1a1a1a1a1a1a1a1a1a1a1a1bebea1a1bGbGbGbGbGbGbGbGavavbubuavavavavbububgbgavavavavavavavavavavavavavavavavavavavavavavavavavavavavavavavavavavavavavavavavavavavavavavavavavavavavavavavavavavavavavavavavavavavavavavavavavavavavavavavavavavavavavavavavavavavavavavavavavavavavavavavavavavavavavavavavaVaVavavavavavavbgbgavavbgbgavavbububububGbGbGbGbGbGbGbGa1a1bebebebea1a1a1a1a1a1a1a1a1a1a1a1a1a1a1a1a1a1a1a1a1a1a1a1a1a1a1a1a1a1a1a1a1a1a1a1a1a1bebea1a1bfbfa1a1bfbfbfbfbfbfbfbfa1a1bebebebebebebGbGbGbGbGbGbGbGbGbGbGbGbGbGbGbGbHbHaaaaaaaaaaaaaaaaaaaaaaaaaaaaaaaaaaaaaaaaaaaaaaaaaaaaaaaaaaaaaaaaaaaa",
"aaaaaaaaaaaaaaaaaaaaaaaaaaaaaaaaaaaaaaaaaaaaaaaaaaaaaaaaaaaaaaaaaaaabHbHbGbGbGbGbGbGbGbGbGbGbGbGbGbGbwbwbGbGbGbGbGbGbebebebea1a1a1a1a1a1bebebebebebebebebebebebebebebebebebebebebebebebebebebebebebebebebebebebebebebebebebebebebebebebebebebebebGbGbEbEbGbGaWaWbebebKbKbKbKbebebKbKbKbKbKbKbfbfbfbfbKbKbKbKbfbfbfbfbfbfbfbfbfbfbfbfa3a3a3a3a3a3a3a3bfbfbfbfbfbfbfbfbfbfbfbfbfbfbfbfbfbfbfbfbfbfbfbfbfbfbfbfbfbfbfbfbfbfbfbfbfbfbfbfbfbfbfbfbfbfbfbfbfbfbfbfbfbfbfbfbfbfbfbfbfbfaGaGaGaGbfbfbfbfbfbfbfbfbfbfbfbfbfbfbKbKbKbKbKbKbKbKbKbKbebebKbKbKbKbKbKbKbKbebebgbgbGbGbGbGbGbGbebebebebebebebebebebebebebebebebebebebebebebebebebebebebebebebebebebebebebebebebebebebebebebebea1a1bebea1a1a1a1a1a1bebebebebGbGbGbGbGbGbwbwbGbGbGbGbGbGbGbGbGbGbGbGbGbGbHbHa5a5aaaaaaaaaaaaaaaaaaaaaaaaaaaaaaaaaaaaaaaaaaaaaaaaaaaaaaaaaaaaaaaa",
"aaaaaaaaaaaaaaaaaaaaaaaaaaaaaaaaaaaaaaaaaaaaaaaaaaaaaaaaaaaaaaaaaaaabHbHbGbGbGbGbGbGbGbGbGbGbGbGbGbGbwbwbGbGbGbGbGbGbebebebea1a1a1a1a1a1bebebebebebebebebebebebebebebebebebebebebebebebebebebebebebebebebebebebebebebebebebebebebebebebebebebebebGbGbEbEbGbGaWaWbebebKbKbKbKbebebKbKbKbKbKbKbfbfbfbfbKbKbKbKbfbfbfbfbfbfbfbfbfbfbfbfa3a3a3a3a3a3a3a3bfbfbfbfbfbfbfbfbfbfbfbfbfbfbfbfbfbfbfbfbfbfbfbfbfbfbfbfbfbfbfbfbfbfbfbfbfbfbfbfbfbfbfbfbfbfbfbfbfbfbfbfbfbfbfbfbfbfbfbfbfbfaGaGaGaGbfbfbfbfbfbfbfbfbfbfbfbfbfbfbKbKbKbKbKbKbKbKbKbKbebebKbKbKbKbKbKbKbKbebebgbgbGbGbGbGbGbGbebebebebebebebebebebebebebebebebebebebebebebebebebebebebebebebebebebebebebebebebebebebebebebebea1a1bebea1a1a1a1a1a1bebebebebGbGbGbGbGbGbwbwbGbGbGbGbGbGbGbGbGbGbGbGbGbGbHbHa5a5aaaaaaaaaaaaaaaaaaaaaaaaaaaaaaaaaaaaaaaaaaaaaaaaaaaaaaaaaaaaaaaa",
"aaaaaaaaaaaaaaaaaaaaaaaaaaaaaaaaaaaaaaaaaaaaaaaaaaaaaaaaaaaaaaaaaaaabHbHbGbGbGbGbGbGbGbGbGbGbGbGbGbGbGbGbHbHbHbHbebebebea1a1bfbfaGaGaGaGbfbfbfbfbebea1a1a1a1a1a1a1a1a1a1a1a1a1a1a1a1a1a1a1a1a1a1a1a1a1a1bebea1a1a1a1a1a1a1a1a1a1bebebebea1a1bebebGbGbGbGbGbGaWaWbHbHbGbGbububGbGbGbGbGbGbGbGbGbGbububGbGbububGbGbGbGbGbGbebebebebebea1a1a1a1a1a1a1a1bebebebebebebebebebebebebebebebebebebebebebebebebebebebebebebebebebebebebebebebebebebebebebebebebebebebebebebebebebebebebebea1a1a1a1a1a1bebebebebebebGbGbGbGbGbGbGbGbGbGbGbGbGbGbGbGa2a2bGbGbGbGbGbGbGbGbebebgbgbGbGbGbGbGbGa1a1bebea1a1bebea1a1a1a1a1a1a1a1bebebebebebebebebebebebebebebebea1a1bebebebebebebebebebebebea1a1bfbfbfbfbfbfbfbfbfbfbfbfbebebebebGbGbebebGbGbGbGbGbGbGbGbGbGbGbGbGbGbGbGbHbHaaaaaaaaaaaaaaaaaaaaaaaaaaaaaaaaaaaaaaaaaaaaaaaaaaaaaaaaaaaaaaaaaaaa",
"aaaaaaaaaaaaaaaaaaaaaaaaaaaaaaaaaaaaaaaaaaaaaaaaaaaaaaaaaaaaaaaaaaaabHbHbGbGbGbGbGbGbGbGbGbGbGbGbGbGbGbGbHbHbHbHbebebebea1a1bfbfaGaGaGaGbfbfbfbfbebea1a1a1a1a1a1a1a1a1a1a1a1a1a1a1a1a1a1a1a1a1a1a1a1a1a1bebea1a1a1a1a1a1a1a1a1a1bebebebea1a1bebebGbGbGbGbGbGaWaWbHbHbGbGbububGbGbGbGbGbGbGbGbGbGbububGbGbububGbGbGbGbGbGbebebebebebea1a1a1a1a1a1a1a1bebebebebebebebebebebebebebebebebebebebebebebebebebebebebebebebebebebebebebebebebebebebebebebebebebebebebebebebebebebebebebea1a1a1a1a1a1bebebebebebebGbGbGbGbGbGbGbGbGbGbGbGbGbGbGbGa2a2bGbGbGbGbGbGbGbGbebebgbgbGbGbGbGbGbGa1a1bebea1a1bebea1a1a1a1a1a1a1a1bebebebebebebebebebebebebebebebea1a1bebebebebebebebebebebebea1a1bfbfbfbfbfbfbfbfbfbfbfbfbebebebebGbGbebebGbGbGbGbGbGbGbGbGbGbGbGbGbGbGbGbHbHaaaaaaaaaaaaaaaaaaaaaaaaaaaaaaaaaaaaaaaaaaaaaaaaaaaaaaaaaaaaaaaaaaaa",
"aaaaaaaaaaaaaaaaaaaaaaaaaaaaaaaaaaaaaaaaaaaaaaaaaaaaaaaaaaaaaaaaaaaaa6a6aWaWaWaWa6a6a6a6a6a6a6a6a6a6a6a6aWaWa6a6aWaWa6a6a6a6a6a6a6a6avava6a6avava6a6aWaWaWaWaWaWaWaWaWaWaWaWaWaWaWaWaWaWaWaWaWaWaWaWaWaWaWaWaWaWaWaWaWaWaWaWaWaWaWaWaWaWaWaWaWaWaWaWaWaWaWaWa6a6bHbHbxbxbHbHbxbxbxbxbxbxbxbxbxbxbxbxbxbxbxbxbGbGbGbGbGbGbebebHbHbKbKbKbKbKbKbKbKbKbKbKbKbebebebebebebebebebebebebebebebebebebebebebebebebebebebebebebebebebebebebebebebebebebebebebebebebebebebebebebebebebebKbKbfbfbKbKbKbKbKbKbebebebebGbGbGbGbGbGbxbxbxbxbxbxbxbxbxbxbxbxbxbxbububxbxbxbxbHbHa6a6aWaWaWaWaWaWaWaWaWaWaWaWaWaWaWaWaWaWaWaWaWaWaWaWaWaWaWaWaWaWaWaWaWaWaWaWaWaWaWaWaWaWaWaWaWaWaWaWaWaWaWaWaWaWavavavava6a6a6a6avavaWaWaWaWaWaWa6a6aWaWa6a6aWaWa6a6a6a6a6a6a6a6aWaWa6a6a6a6aaaaaaaaaaaaaaaaaaaaaaaaaaaaaaaaaaaaaaaaaaaaaaaaaaaaaaaaaaaaaaaaaaaa",
"aaaaaaaaaaaaaaaaaaaaaaaaaaaaaaaaaaaaaaaaaaaaaaaaaaaaaaaaaaaaaaaaaaaaa6a6aWaWaWaWa6a6a6a6a6a6a6a6a6a6a6a6aWaWa6a6aWaWa6a6a6a6a6a6a6a6avava6a6avava6a6aWaWaWaWaWaWaWaWaWaWaWaWaWaWaWaWaWaWaWaWaWaWaWaWaWaWaWaWaWaWaWaWaWaWaWaWaWaWaWaWaWaWaWaWaWaWaWaWaWaWaWaWa6a6bHbHbxbxbHbHbxbxbxbxbxbxbxbxbxbxbxbxbxbxbxbxbGbGbGbGbGbGbebebHbHbKbKbKbKbKbKbKbKbKbKbKbKbebebebebebebebebebebebebebebebebebebebebebebebebebebebebebebebebebebebebebebebebebebebebebebebebebebebebebebebebebebKbKbfbfbKbKbKbKbKbKbebebebebGbGbGbGbGbGbxbxbxbxbxbxbxbxbxbxbxbxbxbxbububxbxbxbxbHbHa6a6aWaWaWaWaWaWaWaWaWaWaWaWaWaWaWaWaWaWaWaWaWaWaWaWaWaWaWaWaWaWaWaWaWaWaWaWaWaWaWaWaWaWaWaWaWaWaWaWaWaWaWaWaWaWavavavava6a6a6a6avavaWaWaWaWaWaWa6a6aWaWa6a6aWaWa6a6a6a6a6a6a6a6aWaWa6a6a6a6aaaaaaaaaaaaaaaaaaaaaaaaaaaaaaaaaaaaaaaaaaaaaaaaaaaaaaaaaaaaaaaaaaaa",
"aaaaaaaaaaaaaaaaaaaaaaaaaaaaaaaaaaaaaaaaaaaaaaaaaaaaaaaaaaaaaaaaaaaaaaaaaaaaaaaaaaaaaaaaaaaaaaaaaaaaaaaaaaaaaaaaaaaaaaaaaaaaaaaaaaaaaaaaaaaaaaaaaaaaaaaaaaaaaaaaaaaaaaaaaaaaaaaaaaaaaaaaaaaaaaaaaaaaaaaaaaaaaaaaaaaaaaaaaaaaaaaaaaaaaaaaaaaaaaaaaaaaaaaaaaaaaaaaaaaaaaaaaaaaaaaaaaaaaaaaaaaaaaaaaaaaaaaaaaaaaaaaaaaaaaaaaaaaaaaaaaaaaaaaaaaaaaaaaaaaaaaaaaaaaaaaaaaaaaaaaaaaaaaaaaaaaaaaaaaaaaaaaaaaaaaaaaaaaaaaaaaaaaaaaaaaaaaaaaaaaaaaaaaaaaaaaaaaaaaaaaaaaaaaaaaaaaaaaaaaaaaaaaaaaaaaaaaaaaaaaaaaaaaaaaaaaaaaaaaaaaaaaaaaaaaaaaaaaaaaaaaaaaaaaaaaaaaaaaaaaaaaaaaaaaaaaaaaaaaaaaaaaaaaaaaaaaaaaaaaaaaaaaaaaaaaaaaaaaaaaaaaaaaaaaaaaaaaaaaaaaaaaaaaaaaaaaaaaaaaaaaaaaaaaaaaaaaaaaaaaaaaaaaaaaaaaaaaaaaaaaaaaaaaaaaaaaaaaaaaaaaaaaaaaaaaaaaaaaaaaaaaaaaaaaaaaaaaaaaaaaaaaaaaaaaaaaaaaaaaaaaaaaaaaaaaaaaaaaaaaaaaaaaaaaaaaaaaaaaa",
"aaaaaaaaaaaaaaaaaaaaaaaaaaaaaaaaaaaaaaaaaaaaaaaaaaaaaaaaaaaaaaaaaaaaaaaaaaaaaaaaaaaaaaaaaaaaaaaaaaaaaaaaaaaaaaaaaaaaaaaaaaaaaaaaaaaaaaaaaaaaaaaaaaaaaaaaaaaaaaaaaaaaaaaaaaaaaaaaaaaaaaaaaaaaaaaaaaaaaaaaaaaaaaaaaaaaaaaaaaaaaaaaaaaaaaaaaaaaaaaaaaaaaaaaaaaaaaaaaaaaaaaaaaaaaaaaaaaaaaaaaaaaaaaaaaaaaaaaaaaaaaaaaaaaaaaaaaaaaaaaaaaaaaaaaaaaaaaaaaaaaaaaaaaaaaaaaaaaaaaaaaaaaaaaaaaaaaaaaaaaaaaaaaaaaaaaaaaaaaaaaaaaaaaaaaaaaaaaaaaaaaaaaaaaaaaaaaaaaaaaaaaaaaaaaaaaaaaaaaaaaaaaaaaaaaaaaaaaaaaaaaaaaaaaaaaaaaaaaaaaaaaaaaaaaaaaaaaaaaaaaaaaaaaaaaaaaaaaaaaaaaaaaaaaaaaaaaaaaaaaaaaaaaaaaaaaaaaaaaaaaaaaaaaaaaaaaaaaaaaaaaaaaaaaaaaaaaaaaaaaaaaaaaaaaaaaaaaaaaaaaaaaaaaaaaaaaaaaaaaaaaaaaaaaaaaaaaaaaaaaaaaaaaaaaaaaaaaaaaaaaaaaaaaaaaaaaaaaaaaaaaaaaaaaaaaaaaaaaaaaaaaaaaaaaaaaaaaaaaaaaaaaaaaaaaaaaaaaaaaaaaaaaaaaaaaaaaaaaaaa",
"aaaaaaaaaaaaaaaaaaaaaaaaaaaaaaaaaaaaaaaaaaaaaaaaaaaaaaaaaaaaaaaaaaaaaaaaaaaaaaaaaaaaaaaaaaaaaaaaaaaaaaaaaaaaaaaaaaaaaaaaaaaaaaaaaaaaaaaaaaaaaaaaaaaaaaaaaaaaaaaaaaaaaaaaaaaaaaaaaaaaaaaaaaaaaaaaaaaaaaaaaaaaaaaaaaaaaaaaaaaaaaaaaaaaaaaaaaaaaaaaaaaaaaaaaaaaaaaaaaaaaaaaaaaaaaaaaaaaaaaaaaaaaaaaaaaaaaaaaaaaaaaaaaaaaaaaaaaaaaaaaaaaaaaaaaaaaaaaaaaaaaaaaaaaaaaaaaaaaaaaaaaaaaaaaaaaaaaaaaaaaaaaaaaaaaaaaaaaaaaaaaaaaaaaaaaaaaaaaaaaaaaaaaaaaaaaaaaaaaaaaaaaaaaaaaaaaaaaaaaaaaaaaaaaaaaaaaaaaaaaaaaaaaaaaaaaaaaaaaaaaaaaaaaaaaaaaaaaaaaaaaaaaaaaaaaaaaaaaaaaaaaaaaaaaaaaaaaaaaaaaaaaaaaaaaaaaaaaaaaaaaaaaaaaaaaaaaaaaaaaaaaaaaaaaaaaaaaaaaaaaaaaaaaaaaaaaaaaaaaaaaaaaaaaaaaaaaaaaaaaaaaaaaaaaaaaaaaaaaaaaaaaaaaaaaaaaaaaaaaaaaaaaaaaaaaaaaaaaaaaaaaaaaaaaaaaaaaaaaaaaaaaaaaaaaaaaaaaaaaaaaaaaaaaaaaaaaaaaaaaaaaaaaaaaaaaaaaaaaaa",
"aaaaaaaaaaaaaaaaaaaaaaaaaaaaaaaaaaaaaaaaaaaaaaaaaaaaaaaaaaaaaaaaaaaaaaaaaaaaaaaaaaaaaaaaaaaaaaaaaaaaaaaaaaaaaaaaaaaaaaaaaaaaaaaaaaaaaaaaaaaaaaaaaaaaaaaaaaaaaaaaaaaaaaaaaaaaaaaaaaaaaaaaaaaaaaaaaaaaaaaaaaaaaaaaaaaaaaaaaaaaaaaaaaaaaaaaaaaaaaaaaaaaaaaaaaaaaaaaaaaaaaaaaaaaaaaaaaaaaaaaaaaaaaaaaaaaaaaaaaaaaaaaaaaaaaaaaaaaaaaaaaaaaaaaaaaaaaaaaaaaaaaaaaaaaaaaaaaaaaaaaaaaaaaaaaaaaaaaaaaaaaaaaaaaaaaaaaaaaaaaaaaaaaaaaaaaaaaaaaaaaaaaaaaaaaaaaaaaaaaaaaaaaaaaaaaaaaaaaaaaaaaaaaaaaaaaaaaaaaaaaaaaaaaaaaaaaaaaaaaaaaaaaaaaaaaaaaaaaaaaaaaaaaaaaaaaaaaaaaaaaaaaaaaaaaaaaaaaaaaaaaaaaaaaaaaaaaaaaaaaaaaaaaaaaaaaaaaaaaaaaaaaaaaaaaaaaaaaaaaaaaaaaaaaaaaaaaaaaaaaaaaaaaaaaaaaaaaaaaaaaaaaaaaaaaaaaaaaaaaaaaaaaaaaaaaaaaaaaaaaaaaaaaaaaaaaaaaaaaaaaaaaaaaaaaaaaaaaaaaaaaaaaaaaaaaaaaaaaaaaaaaaaaaaaaaaaaaaaaaaaaaaaaaaaaaaaaaaaaaa",
"aaaaaaaaaaaaaaaaaaaaaaaaaaaaaaaaaaaaaaaaaaaaaaaaaaaaaaaaaaaaaaaaaaaaaaaaaaaaaaaaaaaaaaaaaaaaaaaaaaaaaaaaaaaaaaaaaaaaaaaaaaaaaaaaaaaaaaaaaaaaaaaaaaaaaaaaaaaaaaaaaaaaaaaaaaaaaaaaaaaaaaaaaaaaaaaaaaaaaaaaaaaaaaaaaaaaaaaaaaaaaaaaaaaaaaaaaaaaaaaaaaaaaaaaaaaaaaaaaaaaaaaaaaaaaaaaaaaaaaaaaaaaaaaaaaaaaaaaaaaaaaaaaaaaaaaaaaaaaaaaaaaaaaaaaaaaaaaaaaaaaaaaaaaaaaaaaaaaaaaaaaaaaaaaaaaaaaaaaaaaaaaaaaaaaaaaaaaaaaaaaaaaaaaaaaaaaaaaaaaaaaaaaaaaaaaaaaaaaaaaaaaaaaaaaaaaaaaaaaaaaaaaaaaaaaaaaaaaaaaaaaaaaaaaaaaaaaaaaaaaaaaaaaaaaaaaaaaaaaaaaaaaaaaaaaaaaaaaaaaaaaaaaaaaaaaaaaaaaaaaaaaaaaaaaaaaaaaaaaaaaaaaaaaaaaaaaaaaaaaaaaaaaaaaaaaaaaaaaaaaaaaaaaaaaaaaaaaaaaaaaaaaaaaaaaaaaaaaaaaaaaaaaaaaaaaaaaaaaaaaaaaaaaaaaaaaaaaaaaaaaaaaaaaaaaaaaaaaaaaaaaaaaaaaaaaaaaaaaaaaaaaaaaaaaaaaaaaaaaaaaaaaaaaaaaaaaaaaaaaaaaaaaaaaaaaaaaaaaaaa",
"aaaaaaaaaaaaaaaaaaaaaaaaaaaaaaaaaaaaaaaaaaaaaaaaaaaaaaaaaaaaaaaaaaaaaaaaaaaaaaaaaaaaaaaaaaaaaaaaaaaaaaaaaaaaaaaaaaaaaaaaaaaaaaaaaaaaaaaaaaaaaaaaaaaaaaaaaaaaaaaaaaaaaaaaaaaaaaaaaaaaaaaaaaaaaaaaaaaaaaaaaaaaaaaaaaaaaaaaaaaaaaaaaaaaaaaaaaaaaaaaaaaaaaaaaaaaaaaaaaaaaaaaaaaaaaaaaaaaaaaaaaaaaaaaaaaaaaaaaaaaaaaaaaaaaaaaaaaaaaaaaaaaaaaaaaaaaaaaaaaaaaaaaaaaaaaaaaaaaaaaaaaaaaaaaaaaaaaaaaaaaaaaaaaaaaaaaaaaaaaaaaaaaaaaaaaaaaaaaaaaaaaaaaaaaaaaaaaaaaaaaaaaaaaaaaaaaaaaaaaaaaaaaaaaaaaaaaaaaaaaaaaaaaaaaaaaaaaaaaaaaaaaaaaaaaaaaaaaaaaaaaaaaaaaaaaaaaaaaaaaaaaaaaaaaaaaaaaaaaaaaaaaaaaaaaaaaaaaaaaaaaaaaaaaaaaaaaaaaaaaaaaaaaaaaaaaaaaaaaaaaaaaaaaaaaaaaaaaaaaaaaaaaaaaaaaaaaaaaaaaaaaaaaaaaaaaaaaaaaaaaaaaaaaaaaaaaaaaaaaaaaaaaaaaaaaaaaaaaaaaaaaaaaaaaaaaaaaaaaaaaaaaaaaaaaaaaaaaaaaaaaaaaaaaaaaaaaaaaaaaaaaaaaaaaaaaaaaaaaaa",
"aaaaaaaaaaaaaaaaaaaaaaaaaaaaaaaaaaaaaaaaaaaaaaaaaaaaaaaaaaaaaaaaaaaaaaaaaaaaaaaaaaaaaaaaaaaaaaaaaaaaaaaaaaaaaaaaaaaaaaaaaaaaaaaaaaaaaaaaaaaaaaaaaaaaaaaaaaaaaaaaaaaaaaaaaaaaaaaaaaaaaaaaaaaaaaaaaaaaaaaaaaaaaaaaaaaaaaaaaaaaaaaaaaaaaaaaaaaaaaaaaaaaaaaaaaaaaaaaaaaaaaaaaaaaaaaaaaaaaaaaaaaaaaaaaaaaaaaaaaaaaaaaaaaaaaaaaaaaaaaaaaaaaaaaaaaaaaaaaaaaaaaaaaaaaaaaaaaaaaaaaaaaaaaaaaaaaaaaaaaaaaaaaaaaaaaaaaaaaaaaaaaaaaaaaaaaaaaaaaaaaaaaaaaaaaaaaaaaaaaaaaaaaaaaaaaaaaaaaaaaaaaaaaaaaaaaaaaaaaaaaaaaaaaaaaaaaaaaaaaaaaaaaaaaaaaaaaaaaaaaaaaaaaaaaaaaaaaaaaaaaaaaaaaaaaaaaaaaaaaaaaaaaaaaaaaaaaaaaaaaaaaaaaaaaaaaaaaaaaaaaaaaaaaaaaaaaaaaaaaaaaaaaaaaaaaaaaaaaaaaaaaaaaaaaaaaaaaaaaaaaaaaaaaaaaaaaaaaaaaaaaaaaaaaaaaaaaaaaaaaaaaaaaaaaaaaaaaaaaaaaaaaaaaaaaaaaaaaaaaaaaaaaaaaaaaaaaaaaaaaaaaaaaaaaaaaaaaaaaaaaaaaaaaaaaaaaaaaaaaa",
"aaaaaaaaaaaaaaaaaaaaaaaaaaaaaaaaaaaaaaaaaaaaaaaaaaaaaaaaaaaaaaaaaaaaaaaaaaaaaaaaaaaaaaaaaaaaaaaaaaaaaaaaaaaaaaaaaaaaaaaaaaaaaaaaaaaaaaaaaaaaaaaaaaaaaaaaaaaaaaaaaaaaaaaaaaaaaaaaaaaaaaaaaaaaaaaaaaaaaaaaaaaaaaaaaaaaaaaaaaaaaaaaaaaaaaaaaaaaaaaaaaaaaaaaaaaaaaaaaaaaaaaaaaaaaaaaaaaaaaaaaaaaaaaaaaaaaaaaaaaaaaaaaaaaaaaaaaaaaaaaaaaaaaaaaaaaaaaaaaaaaaaaaaaaaaaaaaaaaaaaaaaaaaaaaaaaaaaaaaaaaaaaaaaaaaaaaaaaaaaaaaaaaaaaaaaaaaaaaaaaaaaaaaaaaaaaaaaaaaaaaaaaaaaaaaaaaaaaaaaaaaaaaaaaaaaaaaaaaaaaaaaaaaaaaaaaaaaaaaaaaaaaaaaaaaaaaaaaaaaaaaaaaaaaaaaaaaaaaaaaaaaaaaaaaaaaaaaaaaaaaaaaaaaaaaaaaaaaaaaaaaaaaaaaaaaaaaaaaaaaaaaaaaaaaaaaaaaaaaaaaaaaaaaaaaaaaaaaaaaaaaaaaaaaaaaaaaaaaaaaaaaaaaaaaaaaaaaaaaaaaaaaaaaaaaaaaaaaaaaaaaaaaaaaaaaaaaaaaaaaaaaaaaaaaaaaaaaaaaaaaaaaaaaaaaaaaaaaaaaaaaaaaaaaaaaaaaaaaaaaaaaaaaaaaaaaaaaaaaaa",
"aaaaaaaaaaaaaaaaaaaaaaaaaaaaaaaaaaaaaaaaaaaaaaaaaaaaaaaaaaaaaaaaaaaaaaaaaaaaaaaaaaaaaaaaaaaaaaaaaaaaaaaaaaaaaaaaaaaaaaaaaaaaaaaaaaaaaaaaaaaaaaaaaaaaaaaaaaaaaaaaaaaaaaaaaaaaaaaaaaaaaaaaaaaaaaaaaaaaaaaaaaaaaaaaaaaaaaaaaaaaaaaaaaaaaaaaaaaaaaaaaaaaaaaaaaaaaaaaaaaaaaaaaaaaaaaaaaaaaaaaaaaaaaaaaaaaaaaaaaaaaaaaaaaaaaaaaaaaaaaaaaaaaaaaaaaaaaaaaaaaaaaaaaaaaaaaaaaaaaaaaaaaaaaaaaaaaaaaaaaaaaaaaaaaaaaaaaaaaaaaaaaaaaaaaaaaaaaaaaaaaaaaaaaaaaaaaaaaaaaaaaaaaaaaaaaaaaaaaaaaaaaaaaaaaaaaaaaaaaaaaaaaaaaaaaaaaaaaaaaaaaaaaaaaaaaaaaaaaaaaaaaaaaaaaaaaaaaaaaaaaaaaaaaaaaaaaaaaaaaaaaaaaaaaaaaaaaaaaaaaaaaaaaaaaaaaaaaaaaaaaaaaaaaaaaaaaaaaaaaaaaaaaaaaaaaaaaaaaaaaaaaaaaaaaaaaaaaaaaaaaaaaaaaaaaaaaaaaaaaaaaaaaaaaaaaaaaaaaaaaaaaaaaaaaaaaaaaaaaaaaaaaaaaaaaaaaaaaaaaaaaaaaaaaaaaaaaaaaaaaaaaaaaaaaaaaaaaaaaaaaaaaaaaaaaaaaaaaaaaa",
"aaaaaaaaaaaaaaaaaaaaaaaaaaaaaaaaaaaaaaaaaaaaaaaaaaaaaaaaaaaaaaaaaaaaaaaaaaaaaaaaaaaaaaaaaaaaaaaaaaaaaaaaaaaaaaaaaaaaaaaaaaaaaaaaaaaaaaaaaaaaaaaaaaaaaaaaaaaaaaaaaaaaaaaaaaaaaaaaaaaaaaaaaaaaaaaaaaaaaaaaaaaaaaaaaaaaaaaaaaaaaaaaaaaaaaaaaaaaaaaaaaaaaaaaaaaaaaaaaaaaaaaaaaaaaaaaaaaaaaaaaaaaaaaaaaaaaaaaaaaaaaaaaaaaaaaaaaaaaaaaaaaaaaaaaaaaaaaaaaaaaaaaaaaaaaaaaaaaaaaaaaaaaaaaaaaaaaaaaaaaaaaaaaaaaaaaaaaaaaaaaaaaaaaaaaaaaaaaaaaaaaaaaaaaaaaaaaaaaaaaaaaaaaaaaaaaaaaaaaaaaaaaaaaaaaaaaaaaaaaaaaaaaaaaaaaaaaaaaaaaaaaaaaaaaaaaaaaaaaaaaaaaaaaaaaaaaaaaaaaaaaaaaaaaaaaaaaaaaaaaaaaaaaaaaaaaaaaaaaaaaaaaaaaaaaaaaaaaaaaaaaaaaaaaaaaaaaaaaaaaaaaaaaaaaaaaaaaaaaaaaaaaaaaaaaaaaaaaaaaaaaaaaaaaaaaaaaaaaaaaaaaaaaaaaaaaaaaaaaaaaaaaaaaaaaaaaaaaaaaaaaaaaaaaaaaaaaaaaaaaaaaaaaaaaaaaaaaaaaaaaaaaaaaaaaaaaaaaaaaaaaaaaaaaaaaaaaaaaaaa",
"aaaaaaaaaaaaaaaaaaaaaaaaaaaaaaaaaaaaaaaaaaaaaaaaaaaaaaaaaaaaaaaaaaaaaaaaaaaaaaaaaaaaaaaaaaaaaaaaaaaaaaaaaaaaaaaaaaaaaaaaaaaaaaaaaaaaaaaaaaaaaaaaaaaaaaaaaaaaaaaaaaaaaaaaaaaaaaaaaaaaaaaaaaaaaaaaaaaaaaaaaaaaaaaaaaaaaaaaaaaaaaaaaaaaaaaaaaaaaaaaaaaaaaaaaaaaaaaaaaaaaaaaaaaaaaaaaaaaaaaaaaaaaaaaaaaaaaaaaaaaaaaaaaaaaaaaaaaaaaaaaaaaaaaaaaaaaaaaaaaaaaaaaaaaaaaaaaaaaaaaaaaaaaaaaaaaaaaaaaaaaaaaaaaaaaaaaaaaaaaaaaaaaaaaaaaaaaaaaaaaaaaaaaaaaaaaaaaaaaaaaaaaaaaaaaaaaaaaaaaaaaaaaaaaaaaaaaaaaaaaaaaaaaaaaaaaaaaaaaaaaaaaaaaaaaaaaaaaaaaaaaaaaaaaaaaaaaaaaaaaaaaaaaaaaaaaaaaaaaaaaaaaaaaaaaaaaaaaaaaaaaaaaaaaaaaaaaaaaaaaaaaaaaaaaaaaaaaaaaaaaaaaaaaaaaaaaaaaaaaaaaaaaaaaaaaaaaaaaaaaaaaaaaaaaaaaaaaaaaaaaaaaaaaaaaaaaaaaaaaaaaaaaaaaaaaaaaaaaaaaaaaaaaaaaaaaaaaaaaaaaaaaaaaaaaaaaaaaaaaaaaaaaaaaaaaaaaaaaaaaaaaaaaaaaaaaaaaaaaaa",
"aaaaaaaaaaaaaaaaaaaaaaaaaaaaaaaaaaaaaaaaaaaaaaaaaaaaaaaaaaaaaaaaaaaaaaaaaaaaaaaaaaaaaaaaaaaaaaaaaaaaaaaaaaaaaaaaaaaaaaaaaaaaaaaaaaaaaaaaaaaaaaaaaaaaaaaaaaaaaaaaaaaaaaaaaaaaaaaaaaaaaaaaaaaaaaaaaaaaaaaaaaaaaaaaaaaaaaaaaaaaaaaaaaaaaaaaaaaaaaaaaaaaaaaaaaaaaaaaaaaaaaaaaaaaaaaaaaaaaaaaaaaaaaaaaaaaaaaaaaaaaaaaaaaaaaaaaaaaaaaaaaaaaaaaaaaaaaaaaaaaaaaaaaaaaaaaaaaaaaaaaaaaaaaaaaaaaaaaaaaaaaaaaaaaaaaaaaaaaaaaaaaaaaaaaaaaaaaaaaaaaaaaaaaaaaaaaaaaaaaaaaaaaaaaaaaaaaaaaaaaaaaaaaaaaaaaaaaaaaaaaaaaaaaaaaaaaaaaaaaaaaaaaaaaaaaaaaaaaaaaaaaaaaaaaaaaaaaaaaaaaaaaaaaaaaaaaaaaaaaaaaaaaaaaaaaaaaaaaaaaaaaaaaaaaaaaaaaaaaaaaaaaaaaaaaaaaaaaaaaaaaaaaaaaaaaaaaaaaaaaaaaaaaaaaaaaaaaaaaaaaaaaaaaaaaaaaaaaaaaaaaaaaaaaaaaaaaaaaaaaaaaaaaaaaaaaaaaaaaaaaaaaaaaaaaaaaaaaaaaaaaaaaaaaaaaaaaaaaaaaaaaaaaaaaaaaaaaaaaaaaaaaaaaaaaaaaaaaaaaa",
"aaaaaaaaaaaaaaaaaaaaaaaaaaaaaaaaaaaaaaaaaaaaaaaaaaaaaaaaaaaaaaaaaaaaaaaaaaaaaaaaaaaaaaaaaaaaaaaaaaaaaaaaaaaaaaaaaaaaaaaaaaaaaaaaaaaaaaaaaaaaaaaaaaaaaaaaaaaaaaaaaaaaaaaaaaaaaaaaaaaaaaaaaaaaaaaaaaaaaaaaaaaaaaaaaaaaaaaaaaaaaaaaaaaaaaaaaaaaaaaaaaaaaaaaaaaaaaaaaaaaaaaaaaaaaaaaaaaaaaaaaaaaaaaaaaaaaaaaaaaaaaaaaaaaaaaaaaaaaaaaaaaaaaaaaaaaaaaaaaaaaaaaaaaaaaaaaaaaaaaaaaaaaaaaaaaaaaaaaaaaaaaaaaaaaaaaaaaaaaaaaaaaaaaaaaaaaaaaaaaaaaaaaaaaaaaaaaaaaaaaaaaaaaaaaaaaaaaaaaaaaaaaaaaaaaaaaaaaaaaaaaaaaaaaaaaaaaaaaaaaaaaaaaaaaaaaaaaaaaaaaaaaaaaaaaaaaaaaaaaaaaaaaaaaaaaaaaaaaaaaaaaaaaaaaaaaaaaaaaaaaaaaaaaaaaaaaaaaaaaaaaaaaaaaaaaaaaaaaaaaaaaaaaaaaaaaaaaaaaaaaaaaaaaaaaaaaaaaaaaaaaaaaaaaaaaaaaaaaaaaaaaaaaaaaaaaaaaaaaaaaaaaaaaaaaaaaaaaaaaaaaaaaaaaaaaaaaaaaaaaaaaaaaaaaaaaaaaaaaaaaaaaaaaaaaaaaaaaaaaaaaaaaaaaaaaaaaaaaaaa",
"aaaaaaaaaaaaaaaaaaaaaaaaaaaaaaaaaaaaaaaaaaaaaaaaaaaaaaaaaaaaaaaaaaaaaaaaaaaaaaaaaaaaaaaaaaaaaaaaaaaaaaaaaaaaaaaaaaaaaaaaaaaaaaaaaaaaaaaaaaaaaaaaaaaaaaaaaaaaaaaaaaaaaaaaaaaaaaaaaaaaaaaaaaaaaaaaaaaaaaaaaaaaaaaaaaaaaaaaaaaaaaaaaaaaaaaaaaaaaaaaaaaaaaaaaaaaaaaaaaaaaaaaaaaaaaaaaaaaaaaaaaaaaaaaaaaaaaaaaaaaaaaaaaaaaaaaaaaaaaaaaaaaaaaaaaaaaaaaaaaaaaaaaaaaaaaaaaaaaaaaaaaaaaaaaaaaaaaaaaaaaaaaaaaaaaaaaaaaaaaaaaaaaaaaaaaaaaaaaaaaaaaaaaaaaaaaaaaaaaaaaaaaaaaaaaaaaaaaaaaaaaaaaaaaaaaaaaaaaaaaaaaaaaaaaaaaaaaaaaaaaaaaaaaaaaaaaaaaaaaaaaaaaaaaaaaaaaaaaaaaaaaaaaaaaaaaaaaaaaaaaaaaaaaaaaaaaaaaaaaaaaaaaaaaaaaaaaaaaaaaaaaaaaaaaaaaaaaaaaaaaaaaaaaaaaaaaaaaaaaaaaaaaaaaaaaaaaaaaaaaaaaaaaaaaaaaaaaaaaaaaaaaaaaaaaaaaaaaaaaaaaaaaaaaaaaaaaaaaaaaaaaaaaaaaaaaaaaaaaaaaaaaaaaaaaaaaaaaaaaaaaaaaaaaaaaaaaaaaaaaaaaaaaaaaaaaaaaaaaaa",
"aaaaaaaaaaaaaaaaaaaaaaaaaaaaaaaaaaaaaaaaaaaaaaaaaaaaaaaaaaaaaaaaaaaaaaaaaaaaaaaaaaaaaaaaaaaaaaaaaaaaaaaaaaaaaaaaaaaaaaaaaaaaaaaaaaaaaaaaaaaaaaaaaaaaaaaaaaaaaaaaaaaaaaaaaaaaaaaaaaaaaaaaaaaaaaaaaaaaaaaaaaaaaaaaaaaaaaaaaaaaaaaaaaaaaaaaaaaaaaaaaaaaaaaaaaaaaaaaaaaaaaaaaaaaaaaaaaaaaaaaaaaaaaaaaaaaaaaaaaaaaaaaaaaaaaaaaaaaaaaaaaaaaaaaaaaaaaaaaaaaaaaaaaaaaaaaaaaaaaaaaaaaaaaaaaaaaaaaaaaaaaaaaaaaaaaaaaaaaaaaaaaaaaaaaaaaaaaaaaaaaaaaaaaaaaaaaaaaaaaaaaaaaaaaaaaaaaaaaaaaaaaaaaaaa$a$aaaaaaaaaaaaaaaaaaaaaaaaaaaaaaaaaaaaaaaaaaaaaaaaaaaaaaaaaaaaaaaaaaaaaaaaaaaaaaaaaaaaaaaaaaaaaaaaaaaaaaaaaaaaaaaaaaaaaaaaaaaaaaaaaaaaaaaaaaaaaaaaaaaaaaaaaaaaaaaaaaaaaaaaaaaaaaaaaaaaaaaaaaaaaaaaaaaaaaaaaaaaaaaaaaaaaaaaaaaaaaaaaaaaaaaaaaaaaaaaaaaaaaaaaaaaaaaaaaaaaaaaaaaaaaaaaaaaaaaaaaaaaaaaaaaaaaaaaaaaaaaaaaaaaaaaaaaaaaaaaaaaaaaa",
"aaaaaaaaaaaaaaaaaaaaaaaaaaaaaaaaaaaaaaaaaaaaaaaaaaaaaaaaaaaaaaaaaaaaaaaaaaaaaaaaaaaaaaaaaaaaaaaaaaaaaaaaaaaaaaaaaaaaaaaaaaaaaaaaaaaaaaaaaaaaaaaaaaaaaaaaaaaaaaaaaaaaaaaaaaaaaaaaaaaaaaaaaaaaaaaaaaaaaaaaaaaaaaaaaaaaaaaaaaaaaaaaaaaaaaaaaaaaaaaaaaaaaaaaaaaaaaaaaaaaaaaaaaaaaaaaaaaaaaaaaaaaaaaaaaaaaaaaaaaaaaaaaaaaaaaaaaaaaaaaaaaaaaaaaaaaaaaaaaaaaaaaaaaaaaaaaaaaaaaaaaaaaaaaaaaaaaaaaaaaaaaaaaaaaaaaaaaaaaaaaaaaaaaaaaaaaaaaaaaaaaaaaaaaaaaaaaaaaaaaaaaaaaaaaaaaaaaaaaaaaaaaaaaaa$a$aaaaaaaaaaaaaaaaaaaaaaaaaaaaaaaaaaaaaaaaaaaaaaaaaaaaaaaaaaaaaaaaaaaaaaaaaaaaaaaaaaaaaaaaaaaaaaaaaaaaaaaaaaaaaaaaaaaaaaaaaaaaaaaaaaaaaaaaaaaaaaaaaaaaaaaaaaaaaaaaaaaaaaaaaaaaaaaaaaaaaaaaaaaaaaaaaaaaaaaaaaaaaaaaaaaaaaaaaaaaaaaaaaaaaaaaaaaaaaaaaaaaaaaaaaaaaaaaaaaaaaaaaaaaaaaaaaaaaaaaaaaaaaaaaaaaaaaaaaaaaaaaaaaaaaaaaaaaaaaaaaaaaaaa",
"aaaaaaaaaaaaaaaaaaaaaaaaaaaaaaaaaaaaaaaaaaaaaaaaaaaaaaaaaaaaaaaaaaaaaaaaaaaaaaaaaaaaaaaaaaaaaaaaaaaaaaaaaaaaaaaaaaaaaaaaaaaaaaaaaaaaaaaaaaaaaaaaaaaaaaaaaaaaaaaaaaaaaaaaaaaaaaaaaaaaaaaaaaaaaaaaaaaaaaaaaaaaaaaaaaaaaaaaaaaaaaaaaaaaaaaaaaaaaaaaaaaaaaaaaaaaaaaaaaaaaaaaaaaaaaaaaaaaaaaaaaaaaaaaaaaaaaaaaaaaaaaaaaaaaaaaaaaaaaaaaaaaaaaaaaaaaaaaaaaaaaaaaaaaaaaaaaaaaaaaaaaaaaaaaaaaaaaaaaaaaaaaaaaaaaaaaaaaaaaaaaaaaaaaaaaaaaaaaaaaaaaaaaaaaaaaaaaaaaaaaaaaaaaaaaaaaaaaaaaaaaaaaaaaaaaaaaaaaaaaaaaaaaaaaaaaaaaaaaaaaaaaaaaaaaaaaaaaaaaaaaaaaaaaaaaaaaaaaaaaaaaaaaaaaaaaaaaaaaaaaaaaaaaaaaaaaaaaaaaaaaaaaaaaaaaaaaaaaaaaaaaaaaaaaaaaaaaaaaaaaaaaaaaaaaaaaaaaaaaaaaaaaaaaaaaaaaaaaaaaaaaaaaaaaaaaaaaaaaaaaaaaaaaaaaaaaaaaaaaaaaaaaaaaaaaaaaaaaaaaaaaaaaaaaaaaaaaaaaaaaaaaaaaaaaaaaaaaaaaaaaaaaaaaaaaaaaaaaaaaaaaaaaaaaaaaaaaaaaaa",
"aaaaaaaaaaaaaaaaaaaaaaaaaaaaaaaaaaaaaaaaaaaaaaaaaaaaaaaaaaaaaaaaaaaaaaaaaaaaaaaaaaaaaaaaaaaaaaaaaaaaaaaaaaaaaaaaaaaaaaaaaaaaaaaaaaaaaaaaaaaaaaaaaaaaaaaaaaaaaaaaaaaaaaaaaaaaaaaaaaaaaaaaaaaaaaaaaaaaaaaaaaaaaaaaaaaaaaaaaaaaaaaaaaaaaaaaaaaaaaaaaaaaaaaaaaaaaaaaaaaaaaaaaaaaaaaaaaaaaaaaaaaaaaaaaaaaaaaaaaaaaaaaaaaaaaaaaaaaaaaaaaaaaaaaaaaaaaaaaaaaaaaaaaaaaaaaaaaaaaaaaaaaaaaaaaaaaaaaaaaaaaaaaaaaaaaaaaaaaaaaaaaaaaaaaaaaaaaaaaaaaaaaaaaaaaaaaaaaaaaaaaaaaaaaaaaaaaaaaaaaaaaaaaaaaaaaaaaaaaaaaaaaaaaaaaaaaaaaaaaaaaaaaaaaaaaaaaaaaaaaaaaaaaaaaaaaaaaaaaaaaaaaaaaaaaaaaaaaaaaaaaaaaaaaaaaaaaaaaaaaaaaaaaaaaaaaaaaaaaaaaaaaaaaaaaaaaaaaaaaaaaaaaaaaaaaaaaaaaaaaaaaaaaaaaaaaaaaaaaaaaaaaaaaaaaaaaaaaaaaaaaaaaaaaaaaaaaaaaaaaaaaaaaaaaaaaaaaaaaaaaaaaaaaaaaaaaaaaaaaaaaaaaaaaaaaaaaaaaaaaaaaaaaaaaaaaaaaaaaaaaaaaaaaaaaaaaaaaaaaa",
"aaaaaaaaaaaaaaaaaaaaaaaaaaaaaaaaaaaaaaaaaaaaaaaaaaaaaaaaaaaaaaaaaaaaaaaaaaaaaaaaaaaaaaaaaaaaaOaObybybybybybybybybybybybybybybybybybybybybybyauaubybyazazaaaaaaaaaaaaavavbybyauaubybybybybybyalalaaaaaaaaaaaaaaaaaaaaaaaaaaaaaaaaaaaaaHaHbybybybyadadbybybybybybybhbhaaaaaaaaaaaabybybybybybybybybybyavavaaaabybybybybybybybybybybybybybybybybybybybybybybybybybybybybybybybyajajaaaaaaaaaaaaaaaaaaaaaaaaaaaaaaaabybybybybybybybybybybybyaHaHaaaaaaaaaaaaaaaaaaaaaaaaauaubybybybybybybybybybybybyaiaiauauadadbybybybybybybybybybybybybybybybybybybybybybybybyaHaHbybybybybybybybybybyadadaaaaaaaaaaaaaeaebybybybybybybybybybyazazaaaaaaaaaaaaavavadadbybybybybybybybybybybybybybybybybybybybyayayaaaaaaaaauaubybybybybybybybyadadaOaOaaaaaaaaaaaaaaaaaaaaaaaaaaaaaaaaaaaaaaaaaaaaaaaaaaaaaaaaaaaaaaaaaaaaaaaaaaaaaaaaaaaaaaaaaaaa",
"aaaaaaaaaaaaaaaaaaaaaaaaaaaaaaaaaaaaaaaaaaaaaaaaaaaaaaaaaaaaaaaaaaaaaaaaaaaaaaaaaaaaaaaaaaaaaOaObybybybybybybybybybybybybybybybybybybybybybyauaubybyazazaaaaaaaaaaaaavavbybyauaubybybybybybyalalaaaaaaaaaaaaaaaaaaaaaaaaaaaaaaaaaaaaaHaHbybybybyadadbybybybybybybhbhaaaaaaaaaaaabybybybybybybybybybyavavaaaabybybybybybybybybybybybybybybybybybybybybybybybybybybybybybybybyajajaaaaaaaaaaaaaaaaaaaaaaaaaaaaaaaabybybybybybybybybybybybyaHaHaaaaaaaaaaaaaaaaaaaaaaaaauaubybybybybybybybybybybybyaiaiauauadadbybybybybybybybybybybybybybybybybybybybybybybybyaHaHbybybybybybybybybybyadadaaaaaaaaaaaaaeaebybybybybybybybybybyazazaaaaaaaaaaaaavavadadbybybybybybybybybybybybybybybybybybybybyayayaaaaaaaaauaubybybybybybybybyadadaOaOaaaaaaaaaaaaaaaaaaaaaaaaaaaaaaaaaaaaaaaaaaaaaaaaaaaaaaaaaaaaaaaaaaaaaaaaaaaaaaaaaaaaaaaaaaaa",
"aaaaaaaaaaaaaaaaaaaaaaaaaaaaaaaaaaaaaaaaaaaaaaaaaaaaaaaaaaaaaaaaaaaaaaaaaaaaaaaaaaaaaaaaaaaaayayalalafafajajakakajajajajajajajajakakajajajajajajaOaObLbLakakaaaaaaaabybyavavafafajajafafavavbybyaaaaaaaaaaaaaaaaaaaaaaaaaaaaaaaaaaaaafafbybyananakakakakananbHbHaHaHaaaaaaaaapapbybyananakakaiaiauauauauaaaabHbHaiaiajajajajajajajajajajajajajajajajajajajajajajajajaPaPauauaeaeaaaaaaaaaaaaaaaaaaaaaaaaaaaaaaaabHbHaiaiakakakakaiaibybyavavaaaaaaaaaaaaaaaaaaaaaaaabHbHavavajajajajakakaqaqbybyavavadadaPaPajajafafafafajajajajajajajajajajafafajajaiaiadadavavbybyaiaiakakajajajajbybybLbLapapaaaabybyavavafafajajaPaPalalbybyaaaaaaaaazazbLbLazazajajajajajajajajajajajajajajajajajajananbjbjbhbhaaaabybyavavajajakakaPaPalalauauaaaaaaaaaaaaaaaaaaaaaaaaaaaaaaaaaaaaaaaaaaaaaaaaaaaaaaaaaaaaaaaaaaaaaaaaaaaaaaaaaaaaaaaaaaaa",
"aaaaaaaaaaaaaaaaaaaaaaaaaaaaaaaaaaaaaaaaaaaaaaaaaaaaaaaaaaaaaaaaaaaaaaaaaaaaaaaaaaaaaaaaaaaaayayalalafafajajakakajajajajajajajajakakajajajajajajaOaObLbLakakaaaaaaaabybyavavafafajajafafavavbybyaaaaaaaaaaaaaaaaaaaaaaaaaaaaaaaaaaaaafafbybyananakakakakananbHbHaHaHaaaaaaaaapapbybyananakakaiaiauauauauaaaabHbHaiaiajajajajajajajajajajajajajajajajajajajajajajajajaPaPauauaeaeaaaaaaaaaaaaaaaaaaaaaaaaaaaaaaaabHbHaiaiakakakakaiaibybyavavaaaaaaaaaaaaaaaaaaaaaaaabHbHavavajajajajakakaqaqbybyavavadadaPaPajajafafafafajajajajajajajajajajafafajajaiaiadadavavbybyaiaiakakajajajajbybybLbLapapaaaabybyavavafafajajaPaPalalbybyaaaaaaaaazazbLbLazazajajajajajajajajajajajajajajajajajajananbjbjbhbhaaaabybyavavajajakakaPaPalalauauaaaaaaaaaaaaaaaaaaaaaaaaaaaaaaaaaaaaaaaaaaaaaaaaaaaaaaaaaaaaaaaaaaaaaaaaaaaaaaaaaaaaaaaaaaaa",
"aaaaaaaaaaaaaaaaaaaaaaaaaaaaaaaaaaaaaaaaaaaaaaaaaaaaaaaaaaaaaaaaaaaaaaaaaaaaaaaaaaaaaaaaaaaaauauajajblblawawaEaEaEaEaEaEbBbBbBbBbBbBbBbBaEaEawawbkbkazazaGaGavavaaaabybyajajaEaEawawaEaEajajbybyaaaaaaaaaaaaaaaaaaaaaaaaaaaaaaaaaaaaajajaXaXa7a7bibiawawaYaYauauaHaHaaaaaaaaaqaqbybyakakaxaxbkbkavavaeaeaaaabybyajajawawaEaEaEaEbBbBbBbBbBbBaEaEaEaEaEaEbBbBbBbBbBbBbkbkaOaOaeaeaaaaaaaaaaaaaaaaaaaaaaaaaaaaaaaabybyakakawawbBbBaXaXaeaeakakaaaaaaaaaaaaaaaaaaaaaaaabybyajajawawawawboboaaaabybyavavaNaNakakaJaJawawaxaxawawaEaEawawbBbBaxaxaxaxaJaJaXaXaXaXaOaOauauaYaYawawaEaEaxaxa7a7auaubLbLaqaqbybyajajbBbBawawbnbnajajauauaaaaalalbMbMasasbkbkaEaEbBbBbobobobobBbBaEaEaEaEaEaEaxaxajajbybyapapaaaabybyafafaEaEawawblblajajbybyaaaaaaaaaaaaaaaaaaaaaaaaaaaaaaaaaaaaaaaaaaaaaaaaaaaaaaaaaaaaaaaaaaaaaaaaaaaaaaaaaaaaaaaaaaaa",
"aaaaaaaaaaaaaaaaaaaaaaaaaaaaaaaaaaaaaaaaaaaaaaaaaaaaaaaaaaaaaaaaaaaaaaaaaaaaaaaaaaaaaaaaaaaaauauajajblblawawaEaEaEaEaEaEbBbBbBbBbBbBbBbBaEaEawawbkbkazazaGaGavavaaaabybyajajaEaEawawaEaEajajbybyaaaaaaaaaaaaaaaaaaaaaaaaaaaaaaaaaaaaajajaXaXa7a7bibiawawaYaYauauaHaHaaaaaaaaaqaqbybyakakaxaxbkbkavavaeaeaaaabybyajajawawaEaEaEaEbBbBbBbBbBbBaEaEaEaEaEaEbBbBbBbBbBbBbkbkaOaOaeaeaaaaaaaaaaaaaaaaaaaaaaaaaaaaaaaabybyakakawawbBbBaXaXaeaeakakaaaaaaaaaaaaaaaaaaaaaaaabybyajajawawawawboboaaaabybyavavaNaNakakaJaJawawaxaxawawaEaEawawbBbBaxaxaxaxaJaJaXaXaXaXaOaOauauaYaYawawaEaEaxaxa7a7auaubLbLaqaqbybyajajbBbBawawbnbnajajauauaaaaalalbMbMasasbkbkaEaEbBbBbobobobobBbBaEaEaEaEaEaEaxaxajajbybyapapaaaabybyafafaEaEawawblblajajbybyaaaaaaaaaaaaaaaaaaaaaaaaaaaaaaaaaaaaaaaaaaaaaaaaaaaaaaaaaaaaaaaaaaaaaaaaaaaaaaaaaaaaaaaaaaaa",
"aaaaaaaaaaaaaaaaaaaaaaaaaaaaaaaaaaaaaaaaaaaaaaaaaaaaaaaaaaaaaaaaaaaaaaaaaaaaaaaaaaaaaaaaaaaaauauakakboboawawawawawawawawawawawawawawawawawawaEaEbibia7a7aiaibLbLaaaabybyakakaEaEbpbpaEaEakakbybyaaaaaaaaaaaaaaaaaaaaaaaaaaaaaaaaaaaaajajauaua7a7bibiawawa7a7bybyaHaHaaaaaaaaaHaHbybya7a7bCbCblblavavaeaeaaaabybyakakawawbpbpawawawawawawawawawawawawawawawawawawaxaxbkbkalalaeaeaaaaaaaaaaaaaaaaaaaaaaaaaaaaaaaabybyaLaLawawawawa7a7auauakakaaaaaaaaaaaaaaaaaaaaaaaabybyaLaLaEaEawawbBbBbhbhbHbHavavbybybhbhazazakakaLaLbkbkawawawawblblaYaYakakalala#a#aNaNaOaOauaua7a7awawaEaEaEaEaxaxaaaabybyaNaNauauakakawawbpbpboboakakauauaaaabLbLaYaYbkbkbibiawawawawawawawawawawawawawawawawaxaxaYaYbybyapapaaaabybyajajaEaEbpbpboboakakauauaaaaaaaaaaaaaaaaaaaaaaaaaaaaaaaaaaaaaaaaaaaaaaaaaaaaaaaaaaaaaaaaaaaaaaaaaaaaaaaaaaaaaaaaaaaa",
"aaaaaaaaaaaaaaaaaaaaaaaaaaaaaaaaaaaaaaaaaaaaaaaaaaaaaaaaaaaaaaaaaaaaaaaaaaaaaaaaaaaaaaaaaaaaauauakakboboawawawawawawawawawawawawawawawawawawaEaEbibia7a7aiaibLbLaaaabybyakakaEaEbpbpaEaEakakbybyaaaaaaaaaaaaaaaaaaaaaaaaaaaaaaaaaaaaajajauaua7a7bibiawawa7a7bybyaHaHaaaaaaaaaHaHbybya7a7bCbCblblavavaeaeaaaabybyakakawawbpbpawawawawawawawawawawawawawawawawawawaxaxbkbkalalaeaeaaaaaaaaaaaaaaaaaaaaaaaaaaaaaaaabybyaLaLawawawawa7a7auauakakaaaaaaaaaaaaaaaaaaaaaaaabybyaLaLaEaEawawbBbBbhbhbHbHavavbybybhbhazazakakaLaLbkbkawawawawblblaYaYakakalala#a#aNaNaOaOauaua7a7awawaEaEaEaEaxaxaaaabybyaNaNauauakakawawbpbpboboakakauauaaaabLbLaYaYbkbkbibiawawawawawawawawawawawawawawawawaxaxaYaYbybyapapaaaabybyajajaEaEbpbpboboakakauauaaaaaaaaaaaaaaaaaaaaaaaaaaaaaaaaaaaaaaaaaaaaaaaaaaaaaaaaaaaaaaaaaaaaaaaaaaaaaaaaaaaaaaaaaaaa",
"aaaaaaaaaaaaaaaaaaaaaaaaaaaaaaaaaaaaaaaaaaaaaaaaaaaaaaaaaaaaaaaaaaaaaaaaaaaaaaaaaaaaaaaaaaaaauauajajboboawawawawaLaLafafajajajajajajajajaMaMboboawawbBbBananbybyaaaaauauajajaEaEawawaEaEakakbybyaaaaaaaaaaaaaaaaaaaaaaaaaaaaaaaaaaaaajajauaua7a7awawawawa7a7bybyaHaHaaaaaaaaaHaHbybya7a7bCbCbkbkavavaeaeaaaabybyakakawawbpbpblblaiaiafafafafajajaLaLaLaLajajajajajajaHaHaeaeaeaeaaaaaaaaaaaaaaaaaaaaaaaaaaaaaaaabybyaLaLawawbibiaXaXauauakakaaaaaaaaaaaaaaaaaaaaaaaabybyaLaLawawawawbzbzbhbhbHbHavavauaubybybybybybyaeaeaLaLawawawawa8a8ajajbIbIbybybybybKbKavavauaua7a7awawaEaEaEaEawawbkbkaaaaaeaebLbLaiaiaEaEbpbpboboakakauauaaaabybyajajaxaxbibiblblaHaHafafajajaLaLafafafafajajajajapapadadapapaaaabybyajajaEaEawawboboakakauauaaaaaaaaaaaaaaaaaaaaaaaaaaaaaaaaaaaaaaaaaaaaaaaaaaaaaaaaaaaaaaaaaaaaaaaaaaaaaaaaaaaaaaaaaaaa",
"aaaaaaaaaaaaaaaaaaaaaaaaaaaaaaaaaaaaaaaaaaaaaaaaaaaaaaaaaaaaaaaaaaaaaaaaaaaaaaaaaaaaaaaaaaaaauauajajboboawawawawaLaLafafajajajajajajajajaMaMboboawawbBbBananbybyaaaaauauajajaEaEawawaEaEakakbybyaaaaaaaaaaaaaaaaaaaaaaaaaaaaaaaaaaaaajajauaua7a7awawawawa7a7bybyaHaHaaaaaaaaaHaHbybya7a7bCbCbkbkavavaeaeaaaabybyakakawawbpbpblblaiaiafafafafajajaLaLaLaLajajajajajajaHaHaeaeaeaeaaaaaaaaaaaaaaaaaaaaaaaaaaaaaaaabybyaLaLawawbibiaXaXauauakakaaaaaaaaaaaaaaaaaaaaaaaabybyaLaLawawawawbzbzbhbhbHbHavavauaubybybybybybyaeaeaLaLawawawawa8a8ajajbIbIbybybybybKbKavavauaua7a7awawaEaEaEaEawawbkbkaaaaaeaebLbLaiaiaEaEbpbpboboakakauauaaaabybyajajaxaxbibiblblaHaHafafajajaLaLafafafafajajajajapapadadapapaaaabybyajajaEaEawawboboakakauauaaaaaaaaaaaaaaaaaaaaaaaaaaaaaaaaaaaaaaaaaaaaaaaaaaaaaaaaaaaaaaaaaaaaaaaaaaaaaaaaaaaaaaaaaaaa",
"aaaaaaaaaaaaaaaaaaaaaaaaaaaaaaaaaaaaaaaaaaaaaaaaaaaaaaaaaaaaaaaaaaaaaaaaaaaaaaaaaaaaaaaaaaaaauauajajblblawawaEaEananbIbIbybybybyauaubKbKajajbkbkawawawawajajbybyaaaaauauakakaEaEawawaEaEajajbybyaaaaaaaaaaaaaaaaaaaaaaaaaaaaaaaaaaaaajajauaua7a7awawbibia7a7bybyaHaHaaaaaaaaaHaHbybya7a7bCbCbkbkaOaOaeaeaaaabybyakakawawbpbpa8a8avavbKbKbHbHbHbHbHbHbHbHbybybHbHbHbHbybybLbLavavaaaaaaaaaaaaaaaaaaaaaaaaaaaaaaaabybyaLaLawawawawaNaNauauavavaaaaaaaaaaaaaaaaaaaaaaaabybyajajawawawawaEaEaaaabHbHavavafafauauavavauaubybyakakbibibibibkbkauaubybyavavavavavavaPaPauaua7a7bCbCaEaEawawboboawawblblakakbLbLafafaEaEbpbpboboakakayayaaaabybyajajbibiawawbkbkafafbLbLbHbHbHbHbHbHbHbHbybybybybHbHbHbHaaaaaaaabybyajajbBbBbpbpboboakakauauaaaaaaaaaaaaaaaaaaaaaaaaaaaaaaaaaaaaaaaaaaaaaaaaaaaaaaaaaaaaaaaaaaaaaaaaaaaaaaaaaaaaaaaaaaaa",
"aaaaaaaaaaaaaaaaaaaaaaaaaaaaaaaaaaaaaaaaaaaaaaaaaaaaaaaaaaaaaaaaaaaaaaaaaaaaaaaaaaaaaaaaaaaaauauajajblblawawaEaEananbIbIbybybybyauaubKbKajajbkbkawawawawajajbybyaaaaauauakakaEaEawawaEaEajajbybyaaaaaaaaaaaaaaaaaaaaaaaaaaaaaaaaaaaaajajauaua7a7awawbibia7a7bybyaHaHaaaaaaaaaHaHbybya7a7bCbCbkbkaOaOaeaeaaaabybyakakawawbpbpa8a8avavbKbKbHbHbHbHbHbHbHbHbybybHbHbHbHbybybLbLavavaaaaaaaaaaaaaaaaaaaaaaaaaaaaaaaabybyaLaLawawawawaNaNauauavavaaaaaaaaaaaaaaaaaaaaaaaabybyajajawawawawaEaEaaaabHbHavavafafauauavavauaubybyakakbibibibibkbkauaubybyavavavavavavaPaPauaua7a7bCbCaEaEawawboboawawblblakakbLbLafafaEaEbpbpboboakakayayaaaabybyajajbibiawawbkbkafafbLbLbHbHbHbHbHbHbHbHbybybybybHbHbHbHaaaaaaaabybyajajbBbBbpbpboboakakauauaaaaaaaaaaaaaaaaaaaaaaaaaaaaaaaaaaaaaaaaaaaaaaaaaaaaaaaaaaaaaaaaaaaaaaaaaaaaaaaaaaaaaaaaaaaa",
"aaaaaaaaaaaaaaaaaaaaaaaaaaaaaaaaaaaaaaaaaaaaaaaaaaaaaaaaaaaaaaaaaaaaaaaaaaaaaaaaaaaaaaaaaaaaauauakakbobobpbpawawafafbLbLbububxbxbububHbHaOaObkbkawawaxaxakakbybyaaaabybyakakboboawawaEaEakakbybyaaaaaaaaaaaaaaaaaaaaaaaaaaaaaaaaaaaaajajauaua7a7awawbibia7a7bybyaHaHaaaaaaaaaHaHbybya7a7bCbCbkbkaOaOaeaeaaaabybyakakawawawawa8a8auauauaubgbgbgbgbgbgavavbgbgbgbgbgbgavavavavaHaHaaaaaaaaaaaaaaaaaaaaaaaaaaaaaaaabybyakakawawawawaXaXauauakakaaaaaaaaaaaaaaaaaaaaaaaabybyajajawawawawbobobhbhbHbHavavaaaaaaaaaaaabhbhbybyakakawawawawbkbkauauavavaaaaaaaaaaaaaHaHbybya7a7awawbpbpawawawawawawbibibkbkaYaYaqaqawawawawblblakakayayaaaabybyajajawawawawbkbkalalauaua6a6a6a6a6a6aWaWbgbgavavavavavavaaaaaaaabybyajajbBbBbpbpboboakakauauaaaaaaaaaaaaaaaaaaaaaaaaaaaaaaaaaaaaaaaaaaaaaaaaaaaaaaaaaaaaaaaaaaaaaaaaaaaaaaaaaaaaaaaaaaaa",
"aaaaaaaaaaaaaaaaaaaaaaaaaaaaaaaaaaaaaaaaaaaaaaaaaaaaaaaaaaaaaaaaaaaaaaaaaaaaaaaaaaaaaaaaaaaaauauakakbobobpbpawawafafbLbLbububxbxbububHbHaOaObkbkawawaxaxakakbybyaaaabybyakakboboawawaEaEakakbybyaaaaaaaaaaaaaaaaaaaaaaaaaaaaaaaaaaaaajajauaua7a7awawbibia7a7bybyaHaHaaaaaaaaaHaHbybya7a7bCbCbkbkaOaOaeaeaaaabybyakakawawawawa8a8auauauaubgbgbgbgbgbgavavbgbgbgbgbgbgavavavavaHaHaaaaaaaaaaaaaaaaaaaaaaaaaaaaaaaabybyakakawawawawaXaXauauakakaaaaaaaaaaaaaaaaaaaaaaaabybyajajawawawawbobobhbhbHbHavavaaaaaaaaaaaabhbhbybyakakawawawawbkbkauauavavaaaaaaaaaaaaaHaHbybya7a7awawbpbpawawawawawawbibibkbkaYaYaqaqawawawawblblakakayayaaaabybyajajawawawawbkbkalalauaua6a6a6a6a6a6aWaWbgbgavavavavavavaaaaaaaabybyajajbBbBbpbpboboakakauauaaaaaaaaaaaaaaaaaaaaaaaaaaaaaaaaaaaaaaaaaaaaaaaaaaaaaaaaaaaaaaaaaaaaaaaaaaaaaaaaaaaaaaaaaaaa",
"aaaaaaaaaaaaaaaaaaaaaaaaaaaaaaaaaaaaaaaaaaaaaaaaaaaaaaaaaaaaaaaaaaaaaaaaaaaaaaaaaaaaaaaaaaaaauauakakblblbpbpawawapapavavavavavavavavavavbhbhblblbibibkbkbhbhadadaaaabybyajajboboawawaEaEakakbybyaaaaaaaaaaaaaaaaaaaaaaaaaaaaaaaaaaaaafafauaua7a7awawawawa7a7bybyaHaHaaaaaaaaaqaqbybya7a7bCbCbkbkaOaOaeaeaaaabybyakakbibiawawa7a7auauaeaeapapaHaHaHaHanana5a5a5a5aqaqaFaFaqaqaaaaaaaaaaaaaaaaaaaaaaaaaaaaaaaaaaaabybyakakbibiawawa7a7auauazazaaaaakakadadbybyaNaNaaaabybyajajaEaEawawbBbBbhbhbHbHavavaaaaaaaaaaaaapapbybyakakawawawawa8a8auauavavaaaaaaaaaaaaaqaqauaua7a7awawawawbkbkajajbBbBaEaEbibibkbkbkbkawawawawboboavavauauaaaabybyakakawawbpbpa8a8aeaeaeaeaaaaaaaaaaaaapapanananana5a5aFaFaaaaaaaabybyajajbBbBawawblblakakauauaaaaaaaaaaaaaaaaaaaaaaaaaaaaaaaaaaaaaaaaaaaaaaaaaaaaaaaaaaaaaaaaaaaaaaaaaaaaaaaaaaaaaaaaaaaa",
"aaaaaaaaaaaaaaaaaaaaaaaaaaaaaaaaaaaaaaaaaaaaaaaaaaaaaaaaaaaaaaaaaaaaaaaaaaaaaaaaaaaaaaaaaaaaauauakakblblbpbpawawapapavavavavavavavavavavbhbhblblbibibkbkbhbhadadaaaabybyajajboboawawaEaEakakbybyaaaaaaaaaaaaaaaaaaaaaaaaaaaaaaaaaaaaafafauaua7a7awawawawa7a7bybyaHaHaaaaaaaaaqaqbybya7a7bCbCbkbkaOaOaeaeaaaabybyakakbibiawawa7a7auauaeaeapapaHaHaHaHanana5a5a5a5aqaqaFaFaqaqaaaaaaaaaaaaaaaaaaaaaaaaaaaaaaaaaaaabybyakakbibiawawa7a7auauazazaaaaakakadadbybyaNaNaaaabybyajajaEaEawawbBbBbhbhbHbHavavaaaaaaaaaaaaapapbybyakakawawawawa8a8auauavavaaaaaaaaaaaaaqaqauaua7a7awawawawbkbkajajbBbBaEaEbibibkbkbkbkawawawawboboavavauauaaaabybyakakawawbpbpa8a8aeaeaeaeaaaaaaaaaaaaapapanananana5a5aFaFaaaaaaaabybyajajbBbBawawblblakakauauaaaaaaaaaaaaaaaaaaaaaaaaaaaaaaaaaaaaaaaaaaaaaaaaaaaaaaaaaaaaaaaaaaaaaaaaaaaaaaaaaaaaaaaaaaaa",
"aaaaaaaaaaaaaaaaaaaaaaaaaaaaaaaaaaaaaaaaaaaaaaaaaaaaaaaaaaaaaaaaaaaaaaaaaaaaaaaaaaaaaaaaaaaaauauakakbobobpbpaEaEblblbkbkbkbkbkbkbkbkbkbkblblawawblblbhbhbybyauauaaaabybyajajbBbBawawbBbBajajayayaaaaaaaaaaaaaaaaaaaaaaaaaaaaaaaaaaaaajajauaua7a7awawawawa7a7bybyaHaHaaaaaaaaaqaqbybya7a7bCbCbkbkaOaOaXaXaaaabybyazazbibibibiaNaNavavbIbIayaybybybybyauaubHbHavavaaaaaaaaaaaaaaaaaaaaaaaaaaaaaaaaaaaaaaaaaaaaaaaabybyaYaYbibiawawa8a8auauajajafafbybyaiaiajajalalauauauauajajaEaEawawbBbBbhbhbHbHavavaaaaaaaaaaaaapapbybyaYaYawawbpbpa8a8auauavavaaaaaaaaaaaaaqaqauaua7a7awawawawbkbkaaaaa@a@aEaEaEaEawawawawawawawawblblavavauauaaaabybyakakbibibpbpbkbkafafbLbLbybybybybybybybybybybybybLbLaiaiaaaaaaaabybyajajaEaEawawblblakakauauaaaaaaaaaaaaaaaaaaaaaaaaaaaaaaaaaaaaaaaaaaaaaaaaaaaaaaaaaaaaaaaaaaaaaaaaaaaaaaaaaaaaaaaaaaaa",
"aaaaaaaaaaaaaaaaaaaaaaaaaaaaaaaaaaaaaaaaaaaaaaaaaaaaaaaaaaaaaaaaaaaaaaaaaaaaaaaaaaaaaaaaaaaaauauakakbobobpbpaEaEblblbkbkbkbkbkbkbkbkbkbkblblawawblblbhbhbybyauauaaaabybyajajbBbBawawbBbBajajayayaaaaaaaaaaaaaaaaaaaaaaaaaaaaaaaaaaaaajajauaua7a7awawawawa7a7bybyaHaHaaaaaaaaaqaqbybya7a7bCbCbkbkaOaOaXaXaaaabybyazazbibibibiaNaNavavbIbIayaybybybybyauaubHbHavavaaaaaaaaaaaaaaaaaaaaaaaaaaaaaaaaaaaaaaaaaaaaaaaabybyaYaYbibiawawa8a8auauajajafafbybyaiaiajajalalauauauauajajaEaEawawbBbBbhbhbHbHavavaaaaaaaaaaaaapapbybyaYaYawawbpbpa8a8auauavavaaaaaaaaaaaaaqaqauaua7a7awawawawbkbkaaaaa@a@aEaEaEaEawawawawawawawawblblavavauauaaaabybyakakbibibpbpbkbkafafbLbLbybybybybybybybybybybybybLbLaiaiaaaaaaaabybyajajaEaEawawblblakakauauaaaaaaaaaaaaaaaaaaaaaaaaaaaaaaaaaaaaaaaaaaaaaaaaaaaaaaaaaaaaaaaaaaaaaaaaaaaaaaaaaaaaaaaaaaaa",
"aaaaaaaaaaaaaaaaaaaaaaaaaaaaaaaaaaaaaaaaaaaaaaaaaaaaaaaaaaaaaaaaaaaaaaaaaaaaaaaaaaaaaaaaaaaaauauakakbobobpbpawawawawbCbCbCbCbCbCbCbCbCbCbibibCbCbkbkajajaGaGavavaaaabybyakakaEaEbibiaEaEajajbybyaaaaaaaaaaaaaaaaaaaaaaaaaaaaaaaaaaaaajajauaua7a7bCbCbCbCa7a7bybyaHaHaaaaaaaaaqaqbybya7a7bCbCblblaOaOaeaeaaaabybyazazbCbCawawblblajajakakaLaLakakakakafafavavauauaaaaaaaaaaaaaaaaaaaaaaaaaaaaaaaaaaaaaaaaaaaaaaaabybyaYaYbibiawawa8a8auauauaubLbLaeaebkbkbBbBakakbLbLbLbLaiaiawawbibiaEaEbhbhbHbHavavaaaaaaaaaaaaapapbybyaYaYbCbCawawbkbkauauavavaaaaaaaaaaaaaHaHauaua7a7bibibCbCa7a7aNaNaeaebkbkawawbpbpbpbpbpbpawawaEaEavavauauaaaabybyaqaqaEaEbpbpboboafafakakajajakakakakakakazazananaOaOaGaGafafaaaabybyajajaEaEawawboboakakauauaaaaaaaaaaaaaaaaaaaaaaaaaaaaaaaaaaaaaaaaaaaaaaaaaaaaaaaaaaaaaaaaaaaaaaaaaaaaaaaaaaaaaaaaaaaa",
"aaaaaaaaaaaaaaaaaaaaaaaaaaaaaaaaaaaaaaaaaaaaaaaaaaaaaaaaaaaaaaaaaaaaaaaaaaaaaaaaaaaaaaaaaaaaauauakakbobobpbpawawawawbCbCbCbCbCbCbCbCbCbCbibibCbCbkbkajajaGaGavavaaaabybyakakaEaEbibiaEaEajajbybyaaaaaaaaaaaaaaaaaaaaaaaaaaaaaaaaaaaaajajauaua7a7bCbCbCbCa7a7bybyaHaHaaaaaaaaaqaqbybya7a7bCbCblblaOaOaeaeaaaabybyazazbCbCawawblblajajakakaLaLakakakakafafavavauauaaaaaaaaaaaaaaaaaaaaaaaaaaaaaaaaaaaaaaaaaaaaaaaabybyaYaYbibiawawa8a8auauauaubLbLaeaebkbkbBbBakakbLbLbLbLaiaiawawbibiaEaEbhbhbHbHavavaaaaaaaaaaaaapapbybyaYaYbCbCawawbkbkauauavavaaaaaaaaaaaaaHaHauaua7a7bibibCbCa7a7aNaNaeaebkbkawawbpbpbpbpbpbpawawaEaEavavauauaaaabybyaqaqaEaEbpbpboboafafakakajajakakakakakakazazananaOaOaGaGafafaaaabybyajajaEaEawawboboakakauauaaaaaaaaaaaaaaaaaaaaaaaaaaaaaaaaaaaaaaaaaaaaaaaaaaaaaaaaaaaaaaaaaaaaaaaaaaaaaaaaaaaaaaaaaaaa",
"aaaaaaaaaaaaaaaaaaaaaaaaaaaaaaaaaaaaaaaaaaaaaaaaaaaaaaaaaaaaaaaaaaaaaaaaaaaaaaaaaaaaaaaaaaaaauauakakbkbkboboblbla7a7a7a7a7a7a7a7a7a7a7a7a7a7blblblblbabaajajbLbLaaaabybyakakblblblblblblajajbybyaaaaaaaaaaaaaaaaaaaaaaaaaaaaaaaaaaaaajajauaua7a7boboaEaEaLaLbybyaHaHaaaaaaaaaqaqbybyaLaLaEaEaKaKaOaOaeaeaaaabybyajajboboa9a9boboaEaEaEaEbpbpboboaEaEbkbkakakauauaaaaaaaaaaaaaaaaaaaaaaaaaaaaaaaaaaaaaaaaaaaaaaaabybyaLaLbobobpbpa7a7alalahahavavaMaMaEaEboboaXaXbhbhbLbLaiaiblblblblblblbhbhbHbHavavaaaaaaaaaaaaapapbybyajajboboboboa7a7auauavavaaaaaaaaaaaaaHaHbybyaLaLaEaEbpbpa7a7auauahahaaaabkbkboboblblblblblblblblakakauauaaaabybyakaka@a@blblaEaEaEaEaEaEaEaEaEaEaEaEbpbpaEaEblbla$a$avavbLbLaaaabybyajajblblbmbmblblakakauauaaaaaaaaaaaaaaaaaaaaaaaaaaaaaaaaaaaaaaaaaaaaaaaaaaaaaaaaaaaaaaaaaaaaaaaaaaaaaaaaaaaaaaaaaaaa",
"aaaaaaaaaaaaaaaaaaaaaaaaaaaaaaaaaaaaaaaaaaaaaaaaaaaaaaaaaaaaaaaaaaaaaaaaaaaaaaaaaaaaaaaaaaaaauauakakbkbkboboblbla7a7a7a7a7a7a7a7a7a7a7a7a7a7blblblblbabaajajbLbLaaaabybyakakblblblblblblajajbybyaaaaaaaaaaaaaaaaaaaaaaaaaaaaaaaaaaaaajajauaua7a7boboaEaEaLaLbybyaHaHaaaaaaaaaqaqbybyaLaLaEaEaKaKaOaOaeaeaaaabybyajajboboa9a9boboaEaEaEaEbpbpboboaEaEbkbkakakauauaaaaaaaaaaaaaaaaaaaaaaaaaaaaaaaaaaaaaaaaaaaaaaaabybyaLaLbobobpbpa7a7alalahahavavaMaMaEaEboboaXaXbhbhbLbLaiaiblblblblblblbhbhbHbHavavaaaaaaaaaaaaapapbybyajajboboboboa7a7auauavavaaaaaaaaaaaaaHaHbybyaLaLaEaEbpbpa7a7auauahahaaaabkbkboboblblblblblblblblakakauauaaaabybyakaka@a@blblaEaEaEaEaEaEaEaEaEaEaEaEbpbpaEaEblbla$a$avavbLbLaaaabybyajajblblbmbmblblakakauauaaaaaaaaaaaaaaaaaaaaaaaaaaaaaaaaaaaaaaaaaaaaaaaaaaaaaaaaaaaaaaaaaaaaaaaaaaaaaaaaaaaaaaaaaaaa",
"aaaaaaaaaaaaaaaaaaaaaaaaaaaaaaaaaaaaaaaaaaaaaaaaaaaaaaaaaaaaaaaaaaaaaaaaaaaaaaaaaaaaaaaaaaaaauauajajaCaCa9a9aKaKapapbybybybybybyauaubybyaiaiaBaBa9a9bkbka#a#bybyaaaabybyakakaKaKa9a9aKaKajajbybyaaaaaaaaaaaaaaaaaaaaaaaaaaaaaaaaaaaaajajauauaLaLa9a9blblaMaMbybyaqaqaaaaaaaaaqaqbybyaMaMblblaBaBalalaeaeaaaabybyanana8a8a9a9aCaCa#a#aqaqaqaqaqaqaHaHbhbhavavauauaaaaaaaaaaaaaaaaaaaaaaaaaaaaaaaaaaaaaaaaaaaaaaaabybyaMaMa9a9a9a9aBaBaeaeacacbhbhaKaKaKaKaKaKa9a9aMaMayayaLaLaKaKaKaKaKaKaPaPbKbKa6a6aaaaaaaaaaaaapapbybyaiaia9a9a9a9aDaDauauavavaaaaaaaaaaaaaqaqbybyaMaMa9a9a9a9aLaLauaubHbHauauaaaaa7a7a9a9aKaKa9a9aCaCakakauauaaaaavavbHbHavavbhbhanana@a@aqaqaqaqaqaqaqaqa#a#aCaCa9a9bkbkapapbybyaaaabybyafafa9a9a9a9a8a8akakauauaaaaaaaaaaaaaaaaaaaaaaaaaaaaaaaaaaaaaaaaaaaaaaaaaaaaaaaaaaaaaaaaaaaaaaaaaaaaaaaaaaaaaaaaaaaa",
"aaaaaaaaaaaaaaaaaaaaaaaaaaaaaaaaaaaaaaaaaaaaaaaaaaaaaaaaaaaaaaaaaaaaaaaaaaaaaaaaaaaaaaaaaaaaauauajajaCaCa9a9aKaKapapbybybybybybyauaubybyaiaiaBaBa9a9bkbka#a#bybyaaaabybyakakaKaKa9a9aKaKajajbybyaaaaaaaaaaaaaaaaaaaaaaaaaaaaaaaaaaaaajajauauaLaLa9a9blblaMaMbybyaqaqaaaaaaaaaqaqbybyaMaMblblaBaBalalaeaeaaaabybyanana8a8a9a9aCaCa#a#aqaqaqaqaqaqaHaHbhbhavavauauaaaaaaaaaaaaaaaaaaaaaaaaaaaaaaaaaaaaaaaaaaaaaaaabybyaMaMa9a9a9a9aBaBaeaeacacbhbhaKaKaKaKaKaKa9a9aMaMayayaLaLaKaKaKaKaKaKaPaPbKbKa6a6aaaaaaaaaaaaapapbybyaiaia9a9a9a9aDaDauauavavaaaaaaaaaaaaaqaqbybyaMaMa9a9a9a9aLaLauaubHbHauauaaaaa7a7a9a9aKaKa9a9aCaCakakauauaaaaavavbHbHavavbhbhanana@a@aqaqaqaqaqaqaqaqa#a#aCaCa9a9bkbkapapbybyaaaabybyafafa9a9a9a9a8a8akakauauaaaaaaaaaaaaaaaaaaaaaaaaaaaaaaaaaaaaaaaaaaaaaaaaaaaaaaaaaaaaaaaaaaaaaaaaaaaaaaaaaaaaaaaaaaaa",
"aaaaaaaaaaaaaaaaaaaaaaaaaaaaaaaaaaaaaaaaaaaaaaaaaaaaaaaaaaaaaaaaaaaaaaaaaaaaaaaaaaaaaaaaaaaaauauakakaKaKa9a9a9a9aiaibLbLbububububububHbHaOaOaCaCa9a9blblaMaMadadaaaaauauajajaKaKa9a9aKaKajajbybyaaaaaaaaaaaaaaaaaaaaaaaaaaaaaaaaaaaaajajauauaLaLa9a9a9a9aMaMbybyaHaHaaaaaaaaaqaqbybyaMaMblblaCaCaOaOaeaeaaaabybyaMaMblbla9a9aBaBalalbLbLbHbHbHbHbHbHbHbHbKbKalalaaaaaaaaaaaaaaaaaaaaaaaaaaaaaaaaaaaaaaaaaaaaaaaabybyaMaMa9a9a9a9blblaLaLaaaabkbka9a9a9a9blbla9a9blbla@a@aCaCblbla9a9aKaKajajbKbKa6a6aaaababaaaaaapapbybyaMaMa9a9a9a9aBaBauauakakaaaaaaaaaaaaaHaHbybyaMaMa9a9a9a9aLaLauauavavauaubybyaaaaa7a7a9a9a9a9aKaKakakayayaaaabhbhavavbHbHbKbKbHbHbIbIbLbLbHbHbHbHbLbLaPaPa8a8a9a9blblajajbybyaaaabybyaHaHa7a7aCaCa7a7afafauauaaaaaaaaaaaaaaaaaaaaaaaaaaaaaaaaaaaaaaaaaaaaaaaaaaaaaaaaaaaaaaaaaaaaaaaaaaaaaaaaaaaaaaaaaaaa",
"aaaaaaaaaaaaaaaaaaaaaaaaaaaaaaaaaaaaaaaaaaaaaaaaaaaaaaaaaaaaaaaaaaaaaaaaaaaaaaaaaaaaaaaaaaaaauauakakaKaKa9a9a9a9aiaibLbLbububububububHbHaOaOaCaCa9a9blblaMaMadadaaaaauauajajaKaKa9a9aKaKajajbybyaaaaaaaaaaaaaaaaaaaaaaaaaaaaaaaaaaaaajajauauaLaLa9a9a9a9aMaMbybyaHaHaaaaaaaaaqaqbybyaMaMblblaCaCaOaOaeaeaaaabybyaMaMblbla9a9aBaBalalbLbLbHbHbHbHbHbHbHbHbKbKalalaaaaaaaaaaaaaaaaaaaaaaaaaaaaaaaaaaaaaaaaaaaaaaaabybyaMaMa9a9a9a9blblaLaLaaaabkbka9a9a9a9blbla9a9blbla@a@aCaCblbla9a9aKaKajajbKbKa6a6aaaababaaaaaapapbybyaMaMa9a9a9a9aBaBauauakakaaaaaaaaaaaaaHaHbybyaMaMa9a9a9a9aLaLauauavavauaubybyaaaaa7a7a9a9a9a9aKaKakakayayaaaabhbhavavbHbHbKbKbHbHbIbIbLbLbHbHbHbHbLbLaPaPa8a8a9a9blblajajbybyaaaabybyaHaHa7a7aCaCa7a7afafauauaaaaaaaaaaaaaaaaaaaaaaaaaaaaaaaaaaaaaaaaaaaaaaaaaaaaaaaaaaaaaaaaaaaaaaaaaaaaaaaaaaaaaaaaaaaa",
"aaaaaaaaaaaaaaaaaaaaaaaaaaaaaaaaaaaaaaaaaaaaaaaaaaaaaaaaaaaaaaaaaaaaaaaaaaaaaaaaaaaaaaaaaaaaauauajajaKaKa9a9a9a9ajajbIbIafafavavaWaWauaualalaCaCa9a9a9a9aMaMbybyaaaabybyakakaKaKa9a9aKaKajajbybyaaaaaaaaaaaaaaaaaaaaaaaaaaaaaaaaaaaaajajauauaLaLa9a9a9a9aMaMbybyaHaHaaaaaaaaaHaHbybyaMaMblbla7a7aOaOaeaeaaaabybyaMaMa9a9a9a9a7a7auauauauaPaPavavajajavavavavbhbhaaaaaaaaaaaaaaaaaaaaaaaaaaaaaaaaaaaaaaaaaaaaaaaabybyaiaiblbla9a9a9a9aCaCaDaDblblblbla7a7aBaBa9a9blblaBaBaKaKa9a9a9a9aKaKakakbHbHbhbhaaaaaaaaaaaaapapbybyaMaMblbla!a!aBaBauauaYaYaaaaaaaaaaaaaHaHbybyaMaMa9a9a9a9aLaLauauafafaaaabLbLauaubabaa9a9a9a9aKaKajajauauaaaaaaaaaaaaavavavavavavavavavavavava6a6bybyakakaCaCa9a9a9a9aPaPbybyaaaabybybubuavavavavavavauauauauaaaaaaaaaaaaaaaaaaaaaaaaaaaaaaaaaaaaaaaaaaaaaaaaaaaaaaaaaaaaaaaaaaaaaaaaaaaaaaaaaaaaaaaaaaaa",
"aaaaaaaaaaaaaaaaaaaaaaaaaaaaaaaaaaaaaaaaaaaaaaaaaaaaaaaaaaaaaaaaaaaaaaaaaaaaaaaaaaaaaaaaaaaaauauajajaKaKa9a9a9a9ajajbIbIafafavavaWaWauaualalaCaCa9a9a9a9aMaMbybyaaaabybyakakaKaKa9a9aKaKajajbybyaaaaaaaaaaaaaaaaaaaaaaaaaaaaaaaaaaaaajajauauaLaLa9a9a9a9aMaMbybyaHaHaaaaaaaaaHaHbybyaMaMblbla7a7aOaOaeaeaaaabybyaMaMa9a9a9a9a7a7auauauauaPaPavavajajavavavavbhbhaaaaaaaaaaaaaaaaaaaaaaaaaaaaaaaaaaaaaaaaaaaaaaaabybyaiaiblbla9a9a9a9aCaCaDaDblblblbla7a7aBaBa9a9blblaBaBaKaKa9a9a9a9aKaKakakbHbHbhbhaaaaaaaaaaaaapapbybyaMaMblbla!a!aBaBauauaYaYaaaaaaaaaaaaaHaHbybyaMaMa9a9a9a9aLaLauauafafaaaabLbLauaubabaa9a9a9a9aKaKajajauauaaaaaaaaaaaaavavavavavavavavavavavava6a6bybyakakaCaCa9a9a9a9aPaPbybyaaaabybybubuavavavavavavauauauauaaaaaaaaaaaaaaaaaaaaaaaaaaaaaaaaaaaaaaaaaaaaaaaaaaaaaaaaaaaaaaaaaaaaaaaaaaaaaaaaaaaaaaaaaaaa",
"aaaaaaaaaaaaaaaaaaaaaaaaaaaaaaaaaaaaaaaaaaaaaaaaaaaaaaaaaaaaaaaaaaaaaaaaaaaaaaaaaaaaaaaaaaaaauauakakaCaCa9a9aKaKajajbybyaaaabhbhaaaaauauaeaeaCaCa9a9a9a9aMaMadadaaaabybyakakaKaKa9a9aKaKajajbybyaaaaaaaaaaaaaaaaaaaaaaaaaaaaaaaaaaaaajajauauaLaLa9a9a9a9aLaLbybyaHaHaaaaaaaaaqaqbybyaLaLblbla7a7alalaeaeaaaabybyaMaMblbla9a9aDaDauauavavaaaaaaaaaaaaaaaaaaaaaaaaaaaaaaaaaaaaaaaaaaaaaaaaaaaaaaaaaaaaaaaaaaaaaaaabybyafafblblaKaKa9a9a9a9a9a9blblaBaBaeaeapapaKaKa9a9blbla9a9a9a9a9a9aKaKajajbHbHa5a5aaaaaaaaaaaabhbhbybyaMaMblblblblaBaBauauakakaaaaaaaaaaaaaHaHbybyaMaMa9a9a9a9aLaLauauajajaaaaa6a6bLbLaPaPaKaKa9a9aCaCakakauauaaaaaaaaaaaaaaaaaaaaaaaaaaaaaaaaaaaaaaaaauauavavaCaCa9a9a9a9aiaiadadaaaabybybfbfaGaGaGaGaGaGaGaGauauaaaaaaaaaaaaaaaaaaaaaaaaaaaaaaaaaaaaaaaaaaaaaaaaaaaaaaaaaaaaaaaaaaaaaaaaaaaaaaaaaaaaaaaaaaaa",
"aaaaaaaaaaaaaaaaaaaaaaaaaaaaaaaaaaaaaaaaaaaaaaaaaaaaaaaaaaaaaaaaaaaaaaaaaaaaaaaaaaaaaaaaaaaaauauakakaCaCa9a9aKaKajajbybyaaaabhbhaaaaauauaeaeaCaCa9a9a9a9aMaMadadaaaabybyakakaKaKa9a9aKaKajajbybyaaaaaaaaaaaaaaaaaaaaaaaaaaaaaaaaaaaaajajauauaLaLa9a9a9a9aLaLbybyaHaHaaaaaaaaaqaqbybyaLaLblbla7a7alalaeaeaaaabybyaMaMblbla9a9aDaDauauavavaaaaaaaaaaaaaaaaaaaaaaaaaaaaaaaaaaaaaaaaaaaaaaaaaaaaaaaaaaaaaaaaaaaaaaaabybyafafblblaKaKa9a9a9a9a9a9blblaBaBaeaeapapaKaKa9a9blbla9a9a9a9a9a9aKaKajajbHbHa5a5aaaaaaaaaaaabhbhbybyaMaMblblblblaBaBauauakakaaaaaaaaaaaaaHaHbybyaMaMa9a9a9a9aLaLauauajajaaaaa6a6bLbLaPaPaKaKa9a9aCaCakakauauaaaaaaaaaaaaaaaaaaaaaaaaaaaaaaaaaaaaaaaaauauavavaCaCa9a9a9a9aiaiadadaaaabybybfbfaGaGaGaGaGaGaGaGauauaaaaaaaaaaaaaaaaaaaaaaaaaaaaaaaaaaaaaaaaaaaaaaaaaaaaaaaaaaaaaaaaaaaaaaaaaaaaaaaaaaaaaaaaaaaa",
"aaaaaaaaaaaaaaaaaaaaaaaaaaaaaaaaaaaaaaaaaaaaaaaaaaaaaaaaaaaaaaaaaaaaaaaaaaaaaaaaaaaaaaaaaaaaauauajajaKaKa9a9aKaKaHaHbLbLbjbjbAbAbybybLbLakakaCaCa9a9blblaLaLbybyaaaaayayakakaKaKa9a9aKaKaMaMbjbjbybyadadadadadadbybybybybybyadadadadavavauauaDaDa9a9blblaLaLauaubjbjadadbybybIbIayayaDaDblbla7a7alalaeaeaaaabybyaMaMblbla9a9aBaBavavbIbIbybybHbHbybyadadbjbjadadadadbybybjbjakakaaaaaaaaaaaaaaaaaaaaaaaaaaaaaaaabybyaeaeaBaBblbla9a9a9a9a9a9blblaLaLbybybLbLa@a@blbla9a9a9a9a9a9a9a9aMaMbIbIbHbHa5a5adadadadbybyadadayayaMaMblbla9a9aBaBalalbjbjadadbybybIbIavavauauaMaMa9a9a9a9aDaDauauafafaaaaaaaabybyafafaKaKa9a9aKaKajajauauaaaabybybIbIbIbIadadadadadadadadadadadadbIbIaiaiaKaKa9a9blblajajbybyaaaabybyavavaHaHananaqaqavavauauaaaaaaaaaaaaaaaaaaaaaaaaaaaaaaaaaaaaaaaaaaaaaaaaaaaaaaaaaaaaaaaaaaaaaaaaaaaaaaaaaaaaaaaaaaaa",
"aaaaaaaaaaaaaaaaaaaaaaaaaaaaaaaaaaaaaaaaaaaaaaaaaaaaaaaaaaaaaaaaaaaaaaaaaaaaaaaaaaaaaaaaaaaaauauajajaKaKa9a9aKaKaHaHbLbLbjbjbAbAbybybLbLakakaCaCa9a9blblaLaLbybyaaaaayayakakaKaKa9a9aKaKaMaMbjbjbybyadadadadadadbybybybybybyadadadadavavauauaDaDa9a9blblaLaLauaubjbjadadbybybIbIayayaDaDblbla7a7alalaeaeaaaabybyaMaMblbla9a9aBaBavavbIbIbybybHbHbybyadadbjbjadadadadbybybjbjakakaaaaaaaaaaaaaaaaaaaaaaaaaaaaaaaabybyaeaeaBaBblbla9a9a9a9a9a9blblaLaLbybybLbLa@a@blbla9a9a9a9a9a9a9a9aMaMbIbIbHbHa5a5adadadadbybyadadayayaMaMblbla9a9aBaBalalbjbjadadbybybIbIavavauauaMaMa9a9a9a9aDaDauauafafaaaaaaaabybyafafaKaKa9a9aKaKajajauauaaaabybybIbIbIbIadadadadadadadadadadadadbIbIaiaiaKaKa9a9blblajajbybyaaaabybyavavaHaHananaqaqavavauauaaaaaaaaaaaaaaaaaaaaaaaaaaaaaaaaaaaaaaaaaaaaaaaaaaaaaaaaaaaaaaaaaaaaaaaaaaaaaaaaaaaaaaaaaaaa",
"aaaaaaaaaaaaaaaaaaaaaaaaaaaaaaaaaaaaaaaaaaaaaaaaaaaaaaaaaaaaaaaaaaaaaaaaaaaaaaaaaaaaaaaaaaaaauauajajaKaKa9a9a9a9aLaLa@a@aPaPaMaMaMaMaMaMaDaDaKaKa9a9bkbkapapadadaaaaayayakakaKaKa9a9blblaLaLaMaMaMaMaMaMaMaMaMaMaMaMananaPaPbhbhadadavavauauaMaMblblaKaKblblaDaDaMaMaMaMaMaMananaLaLa9a9a9a9a7a7avavauauaaaabybyaPaPa9a9a9a9aCaCa@a@aMaMaMaMaMaMaMaMaMaMaiaiaPaPaPaPaqaqaeaeaeaeaaaaaaaaaaaaaaaaaaaaaaaaaaaaaaaaauauaNaNaDaDblbla9a9a9a9blblaLaLaOaObHbHbHbHananaMaMblblaKaKa9a9a8a8aHaHbIbIa6a6aaaaadadapapaPaPaMaMa@a@aBaBa9a9a9a9aCaCa@a@aMaMaMaMapapbybyazazauauaMaMa9a9a9a9aDaDauauajajaaaaaaaabybyaPaPaKaKa9a9aCaCakakauauaaaabjbjaFaFaPaPaMaMaLaLaMaMaMaMaMaMaiaiananaMaMaKaKa9a9aKaKaFaFadadaaaabybyaiaiaKaKa9a9aCaCajajauauaaaaaaaaaaaaaaaaaaaaaaaaaaaaaaaaaaaaaaaaaaaaaaaaaaaaaaaaaaaaaaaaaaaaaaaaaaaaaaaaaaaaaaaaaaaa",
"aaaaaaaaaaaaaaaaaaaaaaaaaaaaaaaaaaaaaaaaaaaaaaaaaaaaaaaaaaaaaaaaaaaaaaaaaaaaaaaaaaaaaaaaaaaaauauajajaKaKa9a9a9a9aLaLa@a@aPaPaMaMaMaMaMaMaDaDaKaKa9a9bkbkapapadadaaaaayayakakaKaKa9a9blblaLaLaMaMaMaMaMaMaMaMaMaMaMaMananaPaPbhbhadadavavauauaMaMblblaKaKblblaDaDaMaMaMaMaMaMananaLaLa9a9a9a9a7a7avavauauaaaabybyaPaPa9a9a9a9aCaCa@a@aMaMaMaMaMaMaMaMaMaMaiaiaPaPaPaPaqaqaeaeaeaeaaaaaaaaaaaaaaaaaaaaaaaaaaaaaaaaauauaNaNaDaDblbla9a9a9a9blblaLaLaOaObHbHbHbHananaMaMblblaKaKa9a9a8a8aHaHbIbIa6a6aaaaadadapapaPaPaMaMa@a@aBaBa9a9a9a9aCaCa@a@aMaMaMaMapapbybyazazauauaMaMa9a9a9a9aDaDauauajajaaaaaaaabybyaPaPaKaKa9a9aCaCakakauauaaaabjbjaFaFaPaPaMaMaLaLaMaMaMaMaMaMaiaiananaMaMaKaKa9a9aKaKaFaFadadaaaabybyaiaiaKaKa9a9aCaCajajauauaaaaaaaaaaaaaaaaaaaaaaaaaaaaaaaaaaaaaaaaaaaaaaaaaaaaaaaaaaaaaaaaaaaaaaaaaaaaaaaaaaaaaaaaaaaa",
"aaaaaaaaaaaaaaaaaaaaaaaaaaaaaaaaaaaaaaaaaaaaaaaaaaaaaaaaaaaaaaaaaaaaaaaaaaaaaaaaaaaaaaaaaaaaauauakakbkbkblblblblblblblblblblblblblblblblblblblblblbla#a#avavbybyaaaaayayakakbkbkblblblblblblblblblblblblblblblblblblblblbzbzaPaPayayavavbHbHbhbhaLaLblblblblblblblblblblblblblblblblblbla7a7aaaabybyavavaaaabybyaPaPblbla9a9blblblblblblblblbkbkblblblblbkbkbkbkadadaeaealalaXaXaaaaaaaaaaaaaaaaaaaaaaaaaaaaaaaaajajauauaLaLblbla9a9blblaBaBaaaaauauaWaWaWaWbLbLaiaiaMaMblblblblbkbkafafbybyaaaaaaaaadadaiaibzbzblblblblblblblbla9a9blblblblblblbzbzakakaXaXazazauauaLaLblblblblaLaLauauafafaaaaaaaabybyafafblblblbla8a8ajajauauaaaabybyaiaiadadblblblblblblblblblblblblblblblblblblbkbka$a$alalbybyaaaabybyafafblblblblbkbkavavauauaaaaaaaaaaaaaaaaaaaaaaaaaaaaaaaaaaaaaaaaaaaaaaaaaaaaaaaaaaaaaaaaaaaaaaaaaaaaaaaaaaaaaaaaaaaa",
"aaaaaaaaaaaaaaaaaaaaaaaaaaaaaaaaaaaaaaaaaaaaaaaaaaaaaaaaaaaaaaaaaaaaaaaaaaaaaaaaaaaaaaaaaaaaauauakakbkbkblblblblblblblblblblblblblblblblblblblblblbla#a#avavbybyaaaaayayakakbkbkblblblblblblblblblblblblblblblblblblblblbzbzaPaPayayavavbHbHbhbhaLaLblblblblblblblblblblblblblblblblblbla7a7aaaabybyavavaaaabybyaPaPblbla9a9blblblblblblblblbkbkblblblblbkbkbkbkadadaeaealalaXaXaaaaaaaaaaaaaaaaaaaaaaaaaaaaaaaaajajauauaLaLblbla9a9blblaBaBaaaaauauaWaWaWaWbLbLaiaiaMaMblblblblbkbkafafbybyaaaaaaaaadadaiaibzbzblblblblblblblbla9a9blblblblblblbzbzakakaXaXazazauauaLaLblblblblaLaLauauafafaaaaaaaabybyafafblblblbla8a8ajajauauaaaabybyaiaiadadblblblblblblblblblblblblblblblblblblbkbka$a$alalbybyaaaabybyafafblblblblbkbkavavauauaaaaaaaaaaaaaaaaaaaaaaaaaaaaaaaaaaaaaaaaaaaaaaaaaaaaaaaaaaaaaaaaaaaaaaaaaaaaaaaaaaaaaaaaaaaa",
"aaaaaaaaaaaaaaaaaaaaaaaaaaaaaaaaaaaaaaaaaaaaaaaaaaaaaaaaaaaaaaaaaaaaaaaaaaaaaaaaaaaaaaaaaaaabybyavava@a@aMaMaMaMaMaMaMaMaMaMa@a@aMaMaMaMaMaMaMaMa@a@avavbHbHavavaaaabybyajaja@a@aMaMaMaMaMaMaMaMaMaManana@a@aMaMaMaMa@a@aPaPbhbhbybya6a6bububHbHapapananaMaMaMaMaMaMaMaMaMaMaMaMananaiaiaaaabybybybyaaaaaaaaadadbhbhaPaPaMaMaMaMaMaMaMaMaMaManananana@a@a@a@ananaiaiapapalalaeaeaaaaaaaaaaaaaaaaaaaaaaaaaaaaaaaaavavayaybhbhaPaPaMaMaMaMaaaaadadauauaaaaa5a5bububLbLaiaiaHaHaPaPananaHaHbybyaaaaaaaaadadbhbha@a@aMaMananananaMaMaMaMaMaMaMaMa@a@aiaibhbhbybyavavbybybhbhaMaMaMaMbhbhbybyajajaaaaaaaabybyaPaPa@a@aMaMa@a@akakbybyaaaaadadbhbhananananananananaMaMaMaMaMaMaMaMananafafa#a#alalbLbLavavaaaabybyaiaia@a@aMaMaHaHavavbybyaaaaaaaaaaaaaaaaaaaaaaaaaaaaaaaaaaaaaaaaaaaaaaaaaaaaaaaaaaaaaaaaaaaaaaaaaaaaaaaaaaaaaaaaaaaa",
"aaaaaaaaaaaaaaaaaaaaaaaaaaaaaaaaaaaaaaaaaaaaaaaaaaaaaaaaaaaaaaaaaaaaaaaaaaaaaaaaaaaaaaaaaaaabybyavava@a@aMaMaMaMaMaMaMaMaMaMa@a@aMaMaMaMaMaMaMaMa@a@avavbHbHavavaaaabybyajaja@a@aMaMaMaMaMaMaMaMaMaManana@a@aMaMaMaMa@a@aPaPbhbhbybya6a6bububHbHapapananaMaMaMaMaMaMaMaMaMaMaMaMananaiaiaaaabybybybyaaaaaaaaadadbhbhaPaPaMaMaMaMaMaMaMaMaMaManananana@a@a@a@ananaiaiapapalalaeaeaaaaaaaaaaaaaaaaaaaaaaaaaaaaaaaaavavayaybhbhaPaPaMaMaMaMaaaaadadauauaaaaa5a5bububLbLaiaiaHaHaPaPananaHaHbybyaaaaaaaaadadbhbha@a@aMaMananananaMaMaMaMaMaMaMaMa@a@aiaibhbhbybyavavbybybhbhaMaMaMaMbhbhbybyajajaaaaaaaabybyaPaPa@a@aMaMa@a@akakbybyaaaaadadbhbhananananananananaMaMaMaMaMaMaMaMananafafa#a#alalbLbLavavaaaabybyaiaia@a@aMaMaHaHavavbybyaaaaaaaaaaaaaaaaaaaaaaaaaaaaaaaaaaaaaaaaaaaaaaaaaaaaaaaaaaaaaaaaaaaaaaaaaaaaaaaaaaaaaaaaaaaa",
"aaaaaaaaaaaaaaaaaaaaaaaaaaaaaaaaaaaaaaaaaaaaaaaaaaaaaaaaaaaaaaaaaaaaaaaaaaaaaaaaaaaaaaaaaaaaauaubLbLbHbHbHbHbHbHbHbHbHbHbHbHbHbHbHbHbHbHbHbHbHbHbHbHbHbHaWaWa5a5aaaaauaubLbLbybybHbHbHbHbHbHbHbHbHbHbHbHbHbHbHbHbHbHbHbHbHbHbHbHbIbIa5a5aaaabububHbHbHbHbHbHbHbHbHbHbHbHbHbHbHbHbHbHbHbHbHbHbHbHafafaaaaaaaabHbHbHbHbHbHbHbHbHbHbHbHbHbHbHbHbHbHbHbHbHbHbHbHbHbHbHbHbHbHbLbLavavaaaaaaaaaaaaaaaaaaaaaaaaaaaaaaaaaFaFbybybHbHbHbHbHbHbHbHbHbHbHbHaqaqaaaaaaaaaaaaauaubKbKbHbHbHbHbHbHbKbKbybyaaaaaaaabHbHbHbHbHbHbHbHbHbHbHbHbHbHbHbHbHbHbHbHbHbHbHbHbHbHbHbHaWaWbHbHbHbHbHbHbHbHbHbHbHbHaHaHaaaaaaaaauaubHbHbHbHbHbHbHbHbKbKauauaaaabHbHbHbHbHbHbHbHbHbHbHbHbHbHbHbHbHbHbHbHbHbHbHbHbHbHbLbLbubuaaaaaaaaauaubKbKbHbHbHbHbHbHbLbLauauaaaaaaaaaaaaaaaaaaaaaaaaaaaaaaaaaaaaaaaaaaaaaaaaaaaaaaaaaaaaaaaaaaaaaaaaaaaaaaaaaaaaaaaaaaaa",
"aaaaaaaaaaaaaaaaaaaaaaaaaaaaaaaaaaaaaaaaaaaaaaaaaaaaaaaaaaaaaaaaaaaaaaaaaaaaaaaaaaaaaaaaaaaaauaubLbLbHbHbHbHbHbHbHbHbHbHbHbHbHbHbHbHbHbHbHbHbHbHbHbHbHbHaWaWa5a5aaaaauaubLbLbybybHbHbHbHbHbHbHbHbHbHbHbHbHbHbHbHbHbHbHbHbHbHbHbHbIbIa5a5aaaabububHbHbHbHbHbHbHbHbHbHbHbHbHbHbHbHbHbHbHbHbHbHbHbHafafaaaaaaaabHbHbHbHbHbHbHbHbHbHbHbHbHbHbHbHbHbHbHbHbHbHbHbHbHbHbHbHbHbHbLbLavavaaaaaaaaaaaaaaaaaaaaaaaaaaaaaaaaaFaFbybybHbHbHbHbHbHbHbHbHbHbHbHaqaqaaaaaaaaaaaaauaubKbKbHbHbHbHbHbHbKbKbybyaaaaaaaabHbHbHbHbHbHbHbHbHbHbHbHbHbHbHbHbHbHbHbHbHbHbHbHbHbHbHbHaWaWbHbHbHbHbHbHbHbHbHbHbHbHaHaHaaaaaaaaauaubHbHbHbHbHbHbHbHbKbKauauaaaabHbHbHbHbHbHbHbHbHbHbHbHbHbHbHbHbHbHbHbHbHbHbHbHbHbHbLbLbubuaaaaaaaaauaubKbKbHbHbHbHbHbHbLbLauauaaaaaaaaaaaaaaaaaaaaaaaaaaaaaaaaaaaaaaaaaaaaaaaaaaaaaaaaaaaaaaaaaaaaaaaaaaaaaaaaaaaaaaaaaaaa",
"aaaaaaaaaaaaaaaaaaaaaaaaaaaaaaaaaaaaaaaaaaaaaaaaaaaaaaaaaaaaaaaaaaaaaaaaaaaaaaaaaaaaaaaaaaaaajajauaububububububububububububububububububububububububuavavaaaaaaaaaaaaavavbububububububububububububububububububububtbtbubububububuauauaaaaaaaaapapbubububububububububububububububububububububuaWaWaaaaaaaaaaaabububtbtbububububububububububububububububububububububtbtbubububua6a6aaaaaaaaaaaaaaaaaaaaaaaaaaaaaaaaaaaaavavbubububububububububua6a6aaaaaaaaaaaaaaaaapapbubububububububububuavavaaaaaaaaavavbububtbtbubububububububububububububububububububububua5a5bubububububububububububuaaaaaaaaaaaaavavbubububububububububuavavaaaabubububububububububububububububububububububububububuavavaaaaaaaaaaaaavavbubububububububuauauajajaaaaaaaaaaaaaaaaaaaaaaaaaaaaaaaaaaaaaaaaaaaaaaaaaaaaaaaaaaaaaaaaaaaaaaaaaaaaaaaaaaaaaaaaaaaa",
"aaaaaaaaaaaaaaaaaaaaaaaaaaaaaaaaaaaaaaaaaaaaaaaaaaaaaaaaaaaaaaaaaaaaaaaaaaaaaaaaaaaaaaaaaaaaajajauaububububububububububububububububububububububububuavavaaaaaaaaaaaaavavbububububububububububububububububububububtbtbubububububuauauaaaaaaaaapapbubububububububububububububububububububububuaWaWaaaaaaaaaaaabububtbtbububububububububububububububububububububububtbtbubububua6a6aaaaaaaaaaaaaaaaaaaaaaaaaaaaaaaaaaaaavavbubububububububububua6a6aaaaaaaaaaaaaaaaapapbubububububububububuavavaaaaaaaaavavbububtbtbubububububububububububububububububububububua5a5bubububububububububububuaaaaaaaaaaaaavavbubububububububububuavavaaaabubububububububububububububububububububububububububuavavaaaaaaaaaaaaavavbubububububububuauauajajaaaaaaaaaaaaaaaaaaaaaaaaaaaaaaaaaaaaaaaaaaaaaaaaaaaaaaaaaaaaaaaaaaaaaaaaaaaaaaaaaaaaaaaaaaaa",
"aaaaaaaaaaaaaaaaaaaaaaaaaaaaaaaaaaaaaaaaaaaaaaaaaaaaaaaaaaaaaaaaaaaaaaaaaaaaaaaaaaaaaaaaaaaaaqaqaiaiananananananananananananaiaiananaiaiananananaPaPaaaaaaaaaaaaaaaaaqaqaiaia6a6a6a6a6a6a6a6aiaiaiaiaiaia6a6a6a6aWaWa6a6aiaiaiaiaiaiaaaaaaaaaaaaaHaHaPaPa6a6aiaiaiaiaiaiananananaiaiaiaiaiaiaaaaaaaaaaaaaaaaanana6a6aiaiaiaiaHaHaiaiaiaiananananananaiaiaiaiaiaia6a6aiaiaPaPa5a5aaaaaaaaaaaaaaaaaaaaaaaaaaaaaaaaaaaaaaaaaPaPaWaWaWaWaWaWaPaPaaaaaaaaaaaaaaaaaaaaaaaaaqaqanananana6a6a6a6aHaHaaaaaaaaaHaHaiaia6a6a6a6aiaiaiaiaiaia6a6a6a6a6a6a6a6ananaiaiaiaiaaaaaiaiaiaiaiaiaiaiaiaiaiaiaaaaaaaaaaaaaFaFaiaiananaiaiaiaiananapapaaaaaHaHaiaiananaiaiaiaiaiaiaiaiaiaiaiaiaiaiaiaiaiaiaiaiaaaaaaaaaaaaaaaaapapaiaiaiaiaPaPananaiaiaFaFaaaaaaaaaaaaaaaaaaaaaaaaaaaaaaaaaaaaaaaaaaaaaaaaaaaaaaaaaaaaaaaaaaaaaaaaaaaaaaaaaaaaaaaaaaaa",
"aaaaaaaaaaaaaaaaaaaaaaaaaaaaaaaaaaaaaaaaaaaaaaaaaaaaaaaaaaaaaaaaaaaaaaaaaaaaaaaaaaaaaaaaaaaaaqaqaiaiananananananananananananaiaiananaiaiananananaPaPaaaaaaaaaaaaaaaaaqaqaiaia6a6a6a6a6a6a6a6aiaiaiaiaiaia6a6a6a6aWaWa6a6aiaiaiaiaiaiaaaaaaaaaaaaaHaHaPaPa6a6aiaiaiaiaiaiananananaiaiaiaiaiaiaaaaaaaaaaaaaaaaanana6a6aiaiaiaiaHaHaiaiaiaiananananananaiaiaiaiaiaia6a6aiaiaPaPa5a5aaaaaaaaaaaaaaaaaaaaaaaaaaaaaaaaaaaaaaaaaPaPaWaWaWaWaWaWaPaPaaaaaaaaaaaaaaaaaaaaaaaaaqaqanananana6a6a6a6aHaHaaaaaaaaaHaHaiaia6a6a6a6aiaiaiaiaiaia6a6a6a6a6a6a6a6ananaiaiaiaiaaaaaiaiaiaiaiaiaiaiaiaiaiaiaaaaaaaaaaaaaFaFaiaiananaiaiaiaiananapapaaaaaHaHaiaiananaiaiaiaiaiaiaiaiaiaiaiaiaiaiaiaiaiaiaiaiaaaaaaaaaaaaaaaaapapaiaiaiaiaPaPananaiaiaFaFaaaaaaaaaaaaaaaaaaaaaaaaaaaaaaaaaaaaaaaaaaaaaaaaaaaaaaaaaaaaaaaaaaaaaaaaaaaaaaaaaaaaaaaaaaaa",
"aaaaaaaaaaaaaaaaaaaaaaaaaaaaaaaaaaaaaaaaaaaaaaaaaaaaaaaaaaaaaaaaaaaaaaaaaaaaaaaaaaaaaaaaaaaaaaaaaaaaaaaaaaaaaaaaaaaaaaaaaaaaaaaaaaaaaaaaaaaaaaaaaaaaaaaaaaaaaaaaaaaaaaaaaaaaaaaaaaaaaaaaaaaaaaaaaaaaaaaaaaaaaaaaaaaaaaaaaaaaaaaaaaaaaaaaaaaaaaaaaaaaaaaaaaaaaaaaaaaaaaaaaaaaaaaaaaaaaaaaaaaaaaaaaaaaaaaaaaaaaaaaaaaaaaaaaaaaaaaaaaaaaaaaaaaaaaaaaaaaaaaaaaaaaaaaaaaaaaaaaaaaaaaaaaaaaaaaaaaaaaaaaaaaaaaaaaaaaaaaaaaaaaaaaaaaaaaaaaaaaaaaaaaaaaaaaaaaaaaaaaaaaaaaaaaaaaaaaaaaaaaaaaaaaaaaaaaaaaaaaaaaaaaaaaaaaaaaaaaaaaaaaaaaaaaaaaaaaaaaaaaaaaaaaaaaaaaaaaaaaaaaaaaaaaaaaaaaaaaaaaaaaaaaaaaaaaaaaaaaaaaaaaaaaaaaaaaaaaaaaaaaaaaaaaaaaaaaaaaaaaaaaaaaaaaaaaaaaaaaaaaaaaaaaaaaaaaaaaaaaaaaaaaaaaaaaaaaaaaaaaaaaaaaaaaaaaaaaaaaaaaaaaaaaaaaaaaaaaaaaaaaaaaaaaaaaaaaaaaaaaaaaaaaaaaaaaaaaaaaaaaaaaaaaaaaaaaaaaaaaaaaaaaaaaaaaaaaaaaa",
"aaaaaaaaaaaaaaaaaaaaaaaaaaaaaaaaaaaaaaaaaaaaaaaaaaaaaaaaaaaaaaaaaaaaaaaaaaaaaaaaaaaaaaaaaaaaaaaaaaaaaaaaaaaaaaaaaaaaaaaaaaaaaaaaaaaaaaaaaaaaaaaaaaaaaaaaaaaaaaaaaaaaaaaaaaaaaaaaaaaaaaaaaaaaaaaaaaaaaaaaaaaaaaaaaaaaaaaaaaaaaaaaaaaaaaaaaaaaaaaaaaaaaaaaaaaaaaaaaaaaaaaaaaaaaaaaaaaaaaaaaaaaaaaaaaaaaaaaaaaaaaaaaaaaaaaaaaaaaaaaaaaaaaaaaaaaaaaaaaaaaaaaaaaaaaaaaaaaaaaaaaaaaaaaaaaaaaaaaaaaaaaaaaaaaaaaaaaaaaaaaaaaaaaaaaaaaaaaaaaaaaaaaaaaaaaaaaaaaaaaaaaaaaaaaaaaaaaaaaaaaaaaaaaaaaaaaaaaaaaaaaaaaaaaaaaaaaaaaaaaaaaaaaaaaaaaaaaaaaaaaaaaaaaaaaaaaaaaaaaaaaaaaaaaaaaaaaaaaaaaaaaaaaaaaaaaaaaaaaaaaaaaaaaaaaaaaaaaaaaaaaaaaaaaaaaaaaaaaaaaaaaaaaaaaaaaaaaaaaaaaaaaaaaaaaaaaaaaaaaaaaaaaaaaaaaaaaaaaaaaaaaaaaaaaaaaaaaaaaaaaaaaaaaaaaaaaaaaaaaaaaaaaaaaaaaaaaaaaaaaaaaaaaaaaaaaaaaaaaaaaaaaaaaaaaaaaaaaaaaaaaaaaaaaaaaaaaaaaaaa",
"aaaaaaaaaaaaaaaaaaaaaaaaaaaaaaaaaaaaaaaaaaaaaaaaaaaaaaaaaaaaaaaaaaaaaaaaaaaaaaaaaaaaaaaaaaaaaaaaaaaaaaaaaaaaaaaaaaaaaaaaaaaaaaaaaaaaaaaaaaaaaaaaaaaaaaaaaaaaaaaaaaaaaaaaaaaaaaaaaaaaaaaaaaaaaaaaaaaaaaaaaaaaaaaaaaaaaaaaaaaaaaaaaaaaaaaaaaaaaaaaaaaaaaaaaaaaaaaaaaaaaaaaaaaaaaaaaaaaaaaaaaaaaaaaaaaaaaaaaaaaaaaaaaaaaaaaaaaaaaaaaaaaaaaaaaaaaaaaaaaaaaaaaaaaaaaaaaaaaaaaaaaaaaaaaaaaaaaaaaaaaaaaaaaaaaaaaaaaaaaaaaaaaaaaaaaaaaaaaaaaaaaaaaaaaaaaaaaaaaaaaaaaaaaaaaaaaaaaaaaaaaaaaaaaaaaaaaaaaaaaaaaaaaaaaaaaaaaaaaaaaaaaaaaaaaaaaaaaaaaaaaaaaaaaaaaaaaaaaaaaaaaaaaaaaaaaaaaaaaaaaaaaaaaaaaaaaaaaaaaaaaaaaaaaaaaaaaaaaaaaaaaaaaaaaaaaaaaaaaaaaaaaaaaaaaaaaaaaaaaaaaaaaaaaaaaaaaaaaaaaaaaaaaaaaaaaaaaaaaaaaaaaaaaaaaaaaaaaaaaaaaaaaaaaaaaaaaaaaaaaaaaaaaaaaaaaaaaaaaaaaaaaaaaaaaaaaaaaaaaaaaaaaaaaaaaaaaaaaaaaaaaaaaaaaaaaaaaaaaaa",
"aaaaaaaaaaaaaaaaaaaaaaaaaaaaaaaaaaaaaaaaaaaaaaaaaaaaaaaaaaaaaaaaaaaaaaaaaaaaaaaaaaaaaaaaaaaaaaaaaaaaaaaaaaaaaaaaaaaaaaaaaaaaaaaaaaaaaaaaaaaaaaaaaaaaaaaaaaaaaaaaaaaaaaaaaaaaaaaaaaaaaaaaaaaaaaaaaaaaaaaaaaaaaaaaaaaaaaaaaaaaaaaaaaaaaaaaaaaaaaaaaaaaaaaaaaaaaaaaaaaaaaaaaaaaaaaaaaaaaaaaaaaaaaaaaaaaaaaaaaaaaaaaaaaaaaaaaaaaaaaaaaaaaaaaaaaaaaaaaaaaaaaaaaaaaaaaaaaaaaaaaaaaaaaaaaaaaaaaaaaaaaaaaaaaaaaaaaaaaaaaaaaaaaaaaaaaaaaaaaaaaaaaaaaaaaaaaaaaaaaaaaaaaaaaaaaaaaaaaaaaaaaaaaaaaaaaaaaaaaaaaaaaaaaaaaaaaaaaaaaaaaaaaaaaaaaaaaaaaaaaaaaaaaaaaaaaaaaaaaaaaaaaaaaaaaaaaaaaaaaaaaaaaaaaaaaaaaaaaaaaaaaaaaaaaaaaaaaaaaaaaaaaaaaaaaaaaaaaaaaaaaaaaaaaaaaaaaaaaaaaaaaaaaaaaaaaaaaaaaaaaaaaaaaaaaaaaaaaaaaaaaaaaaaaaaaaaaaaaaaaaaaaaaaaaaaaaaaaaaaaaaaaaaaaaaaaaaaaaaaaaaaaaaaaaaaaaaaaaaaaaaaaaaaaaaaaaaaaaaaaaaaaaaaaaaaaaaaaaaaa",
"aaaaaaaaaaaaaaaaaaaaaaaaaaaaaaaaaaaaaaaaaaaaaaaaaaaaaaaaaaaaaaaaaaaaaaaaaaaaaaaaaaaaaaaaaaaaaaaaaaaaaaaaaaaaaaaaaaaaaaaaaaaaaaaaaaaaaaaaaaaaaaaaaaaaaaaaaaaaaaaaaaaaaaaaaaaaaaaaaaaaaaaaaaaaaaaaaaaaaaaaaaaaaaaaaaaaaaaaaaaaaaaaaaaaaaaaaaaaaaaaaaaaaaaaaaaaaaaaaaaaaaaaaaaaaaaaaaaaaaaaaaaaaaaaaaaaaaaaaaaaaaaaaaaaaaaaaaaaaaaaaaaaaaaaaaaaaaaaaaaaaaaaaaaaaaaaaaaaaaaaaaaaaaaaaaaaaaaaaaaaaaaaaaaaaaaaaaaaaaaaaaaaaaaaaaaaaaaaaaaaaaaaaaaaaaaaaaaaaaaaaaaaaaaaaaaaaaaaaaaaaaaaaaaaaaaaaaaaaaaaaaaaaaaaaaaaaaaaaaaaaaaaaaaaaaaaaaaaaaaaaaaaaaaaaaaaaaaaaaaaaaaaaaaaaaaaaaaaaaaaaaaaaaaaaaaaaaaaaaaaaaaaaaaaaaaaaaaaaaaaaaaaaaaaaaaaaaaaaaaaaaaaaaaaaaaaaaaaaaaaaaaaaaaaaaaaaaaaaaaaaaaaaaaaaaaaaaaaaaaaaaaaaaaaaaaaaaaaaaaaaaaaaaaaaaaaaaaaaaaaaaaaaaaaaaaaaaaaaaaaaaaaaaaaaaaaaaaaaaaaaaaaaaaaaaaaaaaaaaaaaaaaaaaaaaaaaaaaaaaa",
"aaaaaaaaaaaaaaaaaaaaaaaaaaaaaaaaaaaaaaaaaaaaaaaaaaaaaaaaaaaaaaaaaaaaaaaaaaaaaaaaaaaaaaaaaaaaaaaaaaaaaaaaaaaaaaaaaaaaaaaaaaaaaaaaaaaaaaaaaaaaaaaaaaaaaaaaaaaaaaaaaaaaaaaaaaaaaaaaaaaaaaaaaaaaaaaaaaaaaaaaaaaaaaaaaaaaaaaaaaaaaaaaaaaaaaaaaaaaaaaaaaaaaaaaaaaaaaaaaaaaaaaaaaaaaaaaaaaaaaaaaaaaaaaaaaaaaaaaaaaaaaaaaaaaaaaaaaaaaaaaaaaaaaaaaaaaaaaaaaaaaaaaaaaaaaaaaaaaaaaaaaaaaaaaaaaaaaaaaaaaaaaaaaaaaaaaaaaaaaaaaaaaaaaaaaaaaaaaaaaaaaaaaaaaaaaaaaaaaaaaaaaaaaaaaaaaaaaaaaaaaaaaaaaaaaaaaaaaaaaaaaaaaaaaaaaaaaaaaaaaaaaaaaaaaaaaaaaaaaaaaaaaaaaaaaaaaaaaaaaaaaaaaaaaaaaaaaaaaaaaaaaaaaaaaaaaaaaaaaaaaaaaaaaaaaaaaaaaaaaaaaaaaaaaaaaaaaaaaaaaaaaaaaaaaaaaaaaaaaaaaaaaaaaaaaaaaaaaaaaaaaaaaaaaaaaaaaaaaaaaaaaaaaaaaaaaaaaaaaaaaaaaaaaaaaaaaaaaaaaaaaaaaaaaaaaaaaaaaaaaaaaaaaaaaaaaaaaaaaaaaaaaaaaaaaaaaaaaaaaaaaaaaaaaaaaaaaaaaaaa",
"aaaaaaaaaaaaaaaaaaaaaaaaaaaaaaaaaaaaaaaaaaaaaaaaaaaaaaaaaaaaaaaaaaaaaaaaaaaaaaaaaaaaaaaaaaaaaaaaaaaaaaaaaaaaaaaaaaaaaaaaaaaaaaaaaaaaaaaaaaaaaaaaaaaaaaaaaaaaaaaaaaaaaaaaaaaaaaaaaaaaaaaaaaaaaaaaaaaaaaaaaaaaaaaaaaaaaaaaaaaaaaaaaaaaaaaaaaaaaaaaaaaaaaaaaaaaaaaaaaaaaaaaaaaaaaaaaaaaaaaaaaaaaaaaaaaaaaaaaaaaaaaaaaaaaaaaaaaaaaaaaaaaaaaaaaaaaaaaaaaaaaaaaaaaaaaaaaaaaaaaaaaaaaaaaaaaaaaaaaaaaaaaaaaaaaaaaaaaaaaaaaaaaaaaaaaaaaaaaaaaaaaaaaaaaaaaaaaaaaaaaaaaaaaaaaaaaaaaaaaaaaaaaaaaaaaaaaaaaaaaaaaaaaaaaaaaaaaaaaaaaaaaaaaaaaaaaaaaaaaaaaaaaaaaaaaaaaaaaaaaaaaaaaaaaaaaaaaaaaaaaaaaaaaaaaaaaaaaaaaaaaaaaaaaaaaaaaaaaaaaaaaaaaaaaaaaaaaaaaaaaaaaaaaaaaaaaaaaaaaaaaaaaaaaaaaaaaaaaaaaaaaaaaaaaaaaaaaaaaaaaaaaaaaaaaaaaaaaaaaaaaaaaaaaaaaaaaaaaaaaaaaaaaaaaaaaaaaaaaaaaaaaaaaaaaaaaaaaaaaaaaaaaaaaaaaaaaaaaaaaaaaaaaaaaaaaaaaaaaaa",
"aaaaaaaaaaaaaaaaaaaaaaaaaaaaaaaaaaaaaaaaaaaaaaaaaaaaaaaaaaaaaaaaaaaaaaaaaaaaaaaaaaaaaaaaaaaaaaaaaaaaaaaaaaaaaaaaaaaaaaaaaaaaaaaaaaaaaaaaaaaaaaaaaaaaaaaaaaaaaaaaaaaaaaaaaaaaaaaaaaaaaaaaaaaaaaaaaaaaaaaaaaaaaaaaaaaaaaaaaaaaaaaaaaaaaaaaaaaaaaaaaaaaaaaaaaaaaaaaaaaaaaaaaaaaaaaaaaaaaaaaaaaaaaaaaaaaaaaaaaaaaaaaaaaaaaaaaaaaaaaaaaaaaaaaaaaaaaaaaaaaaaaaaaaaaaaaaaaaaaaaaaaaaaaaaaaaaaaaaaaaaaaaaaaaaaaaaaaaaaaaaaaaaaaaaaaaaaaaaaaaaaaaaaaaaaaaaaaaaaaaaaaaaaaaaaaaaaaaaaaaaaaaaaaaaaaaaaaaaaaaaaaaaaaaaaaaaaaaaaaaaaaaaaaaaaaaaaaaaaaaaaaaaaaaaaaaaaaaaaaaaaaaaaaaaaaaaaaaaaaaaaaaaaaaaaaaaaaaaaaaaaaaaaaaaaaaaaaaaaaaaaaaaaaaaaaaaaaaaaaaaaaaaaaaaaaaaaaaaaaaaaaaaaaaaaaaaaaaaaaaaaaaaaaaaaaaaaaaaaaaaaaaaaaaaaaaaaaaaaaaaaaaaaaaaaaaaaaaaaaaaaaaaaaaaaaaaaaaaaaaaaaaaaaaaaaaaaaaaaaaaaaaaaaaaaaaaaaaaaaaaaaaaaaaaaaaaaaaaaaa",
"aaaaaaaaaaaaaaaaaaaaaaaaaaaaaaaaaaaaaaaaaaaaaaaaaaaaaaaaaaaaaaaaaaaaaaaaaaaaaaaaaaaaaaaaaaaaaaaaaaaaaaaaaaaaaaaaaaaaaaaaaaaaaaaaaaaaaaaaaaaaaaaaaaaaaaaaaaaaaaaaaaaaaaaaaaaaaaaaaaaaaaaaaaaaaaaaaaaaaaaaaaaaaaaaaaaaaaaaaaaaaaaaaaaaaaaaaaaaaaaaaaaaaaaaaaaaaaaaaaaaaaaaaaaaaaaaaaaaaaaaaaaaaaaaaaaaaaaaaaaaaaaaaaaaaaaaaaaaaaaaaaaaaaaaaaaaaaaaaaaaaaaaaaaaaaaaaaaaaaaaaaaaaaaaaaaaaaaaaaaaaaaaaaaaaaaaaaaaaaaaaaaaaaaaaaaaaaaaaaaaaaaaaaaaaaaaaaaaaaaaaaaaaaaaaaaaaaaaaaaaaaaaaaaaaaaaaaaaaaaaaaaaaaaaaaaaaaaaaaaaaaaaaaaaaaaaaaaaaaaaaaaaaaaaaaaaaaaaaaaaaaaaaaaaaaaaaaaaaaaaaaaaaaaaaaaaaaaaaaaaaaaaaaaaaaaaaaaaaaaaaaaaaaaaaaaaaaaaaaaaaaaaaaaaaaaaaaaaaaaaaaaaaaaaaaaaaaaaaaaaaaaaaaaaaaaaaaaaaaaaaaaaaaaaaaaaaaaaaaaaaaaaaaaaaaaaaaaaaaaaaaaaaaaaaaaaaaaaaaaaaaaaaaaaaaaaaaaaaaaaaaaaaaaaaaaaaaaaaaaaaaaaaaaaaaaaaaaaaaaa",
"aaaaaaaaaaaaaaaaaaaaaaaaaaaaaaaaaaaaaaaaaaaaaaaaaaaaaaaaaaaaaaaaaaaaaaaaaaaaaaaaaaaaaaaaaaaaaaaaaaaaaaaaaaaaaaaaaaaaaaaaaaaaaaaaaaaaaaaaaaaaaaaaaaaaaaaaaaaaaaaaaaaaaaaaaaaaaaaaaaaaaaaaaaaaaaaaaaaaaaaaaaaaaaaaaaaaaaaaaaaaaaaaaaaaaaaaaaaaaaaaaaaaaaaaaaaaaaaaaaaaaaaaaaaaaaaaaaaaaaaaaaaaaaaaaaaaaaaaaaaaaaaaaaaaaaaaaaaaaaaaaaaaaaaaaaaaaaaaaaaaaaaaaaaaaaaaaaaaaaaaaaaaaaaaaaaaaaaaaaaaaaaaaaaaaaaaaaaaaaaaaaaaaaaaaaaaaaaaaaaaaaaaaaaaaaaaaaaaaaaaaaaaaaaaaaaaaaaaaaaaaaaaaaaaaaaaaaaaaaaaaaaaaaaaaaaaaaaaaaaaaaaaaaaaaaaaaaaaaaaaaaaaaaaaaaaaaaaaaaaaaaaaaaaaaaaaaaaaaaaaaaaaaaaaaaaaaaaaaaaaaaaaaaaaaaaaaaaaaaaaaaaaaaaaaaaaaaaaaaaaaaaaaaaaaaaaaaaaaaaaaaaaaaaaaaaaaaaaaaaaaaaaaaaaaaaaaaaaaaaaaaaaaaaaaaaaaaaaaaaaaaaaaaaaaaaaaaaaaaaaaaaaaaaaaaaaaaaaaaaaaaaaaaaaaaaaaaaaaaaaaaaaaaaaaaaaaaaaaaaaaaaaaaaaaaaaaaaaaaaa",
"aaaaaaaaaaaaaaaaaaaaaaaaaaaaaaaaaaaaaaaaaaaaaaaaaaaaaaaaaaaaaaaaaaaaaaaaaaaaaaaaaaaaaaaaaaaaaaaaaaaaaaaaaaaaaaaaaaaaaaaaaaaaaaaaaaaaaaaaaaaaaaaaaaaaaaaaaaaaaaaaaaaaaaaaaaaaaaaaaaaaaaaaaaaaaaaaaaaaaaaaaaaaaaaaaaaaaaaaaaaaaaaaaaaaaaaaaaaaaaaaaaaaaaaaaaaaaaaaaaaaaaaaaaaaaaaaaaaaaaaaaaaaaaaaaaaaaaaaaaaaaaaaaaaaaaaaaaaaaaaaaaaaaaaaaaaaaaaaaaaaaaaaaaaaaaaaaaaaaaaaaaaaaaaaaaaaaaaaaaaaaaaaaaaaaaaaaaaaaaaaaaaaaaaaaaaaaaaaaaaaaaaaaaaaaaaaaaaaaaaaaaaaaaaaaaaaaaaaaaaaaaaaaaaaaaaaaaaaaaaaaaaaaaaaaaaaaaaaaaaaaaaaaaaaaaaaaaaaaaaaaaaaaaaaaaaaaaaaaaaaaaaaaaaaaaaaaaaaaaaaaaaaaaaaaaaaaaaaaaaaaaaaaaaaaaaaaaaaaaaaaaaaaaaaaaaaaaaaaaaaaaaaaaaaaaaaaaaaaaaaaaaaaaaaaaaaaaaaaaaaaaaaaaaaaaaaaaaaaaaaaaaaaaaaaaaaaaaaaaaaaaaaaaaaaaaaaaaaaaaaaaaaaaaaaaaaaaaaaaaaaaaaaaaaaaaaaaaaaaaaaaaaaaaaaaaaaaaaaaaaaaaaaaaaaaaaaaaaaaaa",
"aaaaaaaaaaaaaaaaaaaaaaaaaaaaaaaaaaaaaaaaaaaaaaaaaaaaaaaaaaaaaaaaaaaaaaaaaaaaaaaaaaaaaaaaaaaaaaaaaaaaaaaaaaaaaaaaaaaaaaaaaaaaaaaaaaaaaaaaaaaaaaaaaaaaaaaaaaaaaaaaaaaaaaaaaaaaaaaaaaaaaaaaaaaaaaaaaaaaaaaaaaaaaaaaaaaaaaaaaaaaaaaaaaaaaaaaaaaaaaaaaaaaaaaaaaaaaaaaaaaaaaaaaaaaaaaaaaaaaaaaaaaaaaaaaaaaaaaaaaaaaaaaaaaaaaaaaaaaaaaaaaaaaaaaaaaaaaaaaaaaaaaaaaaaaaaaaaaaaaaaaaaaaaaaaaaaaaaaaaaaaaaaaaaaaaaaaaaaaaaaaaaaaaaaaaaaaaaaaaaaaaaaaaaaaaaaaaaaaaaaaaaaaaaaaaaaaaaaaaaaaaaaaaaaaaaaaaaaaaaaaaaaaaaaaaaaaaaaaaaaaaaaaaaaaaaaaaaaaaaaaaaaaaaaaaaaaaaaaaaaaaaaaaaaaaaaaaaaaaaaaaaaaaaaaaaaaaaaaaaaaaaaaaaaaaaaaaaaaaaaaaaaaaaaaaaaaaaaaaaaaaaaaaaaaaaaaaaaaaaaaaaaaaaaaaaaaaaaaaaaaaaaaaaaaaaaaaaaaaaaaaaaaaaaaaaaaaaaaaaaaaaaaaaaaaaaaaaaaaaaaaaaaaaaaaaaaaaaaaaaaaaaaaaaaaaaaaaaaaaaaaaaaaaaaaaaaaaaaaaaaaaaaaaaaaaaaaaaaaaa",
"aaaaaaaaaaaaaaaaaaaaaaaaaaaaaaaaaaaaaaaaaaaaaaaaaaaaaaaaaaaaaaaaaaaaaaaaaaaaaaaaaaaaaaaaaaaaaaaaaaaaaaaaaaaaaaaaaaaaaaaaaaaaaaaaaaaaaaaaaaaaaaaaaaaaaaaaaaaaaaaaaaaaaaaaaaaaaaaaaaaaaaaaaaaaaaaaaaaaaaaaaaaaaaaaaaaaaaaaaaaaaaaaaaaaaaaaaaaaaaaaaaaaaaaaaaaaaaaaaaaaaaaaaaaaaaaaaaaaaaaaaaaaaaaaaaaaaaaaaaaaaaaaaaaaaaaaaaaaaaaaaaaaaaaaaaaaaaaaaaaaaaaaaaaaaaaaaaaaaaaaaaaaaaaaaaaaaaaaaaaaaaaaaaaaaaaaaaaaaaaaaaaaaaaaaaaaaaaaaaaaaaaaaaaaaaaaaaaaaaaaaaaaaaaaaaaaaaaaaaaaaaaaaaaaaaaaaaaaaaaaaaaaaaaaaaaaaaaaaaaaaaaaaaaaaaaaaaaaaaaaaaaaaaaaaaaaaaaaaaaaaaaaaaaaaaaaaaaaaaaaaaaaaaaaaaaaaaaaaaaaaaaaaaaaaaaaaaaaaaaaaaaaaaaaaaaaaaaaaaaaaaaaaaaaaaaaaaaaaaaaaaaaaaaaaaaaaaaaaaaaaaaaaaaaaaaaaaaaaaaaaaaaaaaaaaaaaaaaaaaaaaaaaaaaaaaaaaaaaaaaaaaaaaaaaaaaaaaaaaaaaaaaaaaaaaaaaaaaaaaaaaaaaaaaaaaaaaaaaaaaaaaaaaaaaaaaaaaaaaaa",
"aaaaaaaaaaaaaaaaaaaaaaaaaaaaaaaaaaaaaaaaaaaaaaaaaaaaaaaaaaaaaaaaaaaaaaaaaaaaaaaaaaaaaaaaaaaaaaaaaaaaaaaaaaaaaaaaaaaaaaaaaaaaaaaaaaaaaaaaaaaaaaaaaaaaaaaaaaaaaaaaaaaaaaaaaaaaaaaaaaaaaaaaaaaaaaaaaaaaaaaaaaaaaaaaaaaaaaaaaaaaaaaaaaaaaaaaaaaaaaaaaaaaaaaaaaaaaaaaaaaaaaaaaaaaaaaaaaaaaaaaaaaaaaaaaaaaaaaaaaaaaaaaaaaaaaaaaaaaaaaaaaaaaaaaaaaaaaaaaaaaaaaaaaaaaaaaaaaaaaaaaaaaaaaaaaaaaaaaaaaaaaaaaaaaaaaaaaaaaaaaaaaaaaaaaaaaaaaaaaaaaaaaaaaaaaaaaaaaaaaaaaaaaaaaaaaaaaaaaaaaaaaaaaaaaaaaaaaaaaaaaaaaaaaaaaaaaaaaaaaaaaaaaaaaaaaaaaaaaaaaaaaaaaaaaaaaaaaaaaaaaaaaaaaaaaaaaaaaaaaaaaaaaaaaaaaaaaaaaaaaaaaaaaaaaaaaaaaaaaaaaaaaaaaaaaaaaaaaaaaaaaaaaaaaaaaaaaaaaaaaaaaaaaaaaaaaaaaaaaaaaaaaaaaaaaaaaaaaaaaaaaaaaaaaaaaaaaaaaaaaaaaaaaaaaaaaaaaaaaaaaaaaaaaaaaaaaaaaaaaaaaaaaaaaaaaaaaaaaaaaaaaaaaaaaaaaaaaaaaaaaaaaaaaaaaaaaaaaaaaa",
"aaaaaaaaaaaaaaaaaaaaaaaaaaaaaaaaaaaaaaaaaaaaaaaaaaaaaaaaaaaaaaaaaaaaaaaaaaaaaaaaaaaaaaaaaaaaaaaaaaaaaaaaaaaaaaaaaaaaaaaaaaaaaaaaaaaaaaaaaaaaaaaaaaaaaaaaaaaaaaaaaaaaaaaaaaaaaaaaaaaaaaaaaaaaaaaaaaaaaaaaaaaaaaaaaaaaaaaaaaaaaaaaaaaaaaaaaaaaaaaaaaaaaaaaaaaaaaaaaaaaaaaaaaaaaaaaaaaaaaaaaaaaaaaaaaaaaaaaaaaaaaaaaaaaaaaaaaaaaaaaaaaaaaaaaaaaaaaaaaaaaaaaaaaaaaaaaaaaaaaaaaaaaaaaaaaaaaaaaaaaaaaaaaaaaaaaaaaaaaaaaaaaaaaaaaaaaaaaaaaaaaaaaaaaaaaaaaaaaaaaaaaaaaaaaaaaaaaaaaaaaaaaaaaaaaaaaaaaaaaaaaaaaaaaaaaaaaaaaaaaaaaaaaaaaaaaaaaaaaaaaaaaaaaaaaaaaaaaaaaaaaaaaaaaaaaaaaaaaaaaaaaaaaaaaaaaaaaaaaaaaaaaaaaaaaaaaaaaaaaaaaaaaaaaaaaaaaaaaaaaaaaaaaaaaaaaaaaaaaaaaaaaaaaaaaaaaaaaaaaaaaaaaaaaaaaaaaaaaaaaaaaaaaaaaaaaaaaaaaaaaaaaaaaaaaaaaaaaaaaaaaaaaaaaaaaaaaaaaaaaaaaaaaaaaaaaaaaaaaaaaaaaaaaaaaaaaaaaaaaaaaaaaaaaaaaaaaaaaaaa",
"aaaaaaaaaaaaaaaaaaaaaaaaaaaaaaaaaaaaaaaaaaaaaaaaaaaaaaaaaaaaaaaaaaaaaaaaaaaaaaaaaaaaaaaaaaaaaaaaaaaaaaaaaaaaaaaaaaaaaaaaaaaaaaaaaaaaaaaaaaaaaaaaaaaaaaaaaaaaaaaaaaaaaaaaaaaaaaaaaaaaaaaaaaaaaaaaaaaaaaaaaaaaaaaaaaaaaaaaaaaaaaaaaaaaaaaaaaaaaaaaaaaaaaaaaaaaaaaaaaaaaaaaaaaaaaaaaaaaaaaaaaaaaaaaaaaaaaaaaaaaaaaaaaaaaaaaaaaaaaaaaaaaaaaaaaaaaaaaaaaaaaaaaaaaaaaaaaaaaaaaaaaaaaaaaaaaaaaaaaaaaaaaaaaaaaaaaaaaaaaaaaaaaaaaaaaaaaaaaaaaaaaaaaaaaaaaaaaaaaaaaaaaaaaaaaaaaaaaaaaaaaaaaaaaaaaaaaaaaaaaaaaaaaaaaaaaaaaaaaaaaaaaaaaaaaaaaaaaaaaaaaaaaaaaaaaaaaaaaaaaaaaaaaaaaaaaaaaaaaaaaaaaaaaaaaaaaaaaaaaaaaaaaaaaaaaaaaaaaaaaaaaaaaaaaaaaaaaaaaaaaaaaaaaaaaaaaaaaaaaaaaaaaaaaaaaaaaaaaaaaaaaaaaaaaaaaaaaaaaaaaaaaaaaaaaaaaaaaaaaaaaaaaaaaaaaaaaaaaaaaaaaaaaaaaaaaaaaaaaaaaaaaaaaaaaaaaaaaaaaaaaaaaaaaaaaaaaaaaaaaaaaaaaaaaaaaaaaaaaaa"
};
