/* XPM */
static char *win_play_again_btn[] = {
"256 64 6 2",
"aa c #FDE68A",
"ab c #E8C547",
"ac c #92400E",
"ad c #F4F4F4",
"ae c #000000",
"af c #FF00FF",
/* pixels */
"afafafafafafafafafafafafafafafafafafafafafafafafafafafafafafafafafafafafafafafafafafafafafafafafafafafafafafafafafafafafafafafafafafafafafafafafafafafafafafafafafafafafafafafafafafafafafafafafafafafafafafafafafafafafafafafafafafafafafafafafafafafafafafafafafafafafafafafafafafafafafafafafafafafafafafafafafafafafafafafafafafafafafafafafafafafafafafafafafafafafafafafafafafafafafafafafafafafafafafafafafafafafafafafafafafafafafafafafafafafafafafafafafafafafafafafafafafafafafafafafafafafafafafafafafafafafafafafaf",
"afafafafafafafafafafafafafafafafafafafafafafafafafafafafafafafafafafafafafafafafafafafafafafafafafafafafafafafafafafafafafafafafafafafafafafafafafafafafafafafafafafafafafafafafafafafafafafafafafafafafafafafafafafafafafafafafafafafafafafafafafafafafafafafafafafafafafafafafafafafafafafafafafafafafafafafafafafafafafafafafafafafafafafafafafafafafafafafafafafafafafafafafafafafafafafafafafafafafafafafafafafafafafafafafafafafafafafafafafafafafafafafafafafafafafafafafafafafafafafafafafafafafafafafafafafafafafafafaf",
"afafafafafafafafafafafafafafafafafafafafafafafafafafafafafafafafafafafafafafafafafafafafafafafafafafafafafafafafafafafafafafafafafafafafafafafafafafafafafafafafafafafafafafafafafafafafafafafafafafafafafafafafafafafafafafafafafafafafafafafafafafafafafafafafafafafafafafafafafafafafafafafafafafafafafafafafafafafafafafafafafafafafafafafafafafafafafafafafafafafafafafafafafafafafafafafafafafafafafafafafafafafafafafafafafafafafafafafafafafafafafafafafafafafafafafafafafafafafafafafafafafafafafafafafafafafafafafafaf",
"afafafafafafafafafafafafafafafafafafafafafafafafafafafafafafafafafafafafafafafafafafafafafafafafafafafafafafafafafafafafafafafafafafafafafafafafafafafafafafafafafafafafafafafafafafafafafafafafafafafafafafafafafafafafafafafafafafafafafafafafafafafafafafafafafafafafafafafafafafafafafafafafafafafafafafafafafafafafafafafafafafafafafafafafafafafafafafafafafafafafafafafafafafafafafafafafafafafafafafafafafafafafafafafafafafafafafafafafafafafafafafafafafafafafafafafafafafafafafafafafafafafafafafafafafafafafafafafaf",
"afafafafafafafafafafafafacacacacacacacacacacacacacacacacacacacacacacacacacacacacacacacacacacacacacacacacacacacacacacacacacacacacacacacacacacacacacacacacacacacacacacacacacacacacacacacacacacacacacacacacacacacacacacacacacacacacacacacacacacacacacacacacacacacacacacacacacacacacacacacacacacacacacacacacacacacacacacacacacacacacacacacacacacacacacacacacacacacacacacacacacacacacacacacacacacacacacacacacacacacacacacacacacacacacacacacacacacacacacacacacacacacacacacacacacacacacacacacacacacacacacacacacafafafafafafafafafafafaf",
"afafafafafafafafafacacacaaaaaaaaaaaaaaaaaaaaaaaaaaaaaaaaaaaaaaaaaaaaaaaaaaaaaaaaaaaaaaaaaaaaaaaaaaaaaaaaaaaaaaaaaaaaaaaaaaaaaaaaaaaaaaaaaaaaaaaaaaaaaaaaaaaaaaaaaaaaaaaaaaaaaaaaaaaaaaaaaaaaaaaaaaaaaaaaaaaaaaaaaaaaaaaaaaaaaaaaaaaaaaaaaaaaaaaaaaaaaaaaaaaaaaaaaaaaaaaaaaaaaaaaaaaaaaaaaaaaaaaaaaaaaaaaaaaaaaaaaaaaaaaaaaaaaaaaaaaaaaaaaaaaaaaaaaaaaaaaaaaaaaaaaaaaaaaaaaaaaaaaaaaaaaaaaaaaaaaaaaaaaaaaaaaaaaaaaaaaaaaaaaaaaaaaaaaaaaaaaaaaaaaaaaaaaaaaaaaaaaaaaaaaaaaaaaaaaaaaaaaaaaaaaaaaaaaaaaaaaaaaacacacafafafafafafafafaf",
"afafafafafafafacacaaaaaaaaaaaaaaaaaaaaaaaaaaaaaaaaaaaaaaaaaaaaaaaaaaaaaaaaaaaaaaaaaaaaaaaaaaaaaaaaaaaaaaaaaaaaaaaaaaaaaaaaaaaaaaaaaaaaaaaaaaaaaaaaaaaaaaaaaaaaaaaaaaaaaaaaaaaaaaaaaaaaaaaaaaaaaaaaaaaaaaaaaaaaaaaaaaaaaaaaaaaaaaaaaaaaaaaaaaaaaaaaaaaaaaaaaaaaaaaaaaaaaaaaaaaaaaaaaaaaaaaaaaaaaaaaaaaaaaaaaaaaaaaaaaaaaaaaaaaaaaaaaaaaaaaaaaaaaaaaaaaaaaaaaaaaaaaaaaaaaaaaaaaaaaaaaaaaaaaaaaaaaaaaaaaaaaaaaaaaaaaaaaaaaaaaaaaaaaaaaaaaaaaaaaaaaaaaaaaaaaaaaaaaaaaaaaaaaaaaaaaaaaaaaaaaaaaaaaaaaaaaaaaaaaaaaaaaacacafafafafafafaf",
"afafafafafafacaaaaaaaaaaaaaaaaaaaaaaaaaaaaaaaaaaaaaaaaaaaaaaaaaaaaaaaaaaaaaaaaaaaaaaaaaaaaaaaaaaaaaaaaaaaaaaaaaaaaaaaaaaaaaaaaaaaaaaaaaaaaaaaaaaaaaaaaaaaaaaaaaaaaaaaaaaaaaaaaaaaaaaaaaaaaaaaaaaaaaaaaaaaaaaaaaaaaaaaaaaaaaaaaaaaaaaaaaaaaaaaaaaaaaaaaaaaaaaaaaaaaaaaaaaaaaaaaaaaaaaaaaaaaaaaaaaaaaaaaaaaaaaaaaaaaaaaaaaaaaaaaaaaaaaaaaaaaaaaaaaaaaaaaaaaaaaaaaaaaaaaaaaaaaaaaaaaaaaaaaaaaaaaaaaaaaaaaaaaaaaaaaaaaaaaaaaaaaaaaaaaaaaaaaaaaaaaaaaaaaaaaaaaaaaaaaaaaaaaaaaaaaaaaaaaaaaaaaaaaaaaaaaaaaaaaaaaaaaaaaaaaacafafafafafaf",
"afafafafafafacaaaaaaaaaaaaaaaaaaaaaaaaaaaaaaaaaaaaaaaaaaaaaaaaaaaaaaaaaaaaaaaaaaaaaaaaaaaaaaaaaaaaaaaaaaaaaaaaaaaaaaaaaaaaaaaaaaaaaaaaaaaaaaaaaaaaaaaaaaaaaaaaaaaaaaaaaaaaaaaaaaaaaaaaaaaaaaaaaaaaaaaaaaaaaaaaaaaaaaaaaaaaaaaaaaaaaaaaaaaaaaaaaaaaaaaaaaaaaaaaaaaaaaaaaaaaaaaaaaaaaaaaaaaaaaaaaaaaaaaaaaaaaaaaaaaaaaaaaaaaaaaaaaaaaaaaaaaaaaaaaaaaaaaaaaaaaaaaaaaaaaaaaaaaaaaaaaaaaaaaaaaaaaaaaaaaaaaaaaaaaaaaaaaaaaaaaaaaaaaaaaaaaaaaaaaaaaaaaaaaaaaaaaaaaaaaaaaaaaaaaaaaaaaaaaaaaaaaaaaaaaaaaaaaaaaaaaaaaaaaaaaaacafafafafafaf",
"afafafafafacaaaaaaaaaaaaaaaaaaaaaaaaaaaaaaaaaaaaaaaaaaaaaaaaaaaaaaaaaaaaaaaaaaaaaaaaaaaaaaaaaaaaaaaaaaaaaaaaaaaaaaaaaaaaaaaaaaaaaaaaaaaaaaaaaaaaaaaaaaaaaaaaaaaaaaaaaaaaaaaaaaaaaaaaaaaaaaaaaaaaaaaaaaaaaaaaaaaaaaaaaaaaaaaaaaaaaaaaaaaaaaaaaaaaaaaaaaaaaaaaaaaaaaaaaaaaaaaaaaaaaaaaaaaaaaaaaaaaaaaaaaaaaaaaaaaaaaaaaaaaaaaaaaaaaaaaaaaaaaaaaaaaaaaaaaaaaaaaaaaaaaaaaaaaaaaaaaaaaaaaaaaaaaaaaaaaaaaaaaaaaaaaaaaaaaaaaaaaaaaaaaaaaaaaaaaaaaaaaaaaaaaaaaaaaaaaaaaaaaaaaaaaaaaaaaaaaaaaaaaaaaaaaaaaaaaaaaaaaaaaaaaaaaaaacafafafafaf",
"afafafafafacaaaaaaaaaaaaaaaaaaaaaaaaaaaaaaaaaaaaaaaaaaaaaaaaaaaaaaaaaaaaaaaaaaaaaaaaaaaaaaaaaaaaaaaaaaaaaaaaaaaaaaaaaaaaaaaaaaaaaaaaaaaaaaaaaaaaaaaaaaaaaaaaaaaaaaaaaaaaaaaaaaaaaaaaaaaaaaaaaaaaaaaaaaaaaaaaaaaaaaaaaaaaaaaaaaaaaaaaaaaaaaaaaaaaaaaaaaaaaaaaaaaaaaaaaaaaaaaaaaaaaaaaaaaaaaaaaaaaaaaaaaaaaaaaaaaaaaaaaaaaaaaaaaaaaaaaaaaaaaaaaaaaaaaaaaaaaaaaaaaaaaaaaaaaaaaaaaaaaaaaaaaaaaaaaaaaaaaaaaaaaaaaaaaaaaaaaaaaaaaaaaaaaaaaaaaaaaaaaaaaaaaaaaaaaaaaaaaaaaaaaaaaaaaaaaaaaaaaaaaaaaaaaaaaaaaaaaaaaaaaaaaaaaaaacafafafafaf",
"afafafafafacaaaaaaaaaaaaaaaaaaaaaaaaaaaaaaaaaaaaaaaaaaaaaaaaaaaaaaaaaaaaaaaaaaaaaaaaaaaaaaaaaaaaaaaaaaaaaaaaaaaaaaaaaaaaaaaaaaaaaaaaaaaaaaaaaaaaaaaaaaaaaaaaaaaaaaaaaaaaaaaaaaaaaaaaaaaaaaaaaaaaaaaaaaaaaaaaaaaaaaaaaaaaaaaaaaaaaaaaaaaaaaaaaaaaaaaaaaaaaaaaaaaaaaaaaaaaaaaaaaaaaaaaaaaaaaaaaaaaaaaaaaaaaaaaaaaaaaaaaaaaaaaaaaaaaaaaaaaaaaaaaaaaaaaaaaaaaaaaaaaaaaaaaaaaaaaaaaaaaaaaaaaaaaaaaaaaaaaaaaaaaaaaaaaaaaaaaaaaaaaaaaaaaaaaaaaaaaaaaaaaaaaaaaaaaaaaaaaaaaaaaaaaaaaaaaaaaaaaaaaaaaaaaaaaaaaaaaaaaaaaaaaaaaaaacafafafafaf",
"afafafafacababababababababababababababababababababababababababababababababababababababababababababababababababababababababababababababababababababababababababababababababababababababababababababababababababababababababababababababababababababababababababababababababababababababababababababababababababababababababababababababababababababababababababababababababababababababababababababababababababababababababababababababababababababababababababababababababababababababababababababababababababababababacafafafaf",
"afafafafacababababababababababababababababababababababababababababababababababababababababababababababababababababababababababababababababababababababababababababababababababababababababababababababababababababababababababababababababababababababababababababababababababababababababababababababababababababababababababababababababababababababababababababababababababababababababababababababababababababababababababababababababababababababababababababababababababababababababababababababababababababababacafafafaf",
"afafafafacababababababababababababababababababababababababababababababababababababababababababababababababababababababababababababababababababababababababababababababababababababababababababababababababababababababababababababababababababababababababababababababababababababababababababababababababababababababababababababababababababababababababababababababababababababababababababababababababababababababababababababababababababababababababababababababababababababababababababababababababababababababacafafafaf",
"afafafafacababababababababababababababababababababababababababababababababababababababababababababababababababababababababababababababababababababababababababababababababababababababababababababababababababababababababababababababababababababababababababababababababababababababababababababababababababababababababababababababababababababababababababababababababababababababababababababababababababababababababababababababababababababababababababababababababababababababababababababababababababababababacafafafaf",
"afafafafacababababababababababababababababababababababababababababababababababababababababababababababababababababababababababababababababababababababababababababababababababababababababababababababababababababababababababababababababababababababababababababababababababababababababababababababababababababababababababababababababababababababababababababababababababababababababababababababababababababababababababababababababababababababababababababababababababababababababababababababababababababababacafafafaf",
"afafafafacabababababadadadadadadadadadadadadadadadadababababababababadadadadababababababababababababababababababababababababababababadadadadababababababababababababadadadadababababababababababababadadadadababababababababababababababababababababababababababababababababababababadadadadababababababababababababababababadadadadadadadadadadadadababababababababababababababababadadadadababababababababababababababababadadadadadadadadadadadadababababababababadadadadababababababababababababadadadadabababababacafafafaf",
"afafafafacabababababadadadadadadadadadadadadadadadadababababababababadadadadababababababababababababababababababababababababababababadadadadababababababababababababadadadadababababababababababababadadadadababababababababababababababababababababababababababababababababababababadadadadababababababababababababababababadadadadadadadadadadadadababababababababababababababababadadadadababababababababababababababababadadadadadadadadadadadadababababababababadadadadababababababababababababadadadadabababababacafafafaf",
"afafafafacabababababadadadadadadadadadadadadadadadadaeaeababababababadadadadaeaeababababababababababababababababababababababababababadadadadaeaeababababababababababadadadadaeaeababababababababababadadadadaeaeababababababababababababababababababababababababababababababababababadadadadaeaeababababababababababababababadadadadadadadadadadadadaeaeababababababababababababababadadadadaeaeababababababababababababababadadadadadadadadadadadadaeaeababababababadadadadaeaeababababababababababadadadadaeaeabababacafafafaf",
"afafafafacabababababadadadadadadadadadadadadadadadadaeaeababababababadadadadaeaeababababababababababababababababababababababababababadadadadaeaeababababababababababadadadadaeaeababababababababababadadadadaeaeababababababababababababababababababababababababababababababababababadadadadaeaeababababababababababababababadadadadadadadadadadadadaeaeababababababababababababababadadadadaeaeababababababababababababababadadadadadadadadadadadadaeaeababababababadadadadaeaeababababababababababadadadadaeaeabababacafafafaf",
"afafafafacabababababadadadadaeaeaeaeaeaeaeaeaeaeaeaeadadadadababababadadadadaeaeababababababababababababababababababababababadadadadababaeaeadadadadababababababababadadadadaeaeababababababababababadadadadaeaeababababababababababababababababababababababababababababababadadadadababaeaeadadadadababababababababadadadadababaeaeaeaeaeaeaeaeaeaeadadadadababababababababadadadadababaeaeadadadadababababababababababababababaeaeadadadadaeaeaeaeaeaeababababababadadadadadadadadababababababababadadadadaeaeabababacafafafaf",
"afafafafacabababababadadadadaeaeaeaeaeaeaeaeaeaeaeaeadadadadababababadadadadaeaeababababababababababababababababababababababadadadadababaeaeadadadadababababababababadadadadaeaeababababababababababadadadadaeaeababababababababababababababababababababababababababababababadadadadababaeaeadadadadababababababababadadadadababaeaeaeaeaeaeaeaeaeaeadadadadababababababababadadadadababaeaeadadadadababababababababababababababaeaeadadadadaeaeaeaeaeaeababababababadadadadadadadadababababababababadadadadaeaeabababacafafafaf",
"afafafafacabababababadadadadaeaeababababababababababadadadadaeaeababadadadadaeaeababababababababababababababababababababababadadadadaeaeababadadadadaeaeababababababadadadadaeaeababababababababababadadadadaeaeababababababababababababababababababababababababababababababadadadadaeaeababadadadadaeaeababababababadadadadaeaeababababababababababadadadadaeaeababababababadadadadaeaeababadadadadaeaeababababababababababababababadadadadaeaeababababababababababadadadadadadadadaeaeababababababadadadadaeaeabababacafafafaf",
"afafafafacabababababadadadadaeaeababababababababababadadadadaeaeababadadadadaeaeababababababababababababababababababababababadadadadaeaeababadadadadaeaeababababababadadadadaeaeababababababababababadadadadaeaeababababababababababababababababababababababababababababababadadadadaeaeababadadadadaeaeababababababadadadadaeaeababababababababababadadadadaeaeababababababadadadadaeaeababadadadadaeaeababababababababababababababadadadadaeaeababababababababababadadadadadadadadaeaeababababababadadadadaeaeabababacafafafaf",
"afafafafacabababababadadadadaeaeababababababababababadadadadaeaeababadadadadaeaeababababababababababababababababababadadadadababaeaeaeaeababababaeaeadadadadababababababaeaeadadadadababababadadadadababaeaeaeaeababababababababababababababababababababababababababadadadadababaeaeaeaeababababaeaeadadadadababababadadadadaeaeababababababababababababaeaeaeaeababadadadadababaeaeaeaeababababaeaeadadadadababababababababababababadadadadaeaeababababababababababadadadadaeaeaeaeadadadadababababadadadadaeaeabababacafafafaf",
"afafafafacabababababadadadadaeaeababababababababababadadadadaeaeababadadadadaeaeababababababababababababababababababadadadadababaeaeaeaeababababaeaeadadadadababababababaeaeadadadadababababadadadadababaeaeaeaeababababababababababababababababababababababababababadadadadababaeaeaeaeababababaeaeadadadadababababadadadadaeaeababababababababababababaeaeaeaeababadadadadababaeaeaeaeababababaeaeadadadadababababababababababababadadadadaeaeababababababababababadadadadaeaeaeaeadadadadababababadadadadaeaeabababacafafafaf",
"afafafafacabababababadadadadaeaeababababababababababadadadadaeaeababadadadadaeaeababababababababababababababababababadadadadaeaeababababababababababadadadadaeaeababababababadadadadaeaeababadadadadaeaeababababababababababababababababababababababababababababababadadadadaeaeababababababababababadadadadaeaeababadadadadaeaeababababababababababababababababababadadadadaeaeababababababababababadadadadaeaeababababababababababadadadadaeaeababababababababababadadadadaeaeababadadadadaeaeababadadadadaeaeabababacafafafaf",
"afafafafacabababababadadadadaeaeababababababababababadadadadaeaeababadadadadaeaeababababababababababababababababababadadadadaeaeababababababababababadadadadaeaeababababababadadadadaeaeababadadadadaeaeababababababababababababababababababababababababababababababadadadadaeaeababababababababababadadadadaeaeababadadadadaeaeababababababababababababababababababadadadadaeaeababababababababababadadadadaeaeababababababababababadadadadaeaeababababababababababadadadadaeaeababadadadadaeaeababadadadadaeaeabababacafafafaf",
"afafafafacabababababadadadadadadadadadadadadadadadadababaeaeaeaeababadadadadaeaeababababababababababababababababababadadadadaeaeababababababababababadadadadaeaeababababababababaeaeadadadadababaeaeaeaeababababababababababababababababababababababababababababababadadadadaeaeababababababababababadadadadaeaeababadadadadaeaeababadadadadadadadadadadadadababababadadadadaeaeababababababababababadadadadaeaeababababababababababadadadadaeaeababababababababababadadadadaeaeababababaeaeadadadadadadadadaeaeabababacafafafaf",
"afafafafacabababababadadadadadadadadadadadadadadadadababaeaeaeaeababadadadadaeaeababababababababababababababababababadadadadaeaeababababababababababadadadadaeaeababababababababaeaeadadadadababaeaeaeaeababababababababababababababababababababababababababababababadadadadaeaeababababababababababadadadadaeaeababadadadadaeaeababadadadadadadadadadadadadababababadadadadaeaeababababababababababadadadadaeaeababababababababababadadadadaeaeababababababababababadadadadaeaeababababaeaeadadadadadadadadaeaeabababacafafafaf",
"afafafafacabababababadadadadadadadadadadadadadadadadaeaeababababababadadadadaeaeababababababababababababababababababadadadadaeaeababababababababababadadadadaeaeababababababababababadadadadaeaeababababababababababababababababababababababababababababababababababadadadadaeaeababababababababababadadadadaeaeababadadadadaeaeababadadadadadadadadadadadadaeaeababadadadadaeaeababababababababababadadadadaeaeababababababababababadadadadaeaeababababababababababadadadadaeaeababababababadadadadadadadadaeaeabababacafafafaf",
"afafafafacabababababadadadadadadadadadadadadadadadadaeaeababababababadadadadaeaeababababababababababababababababababadadadadaeaeababababababababababadadadadaeaeababababababababababadadadadaeaeababababababababababababababababababababababababababababababababababadadadadaeaeababababababababababadadadadaeaeababadadadadaeaeababadadadadadadadadadadadadaeaeababadadadadaeaeababababababababababadadadadaeaeababababababababababadadadadaeaeababababababababababadadadadaeaeababababababadadadadadadadadaeaeabababacafafafaf",
"afafafafacabababababadadadadaeaeaeaeaeaeaeaeaeaeaeaeaeaeababababababadadadadaeaeababababababababababababababababababadadadadadadadadadadadadadadadadadadadadaeaeababababababababababadadadadaeaeababababababababababababababababababababababababababababababababababadadadadadadadadadadadadadadadadadadadadaeaeababadadadadaeaeababababaeaeaeaeaeaeadadadadaeaeababadadadadadadadadadadadadadadadadadadadadaeaeababababababababababadadadadaeaeababababababababababadadadadaeaeababababababababaeaeadadadadaeaeabababacafafafaf",
"afafafafacabababababadadadadaeaeaeaeaeaeaeaeaeaeaeaeaeaeababababababadadadadaeaeababababababababababababababababababadadadadadadadadadadadadadadadadadadadadaeaeababababababababababadadadadaeaeababababababababababababababababababababababababababababababababababadadadadadadadadadadadadadadadadadadadadaeaeababadadadadaeaeababababaeaeaeaeaeaeadadadadaeaeababadadadadadadadadadadadadadadadadadadadadaeaeababababababababababadadadadaeaeababababababababababadadadadaeaeababababababababaeaeadadadadaeaeabababacafafafaf",
"afafafafacabababababadadadadaeaeababababababababababababababababababadadadadaeaeababababababababababababababababababadadadadadadadadadadadadadadadadadadadadaeaeababababababababababadadadadaeaeababababababababababababababababababababababababababababababababababadadadadadadadadadadadadadadadadadadadadaeaeababadadadadaeaeababababababababababadadadadaeaeababadadadadadadadadadadadadadadadadadadadadaeaeababababababababababadadadadaeaeababababababababababadadadadaeaeababababababababababadadadadaeaeabababacafafafaf",
"afafafafacabababababadadadadaeaeababababababababababababababababababadadadadaeaeababababababababababababababababababadadadadadadadadadadadadadadadadadadadadaeaeababababababababababadadadadaeaeababababababababababababababababababababababababababababababababababadadadadadadadadadadadadadadadadadadadadaeaeababadadadadaeaeababababababababababadadadadaeaeababadadadadadadadadadadadadadadadadadadadadaeaeababababababababababadadadadaeaeababababababababababadadadadaeaeababababababababababadadadadaeaeabababacafafafaf",
"afafafafacabababababadadadadaeaeababababababababababababababababababadadadadaeaeababababababababababababababababababadadadadaeaeaeaeaeaeaeaeaeaeaeaeadadadadaeaeababababababababababadadadadaeaeababababababababababababababababababababababababababababababababababadadadadaeaeaeaeaeaeaeaeaeaeaeaeadadadadaeaeababadadadadaeaeababababababababababadadadadaeaeababadadadadaeaeaeaeaeaeaeaeaeaeaeaeadadadadaeaeababababababababababadadadadaeaeababababababababababadadadadaeaeababababababababababadadadadaeaeabababacafafafaf",
"afafafafacabababababadadadadaeaeababababababababababababababababababadadadadaeaeababababababababababababababababababadadadadaeaeaeaeaeaeaeaeaeaeaeaeadadadadaeaeababababababababababadadadadaeaeababababababababababababababababababababababababababababababababababadadadadaeaeaeaeaeaeaeaeaeaeaeaeadadadadaeaeababadadadadaeaeababababababababababadadadadaeaeababadadadadaeaeaeaeaeaeaeaeaeaeaeaeadadadadaeaeababababababababababadadadadaeaeababababababababababadadadadaeaeababababababababababadadadadaeaeabababacafafafaf",
"afafafafacabababababadadadadaeaeababababababababababababababababababadadadadaeaeababababababababababababababababababadadadadaeaeababababababababababadadadadaeaeababababababababababadadadadaeaeababababababababababababababababababababababababababababababababababadadadadaeaeababababababababababadadadadaeaeababadadadadaeaeababababababababababadadadadaeaeababadadadadaeaeababababababababababadadadadaeaeababababababababababadadadadaeaeababababababababababadadadadaeaeababababababababababadadadadaeaeabababacafafafaf",
"afafafafacabababababadadadadaeaeababababababababababababababababababadadadadaeaeababababababababababababababababababadadadadaeaeababababababababababadadadadaeaeababababababababababadadadadaeaeababababababababababababababababababababababababababababababababababadadadadaeaeababababababababababadadadadaeaeababadadadadaeaeababababababababababadadadadaeaeababadadadadaeaeababababababababababadadadadaeaeababababababababababadadadadaeaeababababababababababadadadadaeaeababababababababababadadadadaeaeabababacafafafaf",
"afafafafacabababababadadadadaeaeababababababababababababababababababadadadadadadadadadadadadadadadadadadadadababababadadadadaeaeababababababababababadadadadaeaeababababababababababadadadadaeaeababababababababababababababababababababababababababababababababababadadadadaeaeababababababababababadadadadaeaeababababaeaeadadadadadadadadadadadadababaeaeaeaeababadadadadaeaeababababababababababadadadadaeaeababababababadadadadadadadadadadadadababababababababadadadadaeaeababababababababababadadadadaeaeabababacafafafaf",
"afafafafacabababababadadadadaeaeababababababababababababababababababadadadadadadadadadadadadadadadadadadadadababababadadadadaeaeababababababababababadadadadaeaeababababababababababadadadadaeaeababababababababababababababababababababababababababababababababababadadadadaeaeababababababababababadadadadaeaeababababaeaeadadadadadadadadadadadadababaeaeaeaeababadadadadaeaeababababababababababadadadadaeaeababababababadadadadadadadadadadadadababababababababadadadadaeaeababababababababababadadadadaeaeabababacafafafaf",
"afafafafacabababababadadadadaeaeababababababababababababababababababadadadadadadadadadadadadadadadadadadadadaeaeababadadadadaeaeababababababababababadadadadaeaeababababababababababadadadadaeaeababababababababababababababababababababababababababababababababababadadadadaeaeababababababababababadadadadaeaeababababababadadadadadadadadadadadadaeaeababababababadadadadaeaeababababababababababadadadadaeaeababababababadadadadadadadadadadadadaeaeababababababadadadadaeaeababababababababababadadadadaeaeabababacafafafaf",
"afafafafacabababababadadadadaeaeababababababababababababababababababadadadadadadadadadadadadadadadadadadadadaeaeababadadadadaeaeababababababababababadadadadaeaeababababababababababadadadadaeaeababababababababababababababababababababababababababababababababababadadadadaeaeababababababababababadadadadaeaeababababababadadadadadadadadadadadadaeaeababababababadadadadaeaeababababababababababadadadadaeaeababababababadadadadadadadadadadadadaeaeababababababadadadadaeaeababababababababababadadadadaeaeabababacafafafaf",
"afafafafacabababababababaeaeaeaeababababababababababababababababababababaeaeaeaeaeaeaeaeaeaeaeaeaeaeaeaeaeaeaeaeababababaeaeaeaeababababababababababababaeaeaeaeababababababababababababaeaeaeaeababababababababababababababababababababababababababababababababababababaeaeaeaeababababababababababababaeaeaeaeababababababababaeaeaeaeaeaeaeaeaeaeaeaeababababababababaeaeaeaeababababababababababababaeaeaeaeababababababababaeaeaeaeaeaeaeaeaeaeaeaeababababababababaeaeaeaeababababababababababababaeaeaeaeabababacafafafaf",
"afafafafacabababababababaeaeaeaeababababababababababababababababababababaeaeaeaeaeaeaeaeaeaeaeaeaeaeaeaeaeaeaeaeababababaeaeaeaeababababababababababababaeaeaeaeababababababababababababaeaeaeaeababababababababababababababababababababababababababababababababababababaeaeaeaeababababababababababababaeaeaeaeababababababababaeaeaeaeaeaeaeaeaeaeaeaeababababababababaeaeaeaeababababababababababababaeaeaeaeababababababababaeaeaeaeaeaeaeaeaeaeaeaeababababababababaeaeaeaeababababababababababababaeaeaeaeabababacafafafaf",
"afafafafacababababababababababababababababababababababababababababababababababababababababababababababababababababababababababababababababababababababababababababababababababababababababababababababababababababababababababababababababababababababababababababababababababababababababababababababababababababababababababababababababababababababababababababababababababababababababababababababababababababababababababababababababababababababababababababababababababababababababababababababababababababababacafafafaf",
"afafafafacababababababababababababababababababababababababababababababababababababababababababababababababababababababababababababababababababababababababababababababababababababababababababababababababababababababababababababababababababababababababababababababababababababababababababababababababababababababababababababababababababababababababababababababababababababababababababababababababababababababababababababababababababababababababababababababababababababababababababababababababababababababacafafafaf",
"afafafafacababababababababababababababababababababababababababababababababababababababababababababababababababababababababababababababababababababababababababababababababababababababababababababababababababababababababababababababababababababababababababababababababababababababababababababababababababababababababababababababababababababababababababababababababababababababababababababababababababababababababababababababababababababababababababababababababababababababababababababababababababababababacafafafaf",
"afafafafacababababababababababababababababababababababababababababababababababababababababababababababababababababababababababababababababababababababababababababababababababababababababababababababababababababababababababababababababababababababababababababababababababababababababababababababababababababababababababababababababababababababababababababababababababababababababababababababababababababababababababababababababababababababababababababababababababababababababababababababababababababababacafafafaf",
"afafafafacababababababababababababababababababababababababababababababababababababababababababababababababababababababababababababababababababababababababababababababababababababababababababababababababababababababababababababababababababababababababababababababababababababababababababababababababababababababababababababababababababababababababababababababababababababababababababababababababababababababababababababababababababababababababababababababababababababababababababababababababababababababacafafafaf",
"afafafafafacababababababababababababababababababababababababababababababababababababababababababababababababababababababababababababababababababababababababababababababababababababababababababababababababababababababababababababababababababababababababababababababababababababababababababababababababababababababababababababababababababababababababababababababababababababababababababababababababababababababababababababababababababababababababababababababababababababababababababababababababababababacafafafafaf",
"afafafafafacababababababababababababababababababababababababababababababababababababababababababababababababababababababababababababababababababababababababababababababababababababababababababababababababababababababababababababababababababababababababababababababababababababababababababababababababababababababababababababababababababababababababababababababababababababababababababababababababababababababababababababababababababababababababababababababababababababababababababababababababababababacafafafafaf",
"afafafafafacacacacacacacacacacacacacacacacacacacacacacacacacacacacacacacacacacacacacacacacacacacacacacacacacacacacacacacacacacacacacacacacacacacacacacacacacacacacacacacacacacacacacacacacacacacacacacacacacacacacacacacacacacacacacacacacacacacacacacacacacacacacacacacacacacacacacacacacacacacacacacacacacacacacacacacacacacacacacacacacacacacacacacacacacacacacacacacacacacacacacacacacacacacacacacacacacacacacacacacacacacacacacacacacacacacacacacacacacacacacacacacacacacacacacacacacacacacacacacacacacacacacacacafafafafaf",
"afafafafafafacacacacacacacacacacacacacacacacacacacacacacacacacacacacacacacacacacacacacacacacacacacacacacacacacacacacacacacacacacacacacacacacacacacacacacacacacacacacacacacacacacacacacacacacacacacacacacacacacacacacacacacacacacacacacacacacacacacacacacacacacacacacacacacacacacacacacacacacacacacacacacacacacacacacacacacacacacacacacacacacacacacacacacacacacacacacacacacacacacacacacacacacacacacacacacacacacacacacacacacacacacacacacacacacacacacacacacacacacacacacacacacacacacacacacacacacacacacacacacacacacacacacafafafafafaf",
"afafafafafafacacacacacacacacacacacacacacacacacacacacacacacacacacacacacacacacacacacacacacacacacacacacacacacacacacacacacacacacacacacacacacacacacacacacacacacacacacacacacacacacacacacacacacacacacacacacacacacacacacacacacacacacacacacacacacacacacacacacacacacacacacacacacacacacacacacacacacacacacacacacacacacacacacacacacacacacacacacacacacacacacacacacacacacacacacacacacacacacacacacacacacacacacacacacacacacacacacacacacacacacacacacacacacacacacacacacacacacacacacacacacacacacacacacacacacacacacacacacacacacacacacacacafafafafafaf",
"afafafafafafafacacacacacacacacacacacacacacacacacacacacacacacacacacacacacacacacacacacacacacacacacacacacacacacacacacacacacacacacacacacacacacacacacacacacacacacacacacacacacacacacacacacacacacacacacacacacacacacacacacacacacacacacacacacacacacacacacacacacacacacacacacacacacacacacacacacacacacacacacacacacacacacacacacacacacacacacacacacacacacacacacacacacacacacacacacacacacacacacacacacacacacacacacacacacacacacacacacacacacacacacacacacacacacacacacacacacacacacacacacacacacacacacacacacacacacacacacacacacacacacacacacafafafafafafaf",
"afafafafafafafafafacacacacacacacacacacacacacacacacacacacacacacacacacacacacacacacacacacacacacacacacacacacacacacacacacacacacacacacacacacacacacacacacacacacacacacacacacacacacacacacacacacacacacacacacacacacacacacacacacacacacacacacacacacacacacacacacacacacacacacacacacacacacacacacacacacacacacacacacacacacacacacacacacacacacacacacacacacacacacacacacacacacacacacacacacacacacacacacacacacacacacacacacacacacacacacacacacacacacacacacacacacacacacacacacacacacacacacacacacacacacacacacacacacacacacacacacacacacacacacafafafafafafafafaf",
"afafafafafafafafafafafafacacacacacacacacacacacacacacacacacacacacacacacacacacacacacacacacacacacacacacacacacacacacacacacacacacacacacacacacacacacacacacacacacacacacacacacacacacacacacacacacacacacacacacacacacacacacacacacacacacacacacacacacacacacacacacacacacacacacacacacacacacacacacacacacacacacacacacacacacacacacacacacacacacacacacacacacacacacacacacacacacacacacacacacacacacacacacacacacacacacacacacacacacacacacacacacacacacacacacacacacacacacacacacacacacacacacacacacacacacacacacacacacacacacacacacacacafafafafafafafafafafafaf",
"afafafafafafafafafafafafafafafafafafafafafafafafafafafafafafafafafafafafafafafafafafafafafafafafafafafafafafafafafafafafafafafafafafafafafafafafafafafafafafafafafafafafafafafafafafafafafafafafafafafafafafafafafafafafafafafafafafafafafafafafafafafafafafafafafafafafafafafafafafafafafafafafafafafafafafafafafafafafafafafafafafafafafafafafafafafafafafafafafafafafafafafafafafafafafafafafafafafafafafafafafafafafafafafafafafafafafafafafafafafafafafafafafafafafafafafafafafafafafafafafafafafafafafafafafafafafafafafaf",
"afafafafafafafafafafafafafafafafafafafafafafafafafafafafafafafafafafafafafafafafafafafafafafafafafafafafafafafafafafafafafafafafafafafafafafafafafafafafafafafafafafafafafafafafafafafafafafafafafafafafafafafafafafafafafafafafafafafafafafafafafafafafafafafafafafafafafafafafafafafafafafafafafafafafafafafafafafafafafafafafafafafafafafafafafafafafafafafafafafafafafafafafafafafafafafafafafafafafafafafafafafafafafafafafafafafafafafafafafafafafafafafafafafafafafafafafafafafafafafafafafafafafafafafafafafafafafafafaf",
"afafafafafafafafafafafafafafafafafafafafafafafafafafafafafafafafafafafafafafafafafafafafafafafafafafafafafafafafafafafafafafafafafafafafafafafafafafafafafafafafafafafafafafafafafafafafafafafafafafafafafafafafafafafafafafafafafafafafafafafafafafafafafafafafafafafafafafafafafafafafafafafafafafafafafafafafafafafafafafafafafafafafafafafafafafafafafafafafafafafafafafafafafafafafafafafafafafafafafafafafafafafafafafafafafafafafafafafafafafafafafafafafafafafafafafafafafafafafafafafafafafafafafafafafafafafafafafafaf",
"afafafafafafafafafafafafafafafafafafafafafafafafafafafafafafafafafafafafafafafafafafafafafafafafafafafafafafafafafafafafafafafafafafafafafafafafafafafafafafafafafafafafafafafafafafafafafafafafafafafafafafafafafafafafafafafafafafafafafafafafafafafafafafafafafafafafafafafafafafafafafafafafafafafafafafafafafafafafafafafafafafafafafafafafafafafafafafafafafafafafafafafafafafafafafafafafafafafafafafafafafafafafafafafafafafafafafafafafafafafafafafafafafafafafafafafafafafafafafafafafafafafafafafafafafafafafafafafaf"
};
