/* XPM */
static char *pause_panel_xpm[] = {
"300 200 4 1",
"  c #000033",
"B c #4444AA",
"Y c #FFD700",
"T c #F4F4F4",
/* pixels */
"BBBBBBBBBBBBBBBBBBBBBBBBBBBBBBBBBBBBBBBBBBBBBBBBBBBBBBBBBBBBBBBBBBBBBBBBBBBBBBBBBBBBBBBBBBBBBBBBBBBBBBBBBBBBBBBBBBBBBBBBBBBBBBBBBBBBBBBBBBBBBBBBBBBBBBBBBBBBBBBBBBBBBBBBBBBBBBBBBBBBBBBBBBBBBBBBBBBBBBBBBBBBBBBBBBBBBBBBBBBBBBBBBBBBBBBBBBBBBBBBBBBBBBBBBBBBBBBBBBBBBBBBBBBBBBBBBBBBBBBBBBBBBBBBBBBBBBBBBBBB",
"BBBBBBBBBBBBBBBBBBBBBBBBBBBBBBBBBBBBBBBBBBBBBBBBBBBBBBBBBBBBBBBBBBBBBBBBBBBBBBBBBBBBBBBBBBBBBBBBBBBBBBBBBBBBBBBBBBBBBBBBBBBBBBBBBBBBBBBBBBBBBBBBBBBBBBBBBBBBBBBBBBBBBBBBBBBBBBBBBBBBBBBBBBBBBBBBBBBBBBBBBBBBBBBBBBBBBBBBBBBBBBBBBBBBBBBBBBBBBBBBBBBBBBBBBBBBBBBBBBBBBBBBBBBBBBBBBBBBBBBBBBBBBBBBBBBBBBBBBBBB",
"BBBBBBBBBBBBBBBBBBBBBBBBBBBBBBBBBBBBBBBBBBBBBBBBBBBBBBBBBBBBBBBBBBBBBBBBBBBBBBBBBBBBBBBBBBBBBBBBBBBBBBBBBBBBBBBBBBBBBBBBBBBBBBBBBBBBBBBBBBBBBBBBBBBBBBBBBBBBBBBBBBBBBBBBBBBBBBBBBBBBBBBBBBBBBBBBBBBBBBBBBBBBBBBBBBBBBBBBBBBBBBBBBBBBBBBBBBBBBBBBBBBBBBBBBBBBBBBBBBBBBBBBBBBBBBBBBBBBBBBBBBBBBBBBBBBBBBBBBBBB",
"BBBBBBBBBBBBBBBBBBBBBBBBBBBBBBBBBBBBBBBBBBBBBBBBBBBBBBBBBBBBBBBBBBBBBBBBBBBBBBBBBBBBBBBBBBBBBBBBBBBBBBBBBBBBBBBBBBBBBBBBBBBBBBBBBBBBBBBBBBBBBBBBBBBBBBBBBBBBBBBBBBBBBBBBBBBBBBBBBBBBBBBBBBBBBBBBBBBBBBBBBBBBBBBBBBBBBBBBBBBBBBBBBBBBBBBBBBBBBBBBBBBBBBBBBBBBBBBBBBBBBBBBBBBBBBBBBBBBBBBBBBBBBBBBBBBBBBBBBBBB",
"BBBBBBBBBBBBBBBBBBBBBBBBBBBBBBBBBBBBBBBBBBBBBBBBBBBBBBBBBBBBBBBBBBBBBBBBBBBBBBBBBBBBBBBBBBBBBBBBBBBBBBBBBBBBBBBBBBBBBBBBBBBBBBBBBBBBBBBBBBBBBBBBBBBBBBBBBBBBBBBBBBBBBBBBBBBBBBBBBBBBBBBBBBBBBBBBBBBBBBBBBBBBBBBBBBBBBBBBBBBBBBBBBBBBBBBBBBBBBBBBBBBBBBBBBBBBBBBBBBBBBBBBBBBBBBBBBBBBBBBBBBBBBBBBBBBBBBBBBBBB",
"BBBBBYYYYYYYYYYYYYYYYYYYYYYYYYYYYYYYYYYYYYYYYYYYYYYYYYYYYYYYYYYYYYYYYYYYYYYYYYYYYYYYYYYYYYYYYYYYYYYYYYYYYYYYYYYYYYYYYYYYYYYYYYYYYYYYYYYYYYYYYYYYYYYYYYYYYYYYYYYYYYYYYYYYYYYYYYYYYYYYYYYYYYYYYYYYYYYYYYYYYYYYYYYYYYYYYYYYYYYYYYYYYYYYYYYYYYYYYYYYYYYYYYYYYYYYYYYYYYYYYYYYYYYYYYYYYYYYYYYYYYYYYYYYYYYYYYYBBBBB",
"BBBBBYYYYYYYYYYYYYYYYYYYYYYYYYYYYYYYYYYYYYYYYYYYYYYYYYYYYYYYYYYYYYYYYYYYYYYYYYYYYYYYYYYYYYYYYYYYYYYYYYYYYYYYYYYYYYYYYYYYYYYYYYYYYYYYYYYYYYYYYYYYYYYYYYYYYYYYYYYYYYYYYYYYYYYYYYYYYYYYYYYYYYYYYYYYYYYYYYYYYYYYYYYYYYYYYYYYYYYYYYYYYYYYYYYYYYYYYYYYYYYYYYYYYYYYYYYYYYYYYYYYYYYYYYYYYYYYYYYYYYYYYYYYYYYYYYYBBBBB",
"BBBBB                                                                                                                                                                                                                                                                                                  BBBBB",
"BBBBB                                                                                                                                                                                                                                                                                                  BBBBB",
"BBBBB                                                                                                                                                                                                                                                                                                  BBBBB",
"BBBBB                                                                                                                                                                                                                                                                                                  BBBBB",
"BBBBB                                                                                                                                                                                                                                                                                                  BBBBB",
"BBBBB                                                                                                                                                                                                                                                                                                  BBBBB",
"BBBBB                                                                                                                                                                                                                                                                                                  BBBBB",
"BBBBB                                                                                                                                                                                                                                                                                                  BBBBB",
"BBBBB                                                                                                                                                                                                                                                                                                  BBBBB",
"BBBBB                                                                                                                                                                                                                                                                                                  BBBBB",
"BBBBB                                                                                                                                                                                                                                                                                                  BBBBB",
"BBBBB                                                                                                                                                                                                                                                                                                  BBBBB",
"BBBBB                                                                                                                                                                                                                                                                                                  BBBBB",
"BBBBB                                                                                                                                                                                                                                                                                                  BBBBB",
"BBBBB                                                                                                                                                                                                                                                                                                  BBBBB",
"BBBBB                                                                                            TTTTTTTTTTTT         TTTTTTTTT      TTT         TTT      TTTTTTTTT      TTTTTTTTTTTTTTT   TTTTTTTTT                                                                                                   BBBBB",
"BBBBB                                                                                            TTTTTTTTTTTT         TTTTTTTTT      TTT         TTT      TTTTTTTTT      TTTTTTTTTTTTTTT   TTTTTTTTT                                                                                                   BBBBB",
"BBBBB                                                                                            TTTTTTTTTTTT         TTTTTTTTT      TTT         TTT      TTTTTTTTT      TTTTTTTTTTTTTTT   TTTTTTTTT                                                                                                   BBBBB",
"BBBBB                                                                                            TTT         TTT   TTT         TTT   TTT         TTT   TTT         TTT   TTT               TTT      TTT                                                                                                BBBBB",
"BBBBB                                                                                            TTT         TTT   TTT         TTT   TTT         TTT   TTT         TTT   TTT               TTT      TTT                                                                                                BBBBB",
"BBBBB                                                                                            TTT         TTT   TTT         TTT   TTT         TTT   TTT         TTT   TTT               TTT      TTT                                                                                                BBBBB",
"BBBBB                                                                                            TTT         TTT   TTT         TTT   TTT         TTT   TTT               TTT               TTT         TTT                                                                                             BBBBB",
"BBBBB                                                                                            TTT         TTT   TTT         TTT   TTT         TTT   TTT               TTT               TTT         TTT                                                                                             BBBBB",
"BBBBB                                                                                            TTT         TTT   TTT         TTT   TTT         TTT   TTT               TTT               TTT         TTT                                                                                             BBBBB",
"BBBBB                                                                                            TTTTTTTTTTTT      TTTTTTTTTTTTTTT   TTT         TTT      TTTTTTTTT      TTTTTTTTTTTT      TTT         TTT                                                                                             BBBBB",
"BBBBB                                                                                            TTTTTTTTTTTT      TTTTTTTTTTTTTTT   TTT         TTT      TTTTTTTTT      TTTTTTTTTTTT      TTT         TTT                                                                                             BBBBB",
"BBBBB                                                                                            TTTTTTTTTTTT      TTTTTTTTTTTTTTT   TTT         TTT      TTTTTTTTT      TTTTTTTTTTTT      TTT         TTT                                                                                             BBBBB",
"BBBBB                                                                                            TTT               TTT         TTT   TTT         TTT               TTT   TTT               TTT         TTT                                                                                             BBBBB",
"BBBBB                                                                                            TTT               TTT         TTT   TTT         TTT               TTT   TTT               TTT         TTT                                                                                             BBBBB",
"BBBBB                                                                                            TTT               TTT         TTT   TTT         TTT               TTT   TTT               TTT         TTT                                                                                             BBBBB",
"BBBBB                                                                                            TTT               TTT         TTT   TTT         TTT   TTT         TTT   TTT               TTT      TTT                                                                                                BBBBB",
"BBBBB                                                                                            TTT               TTT         TTT   TTT         TTT   TTT         TTT   TTT               TTT      TTT                                                                                                BBBBB",
"BBBBB                                                                                            TTT               TTT         TTT   TTT         TTT   TTT         TTT   TTT               TTT      TTT                                                                                                BBBBB",
"BBBBB                                                                                            TTT               TTT         TTT      TTTTTTTTT         TTTTTTTTT      TTTTTTTTTTTTTTT   TTTTTTTTT                                                                                                   BBBBB",
"BBBBB                                                                                            TTT               TTT         TTT      TTTTTTTTT         TTTTTTTTT      TTTTTTTTTTTTTTT   TTTTTTTTT                                                                                                   BBBBB",
"BBBBB                                                                                            TTT               TTT         TTT      TTTTTTTTT         TTTTTTTTT      TTTTTTTTTTTTTTT   TTTTTTTTT                                                                                                   BBBBB",
"BBBBB                                                                                                                                                                                                                                                                                                  BBBBB",
"BBBBB                                                                                                                                                                                                                                                                                                  BBBBB",
"BBBBB                                                                                                                                                                                                                                                                                                  BBBBB",
"BBBBB                                                                                                                                                                                                                                                                                                  BBBBB",
"BBBBB                                                                                                                                                                                                                                                                                                  BBBBB",
"BBBBB                                                                                                                                                                                                                                                                                                  BBBBB",
"BBBBB                                                                                                                                                                                                                                                                                                  BBBBB",
"BBBBB                                                                                                                                                                                                                                                                                                  BBBBB",
"BBBBB                                                                                                                                                                                                                                                                                                  BBBBB",
"BBBBB                                                                                                                                                                                                                                                                                                  BBBBB",
"BBBBB                                                                                                                                                                                                                                                                                                  BBBBB",
"BBBBB                                                                                                                                                                                                                                                                                                  BBBBB",
"BBBBB                                                                                                                                                                                                                                                                                                  BBBBB",
"BBBBB                                                                                                                                                                                                                                                                                                  BBBBB",
"BBBBB                                                                                                                                                                                                                                                                                                  BBBBB",
"BBBBB                                                                                                                                                                                                                                                                                                  BBBBB",
"BBBBB                                                                                                                                                                                                                                                                                                  BBBBB",
"BBBBB                                                                                                                                                                                                                                                                                                  BBBBB",
"BBBBB                                                                                                                                                                                                                                                                                                  BBBBB",
"BBBBB                                                                                                                                                                                                                                                                                                  BBBBB",
"BBBBB                                                                                                                                                                                                                                                                                                  BBBBB",
"BBBBB                                                                                                                                                                                                                                                                                                  BBBBB",
"BBBBB                                                                                                                                                                                                                                                                                                  BBBBB",
"BBBBB                                                                                                                                                                                                                                                                                                  BBBBB",
"BBBBB                                                                                                                                                                                                                                                                                                  BBBBB",
"BBBBB                                                                                                                                                                                                                                                                                                  BBBBB",
"BBBBB                                                                                                                                                                                                                                                                                                  BBBBB",
"BBBBB                                                                                                                                                                                                                                                                                                  BBBBB",
"BBBBB                                                                                                                                                                                                                                                                                                  BBBBB",
"BBBBB                                                                                                                                                                                                                                                                                                  BBBBB",
"BBBBB                                                                                                                                                                                                                                                                                                  BBBBB",
"BBBBB                                                                                                                                                                                                                                                                                                  BBBBB",
"BBBBB                                                                                                                                                                                                                                                                                                  BBBBB",
"BBBBB                                                                                                                                                                                                                                                                                                  BBBBB",
"BBBBB                                                                                                                                                                                                                                                                                                  BBBBB",
"BBBBB                                                                                                                                                                                                                                                                                                  BBBBB",
"BBBBB                                                                                                                                                                                                                                                                                                  BBBBB",
"BBBBB                                                                                                                                                                                                                                                                                                  BBBBB",
"BBBBB                                                                                                                                                                                                                                                                                                  BBBBB",
"BBBBB                                                                                                                                                                                                                                                                                                  BBBBB",
"BBBBB                                                                                                                                                                                                                                                                                                  BBBBB",
"BBBBB                                                                                                                                                                                                                                                                                                  BBBBB",
"BBBBB                                                                                                                                                                                                                                                                                                  BBBBB",
"BBBBB                                                                                                                                                                                                                                                                                                  BBBBB",
"BBBBB                                                                                                                                                                                                                                                                                                  BBBBB",
"BBBBB                                                                                                                                                                                                                                                                                                  BBBBB",
"BBBBB                                                                                                                                                                                                                                                                                                  BBBBB",
"BBBBB                                                                                                                                                                                                                                                                                                  BBBBB",
"BBBBB                                                                                                                                                                                                                                                                                                  BBBBB",
"BBBBB                                                                                                                                                                                                                                                                                                  BBBBB",
"BBBBB                                                                                                                                                                                                                                                                                                  BBBBB",
"BBBBB                                                                                                                                                                                                                                                                                                  BBBBB",
"BBBBB                                                                                                                                                                                                                                                                                                  BBBBB",
"BBBBB                                                                                                                                                                                                                                                                                                  BBBBB",
"BBBBB                                                                                                                                                                                                                                                                                                  BBBBB",
"BBBBB                                                                                                                                                                                                                                                                                                  BBBBB",
"BBBBB                                                                                                                                                                                                                                                                                                  BBBBB",
"BBBBB                                                                                                                                                                                                                                                                                                  BBBBB",
"BBBBB                                                                                                                                                                                                                                                                                                  BBBBB",
"BBBBB                                                                                                                                                                                                                                                                                                  BBBBB",
"BBBBB                                                                                                                                                                                                                                                                                                  BBBBB",
"BBBBB                                                                                                                                                                                                                                                                                                  BBBBB",
"BBBBB                                                                                                                                                                                                                                                                                                  BBBBB",
"BBBBB                                                                                                                                                                                                                                                                                                  BBBBB",
"BBBBB                                                                                                                                                                                                                                                                                                  BBBBB",
"BBBBB                                                                                                                                                                                                                                                                                                  BBBBB",
"BBBBB                                                                                                                                                                                                                                                                                                  BBBBB",
"BBBBB                                                                                                                                                                                                                                                                                                  BBBBB",
"BBBBB                                                                                                                                                                                                                                                                                                  BBBBB",
"BBBBB                                                                                                                                                                                                                                                                                                  BBBBB",
"BBBBB                                                                                                                                                                                                                                                                                                  BBBBB",
"BBBBB                                                                                                                                                                                                                                                                                                  BBBBB",
"BBBBB                                                                                                                                                                                                                                                                                                  BBBBB",
"BBBBB                                                                                                                                                                                                                                                                                                  BBBBB",
"BBBBB                                                                                                                                                                                                                                                                                                  BBBBB",
"BBBBB                                                                                                                                                                                                                                                                                                  BBBBB",
"BBBBB                                                                                                                                                                                                                                                                                                  BBBBB",
"BBBBB                                                                                                                                                                                                                                                                                                  BBBBB",
"BBBBB                                                                                                                                                                                                                                                                                                  BBBBB",
"BBBBB                                                                                                                                                                                                                                                                                                  BBBBB",
"BBBBB                                                                                                                                                                                                                                                                                                  BBBBB",
"BBBBB                                                                                                                                                                                                                                                                                                  BBBBB",
"BBBBB                                                                                                                                                                                                                                                                                                  BBBBB",
"BBBBB                                                                                                                                                                                                                                                                                                  BBBBB",
"BBBBB                                                                                                                                                                                                                                                                                                  BBBBB",
"BBBBB                                                                                                                                                                                                                                                                                                  BBBBB",
"BBBBB                                                                                                                                                                                                                                                                                                  BBBBB",
"BBBBB                                                                                                                                                                                                                                                                                                  BBBBB",
"BBBBB                                                                                                                                                                                                                                                                                                  BBBBB",
"BBBBB                                                                                                                                                                                                                                                                                                  BBBBB",
"BBBBB                                                                                                                                                                                                                                                                                                  BBBBB",
"BBBBB                                                                                                                                                                                                                                                                                                  BBBBB",
"BBBBB                                                                                                                                                                                                                                                                                                  BBBBB",
"BBBBB                                                                                                                                                                                                                                                                                                  BBBBB",
"BBBBB                                                                                                                                                                                                                                                                                                  BBBBB",
"BBBBB                                                                                                                                                                                                                                                                                                  BBBBB",
"BBBBB                                                                                                                                                                                                                                                                                                  BBBBB",
"BBBBB                                                                                                                                                                                                                                                                                                  BBBBB",
"BBBBB                                                                                                                                                                                                                                                                                                  BBBBB",
"BBBBB                                                                                                                                                                                                                                                                                                  BBBBB",
"BBBBB                                                                                                                                                                                                                                                                                                  BBBBB",
"BBBBB                                                                                                                                                                                                                                                                                                  BBBBB",
"BBBBB                                                                                                                                                                                                                                                                                                  BBBBB",
"BBBBB                                                                                                                                                                                                                                                                                                  BBBBB",
"BBBBB                                                                                                                                                                                                                                                                                                  BBBBB",
"BBBBB                                                                                                                                                                                                                                                                                                  BBBBB",
"BBBBB                                                                                                                                                                                                                                                                                                  BBBBB",
"BBBBB                                                                                                                                                                                                                                                                                                  BBBBB",
"BBBBB                                                                                                                                                                                                                                                                                                  BBBBB",
"BBBBB                                                                                                                                                                                                                                                                                                  BBBBB",
"BBBBB                                                                                                                                                                                                                                                                                                  BBBBB",
"BBBBB                                                                                                                                                                                                                                                                                                  BBBBB",
"BBBBB                                                                                                                                                                                                                                                                                                  BBBBB",
"BBBBB                                                                                                                                                                                                                                                                                                  BBBBB",
"BBBBB                                                                                                                                                                                                                                                                                                  BBBBB",
"BBBBB                                                                                                                                                                                                                                                                                                  BBBBB",
"BBBBB                                                                                                                                                                                                                                                                                                  BBBBB",
"BBBBB                                                                                                                                                                                                                                                                                                  BBBBB",
"BBBBB                                                                                                                                                                                                                                                                                                  BBBBB",
"BBBBB                                                                                                                                                                                                                                                                                                  BBBBB",
"BBBBB                                                                                                                                                                                                                                                                                                  BBBBB",
"BBBBB                                                                                                                                                                                                                                                                                                  BBBBB",
"BBBBB                                                                                                                                                                                                                                                                                                  BBBBB",
"BBBBB                                                                                                                                                                                                                                                                                                  BBBBB",
"BBBBB                                                                                                                                                                                                                                                                                                  BBBBB",
"BBBBB                                                                                                                                                                                                                                                                                                  BBBBB",
"BBBBB                                                                                                                                                                                                                                                                                                  BBBBB",
"BBBBB                                                                                                                                                                                                                                                                                                  BBBBB",
"BBBBB                                                                                                                                                                                                                                                                                                  BBBBB",
"BBBBB                                                                                                                                                                                                                                                                                                  BBBBB",
"BBBBB                                                                                                                                                                                                                                                                                                  BBBBB",
"BBBBB                                                                                                                                                                                                                                                                                                  BBBBB",
"BBBBB                                                                                                                                                                                                                                                                                                  BBBBB",
"BBBBB                                                                                                                                                                                                                                                                                                  BBBBB",
"BBBBB                                                                                                                                                                                                                                                                                                  BBBBB",
"BBBBB                                                                                                                                                                                                                                                                                                  BBBBB",
"BBBBB                                                                                                                                                                                                                                                                                                  BBBBB",
"BBBBB                                                                                                                                                                                                                                                                                                  BBBBB",
"BBBBB                                                                                                                                                                                                                                                                                                  BBBBB",
"BBBBB                                                                                                                                                                                                                                                                                                  BBBBB",
"BBBBB                                                                                                                                                                                                                                                                                                  BBBBB",
"BBBBB                                                                                                                                                                                                                                                                                                  BBBBB",
"BBBBB                                                                                                                                                                                                                                                                                                  BBBBB",
"BBBBB                                                                                                                                                                                                                                                                                                  BBBBB",
"BBBBB                                                                                                                                                                                                                                                                                                  BBBBB",
"BBBBB                                                                                                                                                                                                                                                                                                  BBBBB",
"BBBBB                                                                                                                                                                                                                                                                                                  BBBBB",
"BBBBB                                                                                                                                                                                                                                                                                                  BBBBB",
"BBBBB                                                                                                                                                                                                                                                                                                  BBBBB",
"BBBBB                                                                                                                                                                                                                                                                                                  BBBBB",
"BBBBBYYYYYYYYYYYYYYYYYYYYYYYYYYYYYYYYYYYYYYYYYYYYYYYYYYYYYYYYYYYYYYYYYYYYYYYYYYYYYYYYYYYYYYYYYYYYYYYYYYYYYYYYYYYYYYYYYYYYYYYYYYYYYYYYYYYYYYYYYYYYYYYYYYYYYYYYYYYYYYYYYYYYYYYYYYYYYYYYYYYYYYYYYYYYYYYYYYYYYYYYYYYYYYYYYYYYYYYYYYYYYYYYYYYYYYYYYYYYYYYYYYYYYYYYYYYYYYYYYYYYYYYYYYYYYYYYYYYYYYYYYYYYYYYYYYBBBBB",
"BBBBBYYYYYYYYYYYYYYYYYYYYYYYYYYYYYYYYYYYYYYYYYYYYYYYYYYYYYYYYYYYYYYYYYYYYYYYYYYYYYYYYYYYYYYYYYYYYYYYYYYYYYYYYYYYYYYYYYYYYYYYYYYYYYYYYYYYYYYYYYYYYYYYYYYYYYYYYYYYYYYYYYYYYYYYYYYYYYYYYYYYYYYYYYYYYYYYYYYYYYYYYYYYYYYYYYYYYYYYYYYYYYYYYYYYYYYYYYYYYYYYYYYYYYYYYYYYYYYYYYYYYYYYYYYYYYYYYYYYYYYYYYYYYYYYYYYBBBBB",
"BBBBBBBBBBBBBBBBBBBBBBBBBBBBBBBBBBBBBBBBBBBBBBBBBBBBBBBBBBBBBBBBBBBBBBBBBBBBBBBBBBBBBBBBBBBBBBBBBBBBBBBBBBBBBBBBBBBBBBBBBBBBBBBBBBBBBBBBBBBBBBBBBBBBBBBBBBBBBBBBBBBBBBBBBBBBBBBBBBBBBBBBBBBBBBBBBBBBBBBBBBBBBBBBBBBBBBBBBBBBBBBBBBBBBBBBBBBBBBBBBBBBBBBBBBBBBBBBBBBBBBBBBBBBBBBBBBBBBBBBBBBBBBBBBBBBBBBBBBBB",
"BBBBBBBBBBBBBBBBBBBBBBBBBBBBBBBBBBBBBBBBBBBBBBBBBBBBBBBBBBBBBBBBBBBBBBBBBBBBBBBBBBBBBBBBBBBBBBBBBBBBBBBBBBBBBBBBBBBBBBBBBBBBBBBBBBBBBBBBBBBBBBBBBBBBBBBBBBBBBBBBBBBBBBBBBBBBBBBBBBBBBBBBBBBBBBBBBBBBBBBBBBBBBBBBBBBBBBBBBBBBBBBBBBBBBBBBBBBBBBBBBBBBBBBBBBBBBBBBBBBBBBBBBBBBBBBBBBBBBBBBBBBBBBBBBBBBBBBBBBBB",
"BBBBBBBBBBBBBBBBBBBBBBBBBBBBBBBBBBBBBBBBBBBBBBBBBBBBBBBBBBBBBBBBBBBBBBBBBBBBBBBBBBBBBBBBBBBBBBBBBBBBBBBBBBBBBBBBBBBBBBBBBBBBBBBBBBBBBBBBBBBBBBBBBBBBBBBBBBBBBBBBBBBBBBBBBBBBBBBBBBBBBBBBBBBBBBBBBBBBBBBBBBBBBBBBBBBBBBBBBBBBBBBBBBBBBBBBBBBBBBBBBBBBBBBBBBBBBBBBBBBBBBBBBBBBBBBBBBBBBBBBBBBBBBBBBBBBBBBBBBBB",
"BBBBBBBBBBBBBBBBBBBBBBBBBBBBBBBBBBBBBBBBBBBBBBBBBBBBBBBBBBBBBBBBBBBBBBBBBBBBBBBBBBBBBBBBBBBBBBBBBBBBBBBBBBBBBBBBBBBBBBBBBBBBBBBBBBBBBBBBBBBBBBBBBBBBBBBBBBBBBBBBBBBBBBBBBBBBBBBBBBBBBBBBBBBBBBBBBBBBBBBBBBBBBBBBBBBBBBBBBBBBBBBBBBBBBBBBBBBBBBBBBBBBBBBBBBBBBBBBBBBBBBBBBBBBBBBBBBBBBBBBBBBBBBBBBBBBBBBBBBBB",
"BBBBBBBBBBBBBBBBBBBBBBBBBBBBBBBBBBBBBBBBBBBBBBBBBBBBBBBBBBBBBBBBBBBBBBBBBBBBBBBBBBBBBBBBBBBBBBBBBBBBBBBBBBBBBBBBBBBBBBBBBBBBBBBBBBBBBBBBBBBBBBBBBBBBBBBBBBBBBBBBBBBBBBBBBBBBBBBBBBBBBBBBBBBBBBBBBBBBBBBBBBBBBBBBBBBBBBBBBBBBBBBBBBBBBBBBBBBBBBBBBBBBBBBBBBBBBBBBBBBBBBBBBBBBBBBBBBBBBBBBBBBBBBBBBBBBBBBBBBBB"
};
