/* XPM */
static char *nana_0_2_xpm[] = {
"64 64 18 1",
"  c #FF00FF",
". c #000000",
"X c #191919",
"o c #333333",
"O c #442200",
"$ c #885522",
"* c #5D4037",
"; c #CC7700",
"> c #DDCC44",
"1 c #FFFF00",
"6 c #FFEE44",
"7 c #8B7355",
"9 c #7A7A7A",
"t c #999999",
"u c #FFFF99",
"s c #FFFACD",
"d c #CCCCCC",
"g c #F0F0F0",
"                                                                ",
"                                                                ",
"                                                                ",
"                                                                ",
"                                                                ",
"                                                                ",
"                                                                ",
"               ....                                             ",
"              ......                                            ",
"             ...$$$..                                           ",
"             ..$$$$..                                           ",
"             ...$$$$..                                          ",
"              ..$$$$...                                         ",
"               ..$$$6....                                       ",
"               ...1116....                                      ",
"                ..111111u..                                     ",
"                ..1111111u..                                    ",
"                ..11111111u..                                   ",
"                ..1111111116..                                  ",
"                ..11111111116..                                 ",
"                ..11111111111...                                ",
"                ..11111111111u..                                ",
"                 ..1111111.111u..                               ",
"                 ..1111.11.1111u..                              ",
"                 ..1111.11.1111u..                              ",
"                  ..111.11111111s..                             ",
"                  ..1111111111111u..                            ",
"                   ..111111111111u..                            ",
"                   ..1111111111111u..                           ",
"                    ..111111111111u..                           ",
"                    ..1111111111111s..                          ",
"                    ..11111111111111s..                         ",
"                     .11111111111111s...                        ",
"                     ..11111111111111s...                       ",
"                      .111111111111116.....          ...        ",
"                      .1111111111111116.>....      ......       ",
"                      ..111111111111116.>>>..........O$..       ",
"                      ..111.11111111111u.>>>u......>>>$..       ",
"                      ..111.>1111111111u..>>>666666>>>...       ",
"                      ..1111.11111111111u..>>>>>>>>>>...        ",
"                      ..1111.611111111111u..>>>>>>>>...         ",
"                      ..11>>>.611111111116...>>>>>....          ",
"                      ..111>>..611111111116..........           ",
"                     ..6>>>>>...11111111111u.......             ",
"                     ..>>>>>>...611111111111u...                ",
"                    ..>>>>>>.. ..111111111111u...               ",
"                  ...>>>>>>>..  ..111111111111u...              ",
"                ....>>>>>>>..    ..111111111111u...             ",
"              ....6>>>>>>>...     ..111111111111uu...           ",
"             ....6>>>>>>>...       ..1111111111111u....         ",
"             ..OOO>>>>>....         ...111111111111uu.....      ",
"             ............            ...1111111111111>u....     ",
"               ........               ....11111111111>$$$..     ",
"                                        .....111111111$$$..     ",
"                                          .......1111>$$..      ",
"                                             ............       ",
"                                                ........        ",
"                                                                ",
"                                                                ",
"                                                                ",
"                                                                ",
"                                                                ",
"                                                                ",
"                                                                "
};
