/* XPM */
static char *nana_1_1_xpm[] = {
"64 64 18 1",
"  c #FF00FF",
". c #000000",
"X c #191919",
"o c #333333",
"O c #442200",
"$ c #885522",
"* c #5D4037",
"; c #CC7700",
"> c #DDCC44",
"1 c #FFFF00",
"6 c #FFEE44",
"7 c #8B7355",
"9 c #7A7A7A",
"t c #999999",
"u c #FFFF99",
"s c #FFFACD",
"d c #CCCCCC",
"g c #F0F0F0",
"                                                                ",
"                                                                ",
"                                                                ",
"                                                                ",
"                                                                ",
"                                                                ",
"                                                                ",
"                     .....                                      ",
"                    .......                                     ",
"                    ..O$O..                                     ",
"                    ..O$$O..                                    ",
"                    ..OOO6...                                   ",
"                     ..O116...                                  ",
"                     ..s11166..                                 ",
"                     ..g111116..                                ",
"                     ..g1111116..                               ",
"                     ..g11111166..                              ",
"                     ..g11111116..                              ",
"                     ..g111111116..                             ",
"                    ..g111111.111u.                             ",
"                    ..g111.111.11u..                            ",
"                    ..g111.111.11u..                            ",
"                    ..g1111.111111u..                           ",
"                    ..g111111111116..                           ",
"                    ..g1111111111116..                          ",
"                    ..g1111111111116..                          ",
"                     ..g1111111111116..                         ",
"                     ..g1111111111116..                         ",
"                     ..g11111111111116..                        ",
"                     ..g11111111111116..                        ",
"                     ..g11111111111116...                       ",
"                     ..g111111111111166...                      ",
"             ...     ..g111111111111116.u..                     ",
"            ...........g111111111111116.uu..                    ",
"            ..$$>.....g111111.1111111116.>6..                   ",
"            ...>>>>>..g111111.1111111116.>>6...    ....         ",
"             ..>>>>>.s1111111.1111111116..>>6...........        ",
"              ..>>>>.s1111111.11111111116.>>>66.....O$..        ",
"               ..>>..s1111111..1111111116..>>>>66>>>>...        ",
"                ....u11111111..1111111116..>>>>>>>>>...         ",
"                 ..u111111111..1111111111u..>>>>>>>...          ",
"                ..u111111111....111111111u..>>>>>....           ",
"              ...u111111111.. ..111111111u..........            ",
"        ........u111111111...  ..111111111u.......              ",
"       .......uu111111111...   ..111111111u..                   ",
"       ..$$$111111111111...     ..611111111u..                  ",
"       ...$$11111111111...       ..611111111u..                 ",
"        .....1111111.....         ..611111111u..                ",
"         ..............            ..111111111...               ",
"           .........                ..111111116...              ",
"                                     ...11111116...             ",
"                                      ....1111>$O..             ",
"                                        ....11>OO..             ",
"                                         ..........             ",
"                                           .......              ",
"                                                                ",
"                                                                ",
"                                                                ",
"                                                                ",
"                                                                ",
"                                                                ",
"                                                                ",
"                                                                ",
"                                                                "
};
