/* XPM */
static char *nana_3_3_xpm[] = {
"64 64 18 1",
"  c #FF00FF",
". c #000000",
"X c #191919",
"o c #333333",
"O c #442200",
"$ c #885522",
"* c #5D4037",
"; c #CC7700",
"> c #DDCC44",
"1 c #FFFF00",
"6 c #FFEE44",
"7 c #8B7355",
"9 c #7A7A7A",
"t c #999999",
"u c #FFFF99",
"s c #FFFACD",
"d c #CCCCCC",
"g c #F0F0F0",
"                                                                ",
"                                                                ",
"                                                                ",
"                                                                ",
"                                                                ",
"                                                                ",
"                                                                ",
"                                                                ",
"                                                                ",
"            ....                                                ",
"           ......                                               ",
"          ...$$...                                              ",
"          ..$$$$..........                                      ",
"          ..$$$$$............                                   ",
"          ...$$$$$11111111.....                                 ",
"           ....$$111111111111....                               ",
"             ...111111111111111....          .....              ",
"              ...111111..11111111...      ..........            ",
"               ..1111.11..11111111... .......11111...           ",
"               ..1111..111111111111.......>>>1111111..          ",
"                ..1111..111111111111...>>>>>>;111111...         ",
"                ..1111111111111111111..>>>>>...111111..         ",
"                 ..1111111111111111111..>>>>;6.611111..         ",
"                  ..1111111111111111111..>>>>..611111..         ",
"                  ...111111111111111111...>>...611111..         ",
"                   ...111111111..1111111..>...6111111..         ",
"                    ...111111111..111111.....61111111..         ",
"                     ...11111111...111111...61111111..          ",
"                       ..11111111...1111...11111111...          ",
"                       ..111111111..11...611111111...           ",
"                        ...111111111....611111111...            ",
"                      .....1111111111..>1111111....             ",
"                     ...>>..11111111..11111111...               ",
"                   ...>>;;..1111111..$>>1>1>....                ",
"                  ..>;;;;;;..111111.$$$>111....                 ",
"                 ..>>.;;;;;;..11111.$$$$6......                 ",
"                ..>>.;;;;;;;..11111..$$....11...                ",
"               ..>>.>;;;;;;;...11111.....1111...                ",
"               ..>>.;;;;;;......11111111111111..                ",
"              ..>>>.;;;>....   ..11111111111111..               ",
"              .>>>>.>>....      ...111111111111..               ",
"             ..>>>>.>...         ....1111111111..               ",
"             ..11>>...             ...1111111111..              ",
"             ..11>>...               ..611111111..              ",
"             ..11>1>..                ..61111111..              ",
"             ..11>>>..                ..61111111..              ",
"              .u1>>>>..               ..61111111..              ",
"              ..u>>>$$..             ..61111111..               ",
"               ..>>$$$..            ...61111111..               ",
"                ..$$$$..          ...$11111111..                ",
"                 .......         ...$11111111..                 ",
"                  .....         ..$$$$11111...                  ",
"                                ..$$$$>1.....                   ",
"                                 ..........                     ",
"                                  ......                        ",
"                                                                ",
"                                                                ",
"                                                                ",
"                                                                ",
"                                                                ",
"                                                                ",
"                                                                ",
"                                                                ",
"                                                                "
};
