/* XPM */
static char *tile[] = {
"64 64 18 1",
"  c #FF00FF",
". c #000000",
"X c #191919",
"o c #333333",
"O c #442200",
"$ c #885522",
"* c #5D4037",
"; c #CC7700",
"> c #DDCC44",
"1 c #FFFF00",
"6 c #FFEE44",
"7 c #8B7355",
"9 c #7A7A7A",
"t c #999999",
"u c #FFFF99",
"s c #FFFACD",
"d c #CCCCCC",
"g c #F0F0F0",
"                                                                ",
"                                                                ",
"                                                                ",
"                                                                ",
"                                                                ",
"                                                                ",
"                                                                ",
"                                                                ",
"                                                                ",
"                                                                ",
"                                                                ",
"                                                                ",
"               .......                                          ",
"            ............                                        ",
"           ....111111....                                       ",
"          ...1111111111...                                      ",
"         ...111111111111...                                     ",
"        ...$1111111111111...          .......                   ",
"       ...$$11111111111111...      ..............               ",
"       .....u11111111111111...    ....111111........            ",
"        .....611111111111111..   ...111111111111.....           ",
"           ...61111111111111... ...111111111111111>...          ",
"            ...66111111111111.....11111111111111111>...         ",
"             ....611111111111...111111111111111111>>>...        ",
"              ....61111111111..111111111111sssssss>>>>...       ",
"                ...1111111111.11111111111us.......>>>>O..       ",
"                 ..61111111111111111111uu............OO..       ",
"                  .u111111111111111111u.....      .......       ",
"                 ...11111111111111111s....          ....        ",
"               .....1111111111111111s...                        ",
"              ...>>111.6611111111111s..                         ",
"             ...>1>>>1..611111111111s..                         ",
"            ...>>>>>>1..611111111111s..                         ",
"            ..6>>>>666..611111111111s..                         ",
"           ...>>>>u.....611111111111s..                         ",
"           ..6>>>u......61111111111s..                          ",
"           ..>>>u...  ..61111111111s..                          ",
"           ..>>u...   ..61111111111s..                          ",
"           ..O$...    ..61111111111s..                          ",
"           ..O...     ..61111111111s..                          ",
"           .....      ..611111.1.11s..                          ",
"            ...       ..;11111.1.1u...                          ",
"                       ..11111.1.1s..                           ",
"                       ..111111111s..                           ",
"                       ..111111111s..                           ",
"                       ..111111111s..                           ",
"                       ...1111111u...                           ",
"                        ..111111s...                            ",
"                        ...11111s..                             ",
"                         ...1111s..                             ",
"                          ...111s..                             ",
"                           ..111s..                             ",
"                           ..11>s..                             ",
"                           ..$$$s..                             ",
"                           ..$$$s..                             ",
"                           ........                             ",
"                            ......                              ",
"                                                                ",
"                                                                ",
"                                                                ",
"                                                                ",
"                                                                ",
"                                                                ",
"                                                                "
};
