/* XPM */
static char *tile[] = {
"64 64 18 1",
"  c #FF00FF",
". c #000000",
"X c #191919",
"o c #333333",
"O c #442200",
"$ c #885522",
"* c #5D4037",
"; c #CC7700",
"> c #DDCC44",
"1 c #FFFF00",
"6 c #FFEE44",
"7 c #8B7355",
"9 c #7A7A7A",
"t c #999999",
"u c #FFFF99",
"s c #FFFACD",
"d c #CCCCCC",
"g c #F0F0F0",
"                                                                ",
"                                                                ",
"                                                                ",
"                                                                ",
"                                                                ",
"                                                                ",
"                                                                ",
"                                                                ",
"                                                                ",
"                                                                ",
"                                                                ",
"                                                                ",
"                                                                ",
"                                                                ",
"                                                                ",
"                             .....                              ",
"                            .......                             ",
"                            ..O$$..                             ",
"                            ..O$$$..                            ",
"                             ..u11..                            ",
"                             ..s111..                           ",
"                             ..s1111..                          ",
"                             ..u1111u..                         ",
"                            ..u111111u..                        ",
"                           ..u11111111..                        ",
"                           ..s11111111u..                       ",
"                  ...     ..s11.1.11111..                       ",
"                 .....    ..g11.1.111116..                      ",
"                ..$$..    ..g11.1.111116..             .....    ",
"                ..$$u..   ..g11111111116..            ......    ",
"                ..>>>u..  ..611111111116..           ...O$..    ",
"                ..>>>>6....g1111111111166..        ....6O$..    ",
"                ..>>>>>>>..g1111111111116.............6>>..     ",
"                ...>>>>>>..g1111111111116..........uu>>>>..     ",
"                 ..>>>>>>..g11111111111111.uuu66666>>>>>..      ",
"                  ..>>>>..s111111111111111..>>>>>>>>>>>...      ",
"                  ...>>..s11111111111111111.>>>>>>>>>>...       ",
"     ....          .....s1111111111111111111..>>>>>>>...        ",
"    .......       ....ss11111111111111111111...>>>>....         ",
"    ..$$$...........ss111111111111.11111111116.......           ",
"    ..$$>>6.......ss1111111111111..1111111111166....            ",
"     ...>>>6ssssss11111111111111....11111111111166.........     ",
"      ...>>>>111111111111111111......1111111111111666.......    ",
"       ...11111111111111111111...  ...111111111111>>>>>$$$..    ",
"        ....1111111111111111...     ....11111111111>>>>$$$..    ",
"          ....11111111111.....        ....166661111>>1.....     ",
"            ................            ..................      ",
"              ...........                  ............         ",
"                                                                ",
"                                                                ",
"                                                                ",
"                                                                ",
"                                                                ",
"                                                                ",
"                                                                ",
"                                                                ",
"                                                                ",
"                                                                ",
"                                                                ",
"                                                                ",
"                                                                ",
"                                                                ",
"                                                                ",
"                                                                "
};
