/* XPM */
static char *tile[] = {
"64 64 18 1",
"  c #FF00FF",
". c #000000",
"X c #191919",
"o c #333333",
"O c #442200",
"$ c #885522",
"* c #5D4037",
"; c #CC7700",
"> c #DDCC44",
"1 c #FFFF00",
"6 c #FFEE44",
"7 c #8B7355",
"9 c #7A7A7A",
"t c #999999",
"u c #FFFF99",
"s c #FFFACD",
"d c #CCCCCC",
"g c #F0F0F0",
"                                                                ",
"                                                                ",
"                                                                ",
"                                                                ",
"                                                                ",
"                                                                ",
"                                                                ",
"                                                                ",
"                                                                ",
"                                                                ",
"                                                                ",
"                                                                ",
"               .......                                          ",
"            ............                                        ",
"           ....111111.....                                      ",
"          ...1111111166....            ...........              ",
"         ...1111111111166...         ...............            ",
"        ...$11111111111116...       ...1111111111.....          ",
"       ...$O111111111111116...     ...1111111111111;...         ",
"       .....6111111111111116...   ...111111111111111>...        ",
"        .....1111111111111116...s...111111111111111>>>...       ",
"           ...u11111111111111>.....1111111111uuuuuu>>>>...      ",
"            ....u1111111111111...1111111111uu......>>>>O..      ",
"             .....111111111111..1111111111u...........OO..      ",
"               ....61111111111.1111111111u....     .......      ",
"                  ..61111111111111111111u....        ....       ",
"                   .6111111111111111111u...                     ",
"                  ...11111111111111111u...                      ",
"                 ....>1111111111111111s..                       ",
"                ..>>>>1.11111111111111s..                       ",
"               ..>>>>>>..6111111111111s..                       ",
"              ..$>>>>>>..6111111111111s..                       ",
"             ...>>>>>>>..611111111111u...                       ",
"            ...>>>>u.....611111111111s..                        ",
"            ..>>>>u......611111111111s..                        ",
"            ..>>>u...  ..611111111111s..                        ",
"            ..>>u...   ..611111111111s..                        ",
"            ..$$...    ..611111111111s..                        ",
"            ..$...     ..611111111111s..                        ",
"            .....      ..611111.11.11o..                        ",
"             ...        ..11111.11.>u..                         ",
"                        ..11111.11.>s..                         ",
"                        ..111111111>s..                         ",
"                        ..111111111>s..                         ",
"                        ..1111111111s..                         ",
"                         ..11111111u...                         ",
"                         ..1111111s...                          ",
"                         ....11111s..                           ",
"                          ...$1111s..                           ",
"                           ....11>s..                           ",
"                             ..11>s..                           ",
"                             ..11>s..                           ",
"                             ..$$$s..                           ",
"                             ..$$$s..                           ",
"                             ........                           ",
"                              ......                            ",
"                                                                ",
"                                                                ",
"                                                                ",
"                                                                ",
"                                                                ",
"                                                                ",
"                                                                ",
"                                                                "
};
