/* XPM */
static char *nana_3_1_xpm[] = {
"64 64 18 1",
"  c #FF00FF",
". c #000000",
"X c #191919",
"o c #333333",
"O c #442200",
"$ c #885522",
"* c #5D4037",
"; c #CC7700",
"> c #DDCC44",
"1 c #FFFF00",
"6 c #FFEE44",
"7 c #8B7355",
"9 c #7A7A7A",
"t c #999999",
"u c #FFFF99",
"s c #FFFACD",
"d c #CCCCCC",
"g c #F0F0F0",
"                                                                ",
"                                                                ",
"                                                                ",
"                                                                ",
"                                                                ",
"                                                                ",
"                                                                ",
"                                                                ",
"                                                                ",
"                         ...                                    ",
"                        ....                                    ",
"                       ..$$..                                   ",
"                      ..$$$$..                                  ",
"                      ..$$$O1....                               ",
"                      ...oO111.....                             ",
"                       ...61111111...                           ",
"                  ...   ...1111111u...                          ",
"                 .....   ..611111116u..                         ",
"                ...$..    ..1111111111..                        ",
"                ..$$..    ..11111111111..                       ",
"               ...>$..    ..u1111111111...                      ",
"               ..>>>..    ..s1111111O111..                      ",
"               ..>>>..     ..u111.111.111..                     ",
"              ..>>>>..     ..g1111.11.111..                     ",
"              ..>1>>..     ..g1111.111111...                    ",
"              ..11>>6.     ..g111111111111..      ...           ",
"              ..11116..     .9111111111111...    .....          ",
"              ..111116..    .91111111111116..   ...O..          ",
"              ..111116....  ..s111111111116...  ..OO..          ",
"              ..1111116.......s111111111116.......>O..          ",
"              ...111111666....s111111111116.....>>>O..          ",
"               ..11111111>66..s1111111111116.u>>>>>..           ",
"               ..111111111>6.s11111111111116..>>>>>..           ",
"                ..111111111..s11111111111116..>>>>..            ",
"                 ..11111111..s1111111.1111111..>>...            ",
"                  ..111111..u11111111.1111111......             ",
"                   ...111..u11111111.61111111....               ",
"           ....      .....s111111111..11111111..                ",
"          ..............ss111111111$..11111111..                ",
"          ..$O>.......ss1111111111;....1111111..                ",
"          ..OO>>ssssss111111111111.. ..1111111..                ",
"          ...>1>11111111111111111... ..6111111..                ",
"           ...111111111111111111...  ..6111111..                ",
"            ....111111111111111...   ..6111111..                ",
"              ...111111111111....    ..611111..                 ",
"               .....111111......    ..6111111..                 ",
"                 .............      ..611111..                  ",
"                   .......         ..611111...                  ",
"                                  ...6>>11...                   ",
"                               ....6>>>>1...                    ",
"                             .....>>>>>>...                     ",
"                            ...$O6>>>>....                      ",
"                            ..$$$O>>.....                       ",
"                            ..........                          ",
"                             ........                           ",
"                                                                ",
"                                                                ",
"                                                                ",
"                                                                ",
"                                                                ",
"                                                                ",
"                                                                ",
"                                                                ",
"                                                                "
};
