/* XPM */
static char *tile[] = {
"64 64 18 1",
"  c #FF00FF",
". c #000000",
"X c #191919",
"o c #333333",
"O c #442200",
"$ c #885522",
"* c #5D4037",
"; c #CC7700",
"> c #DDCC44",
"1 c #FFFF00",
"6 c #FFEE44",
"7 c #8B7355",
"9 c #7A7A7A",
"t c #999999",
"u c #FFFF99",
"s c #FFFACD",
"d c #CCCCCC",
"g c #F0F0F0",
"                                                                ",
"                                                                ",
"                                                                ",
"                                                                ",
"                                                                ",
"                                                                ",
"                                                                ",
"                                 ......                         ",
"                                ........                        ",
"                                ..g$$$..                        ",
"                                ..g$$$..                        ",
"                                ..g111..                        ",
"                                ..g111..                        ",
"                                ..g111..                        ",
"                               ...s111...                       ",
"                               ..s11111...                      ",
"                              ...s111111..                      ",
"                             ...s1111111..                      ",
"                             ..s111111111..                     ",
"                             ..s111111111..                     ",
"                             ..s1.1.11111..                     ",
"                            ...s1.1.11111..                     ",
"                            ..s11.1.11111u..      ...           ",
"                            ..s1111111111u..     .....          ",
"                           ..s11111111111u..    ...$..          ",
"                           ..s11111111111u..   ...$$..          ",
"                           ..s11111111111u.   ...u>>..          ",
"                           ..s11111111111>.  ...u>>>..          ",
"                          ..u1111111111117.....u>>>>..          ",
"                          ..u111111111116.....u>>>>...          ",
"                         ...u111111111116..666>>>>>..           ",
"                         ...s111111111116..6>>>>>>...           ",
"                         ..s1111111111116..>>>>>>...            ",
"                        ...s11111111111116.>>>>....             ",
"        ....          ....s11111111111111111......              ",
"       .......      .....s111111111111111111...                 ",
"       ..$$............ss11111111111111111116.                  ",
"       ..$>>>>.......ss11111111111.1111111116..                 ",
"       ...>>>>sssssss111111111111..1111111116...                ",
"        ...111111111111111111111...11111111116....              ",
"         ...111111111111111111.....111111111116....             ",
"          ...1111111111111111... ..61111111111166...            ",
"           .....111111111111...   ..11111111111116...           ",
"            ........111111....    ..611111111111116.....        ",
"               ..............     ...611111111111111.....       ",
"                   .......         ...61111111111111$$...       ",
"                                    ...1111111111111$...        ",
"                                     ...111111111111...         ",
"                                      ...1111111111...          ",
"                                       ....111111....           ",
"                                        ............            ",
"                                          .......               ",
"                                                                ",
"                                                                ",
"                                                                ",
"                                                                ",
"                                                                ",
"                                                                ",
"                                                                ",
"                                                                ",
"                                                                ",
"                                                                ",
"                                                                ",
"                                                                "
};
