/* XPM */
static char *tile[] = {
"64 64 18 1",
"  c #FF00FF",
". c #000000",
"X c #191919",
"o c #333333",
"O c #442200",
"$ c #885522",
"* c #5D4037",
"; c #CC7700",
"> c #DDCC44",
"1 c #FFFF00",
"6 c #FFEE44",
"7 c #8B7355",
"9 c #7A7A7A",
"t c #999999",
"u c #FFFF99",
"s c #FFFACD",
"d c #CCCCCC",
"g c #F0F0F0",
"                                                                ",
"                                                                ",
"                                                                ",
"                                                                ",
"                                                                ",
"                                                                ",
"                                            ....                ",
"                                           ......               ",
"                                          ..$$$...              ",
"                                          ..$$$$..              ",
"                                          ..$$$$..              ",
"                                         ..$$$$...              ",
"                                        ...>$$$..               ",
"                                      ....>1$$..                ",
"                                     ...111111..                ",
"                                    ..u1111111..                ",
"                                   ..u11111111..                ",
"                                  ..u111111111..                ",
"                                 ..u1111111111..                ",
"                                ..u11111111111..                ",
"                                ..111111111111..                ",
"                               ..u11111111111...                ",
"                              ..u111.11111111..                 ",
"                             ..uu111.11.11111..                 ",
"                             ..u1111.11.1111..                  ",
"                            ..s11111111.1111..                  ",
"                           ..su1111111111111..                  ",
"                           ..s1111111111111..                   ",
"                          ..s61111111111111..                   ",
"                          ..s1111111111111..                    ",
"                         ..ss1111111111111..                    ",
"                        ..ss11111111111111.X                    ",
"                       ...uu1111111111111O.                     ",
"                      ....u11111111111111..                     ",
"       ...          .....u111111111111111.                      ",
"      ......      ....>>.u111111111111111.                      ",
"      ..$O..........>>>..u11111111111111..                      ",
"      ..$>6>......6>>>..u11111111111.111..                      ",
"      ...>>>666666>>>..uu1111111111.1111..                      ",
"       ...>>>>>>>>>>..uu11111111111.1111..                      ",
"        ...>>>>>>>>..uu11111111111.11111..                      ",
"         ....>>>>>...u11111111111..11111..                      ",
"           .........u111111111111..11111..                      ",
"             ......u111111111111...111111..                     ",
"                ..u111111111111....111111..                     ",
"              ...u111111111111... ..111111..                    ",
"             ...u111111111111...  ..1111111...                  ",
"            ...u111111111111...    ..1111111....                ",
"          ....u111111111111...     ...1111>>>>....              ",
"         ...u6111111111111...       ...1111>>>>OO..             ",
"      .....11111111111116...         ....11>>>OO$..             ",
"    ....;111111111111116...            ............             ",
"    ..$$$1111111111111....               ........               ",
"    ..$$$$111111111.....                                        ",
"     ..$$$11111.......                                          ",
"      .............                                             ",
"       ........                                                 ",
"                                                                ",
"                                                                ",
"                                                                ",
"                                                                ",
"                                                                ",
"                                                                ",
"                                                                "
};
