/* XPM */
static char *tile[] = {
"64 64 18 1",
"  c #FF00FF",
". c #000000",
"X c #191919",
"o c #333333",
"O c #442200",
"$ c #885522",
"* c #5D4037",
"; c #CC7700",
"> c #DDCC44",
"1 c #FFFF00",
"6 c #FFEE44",
"7 c #8B7355",
"9 c #7A7A7A",
"t c #999999",
"u c #FFFF99",
"s c #FFFACD",
"d c #CCCCCC",
"g c #F0F0F0",
"                                                                ",
"                                                                ",
"                                                                ",
"                                                                ",
"                                                                ",
"                              .....                             ",
"                             .......                            ",
"                             ..$$$..                            ",
"                             ..>$$..                            ",
"                             ..>$$..                            ",
"                             ..s11...                           ",
"                            ..s1111..                           ",
"                            ..s1111..                           ",
"                           ..s111111..                          ",
"                          ..s1111111..                          ",
"                          ..u11111111..                         ",
"                         ..s111111111..                         ",
"                         ..s6.1.11111..                         ",
"                         ..s1.1.111111...                       ",
"                        ..s11.1.111111.....                     ",
"                        ..s111111111111.....                    ",
"                     .....s111111111111.>>>...                  ",
"                   ......su1111111111111.>>>...                 ",
"                  ...;;;.s11111111111111..>>>>..                ",
"                ...;;;;;.s111111111111111..>>>>..               ",
"               ..;;;;;;;.g1111111111111111..>>>>..              ",
"              ..;;;;;;;..s11111111111111111..>>>..              ",
"             ..;;;;;;;;.s1111111111111111111..>>>..             ",
"            ..;;;;;;;;;.g1111111.611111111111..>>>..            ",
"           ...;;;;;;;...g1111111..661111111111..>>..            ",
"          ...;;;;;......g1111111....6111111111...>>..           ",
"          ..>;;;$...  .gg1111111.....6111111111..>>..           ",
"         ..>;;;>..   ..g1111111..  ...6111111111..>>..          ",
"         ..>>>...    ..g1111111..   ..7611111111..>>..          ",
"        ..;>>...     ..g111111...    ..u111111111..>$.          ",
"        ..>>...     ..g1111111..      ..u11111111..>$..         ",
"        ..>...     ...s111111...       ..61111111..>;..         ",
"       ..$>..      ..s1111111..        ...6111111..$;..         ",
"       ..$...     ..s1111111...         ..61111111.....         ",
"       ..$..     ...s1111111..           ..6111111.....         ",
"       .....    ...s1111111...           ..6111111..            ",
"        ...    ...s11111111..            ..u111111..            ",
"              ...u11111111...             ..611111..            ",
"             ...u11111111..               ..u11111..            ",
"            ...u11111111...                ..61111..            ",
"          ...uu11111111...                 ..61>>1..            ",
"         ..$$11111111....                  ..61111..            ",
"        ..$$$1111111...                    ...1>>1..            ",
"        ..$$$$1111....                      ..>>>>..            ",
"        ............                        ..>>>>..            ",
"         .........                          ..>>>..             ",
"                                            ..$$$..             ",
"                                            ..$$...             ",
"                                             .....              ",
"                                             ....               ",
"                                                                ",
"                                                                ",
"                                                                ",
"                                                                ",
"                                                                ",
"                                                                ",
"                                                                ",
"                                                                ",
"                                                                "
};
