/* XPM */
static char *nana_2_0_xpm[] = {
"64 64 18 1",
"  c #FF00FF",
". c #000000",
"X c #191919",
"o c #333333",
"O c #442200",
"$ c #885522",
"* c #5D4037",
"; c #CC7700",
"> c #DDCC44",
"1 c #FFFF00",
"6 c #FFEE44",
"7 c #8B7355",
"9 c #7A7A7A",
"t c #999999",
"u c #FFFF99",
"s c #FFFACD",
"d c #CCCCCC",
"g c #F0F0F0",
"                                                                ",
"                                                                ",
"                                                                ",
"                                                                ",
"                                                                ",
"                                                                ",
"                    ....                                        ",
"                   ......                                       ",
"                   ..X$..                                       ",
"                  ..>>$..                                       ",
"                 ...>>...                                       ",
"                ...>>>...                                       ",
"                ..>>>>...                                       ",
"                ..>>>..                                         ",
"               ..>>>>o.                                         ",
"               ..>1>>d.                                         ",
"               ..111>d..                                        ",
"               ..111>d..                                        ",
"               ..1111d..                                        ",
"               ..1111d...                                       ",
"              ..111111s..o                                      ",
"              ..111111ss..                                      ",
"              ...111111s...                                     ",
"              ...1111111g...                                    ",
"               ..11111111g........    too                       ",
"               ..111111111g...................                  ",
"               ..6111111111sssssss...o9>g...............        ",
"                ..6111111111111111uuuu666sssss...........       ",
"                 ..111111111111111111111166111uttsggggg..       ",
"                 ...111111111111111111111...111111111$$..       ",
"                  ....1111111111111111111111111111111$$..       ",
"                    ...111111111111111111...111111111$$..       ",
"                     ...111111111111111111111111111......       ",
"                      ...1111111111111111111111111......        ",
"                    ......11111111111111111111111...            ",
"                   ...1111111111111111111111111....             ",
"                   ..1111111111111111111111111....              ",
"                  ..1111111111111111116666*.....                ",
"                 ..11111111111111uuuu>.........                 ",
"                ...1111111111111...........                     ",
"                ..1111111111111.......                          ",
"               ..11111111111111111>>..                          ",
"               ..111111111111111111u...                         ",
"              ..11111111111666..1111u...                        ",
"              ..11111111111.....11111u...                       ",
"              ..1111111111... ...11111u...                      ",
"              ..111111111...   ...111>>>...                     ",
"              ..111111111..     ...111>>$...                    ",
"              ..11111111...      ....11>$$..                    ",
"               ..1111111..         .........                    ",
"               ..111111...           ......                     ",
"               ...1111...                                       ",
"                ...$$O..                                        ",
"                 ....O..                                        ",
"                  ......                                        ",
"                   .....                                        ",
"                    ...                                         ",
"                                                                ",
"                                                                ",
"                                                                ",
"                                                                ",
"                                                                ",
"                                                                ",
"                                                                "
};
