/* XPM */
static char *char_B[] = {
"24 32 3 2",
"aa c #F4F4F4",
"ab c #000000",
"ac c #FF00FF",
/* pixels */
"acacacacacacacacacacacacacacacacacacacacacacacac",
"acacacacacacacacacacacacacacacacacacacacacacacac",
"acacacacacacacacacacacacacacacacacacacacacacacac",
"acacacacacacacacacacacacacacacacacacacacacacacac",
"acacacacacacacacacacacacacacacacacacacacacacacac",
"acacacacababababababababababababacacacacacacacac",
"acacacacabaaaaaaaaaaaaaaaaaaaaabacacacacacacacac",
"acacacacabaaaaaaaaaaaaaaaaaaaaabababacacacacacac",
"acacacacabaaaaababababababababaaaaabacacacacacac",
"acacacacabaaaaabacacacacacacabaaaaabababacacacac",
"acacacacabaaaaabacacacacacacabababaaaaabacacacac",
"acacacacabaaaaabacacacacacacabababaaaaabacacacac",
"acacacacabaaaaabacacacacacacabaaaaabababacacacac",
"acacacacabaaaaababababababababaaaaabacacacacacac",
"acacacacabaaaaaaaaaaaaaaaaaaaaabababacacacacacac",
"acacacacabaaaaaaaaaaaaaaaaaaaaabababacacacacacac",
"acacacacabaaaaababababababababaaaaabacacacacacac",
"acacacacabaaaaabacacacacacacabaaaaabababacacacac",
"acacacacabaaaaabacacacacacacabababaaaaabacacacac",
"acacacacabaaaaabacacacacacacacacabaaaaabacacacac",
"acacacacabaaaaabacacacacacacacacabaaaaabacacacac",
"acacacacabaaaaabacacacacacacabababaaaaabacacacac",
"acacacacabaaaaabacacacacacacabaaaaabababacacacac",
"acacacacabaaaaababababababababaaaaabacacacacacac",
"acacacacabaaaaaaaaaaaaaaaaaaaaabababacacacacacac",
"acacacacabaaaaaaaaaaaaaaaaaaaaabacacacacacacacac",
"acacacacababababababababababababacacacacacacacac",
"acacacacacacacacacacacacacacacacacacacacacacacac",
"acacacacacacacacacacacacacacacacacacacacacacacac",
"acacacacacacacacacacacacacacacacacacacacacacacac",
"acacacacacacacacacacacacacacacacacacacacacacacac",
"acacacacacacacacacacacacacacacacacacacacacacacac"
};