/* XPM */
static char *char_A[] = {
"24 32 3 2",
"aa c #F4F4F4",
"ab c #000000",
"ac c #FF00FF",
/* pixels */
"acacacacacacacacacacacacacacacacacacacacacacacac",
"acacacacacacacacacacacacacacacacacacacacacacacac",
"acacacacacacacacacacacacacacacacacacacacacacacac",
"acacacacacacacacacacacacacacacacacacacacacacacac",
"acacacacacacacacacacacacacacacacacacacacacacacac",
"acacacacacacacacacacababababacacacacacacacacacac",
"acacacacacacacacacacabaaaaabacacacacacacacacacac",
"acacacacacacacacabababaaaaabababacacacacacacacac",
"acacacacacacacacabaaaaaaaaaaaaabacacacacacacacac",
"acacacacacacabababaaaaaaaaaaaaabababacacacacacac",
"acacacacacacabaaaaababababababaaaaabacacacacacac",
"acacacacabababaaaaabacacacacabaaaaabababacacacac",
"acacacacabaaaaabababacacacacabababaaaaabacacacac",
"acacacacabaaaaabacacacacacacacacabaaaaabacacacac",
"acacacacabaaaaabacacacacacacacacabaaaaabacacacac",
"acacacacabaaaaababababababababababaaaaabacacacac",
"acacacacabaaaaaaaaaaaaaaaaaaaaaaaaaaaaabacacacac",
"acacacacabaaaaaaaaaaaaaaaaaaaaaaaaaaaaabacacacac",
"acacacacabaaaaababababababababababaaaaabacacacac",
"acacacacabaaaaabacacacacacacacacabaaaaabacacacac",
"acacacacabaaaaabacacacacacacacacabaaaaabacacacac",
"acacacacabaaaaabacacacacacacacacabaaaaabacacacac",
"acacacacabaaaaabacacacacacacacacabaaaaabacacacac",
"acacacacabaaaaabacacacacacacacacabaaaaabacacacac",
"acacacacabaaaaabacacacacacacacacabaaaaabacacacac",
"acacacacabaaaaabacacacacacacacacabaaaaabacacacac",
"acacacacababababacacacacacacacacababababacacacac",
"acacacacacacacacacacacacacacacacacacacacacacacac",
"acacacacacacacacacacacacacacacacacacacacacacacac",
"acacacacacacacacacacacacacacacacacacacacacacacac",
"acacacacacacacacacacacacacacacacacacacacacacacac",
"acacacacacacacacacacacacacacacacacacacacacacacac"
};