/* XPM */
static char *char_W[] = {
"24 32 3 2",
"aa c #F4F4F4",
"ab c #000000",
"ac c #FF00FF",
/* pixels */
"acacacacacacacacacacacacacacacacacacacacacacacac",
"acacacacacacacacacacacacacacacacacacacacacacacac",
"acacacacacacacacacacacacacacacacacacacacacacacac",
"acacacacacacacacacacacacacacacacacacacacacacacac",
"acacacacacacacacacacacacacacacacacacacacacacacac",
"acacacacababababacacacacacacacacababababacacacac",
"acacacacabaaaaabacacacacacacacacabaaaaabacacacac",
"acacacacabaaaaabacacacacacacacacabaaaaabacacacac",
"acacacacabaaaaabacacacacacacacacabaaaaabacacacac",
"acacacacabaaaaabacacacacacacacacabaaaaabacacacac",
"acacacacabaaaaabacacacacacacacacabaaaaabacacacac",
"acacacacabaaaaabacacacacacacacacabaaaaabacacacac",
"acacacacabaaaaabacacacacacacacacabaaaaabacacacac",
"acacacacabaaaaabacacacacacacacacabaaaaabacacacac",
"acacacacabaaaaabacacacacacacacacabaaaaabacacacac",
"acacacacabaaaaabacacababababacacabaaaaabacacacac",
"acacacacabaaaaabacacabaaaaabacacabaaaaabacacacac",
"acacacacabaaaaababababaaaaababababaaaaabacacacac",
"acacacacabaaaaababaaaaababaaaaababaaaaabacacacac",
"acacacacabaaaaababaaaaababaaaaababaaaaabacacacac",
"acacacacabaaaaaaaaababababababaaaaaaaaabacacacac",
"acacacacabaaaaaaaaabacacacacabaaaaaaaaabacacacac",
"acacacacabaaaaabababacacacacabababaaaaabacacacac",
"acacacacabaaaaabacacacacacacacacabaaaaabacacacac",
"acacacacabaaaaabacacacacacacacacabaaaaabacacacac",
"acacacacabaaaaabacacacacacacacacabaaaaabacacacac",
"acacacacababababacacacacacacacacababababacacacac",
"acacacacacacacacacacacacacacacacacacacacacacacac",
"acacacacacacacacacacacacacacacacacacacacacacacac",
"acacacacacacacacacacacacacacacacacacacacacacacac",
"acacacacacacacacacacacacacacacacacacacacacacacac",
"acacacacacacacacacacacacacacacacacacacacacacacac"
};