/* XPM */
static char *char_N[] = {
"24 32 3 2",
"aa c #F4F4F4",
"ab c #000000",
"ac c #FF00FF",
/* pixels */
"acacacacacacacacacacacacacacacacacacacacacacacac",
"acacacacacacacacacacacacacacacacacacacacacacacac",
"acacacacacacacacacacacacacacacacacacacacacacacac",
"acacacacacacacacacacacacacacacacacacacacacacacac",
"acacacacacacacacacacacacacacacacacacacacacacacac",
"acacacacababababacacacacacacacacababababacacacac",
"acacacacabaaaaabacacacacacacacacabaaaaabacacacac",
"acacacacabaaaaabababacacacacacacabaaaaabacacacac",
"acacacacabaaaaaaaaabacacacacacacabaaaaabacacacac",
"acacacacabaaaaaaaaabababacacacacabaaaaabacacacac",
"acacacacabaaaaababaaaaabacacacacabaaaaabacacacac",
"acacacacabaaaaababaaaaabababacacabaaaaabacacacac",
"acacacacabaaaaababababaaaaabacacabaaaaabacacacac",
"acacacacabaaaaabacacabaaaaababababaaaaabacacacac",
"acacacacabaaaaabacacabababaaaaababaaaaabacacacac",
"acacacacabaaaaabacacacacabaaaaababaaaaabacacacac",
"acacacacabaaaaabacacacacabababaaaaaaaaabacacacac",
"acacacacabaaaaabacacacacacacabaaaaaaaaabacacacac",
"acacacacabaaaaabacacacacacacabababaaaaabacacacac",
"acacacacabaaaaabacacacacacacacacabaaaaabacacacac",
"acacacacabaaaaabacacacacacacacacabaaaaabacacacac",
"acacacacabaaaaabacacacacacacacacabaaaaabacacacac",
"acacacacabaaaaabacacacacacacacacabaaaaabacacacac",
"acacacacabaaaaabacacacacacacacacabaaaaabacacacac",
"acacacacabaaaaabacacacacacacacacabaaaaabacacacac",
"acacacacabaaaaabacacacacacacacacabaaaaabacacacac",
"acacacacababababacacacacacacacacababababacacacac",
"acacacacacacacacacacacacacacacacacacacacacacacac",
"acacacacacacacacacacacacacacacacacacacacacacacac",
"acacacacacacacacacacacacacacacacacacacacacacacac",
"acacacacacacacacacacacacacacacacacacacacacacacac",
"acacacacacacacacacacacacacacacacacacacacacacacac"
};

