/* XPM */
static char *char_R[] = {
"24 32 3 2",
"aa c #F4F4F4",
"ab c #000000",
"ac c #FF00FF",
/* pixels */
"acacacacacacacacacacacacacacacacacacacacacacacac",
"acacacacacacacacacacacacacacacacacacacacacacacac",
"acacacacacacacacacacacacacacacacacacacacacacacac",
"acacacacacacacacacacacacacacacacacacacacacacacac",
"acacacacacacacacacacacacacacacacacacacacacacacac",
"acacacacababababababababababababababacacacacacac",
"acacacacabaaaaaaaaaaaaaaaaaaaaaaaaabacacacacacac",
"acacacacabaaaaaaaaaaaaaaaaaaaaaaaaabababacacacac",
"acacacacabaaaaababababababababababaaaaabacacacac",
"acacacacabaaaaabacacacacacacacacabaaaaabacacacac",
"acacacacabaaaaabacacacacacacacacabaaaaabacacacac",
"acacacacabaaaaabacacacacacacacacabaaaaabacacacac",
"acacacacabaaaaabacacacacacacacacabaaaaabacacacac",
"acacacacabaaaaababababababababababaaaaabacacacac",
"acacacacabaaaaaaaaaaaaaaaaaaaaaaaaabababacacacac",
"acacacacabaaaaaaaaaaaaaaaaaaaaaaaaabacacacacacac",
"acacacacabaaaaababababaaaaabababababacacacacacac",
"acacacacabaaaaabacacabaaaaabababacacacacacacacac",
"acacacacabaaaaabacacabababaaaaabacacacacacacacac",
"acacacacabaaaaabacacacacabaaaaabababacacacacacac",
"acacacacabaaaaabacacacacabababaaaaabacacacacacac",
"acacacacabaaaaabacacacacacacabaaaaabababacacacac",
"acacacacabaaaaabacacacacacacabababaaaaabacacacac",
"acacacacabaaaaabacacacacacacacacabaaaaabacacacac",
"acacacacabaaaaabacacacacacacacacabaaaaabacacacac",
"acacacacabaaaaabacacacacacacacacabaaaaabacacacac",
"acacacacababababacacacacacacacacababababacacacac",
"acacacacacacacacacacacacacacacacacacacacacacacac",
"acacacacacacacacacacacacacacacacacacacacacacacac",
"acacacacacacacacacacacacacacacacacacacacacacacac",
"acacacacacacacacacacacacacacacacacacacacacacacac",
"acacacacacacacacacacacacacacacacacacacacacacacac"
};

