/* XPM */
static char *char_E[] = {
"24 32 3 2",
"aa c #F4F4F4",
"ab c #000000",
"ac c #FF00FF",
/* pixels */
"acacacacacacacacacacacacacacacacacacacacacacacac",
"acacacacacacacacacacacacacacacacacacacacacacacac",
"acacacacacacacacacacacacacacacacacacacacacacacac",
"acacacacacacacacacacacacacacacacacacacacacacacac",
"acacacacacacacacacacacacacacacacacacacacacacacac",
"acacacacababababababababababababababababacacacac",
"acacacacabaaaaaaaaaaaaaaaaaaaaaaaaaaaaabacacacac",
"acacacacabaaaaaaaaaaaaaaaaaaaaaaaaaaaaabacacacac",
"acacacacabaaaaabababababababababababababacacacac",
"acacacacabaaaaabacacacacacacacacacacacacacacacac",
"acacacacabaaaaabacacacacacacacacacacacacacacacac",
"acacacacabaaaaabacacacacacacacacacacacacacacacac",
"acacacacabaaaaabacacacacacacacacacacacacacacacac",
"acacacacabaaaaabababababababababababacacacacacac",
"acacacacabaaaaaaaaaaaaaaaaaaaaaaaaabacacacacacac",
"acacacacabaaaaaaaaaaaaaaaaaaaaaaaaabacacacacacac",
"acacacacabaaaaabababababababababababacacacacacac",
"acacacacabaaaaabacacacacacacacacacacacacacacacac",
"acacacacabaaaaabacacacacacacacacacacacacacacacac",
"acacacacabaaaaabacacacacacacacacacacacacacacacac",
"acacacacabaaaaabacacacacacacacacacacacacacacacac",
"acacacacabaaaaabacacacacacacacacacacacacacacacac",
"acacacacabaaaaabacacacacacacacacacacacacacacacac",
"acacacacabaaaaabababababababababababababacacacac",
"acacacacabaaaaaaaaaaaaaaaaaaaaaaaaaaaaabacacacac",
"acacacacabaaaaaaaaaaaaaaaaaaaaaaaaaaaaabacacacac",
"acacacacababababababababababababababababacacacac",
"acacacacacacacacacacacacacacacacacacacacacacacac",
"acacacacacacacacacacacacacacacacacacacacacacacac",
"acacacacacacacacacacacacacacacacacacacacacacacac",
"acacacacacacacacacacacacacacacacacacacacacacacac",
"acacacacacacacacacacacacacacacacacacacacacacacac"
};