/* XPM */
static char *pause_panel_xpm[] = {
"300 200 23 1",
"  c #87CEEB",
"a c #B0E0E6",
"c c #330000",
"d c #5D4037",
"e c #993300",
"f c #996600",
"g c #CC3366",
"h c #FF6699",
"i c #FF99CC",
"j c #FFCCCC",
"k c #FFCCFF",
"l c #2A6030",
"m c #3A7D44",
"n c #4A9A55",
"o c #66CC33",
"p c #FFD700",
"q c #CCAA00",
"s c #1A5276",
"t c #154360",
"u c #85C1E9",
"v c #C0392B",
"w c #A93226",
"y c #1A1A1A",
/* pixels */
"                                                                                                                                                                                                                                                                                                            ",
"                                                                                                                                                                                                                                                                                                            ",
"                                                                                                                                                                                                                                                                                                            ",
"                                                                                                                                                                                                                                                                                                            ",
"                                                                                                                                                                                                                                                                                                            ",
"                                                                                                                                                                                                                                                                                                            ",
"                                                                                                                                                                                                                                                                                                            ",
"                                                                                                          pppppppppppp         ppppppppp      ppp   i     ppp      pppppppppppp   ppppppppppppppp                                                                                                           ",
"                                                                                                          ppppppppppppq        pppppppppq     pppq iii    pppq     ppppppppppppq  pppppppppppppppq                                                                                                          ",
"                                                                                                          ppppppppppppq        pppppppppq     pppq  i     pppq     ppppppppppppq  pppppppppppppppq                                                                                                          ",
"                                                                                                          pppqqqqqqqqqppp   ppp qqqqqqqqppp   pppq        pppq  ppp qqqqqqqqqqqq  pppqqqqqqqqqqqqq              i                                                                                           ",
"                                                                                                          pppq     i  pppq  pppq        pppq  pppq        pppq  pppq              pppq                         iii                                                                                          ",
"                                                                                                          pppq    ihi pppq  pppq        pppq  pppq        pppq  pppq              pppq                          i                                                                                           ",
"                                                                                                          pppq     i  pppq  pppq        pppq  pppq        pppq  pppq              pppq                                                                                                                      ",
"                                                                                                          pppq        pppq  pppq        pppq  pppq        pppq  pppq             ipppq                                                                                                                      ",
"                                                                                                          pppq        pppq  pppq        pppq  pppq        pppq  pppq              pppq                                                                                                                      ",
"                                                                                                          pppppppppppp qqq  pppppppppppppppq  pppq        pppq   qqppppppppp      pppppppppppp                                                                                                              ",
"                                                                                     i                    ppppppppppppq     pppppppppppppppq  pppq        pppq     pppppppppq     ppppppppppppq                                                                                                             ",
"                                                                                    ihi                   ppppppppppppq     pppppppppppppppq  pppq        pppq     pppppppppq     ppppppppppppq                                                                                                             ",
"                                                                                     i                    pppqqqqqqqqqq     pppqqqqqqqqqpppq  pppq        pppq      qqqqqqqqppp   pppqqqqqqqqqq                                                                                                             ",
"                                                                                                          pppq              pppq        pppq  pppq        pppq              pppq  pppq                                                                                                                      ",
"                                                                                                          pppq              pppq        pppq  pppq        pppq              pppq  pppq                                                                                                                      ",
"                                                                                                          pppq              pppq        pppq  pppq        pppq              pppq  pppq                                                                                                                      ",
"                                                                                                          pppq              pppq        pppq  pppq        pppq              pppq  pppq                                                     i                                                                ",
"                                                                                                          pppq              pppq        pppq  pppq        pppq              pppq  pppq                                                    ihi                                                               ",
"                                                                                                          pppq              pppq        pppq   qqppppppppp qqq  pppppppppppp qqq  ppppppppppppppp                                          i                                                                ",
"                                                                                                          pppq              pppq        pppq     pppppppppq     ppppppppppppq     pppppppppppppppq                                                                                                          ",
"                                                                                                          pppq              pppq        pppq     pppppppppq     ppppppppppppq     pppppppppppppppq                                                                                                          ",
"                                                                                                           qqq               qqq         qqq      qqqqqqqqq      qqqqqqqqqqqq      qqqqqqqqqqqqqqq                                                                                                          ",
"                                                          i                                                                                                                                                                                                                                                 ",
"                                                         ihi                                                                                                                                                                                                                                                ",
"                                                          i                                                                                           g                                                                                                                                                     ",
"                                                                                               i                                                  ggggggggg                                                                                                                                                 ",
"                                                                                              ihi                                               ggggggggggggg                                                                                                                                               ",
"                                                                                               i                                               gggghhhhhhhgggg                                                                                                                                              ",
"                                                                                                                                              ggghhhhhhhhhhhggg                                                                                                       i                                     ",
"                                                                                                                                             ggghhhiiiiiiihhhggg                                                                                                     ihi                                    ",
"                                                                                                                                           gggghhhiiiiiiiiihhhgggg                                                                                                    i                                     ",
"                                                                                                                                          ggggghhiiijjjjjiiihhggggg                                                                                                                                         ",
"                                                                                                                                         ggggghhiiijjjjjjjiiihhggggg                                                                                                                                        ",
"                                                                                                                          g            ggggggghhiijjjkkkjjjiihhggggggg            g                                     i                                                                                   ",
"                                                                                                                     ggggggggggg      gggggggghhiijjkkkkkjjiihhgggggggg      ggggggggggg                               ihi                                                                                  ",
"                                                                                                                   ggggggggggggggg    gggggggghhiijjkkkkkjjiihhgggggggg     ggggggggggggg                               i                                                                                   ",
"                                                                                                                  gggggghhhhhgggggg  gggggghgghhiijjkkkkkjjiihhgghgggggg  gggggghhhhhgggggg                                                                                                                 ",
"                                                                             i                                   gggghhhhhhhhhhhgggggggggghhgghhiijjjkkkjjjiihhgghhgggggggggghhhhhhhhhhhgggg                                                                                                                ",
"                                                                            ihi                                 gggghhhhhhhhhhhhhgggggggghhhgghhiiijjjjjjjiiihhgghhhgggggggghhhhhhihhhhhhgggg                                                                                                               ",
"                                                                             i                                 gggghhhhiiiiiiihhhhgggggghhhhggghhiiijjjjjiiihhggghhhhgggggghhhhiiiiiiihhhhggg                                                                                                               ",
"                                                                                                              gggghhhiiiiiiiiiiihhhgggghhhhhigghhhiiiiiiiiihhhggihhhhhgggghhhiiiiiiiiiiihhhggg                                                                                                              ",
"                                                                                                              ggghhhiiiiiiiiiiiiihhhggghhhhiiggghhhiiiiiiihhhgggiihhhhggghhhiiiijjjjjiiiihhhggg                                                                                                             ",
"                                                                                                             ggghhhiiiijjjjjjjiiiihhhggghhhiiiggghhhhhhhhhhhgggiiihhhhggghhhiiijjjjjjjiiihhhggg                                                                                                             ",
"                                                                                                             ggghhhiiijjjjjjjjjiiihhhggghhiiiiigggghhhhhhhggggiiiiihhhggghhiiijjjjjjjjjiiihhggg                                                                                                             ",
"                            i                                                                                ggghhiiijjjjjkjjjjjiiihhggghhiiiiijgggggggggggggjiiiiihhhgghhhiijjjkkkkkjjjiihhhgg                                                                                                             ",
"                           ihi                                                                               gghhhiiijjjkkkkkjjjiiihhhgghiiiiijjjjgggggggggjjjjiiiiihhgghhhiijjjkkkkkjjjiihhhgg                                                                                                             ",
"                            i                                                                                gghhhiiijjjkkkkkjjjiiihhhgghiiiiijjjjjkkkgkkkjjjjjiiiiihggghhiiijjjkkkkkjjjiiihhggg                                                                                                            ",
"                                                                                                            ggghhhiiijjkkkkkkkjjiiihhhgggiiiijjjjjkkkkkkkkkjjjjjiiiihhgghhhiijjjkkkkkjjjiihhhgg                                       i                                                                     ",
"                                                                                                             gghhhiiijjjkkkkkjjjiiihhhgghiiiijjjjjkkkkkkkkkjjjjjiiiihhgghhhiijjjkkkkkjjjiihhhgg                                      iii                                                                    ",
"                                                                                                             gghhhiiijjjkkkkkjjjiiihhhgghiiiijjjjjkkkkkkkkkjjjjjiiiihhggghhiiijjjjjjjjjiiihhggg                                       i                                                                     ",
"                                                                                                             ggghhiiijjjjjkjjjjjiiihhggghiiiijjjjjkkkkkkkkkjjjjjiiiihhggghhhiiijjjjjjjiiihhhggg                                                                                           i                 ",
"                                                                                                             ggghhhiiijjjjjjjjjiiihhhggghiiiijjjjjkkkkkkkkkjjjjjiiiihhggghhhiiiijjjjjiiiihhhggg                                                                                          ihi                ",
"                                                                                                            gggghhhiiiijjjjjjjiiiihhhggghiiiiijjjjjkkkkkkkjjjjjiiiiihhhggghhhiiiiiiiiiiihhhgggg                                                                                           i                 ",
"                                                                                                           gggggghhhiiiiiiiiiiiiihhhggghhiiiiijjjjjjkkkkkjjjjjjiiiiihhhhggghhhhiiiiiiihhhhggggg                                                                                                             ",
"                                                               i                                           ggggggghhhiiiiiiiiiiihhhgggghhhiiiiijjjjjjjjjjjjjjjiiiiihhhhggggghhhhhhihhhhhhgggggg                                                                                                             ",
"                                                              ihi      ddd                                ggggggggghhhhiiiiiiihhhhgggghhhhiiiiijjjjjjjjjjjjjjjiiiiihhhhgggggghhhhhhhhhhhgggggggg                                                                                                            ",
"                                                               i        dddd                              gggggggggghhhhhhhhhhhhhggggghhhhhiiiiijjjjjjjjjjjjjiiiiihhhhhggggggggghhhhhggggggggggg                                                                                                            ",
"                                                                         ddddd                            ggggghhgggghhhhhhhhhhhggggggghhhhiiiiiiijjjjjjjjjiiiiiiihhhhgggggkggggggggggggghhggggg                                                                                                            ",
"                                                                           dddd                          gggggghhhgggggghhhhhgggggggggghhhhhiiiiiiiijjjjjiiiiiiiihhhhhgggggkkggggggggggghhhggggg                                                                                                            ",
"                                                                             dddd                        gggggghhhhgggggggggggggggjggggghhhhhiiiiiiiiiiiiiiiiiiihhhhhgggggkkkjjjjjgiiiihhhhhgggggggg                                                                                                        ",
"                                                                               ddd                       ggggghhhhhiigggggggggggkkkgggggghhhhhiiiiiiiiiiiiiiiiihhhhhggggggkkkkjjjjjiiiihhhhhggggggggggg                ddd                                                                                  ",
"                                                                                dddd                     ggggghhhhhiiiiijjgjjjkkkkkkgggggghhhhhhiiiiiiiiiiiiihhhhhhggggggkkkkkjjjjjiiiihhhhhgggggggggggggg           dddd                                                                                   ",
"                                                                                 ddddd                   ggggghhhhhiiiiijjjjjjkkkkkkkgggggghhhhhhhiiiiiiiiihhhhhhhggggggkkkkkkjjjjjiiiihhhhhggggggggggggggg        ddddd                                i                                                   ",
"                                                                                   dddd                  ggggghhhhhiiiiijjjjjkkkkkkkkkgggggghhhhhhhhhhhhhhhhhhhhhggggggkkkkkkjjjjjiiiiihhhhhggggggggggggggggg    ddddd                                 iii                                                  ",
"                                                                                     ddd             ggggggggghhhhiiiiiijjjjjkkkkkkkkkggggggghhhhhhhhhhhhhhhhhhhgggggggkkkkkkjjjjjiiiiihhhhgggggggggggggggggggg dddd                                    i                                                   ",
"                                                                                      dddd       ggggggggggggghhhhiiiiiijjjjjkkkkkkkkkkgggggggghhhhhhhhhhhhhhhggggggggkkkkkkjjjjjjiiiiihhhhggggghhhgggggggggggggdd                                                                                          ",
"                                                                                       ddddd   ggggggggggggggghhhhiiiiiijjjjjkkkkkkkkkkkjggggggggghhhhhhhhhgggggggggjjjkkkjjjjjjjiiiiiihhhhggggghhhhhhggggggggggg                                                                                           ",
"                                                                                         ddddggggggggggggggggghhhhhiiiiijjjjjkkkkkkkkkkkjjgggggggggggggggggggggggggjjjjjjjjjjjjjjiiiiihhhhhggggghhhhhhhhgggggggggg                                                                                          ",
"                                                                                           ggggggggggggggggggghhhhhiiiiijjjjjjkkkkkkkkkjjjjgggggggggggggggggggggggjjjjjjjjjjjjjjiiiiiihhhhggggghhhhhhhhhhhggggggggg                                                                                         ",
"                                                                                          gggggggggggggggggggghhhhhiiiiijjjjjjkkkkkkkkkjjjjjjgggggggggggggggggggiijjjjjjjjjjjjjiiiiiihhhhhggggghhhhhhhhhhhhggggggggg                                                                                        ",
"                                                                                         gggggggggggggghhggggghhhhhiiiiiijjjjjjjkkkkkjjjjjjjiiiigggggggggggggiiiiiiijjjjjjjjjiiiiiiihhhhhggggggiihhhhhhhhhhhggggggggg                                                                                       ",
"                                                                                       ggggggggggggghhhhhgggggghhhhhiiiiijjjjjjjjjjjjjjjjjjjiiiiihhggggghhhhhiiiiiiiiiijjjiiiiiiiiiihhhhhgggggiiiiiihhhhhhhhhgggggggg                                                                                       ",
"                                                                                      ggggggggggghhhhhhhhgggggghhhhhiiiiiijjjjjjjjjjjjjjjjjiiiiiihhgggggghhhhhiiiiiiiiiiiiiiiiiiiiihhhhhggggggiiiiiiiihhhhhhhhgggggggg                                                                                      ",
"                                                                                     gggggggggghhhhhhhhhhhggggghhhhhhiiiiiijjjjjjjjjjjjjjjiiiiiihhhhgggggghhhhhhiiiiiiiiiiiiiiiiihhhhhhggggggiiiiiiiiiihhhhhhhhggggggg                                                                                      ",
"                                                                                    gggggggggghhhhhhhhhhhhgggggghhhhhiiiiiiijjjjjjjjjjjjjiiiiiiihhhhgggggghhhhhhhiiiiiiiiiiiiiiihhhhhhhggggggiiiiiiiiiiiihhhhhhhggggggg                                                                         i           ",
"                                                                                    ggggggggghhhhhhhhhhhhhgggggghhhhhhiiiiiiiijjjjjjjjjiiiiiiiihhhhhhgggggghhhhhhhhiiiiiiiiiiihhhhhhhhggggggiiiiiiiiiiiiiihhhhhhhggggggg                                                                       ihi          ",
"                                                                                   gggggggghhhhhhhhhhhhiiiigggggghhhhhhiiiiiiiiiiiiiiiiiiiiiiihhhhhhggggggggghhhhhhhhhhhhhhhhhhhhhhhgggggggjjjjjiiiiiiiiiiihhhhhhggggggg                                                                        i           ",
"                                                                                  gggggggghhhhhhhhhhiiiiiiiggggggghhhhhhiiiiiiiiiiiiiiiiiiiiihhhhhhggggggggggghhhhhhhhhhhhhhhhhhhhhgggggggjjjjjjjjjiiiiiiiihhhhhhhgggggg                                                                                    ",
"                                                                                 gggggggghhhhhhhhhiiiiiiiiiigggggghhhhhhhiiiiiiiiiiiiiiiiiiihhhhhhhggggggggggggghhhhhhhhhhhhhhhhhggggggggjjjjjjjjjjjiiiiiiiihhhhhhggggggg                                                                                   ",
"                                                                                 gggggggghhhhhhhhiiiiiiiiiiiigggggghhhhhhhhiiiiiiiiiiiiiiihhhhhhhhggggggkggggggggghhhhhhhhhhhhhgggggggggjjjjjjjjjjjjjiiiiiiiihhhhhhgggggg                                                                                   ",
"                  i                                                             gggggggghhhhhhhhiiiiiiiiiiiiiggggggghhhhhhhhhiiiiiiiiiiihhhhhhhhhgggggggkkgggggggggggghhhhhggggggggggggjjjjjjjjjjjjjjjiiiiiiihhhhhhgggggg                                                                                   ",
"                 ihi                                                            ggggggghhhhhhhiiiiiiiiiiiiiiiiggggggghhhhhhhhhhhhiiihhhhhhhhhhhhgggggggkkkkgggggggggggggggggggggggggggjjjjjjjjjjjjjjjjjiiiiiiihhhhhggggggg                                                                                  ",
"                  i                                                            ggggggghhhhhhhhiiiiiiiiiiijjjjjjgggggggghhhhhhhhhhhhhhhhhhhhhhhggggggggkkkkkkkgggggggggggggggggggggggjjjjjjkkkkkjjjjjjjjjiiiiiihhhhhhgggggg                                                                                  ",
"                                                                               ggggggghhhhhhhiiiiiiiiijjjjjjjjjjgggggggghhhhhhhhhhhhhhhhhhhhhggggggggkkkkkkkkkkgggggggggggggggggggjjjjjjkkkkkkkkkjjjjjjjiiiiiihhhhhhgggggg                                                                                  ",
"                                                                              ggggggghhhhhhhiiiiiiiiijjjjjjjjjjjjggggggggghhhhhhhhhhhhhhhhhgggggggggkkkkkkkkkkkggggggggggggggggiijjjjjjkkkkkkkkkkkjjjjjjiiiiiiihhhhhgggggg                                                                                  ",
"                                                                              ggggggghhhhhhiiiiiiiiijjjjjjjjjjjjjjggggggggggghhhcfeddddccggggggggggkkkkkkkkkkkkgggggghhhghiiiiiijjjjjjjkkkkkkkkkkkjjjjjjjiiiiiihhhhhgggggg                                                                                  ",
"                                                                              ggggggghhhhhhiiiiiiiijjjjjjjjjjjjjjjjgggggggggggggcfeddddccgggggggggkkkkkkkkkkkkkgggggghhhhhiiiiiijjjjjjkkkkkkkkkkkkkjjjjjjiiiiiihhhhhgggggg                                                                                  ",
"                                                                              gggggghhhhhhiiiiiiiijjjjjjjjjjjjjjjjjjjgggggggggggcfeddddccgggggggkkkkkkkkkkkkkkkgggggghhhhhiiiiiijjjjjjkkkkkkkkkkkkkjjjjjjiiiiiihhggggggggggg                                            i                                   ",
"                                                                             ggggggghhhhhhiiiiiiijjjjjjjjjjjkjjjjjjjjjggggggggggcfeddddccggggggkkkkkkkkkkkkkkkggggggghhhhhiiiiiijjjjjjkkkkkkkkkkkkkjjjjjjiiiiiggggggggggggggggg                                        ihi                                  ",
"                                                                             ggggggghhhhhhiiiiiijjjjjjjjjkkkkkkkjjjjjjjjggggggggcfeddddccggggjkkkkkkkkkkkkkkkkkgggggghhhhhiiiiiijjjjjjkkkkkkkkkkkkkjjjjjjiiiiggggggggggggggggggg                                        i                                   ",
"                                                                             gggggghhhhhhiiiiiiijjjjjjjjkkkkkkkkkjjjjjjjjiigggggcfeddddccgggjjjkkkkkkkkkkkkkkkjgggggghhhhhiiiiiijjjjjjkkkkkkkkkkkkkjjjjjjiiiggggggghhhhhhhggggggg                                                                           ",
"                                                                             gggggghhghhhiiiiiiijjjjjjjkkkkkkkkkkkjjjjjjjiiiiiiihcfeddddccggjjjkkkkkkkkkkkkkkkjgggggghhhhhiiiiiijjjjjjjkkkkkkkkkkkjjjjjjjigggggghhhhhhhhhhhhhgggggg                                                                         ",
"                                                     i                       ggggggggggggggiiiijjjjjjjkkkkkkkkkkkkkjjjjjjjiiiiiihcfeddddccggjjjjkkkkkkkkkkkkkjjgggggghhhhhiiiiiiijjjjjjkkkkkkkkkkkjjjjjjiiggggghhhhhhhhhhhhhhhggggg                                                                         ",
"aaaaaaaaaaaaaaaaaaaaaaaaaaaaaaaaaaaaaaaaaaaaaaaaaaaaiiiaaaaaaaaaaaaaaaaaaaaaagggggggggggggggggijjjjjjjkkkkkkkkkkkkkjjjjjjjiiiiiihcfeddddccggjjjjjjkkkkkkkkkjjjjgggggghhhhhhiiiiiijjjjjjjkkkkkkkkkjjjjjjjigggghhhhhhiiiiiiihhhhhhggggaaaaaaaaaaaaaaaaaaaaaaaaaaaaaaaaaaaaaaaaaaaaaaaaaaaaaaaaaaaaaaaaaaaaaaaa",
"aaaaaaaaaaaaaaaaaaaaaaaaaaaaaaaaaaaaaaaaaaaaaaaaaaaaaiaaaaaaaaaaaaaaaaaaaaaagggggggggggggggggggjjjjjjjkkkkkkkkkkkkkjjjjjjjiiiiiihcfeddddccggjjjjjjjjkkkkkjjjjjjgggggghhhhhhiiiiiijjjjjjjjjkkkkkjjjjjjjjjgggghhhhhiiiiiiiiiiihhhhhggggaaaaaaaaaaaaaaaaaaaaaaaaaaaaaaaaaaaaaaaaaaaaaaaaaaaaaaaaaaaaaaaaaaaaaaa",
"aaaaaaaaaaaaaaaaaaaaaaaaaaaaaaaaaaaaaaaaaaaaaaaaaaaaaaaaaaaaaaaaaaaaaaaaaagggggggghhhhhhhggggggggjjjjkkkkkkkkkkkkkkkjjjjjjiiiiiihcfeddddccgggjjjjjjjjjjjjjjjjjjggggggghhhhhiiiiiiijjjjjjjjjjjjjjjjjjjjjggggghhhhiiiiiiiiiiiiihhhhgggggaaaaaaaaaaaaaaaaaaaaaaaaaaaaaaaaaaaaaaaaaaaaaaaaaaaaaaaaaaaaaaaaaaaaaa",
"aaaaaaaaaaaaaaaaaaaaaaaaaaaaaaaaaaaaaaaaaaaaaaaaaaaaaaaaaaaaaaaaaaaaaaaaagggggghhhhhhhhhhhhhggggggjjjjkkkkkkkkkkkkkjjjjjjjiiiiiihcfeddddccggjjjjjjjjjjjjjjjjjjjjgggggghhhhhhiiiiiiijjjjjjjjjjjjjjjjjjjigggghhhhiiiiiijjjiiiiiihhhhggggaaaaaaaaaaaaaaaaaaaaaaaaaaaaaaaaaaaaaaaaaaaaaaaaaaaaaaaaaaaaaaaaaaaaaa",
"aaaaaaaaaaaaaaaaaaaaaaaaaaaaaaaaaaaaaaaaaaaaaaaaaaaaaaaaaaaaaaaaaaaaaaaagggggghhhhhhhhhhhhhhhggggggjjjkkkkkkkkkkkkkjjjjjjjiiiiiihcfeddddccggjjjjjjjjjjjjjjjjjjjjgggggghhhhhhiiiiiiiijjjjjjjjjjjjjjjjjiiggghhhhiiiiijjjjjjjiiiiihhhhgggaaaaaaaaaaaaaaaaaaaaaaaaaaaaaaaaaaaaaaaaaaaaaaaaaaaaaaaaaaaaaaaaaaaaaa",
"aaaaaaaaaaaaaaaaaaaaaaaaaaaaaaaaaaaaaaaaaaaaaaaaaaaaaaaaaaaaaaaaaaaaaaaggggghhhhhhhhiiihhhhhhhhgggggjjkkkkkkkkkkkkkjjjjjjjiiiiiihhcfeddddccgjjjjjjjjjjjjjjjjjjjjggggggghhhhhhiiiiiiiijjjjjjjjjjjjjjjiigggghhhiiiijjjjjjjjjjjiiiihhhggggaaaaaaaaaaaaaaaaaaaaaaaaaaaaaaaaaaaaaaaaaaaaaaaaaaaaaaaaaaaaaaaaaaaaa",
"aaaaaaaaaaaaaaaaaaaaaaaaaaaaaaaaaaaaaaaaaaaaaaaaaaaaaaaaaaaaaaaaaaaaaaagggghhhhhhiiiiiiiiihhhhhhggggjjjkkkkkkkkkkkjjjjjjjiiiiiiihhcfeddddccgjjjjjjjjjjjjjjjjjjjjjgggggghhhhhhhiiiiiiiijjjjjjjjjjjjjiiigggghhhiiiijjjjjjjjjjjiiiihhhggggaaaaaaaaaaaaaaaaaaaaaaaaaaaaaaaaaaaaaaaaaaaaaaaaaaaaaaaaaaaaaaaaaaaaa",
"aaaaaaaaaaaaaaaaaaaaaaaaaaaaaaaaaaaaaaaaaaaaaaaaaaaaaaaaaaaaaaaaaaaaaagggghhhhhiiiiiiiiiiiiihhhhhggggjjjkkkkkkkkkjjjjjjjjiiiiiiihhcfeddddccgijjjjjjjjjjjjjjjjjjjiggggggghhhhhhiiiiiiiiiiijjjjjjjiiiiiiggghhhiiiijjjjkkkkkjjjjiiiihhhgggaaaaaaaaaaaaaaaaaaaaaaaaaaaaaaaaaaaaaaaaaaaaaaaaaaaaaaaaaaaaaaaaaaaaa",
"aaaaaaaaaaaaaaaaaaaaaaaaaaaaaaaaaaaaaaaaaaaaaaaaaaaaaaaaaaaaaaaaaaaaaggggghhhhiiiiiiiiiiiiiiihhhhgggggjjjkkkkkkkjjjjjjjjjiiiiiihhhcfeddddccgiiijjjjjjjjjjjjjjjiiiggggggghhhhhhhiiiiiiiiiiiiiiiiiiiiiiiggghhhiiiijjjkkkkkkkjjjiiiihhhgggaaaaaaaaaaaaaaaaaaaaaaaaaaaaaaaaaaaaaaaaaaaaaaaaaaaaaaaaaaaaaaaaaaaaa",
"aaaaaaaaaaaaaaaaaaaaaaaaaaaaaaaaaaaaaaaaaaaaaaaaaaaaaaaaaaaaaaaaaaaaagggghhhhiiiiiijjjjjiiiiiihhhhggggjjjjjjkjjjjjjjjjjjiiiiiiihhhhcfeddddcciiiiiijjjjjjjjjiiiiiiiggggggghhhhhhhiiiiiiiiiiiiiiiiiiiiiiggghhhiiijjjjkkkkkkkjjjjiiihhhgggaaaaaaaaaaaaaaaaaaaaaaaaaaaaaaaaaaaaaaaaaaaaaaaaaaaaaaaaaaaaaaaaaaaaa",
"aaaaaaaaaaaaaaaaaaaaaaaaaaaaaaaaaaaaaaaaaaaaaaaaaaaaaaaaaaaaaaaaaaaaaggghhhhiiiiijjjjjjjjjiiiiihhhhgggjjjjjjjjjjjjjjjjjiiiiiiiihhhhcfeddddcciiiiiiiiiiiiiiiiiiiiiiiggggggghhhhhhhhiiiiiiiiiiiiiiiiiiigggghhhiiijjjjkkkkkkkjjjjiiihhhggggaaaaaaaaaaaaaaaaaaaaaaaaaaaaaaaaaaaaaaaaaaaaaaaaaaaaaaaaaaaaaaaaaaaa",
"aaaaaaaaaaaaaaaaaaaaaaaaaaaaaaaaaaaaaaaaaaaaaaaaaaaaaaaaaaaaaaaaaaaagggghhhhiiiijjjjjjjjjjjiiiihhhhggggjjjjjjjjjjjjjjjiiiiiiiihhhhhcfeddddcciiiiiiiiiiiiiiiiiiiiiiigggggggghhhhhhhhiiiiiiiiiiiiiiiiiiiggghhhiiijjjjkkkkkkkjjjjiiihhhgggaaaaaaaaaaaaaaaaaaaaaaaaaaaaaaaaaaaaaaaaaaaaaaaaaaaaaaaaaaaaaaaaaaaaa",
"aaaaaaaaaaaaaaaaaaaaaaaaaaaaaaaaaaaaaaaaaaaaaaaaaaaaaaaaaaaaaaaaaaaagggghhhiiiijjjjjjjjjjjjjiiiihhhggggjjjjjjjjjjjjjjiiiiiiiiihhhhcfeddddddcciiiiiiiiiiiiiiiiiiiiiiigggggggghhhhhhhhhiiiiiiiiiiiiiiihhggghhhiiiijjjkkkkkkkjjjiiiihhhgggaaaaaaaaaaaaaaaaaaaaaaaaaaaaaaaaaaaaaaaaaaaaaaaaaaaaaaaaaaaaaaaaaaaaa",
"aaaaaaaaaaaaaaaaaaaaaaaaaaaaaaaaaaaaaaaaaaaaaaaaaaaaaaaaaaaaaaaaaaaaggghhhhiiiijjjjkkkkkjjjjiiiihhhhgggjjjjjjjjjjjjjiiiiiiiiihhhhhhcfeddddddcciiiiiiiiiiiiiiiiiiiiiiggggggggghhhhhhhhhhhiiiiiiiiihhhhhggghhhiiiijjjjkkkkkjjjjiiiihhhgggaaaaaaaaaaaaaaaaaaaaaaaaaaaaaaaaaaaaaaaaaaaaaaaaaaaaaaaaaaaaaaaaaaaaa",
"aaaaaaaaaaaaaaaaaaaaaaaaaaaaaaaaaaaaaaaaaaaaaaaaaaaaaaaaaaaaaaaaaaaaggghhhhiiijjjjkkkkkkkjjjjiiihhhhgggjjjjjjjjjjjjiiiiiiiiihhhhhhhcfeddddddcciiiiiiiiiiiiiiiiiiiiiihggggggggghhhhhhhhhhhhhhhhhhhhhhhhgggghhhiiiijjjjjjjjjjjiiiihhhggggaaaaaaaaaaaaaaaaaaaaaaaaaaaaaaaaaaaaaaaaaaaaaaaaaaaaaaaaaaaaaaaaaaaaa",
"aaaaaaaaaaaaaaaaaaaaaaaaaaaaaaaaaaaaaaaaaaaaaaaaaaaaaaaaaaaaaaaaaaaaggghhhiiiijjjjkkkkkkkjjjjiiiihhhgggiijjjjjjjiiiiiiiiiiihhhhhhhhcfeddddddcciiiiiiiiiiiiiiiiiiiiihhhggggggggghhhhhhhhhhhhhhhhhhhhhhhgggghhhiiiijjjjjjjjjjjiiiihhhggggaaaaaaaaaaaaaaaaaaaaaaaaaaaaaaaaaaaaaaaaaaaaaaaaaaaaaaaaaaaaaaaaaaaaa",
"aaaaaaaaaaaaaaaaaaaaaaaaaaaaaaaaaaaaaaaaaaaaaaaaaaaaaaaaaaaaaaaaaaagggghhhiiiijjjjkkkkkkkjjjjiiiihhhggggiiiiiiiiiiiiiiiiiiihhhhhhhggcfeddddddcciiiiiiiiiiiiiiiiiihhhhhhgggggggggghhhhhhhhhhhhhhhhhhhhhhggghhhhiiiiijjjjjjjiiiiihhhhgggaaaaaaaaaaaaaaaaaaaaaaaaaaaaaaaaaaaaaaaaaaaaaaaaaaaaaaaaaaaaaaaaaaaaaa",
"aaaaaaaaaaaaaaaaaaaaaaaaaaaaaaaaaaaaaaaaaaaaaaaaaaaaaaaaaaaaaaaaaaaaggghhhiiiijjjjkkkkkkkjjjjiiiihhhgggiiiiiiiiiiiiiiiiiihhhhhhhhgggcfeddddddcciiiiiiiiiiiiiiihhhhhhhhhhggggggggggghhhhhhhhhhhhhhhhhhhggggghhhhiiiiiijjjiiiiiihhhhggggaaaaaaaaaaaaaaaaaaaaaaaaaaaaaaaaaaaaaaaaaaaaaaaaaaaaaaaaaaaaaaiaaaaaaa",
"aaaaaaaaaaaaaaaaaaaaaaaaaaaaaaaaaaaaaaaaaaaaaaaaaaaaaaaaaaaaaaaaaaaaggghhhhiiijjjjkkkkkkkjjjjiiihhhhgggiiiiiiiiiiiiiiiiihhhhhhhhgggggcfeddddddcchhhhhiiihhhhhhhhhhhhhhhhhggggggggggggghhhhhhhhhhhhhggggggggghhhhiiiiiiiiiiiiihhhhgggggaaaaaaaaaaaaaaaaaaaaaaaaaaaaaaaaaaaaaaaaaaaaaaaaaaaaaaaaaaaaaihiaaaaaa",
"aaaaaaaaaaaaaaaaaaaaaaaaaaaaaaaaaaaaaaaaaaaaaaaaaaaaaaaaaaaaaaaaaaaaggghhhhiiiijjjjkkkkkjjjjiiiihhhhgggiiiiiiiiiiiiiiiihhhhhhhhhgggggcfeddddddcchhhhhhhhhhhhhhhhhhhhhhhhhhgggggggggggggggggggggggggggggggggghhhhhiiiiiiiiiiihhhhhggggaaaaaaaaaaaaaaaaaaaaaaaaaaaaaaaaaaaaaaaaaaaaaaaaaaaaaaaaaaaaaaaiaaaaaaa",
"aaaaaaaaaaaaaaaaaaaaaaaaaaaaaaaaaaaaaaaaaaaaaaaaaaaaaaaaaaaaaaaaaaaagggghhhiiiijjjjjjjjjjjjjiiiihhhggggiiiiiiiiiiiiiihhhhhhhhhhggggggcfeddddddcchhhhhhhhhhhhhhhhhhhhhhhhhgggggggggggggggggggggggggggggggggggghhhhhhiiiiiiihhhhhhggggaaaaaaaaaaaaaaaaaaaaaaaaaaaaaaaaaaaaaaaaaaaaaaaaaaaaaaaaaaaaaaaaaaaaaaaa",
"aaaaaaaaaaaaaaaiaaaaaaaaaaaaaaaaaaaaaaaaaaaaaaaaaaaaaaaaaaaaaaaaaaaagggghhhhiiiijjjjjjjjjjjiiiihhhhggggiiiiiiiiiiihhhhhhhhhhhhggggggggcfeddddddcchhhhhhhhhhhhhhhhhhhhhhgggggggggggggggggggggggggggggggggggggggghhhhhhhhhhhhhhhgggggaaaaaaaaaaaaaaaaaaaaaaaaaaaaaaaaaaaaaaaaaaaaaaaaaaaaaaaaaaaaaaaaaaaaaaaaa",
"aaaaaaaaaaaaaaihiaaaaaaaaaaaaaaaaaaaaaaaaaaaaaaaaaaaaaaaaaaaaaaaaaaaaggghhhhiiiiijjjjjjjjjiiiiihhhhggghhhhhhhhhhhhhhhhhhhhhhggggggggggcfeddddddcchhhhhhhhhhhhhhhhhhhhhgggggggggggggggggggggggggggggggggggggggggghhhhhhhhhhhhhggggggaaaaaaaaaaaaaaaaaaaaaaaaaaaaaaaaaaaaaaaaaaaaaaaaaaaaaaaaaaaaaaaaaaaaaaaaa",
"aaaaaaaaaaaaaaaiaaaaaaaaaaaaaaaaaaaaaaaaaaaaaaaaaaaaaaaaaaaaaaaaaaaaagggghhhhiiiiiijjjjjiiiiiihhhhgggghhhhhhhhhhhhhhhhhhhhhggggggggggggcfeddddddcchhhhhhhhhhhhhhhhhggggggggggggggggggggggggggggggggggggaaaaaggggggghhhhhhhgggggggaaaaaaaaaaaaaaaaaaaaaaaaaaaaaaaaaaaaaaaaaaaaaaaaaaaaaaaaaaaaaaaaaaaaaaaaaaa",
"aaaaaaaaaaaaaaaaaaaaaaaaaaaaaaaaaaaaaaaaaaaaaaaaaaaaaaaaaaaaaaaaaaaaaggggghhhhiiiiiiiiiiiiiiihhhhggggghhhhhhhhhhhhhhhhhhhhgggggggggggggcfeddddddcchhhhhhhhhhhhhhhgggggggggggggggggaaagggggggggggggggaaaaaaaaagggggggggggggggggggaaaaaaaaaaaaaaaaaaaaaaaaaaaaaaaaaaaaaaaaaaaaaaaaaaaaaaaaaaaaaaaaaaaaaaaaaaaa",
"aaaaaaaaaaaaaaaaaaaaaaaaaaaaaaaaaaaaaaaaaaaaaaaaaaaaaaaaaaaaaaaaaaaaaagggghhhhhiiiiiiiiiiiiihhhhhgggghhhhhhhhhhhhhhhhhhhggggggggggggggggcfeddddddcchhhhhhhhhhgggggggggggggggggggaaaaaaaaaaaagaaaaaaaaaaaaaaaaagggggggggggggggggaaaaaaaaaaaaaaaaaaaaaaaaaaaaaaaaaaaaaaaaaaaaaaaaaaaaaaaaaaaaaaaaaaaaaaaaaaaaa",
"aaaaaaaaaaaaaaaaaaaaaaaaaaaaaaaaaaaaaaaaaaaaaaaaaaaaaaaaaaaaaaaaaaaaaaagggghhhhhhiiiiiiiiihhhhhhgggghhhhhhhhhhhhhhhhhgggggggggggggggggggcfeddddddccggggggggggggggggggggggggggggaaaaaaaaaaaaaaaaaaaaaaaaaaaaaaaaaagggggggggggaaaaaaaaaaaaaaaaaaaaaaaaaaaaaaaaaaaaaaaaaaaaaaaaaaaaaaaaaaaaaaaaaaaaaaaaaaaaaaaa",
"aaaaaaaaaaaaaaaaaaaaaaaaaaaaaaaaaaaaaaaaaaaaaaaaaaaaaaaaaaaaaaaaaaaaaaaggggghhhhhhhhiiihhhhhhhhgggggggghhhhhhhhhhhgggggggggggggggggggggggcfeddddddccggggggggggggggggggggggggggaaaaaaaaaaaaaaaaaaaaaaaaaaaaaaaaaaaaaaaagaaaaaaaaaaaaaaaaaaaaaaaaaaaaaaaaaaaaaaaaaaaaaaaaaaaaaaaaaaaaaaaaaaaaaaaaaaaaaaaaaaaaa",
"aaaaaaaaaaaaaaaaaaaaaaaaaaaaaaaaaaaaaaaaaaaaaaaaaaaaaaaaaaaaaaaaaaaaaaaagggggghhhhhhhhhhhhhhhggggggggggggggggggggggggggggggggggaaggggggggcfeddddddccggggggggggggggggggggggggaaaaaaaaaaaaaaaaaaaaaaaaaaaaaaaaaaaaaaaaaaaaaaaaaaaaaaaaaaaaaaaaaaaaaaaaaaaaaaaaaaaaaaaaaaaaaaaaaaaaaaaaaaaaaaaaaaaaaaaaaaaaaaaa",
"aaaaaaaaaaaaaaaaaaaaaaaaaaaaaaaaaaaaaaaaaaaaaaaaaaaaaaaaaaaaaaaaaaaaaaaaagggggghhhhhhhhhhhhhggggggggggggggggggggggggggggggggggaaaaaggggggcfeddddddccggggggggggggggggggggggaaaaaaaaaaaaaaaaaaaaaaaaaaaaaaaaaaaaaaaaaaaaaaaaaaaaaaaaaaaaaaaaaaaaaaaaaaaaaaaaaaaaaaaaaaaaaaaaaaaaaaaaaaaaaaaaaaaaaaaaaaaaaaaaaa",
"aaaaaaaaaaaaaaaaaaaaaaaaaaaaaaaaaaaaaaaaaaaaaaaaaaaaaaaaaaaaaaaaaaaaaaaaaagggggggghhhhhhhgggggggggggggggggggggggggggggggggggaaaaaaaaagggggcfeddddddccgggggggggggggggggggaaaaaaaaaaaaaaaaaaaaaaaaaaaaaaaaaaaaaaaaaaaaaaaaaaaaaaaaaaaaaaaaaaaaaaaaaaaaaaaaaaaaaaaaaaaaaaaaaaaaaaaaaaaaaaaaaaaaaaaaaaaaaaaaaaaa",
"aaaaaaaaaaaaaaaaaaaaaaaaaaaaaaaaaaaaaaaaaaaaaaaaaaaaaaaaaaaaaaaaaaaaaaaaaaaaggggggggggggggggggggggggggggggggggggggggggggggaaaaaaaaaaaaaggcfeddddddddccggggggggggggggggaaaaaaaaaaaaaaaaaaaaaaaaaaaaaaaaaaaaaaaaaaaaaaaaaaaaaaaaaaaaaaaaaaaaaaaaaaaaaaaaaaaaaaaaaaaaaaaaaaaaaaaaaaaaaaaaaaaaaaaaaaaaaaaaaaaaaa",
"aaaaaaaaaaaaaaaaaaaaaaaaaaaaaaaaaaaaaaaaaaaaaaaaaaaaaaaaaaaaaaaaaaaaaaaaaaaaagggggggggggggggggaaagggggggggggggggggggggggaaaaaaaaaaaaaaaaaacfeddddddddccggggggggggggaaaaaaaaaaaaaaaaaaaaaaaaaaaaaaaaaaaaaaaaaaaaaaaaaaaaaaaaaaaaaaaaaaaaaaaaaaaaaaaaaaaaaaaaaaaaaaaaaaaaaaaaaaaaaaaaaaaaaaaaaaaaaaaaaaaaaaaaa",
"aaaaaaaaaaaaaaaaaaaaaaaaaaaaaaaaaaaaaaaaaaaaaaaaaaaaaaaaaaaaaaaaaaaaaaaaaaaaaaaagggggggggggaaaaaaaaaagggggggggggggggaaaaaaaaaaaaaaaaaaaaaacfeddddddddccgggggggggaaaaaaaaaaaaaaaaaaaaaaaaaaaaaaaaaaaaaaaaaaaaaaaaaaaaaaaaaaaaaaaaaaaaaaaaaaaaaaaaaaaaaaaaaaaaaaaaaaaaaaaaaaaaaaaaaaaaaaaaaaaaaaaaaaaaaaaaaaaa",
"aaaaaaaaaaaaaaaaaaaaaaaaaaaaaaaaaaaaaaaaaaaaaaaaaaaaaaaaaaaaaaaaaaaaaaaaaaaaaaaaaaaaagaaaaaaaaaaaaaaaaaaaaaagaaaaaaaaaaaaaaaaaaaaaaaaaaaaaacfeddddddddccaaaaaaaaaaaaaaaaaaaaaaaaaaaaaaaaaaaaaaaaaaaaaaaaaaaaaaaaaaaaaaaaaaaaaaaaaaaaaaaaaaaaaaaaaaaaaaaaaaaaaaaaaaaaaaaaaaaaaaaaaaaaaaaaaaaaaaaaaaaaaaaaaaaa",
"aaaaaaaaaaaaaaaaaaaaaaaaaaaaaaaaaaaaaaaaaaaaaaaaaaaaaaaaaaaaaaaaaaaaaaaaaaaaaaaaaaaaaaaaaaaaaaaaaaaaaaaaaaaaaaaaaaaaaaaaaaaaaaaaaaaaaaaaaaacfeddddddddccaaaaaaaaaaaaaaaaaaaaaaaaaaaaaaaaaaaaaaaaaaaaaaaaaaaaaaaaaaaaaaaaaaaaaaaaaaaaaaaaaaaaaaaaaaaaaaaaaaaaaaaaaaaaaaaaaaaaaaaaaaaaaaaaaaaaaaaaaaaaaaaaaaaa",
"aaaaaaaaaaaaaaaaaaaaaaaaaaaaaaaaaaaaaaaaaaaaaaaaaaaaaaaaaaaaaaaaaaaaaaaaaaaaaaaaaaaaaaaaaaaaaaaaaaaaaaaaaaaaaaaaaaaaaaaaaaaaaaaaaaaaaaaaaaaacfeddddddddccaaaaaaaaaaaaaaaaaaaaaaaaaaaaaaaaaaaaaaaaaaaaaaaaaaaaaaaaaaaaaaaaaaaaaaaaaaaaaaaaaaaaaaaaaaaaaaaaaaaaaaaaaaaaaaaaaaaaaaaaaaaaaaaaaaaaaaaaaaaaaaaaaaa",
"aaaaaaaaaaaaaaaaaaaaaaaaaaaaaaaaaaaaaaaaaaaaaaaaaaaaaaaaaaaaaaaaaaaaaaaaaaaaaaaaaaaaaaaaaaaaaaaaaaaaaaaaaaaaaaaaaaaaaaaaaaaaaaaaaaaaaaaaaaaacfeddddddddccaaaaaaaaaaaaaaaaaaaaaaaaaaaaaaaaaaaaaaaaaaaaaaaaaaaaaaaaaaaaaaaaaaaaaaaaaaaaaaaaaaaaaaaaaaaaaaaaaaaaaaaaaaaaaaaaaaaaaaaaaaaaaaaaaaaaaaaaaaaaaaaaaaa",
"aaaaaaaaaaaaaaaaaaaaaaaaaaaaaaaaaaaaaaaaaaaaaaaaaaaaaaaaaaaaaaaaaaaaaaaaaaaaaaaaaaaaaaaaaaaaaaaaaaaaaaaaaaaaaaaaaaaaaaaaaaaaaaaaaaaaaaaaaaaaacfeddddddddccaaaaaaaaaaaaaaaaaaaaaaaaaaaaaaaaaaaaaaaaaaaaaaaaaaaaaaaaaaaaaaaaaaaaaaaaaaaaaaaaaaaaaaaaaaaaaaaaaaaaaaaaaaaaaaaaaaaaaaaaaaaaaaaaaaaaaaaaaaaaaaaaaa",
"aaaaaaaaaaaaaaaaaaaaaaaaaaaaaaaaaaaaaaaaaaaaaaaaaaaaaaaaaaaaaaaaaaaaaaaaaaaaaaaaaaaaaaaaaaaaaaaaaaaaaaaaaaaaaaaaaaaaaaaaaaaaaaaaaaaaaaaaaaaaacfeddddddddccaaaaaaaaaaaaaaaaaaaaaaaaaaaaaaaaaaaaaaaaaaaaaaaaaaaaaaaaaaaaaaaaaaaaaaaaaaaaaaaaaaaaaaaaaaaaaaaaaaaaaaaaaaaaaaaaaaaaaaaaaaaaaaaaaaaaaaaaaaaaaaaaaa",
"aaaaaaaaaaaaaaaaaaaaaaaaaaaaaaaaaaaaaaaaaaaaaaaaaaaaaaaaaaaaaaaaaaaaaaaaaaaaaaaaaaaaaaaaaaaaaaaaaaaaaaaaaaaaaaaaaaaaaaaaaaaaaaaaaaaaaaaaaaaaaacfeddddddddccaaaaaaaaaaaaaaaaaaaaaaaaaaaaaaaaaaaaaaaaaaaaaaaaaaaaaaaaaaaaaaaaaaaaaaaaaaaaaaaaaaaaaaaaaaaaaaaaaaaaaaaaaaaaaaaaaaaaaaaaaaaaaaaaaaaaaaaaaaaaaaaaa",
"aaaaaaaaaaaaaaaaaaaaaaaaaaaaaaaaaaaaaaaaaaaaaaaaaaaaaaaaaaaaaaaaaaaaaaaaaaaaaaaaaaaaaaaaaaaaaaaaaaaaaaaaaaaaaaaaaaaaaaaaaaaaaaaaaaaaaaaaaaaaaacfeddddddddccaaaaaaaaaaaaaaaaaaaaaaaaaaaaaaaaaaaaaaaaaaaaaaaaaaaaaaaaaaaaaaaaaaaaaaaaaaaaaaaaaaaaaaaaaaaaaaaaaaaaaaaaaaaaaaaaaaaaaaaaaaaaaaaaaaaaaaaaaaaaaaaaa",
"aaaaaaaaaaaaaaaaaaaaaaaaaaaaaaaaaaaaaaaaaaaaaaaaaaaaaaaaaaaaaaaaaaaaaaaaaaaaaaaaaaaaaaaaaaaaaaaaaaaaaaaaaaaaaaaaaaaaaaaaaaaaaaaaaaaaaaaaaaaaaacfeddddddddccaaaaaaaaaaaaaaaaaaaaaaaaaaaaaaaaaaaaaaaaaaaaaaaaaaaaaaaaaaaaaaaaaaaaaaaaaaaaaaaaaaaaaaaaaaaaaaaaaaaaaaaaaaaaaaaaaaaaaaaaaaaaaaaaaaaaaaaaaaaaaaaaa",
"aaaaaaaaaaaaaaaaaaaaaaaaaaaaaaaaaaaaaaaaaaaaaaaaaaaaaaaaaaaaaaaaaaaaaaaaaaaaaaaaaaaaaaaaaaaaaaaaaaaaaaaaaaaaaaaaaaaaaaaaaaaaaaaaaaaaaaaaaaaaaaacfeddddddddccaaaaaaaaaaaaaaaaaaaaaaaaaaaaaaaaaaaaaaaaaaaaaaaaaaaaaaaaaaaaaaaaaaaaaaaaaaaaaaaaaaaaaaaaaaaaaaaaaaaaaaaaaaaaaaaaaaaaaaaaaaaaaaaaaaaaaaaaaaaaaaaa",
"aaaaaaaaaaaaaaaaaaaaaaaaaaaaaaaaaaaaaaaaaaaaaaaaaaaaaaaaaaaaaaaaaaaaaaaaaaaaaaaaaaaaaaaaaaaaaaaaaaaaaaaaaaaaaaaaaaaaaaaaaaaaaaaaaaaaaaaaaaaaaaacfeddddddddccaaaaaaaaaaaaaaaaaaaaaaaaaaaaaaaaaaaaaaaaaaaaaaaaaaaaaaaaaaaaaaaaaaaaaaaaaaaaaaaaaaaaaaaaaaaaaaaaaaaaaaaaaaaaaaaaaaaaaaaaaaiaaaaaaaaaaaaaaaaaaaaa",
"aaaaaaaaaaaaaaaaaaaaaaaaaaaaaaaaaaaaaaaaaaaaaaaaaaaaaaaaaaaaaaaaaaaaaaaaaaaaaaaaaaaaaaaaaaaaaaaaaaaaaaaaaaaaaaaaaaaaaaaaaaaaaaaaaaaaaaaaaaaaaaaacfeddddddddccaaaaaaaaaaaaaaaaaaaaaaaaaaaaaaaaaaaaaaaaaaaaaaaaaaaaaaaaaaaaaaaaaaaaaaaaaaaaaaaaaaaaaaaaaaaaaaaaaaaaaaaaaaaaaaaaaaaaaaaaiiiaaaaaaaaaaaaaaaaaaaa",
"aaaaaaaaaaaaaaaaaaaaaaaaaaaaaaaaaaaaaaaaaaaaaaaaaaaaaaaaaaaaaaaaaaaaaaaaaaaaaaaaaaaaaaaaaaaaaaaaaaaaaaaaaaaaaaaaaaaaaaaaaaaaaaaaaaaaaaaaaaaaaaaacfeddddddddccaaaaaaaaaaaaaaaaaaaaaaaaaaaaaaaaaaaaaaaaaaaaaaaaaaaaaaaaaaaaaaaaaaaaaaaaaaaaaaaaaaaaaaaaaaaaaaaaaaaaaaaaaaaaaaaaaaaaaaaaaiaaaaaaaaaaaaaaaaaaaaa",
"aaaaaaaaaaaaaaaaaaaaaaaaaaaaaaaaaaaaaaaaaaaaaaaaaaaaaaaaaaaaaaaaaaaaaaaaaaaaaaaaaaaaaaaaaaaaaaaaaaaaaaaaaaaaaaaaaaaaaaaaaaaaaaaaaaaaaaaaaaaaaaaacfeddddddddccaaaaaaaaaaaaaaaaaaaaaaaaaaaaaaaaaaaaaaaaaaaaaaaaaaaaaaaaaaaaaaaaaaaaaaaaaaaaaaaaaaaaaaaaaaaaaaaaaaaaaaaaaaaaaaaaaaaaaaaaaaaaaaaaaaaaaaaaaaaaaaa",
"aaaaaaaaaaaaaaaaaaaaaaaaaaaaaaaaaaaaaaaaaaaaaaaaaaaaaaaaaaaaaaaaaaaaaaaaaaaaaaaaaaaaaaaaaaaaaaaaaaaaaaaaaaaaaaaaaaaaaaaaaaaaaaaaaaaaaaaaaaaaaaaaacfeddddddddccaaaaaaaaaaaaaaaaaaaaaaaaaaaaaaaaaaaaaaaaaaaaaaaaaaaaaaaaaaaaaaaaaaaaaaaaaaaaaaaaaaaaaaaaaaaaaaaaaaaaaaaaaaaaaaaaaaaaaaaaaaaaaaaaaaaaaaaaaaaaaa",
"aaaaaaaaaaaaaaaaaaaaaaaaaaaaaaaaaaaaaaaaaaaaaaaaaaaaaaaaaaaaaaaaaaaaaaaaaaaaaaaaaaaaaaaaaaaaaaaaaaaaaaaaaaaaaaaaaaaaaaaaaaaaaaaaaaaaaaaaaaaaaaaaacfeddddddddccaaaaaaaaaaaaaaaaaaaaaaaaaaaaaaaaaaaaaaaaaaaaaaaaaaaaaaaaaaaaaaaaaaaaaaaaaaaaaaaaaaaaaaaaaaaaaaaaaaaaaaaaaaaaaaaaaaaaaaaaaaaaaaaaaaaaaaaaaaaaaa",
"aaaaaaaaaaaaaaaaaaaaaaaaaaaaaaiaaaaaaaaaaaaaaaaaaaaaaaaaaaaaaaaaaaaaaaaaaaaaaaaaaaaaaaaaaaaaaaaaaaaaaaaaaaaaaaaaaaaaaaaaaaaaaaaaaaaaaaaaaaaaaaaaacfeddddddddddccaaaaaaaaaaaaaaaaaaaaaaaaaaaaaaaaaaaaaaaaaaaaaaaaaaaaaaaaaaaaaaaaaaaaaaaaaaaaaaaaaaaaaaaaaaaaaaaaaaaaaaaaaaaaaaaaaaaaaaaaaaaaaaaaaaaaaaaaaaaa",
"aaaaaaaaaaaaaaaaaaaaaaaaaaaaaihiaaaaaaaaaaaaaaaaaaaaaaaaaaaaaaaaaaaaaaaaaaaaaaaaaaaaaaaaaaaaaaaaaaaaaaaaaaaaaaaaaaaaaaaaaaaaaaaaaaaaaaaaaaaaaaaaacfeddddddddddccaaaaaaaaaaaaaaaaaaaaaaaaaaaaaaaaaaaaaaaaaaaaaaaaaaaaaaaaaaaaaaaaaaaaaaaaaaaaaaaaaaaaaaaaaaaaaaaaaaaaaaaaaaaaaaaaaaaaaaaaaaaaaaaaaaaaaaaaaaaa",
"aaaaaaaaaaaaaaaaaaaaaaaaaaaaaaiaaaaaaaaaaaaaaaaaaaaaaaaaaaaaaaaaaaaaaaaaaaaaaaaaaaaaaaaaaaaaaaaaaaaaaaaaaaaaaaaaaaaaaaaaaaaaaaaaaaaaaaaaaaaaaaaaacfeddddddddddccaaaaaaaaaaaaaaaaaaaaaaaaaaaaaaaaaaaaaaaaaaaaaaaaaaaaaaaaaaaaaaaaaaaaaaaaaaaaaaaaaaaaaaaaaaaaaaaaaaaaaaaaaaaaaaaaaaaaaaaaaaaaaaaaaaaaaaaaaaaa",
"aaaaaaaaaaaaaaaaaaaaaaaaaaaaaaaaaaaaaaaaaaaaaaaaaaaaaaaaaaaaaaaaaaaaaaaaaaaaaaaaaaaaaaaaaaaaaaaaaaaaaaaaaaaaaaaaaaaaaaaaaaaaaaaaaaaaaaaaaaaaaaaaaacfeddddddddddccaaaaaaaaaaaaaaaaaaaaaaaaaaaaaaaaaaaaaaaaaaaaaaaaaaaaaaaaaaaaaaaaaaaaaaaaaaaaaaaaaaaaaaaaaaaaaaaaaaaaaaaaaaaaaaaaaaaaaaaaaaaaaaaaaaaaaaaaaaa",
"aaaaaaaaaaaaaaaaaaaaaaaaaaaaaaaaaaaaaaaaaaaaaaaaaaaaaaaaaaaaaaaaaaaaaaaaaaaaaaaaaaaaaaaaaaaaaaaaaaaaaaaaaaaaaaaaaaaaaaaaaaaaaaaaaaaaaaaaaaaaaaaaaacfeddddddddddccaaaaaaaaaaaaaaaaaaaaaaaaaaaaaaaaaaaaaaaaaaaaaaaaaaaaaaaaaaaaaaaaaaaaaaaaaaaaaaaaaaaaaaaaaaaaaaaaaaaaaaaaaaaaaaaaaaaaaaaaaaaaaaaaaaaaaaaaaaa",
"oooooooooooooooooooooooooooooooooooooooooooooooooooooooooooooooooooooooooooooooooooooooooooooooooooooooooooooooooooooooooooooooooooooooooooooooooocfeddddddddddccooooooooooooooooooooooooooooooooooooooooooooooooooooooooooooooooooooooooooooooooooooooooooooooooooooooooooooooooooooooooooooooooooooooooooo",
"oooooooooooooooooooooooooooooooooooooooooooooooooooooooooooooooooooooooooooooooooooooooooooooooooooooooooooooooooooooooooooooooooooooooooooooooooocfeddddddddddccooooooooooooooooooooooooooooooooooooooooooooooooooooooooooooooooooooooooooooooooooooooooooooooooooooooooooooooooooooooooooooooooooooooooooo",
"ooooooooooooooooooooooooooooooooooooooooooooooooooooooooooooooooooooooooooooooooooooooooooooooooooooooooooooooooooooooooooooooooooooooooooooooooooocfeddddddddddccoooooooooooooooooooooooooooooooooooooooooooooooooooooooooooooooooooooooooooohooooooooooooooooooooooooooooooooooooooooooooooooooooooooooooo",
"ooooooooooooooooooooooooooooooooooooooooooooooooooooooooooooooooooooooooooooooooooooooooooooooooooooooooooooooooooooooooooooooooooooooooooooooooooocfeddddddddddccoooooooooooooooooooooooooooooooooooooooooooooooooooooooooooooooooooooooooooooooooooooooooooooooooooooooooooooooooooooooooooooooooooooooooo",
"ooooooooooooooooooooooooooooooooooooooooooooooooooooooooooooooooooooooooooooooooooooooooooooooooooooooooooooooooooooooooooooooooooooooooooooooooooocfeddddddddddccoooooooooooooooooooooooooooooooooooooooooooooooooooooooooooooooooooooooooooooooooooooooooooooooooooooooooooooooooooooooooooooooooooooooooo",
"ooooooooooooooooooooooooooooooooooooooooooooooooooooooooooooooooooohooooooooooooooooooooooooooooooooooooooooooooooooooooooooooooooooooooooooooooooocfeddddddddddccoooooooooooooooooooooooooooooooooooooooooooooooooooooooooooooooooooooooooooooooooooooooooooooooooooooooooooooooooooooooooooooooooooooooooo",
"nnnnnnnnnnnnnnnnnnnnnnnnnnnnnnnnnnnnnnnnnnnnnnnnnnnnnnnnnnnnnnnnnnnnnnnnnnnnnnnnnnnnnnnnnnnnnnnnnnnnnnnnnnnnnnnnnnnnnnnnnnnnnnnnnnnnnnnnnnnnnnnnnnncfeddddddddddccnnnnnnnnnnnnnnnnnnnnnnnnnnnnnnnnnnnnnnnnnnnnnnnnnnnnnnnnnnnnnnnnnnnnnnnnnnnnnnnnnnnnnnnnnnnnnnnnnnnnnnnnnnnnnnnnnnnnnnnnnnnnnnnnnnnnnnnnnn",
"nnnnnnnnnnnnnnnnnnttttttttttttttttttttnnnnnnnnnnnnnnnnnnnnnnnnnnnnnnnnnnnnnnnnnnnnnnnnnnnnnnnnnnnnnnnnnnnnnnnnnnnnnnnnnnnnnnnnnnnnnnnnnnnnnnnnnnnnnncfeddddddddddccnnnnnnnnnnnnnnnnnnnnnnnnnnnnnnnnnnnnnnnnnnnnnnnnnnnnnnnnnnnnnnnnnnnnnnnnnnnnnnnnnnnnnnnnnnnnnnnnnnnwwwwwwwwwwwwwwwwwwwwnnnnnnnhnnnnnnnnnn",
"nnnnnnnnnnnnnnnyyytsssssssssssssssssstyyynnnnnnnnnnnnnnnnnnnnnnnnnnnnnnnnnnnnnnnnnnnnnnnnnnnnnnnnnnnnnnnnnnnnnnnnnnnnnnnnnnnnnnnnnnnnnnnnnnnnnnnnnnncfeddddddddddccnnnnnnnnnnnnnnnnnnnnnnnnnnnnnnnnnnnnnnnnnnnnnnnnnnnnnnnnnnnnnnnnnnnnnnnnnnnnnnnnnnnnnnnnnnnnnnnnyyywvvvvvvvvvvvvvvvvvvwyyynnnnnnnnnnnnnnn",
"nnnnnnnnnnnnnnnyyytssuuuuuuuuuuuuuusstyyynnnnnnnnnnnnnnnnnnnnnnnnnnnnnnnnnnnnnnnnnnnnnnnnnnnnnnnnnnnnnnnnnnnnnnnnnnnnnnnnnnnnnnnnnnnnnnnnnnnnnnnnnnncfeddddddddddccnnnnnnnnnnnnnnnnnnnnnnnnnnnnnnnnnnnnnnnnnnnnnnnnnnnnnnnnnnnnnnnnnnnnnnnnnnnnnnnnnnnnnnnnnnnnnnnnyyywvvuuuuuuuuuuuuuuvvwyyynnnnnnnnnnnnnnn",
"nnnnnnnnnnnnnnnyyytssuuuuuuuuuuuuuusstyyynnnnnnnnnnnnnnnnnnnnnnnnnnnnnnnnnnnnnnnnnnnnnnnnnnnnnnnnnnnnnnnnnnnnnnnnnnnnnnnnnnnnnnnnnnnnnnnnnnnnnnnnnnncfeddddddddddccnnnnnnnnnnnnnnnnnnnnnnnnnnnnnnnnnnnnnnnnnnnnnnnnnnnnnnnnnnnnnnnnnnnnnnnnnnnnnnnnnnnnnnnnnnnnnnnnyyywvvuuuuuuuuuuuuuuvvwyyynnnnnnnnnnnnnnn",
"nnnnnnnnnnnnnnnyyytssuuuuuuuuuuuuuusstyyynnnnnnnnnnnnnnnnnnnnnnnnnnnnnnnnnnnnnnnnnnnnnnnnnnnnnnnnnnnnnnnnnnnnnnnnnnnnnnnnnnnnnnnnnnnnnnnnnnnnnnnnnnncfeddddddddddccnnnnnnnnnnnnnnnnnnnnnnnnnnnnnnnnnnnnnnnnnnnnnnnnnnnnnnnnnnnnnnnnnnnnnnnnnnnnnnnnnnnnnnnnnnnnnnnnyyywvvuuuuuuuuuuuuuuvvwyyynnnnnnnnnnnnnnn",
"nnnnnnnnnnnnnnnyyytssuuuuuuuuuuuuuusstyyynnnnnnnnnnnnnnnnnnnnnnnnnnnnnnnnnnnnnnnnnnnnnnnnnnnnnnnnnnnnnnnnnnnnnnnnnnnnnnnnnnnnnnnnnnnnnnnnnnnnnnnnnnncfeddddddddddccnnnnnnnnnnnnnnnnnnnnnnnnnnnnnnnnnnnnnnnnnnnnnnnnnnnnnnnnnnnnnnnnnnnnnnnnnnnnnnnnnnnnnnnnnnnnnnnnyyywvvuuuuuuuuuuuuuuvvwyyynnnnnnnnnnnnnnn",
"nnnnnnnnnnnnnnnnnntssuuuuuuuuuuuuuusstnnnnnnnnnnnnnnnnnnnnnnnnnnnnnnnnnnnnnnnnnnnnnnnnnnnnnnnnnnnnnnnnnnnnnnnnnnnnnnnnnnnnnnnnnnnnnnnnnnnnnnnnnnnnnncfeddddddddddccnnnnnnnnnnnnnnnnnnnnnnnnnnnnnnnnnnnnnnnnnnnnnnnnnnnnnnnnnnnnnnnnnnnnnnnnnnnnnnnnnnnnnnnnnnnnnnnnnnnwvvuuuuuuuuuuuuuuvvwnnnnnnnnnnnnnnnnnn",
"nnnnnnnnnnnnnnnnnntssuuuuuuuuuuuuuusstnnnnnnnnnnnnnnnnnnnnnnnnnnnnnnnnnnnnnnnnnnnnnnnnnnnnnnnnnnnnnnnnnnnnnnnnnnnnnnnnnnnnnnnnnnnnnnnnnnnnnnnnnnnnnncfeddddddddddccnnnnnnnnnnnnnnnnnnnnnnnnnnnnnnnnnnnnnnnnnnnnnnnnnnnnnnnnnnnnnnnnnnnnnnnnnnnnnnnnnnnnnnnnnnnnnnnnnnnwvvuuuuuuuuuuuuuuvvwnnnnnnnnnnnnnnnnnn",
"mmmmmmmmmmmmmmmmmmtsssssssssssssssssstmmmmmmmmmmmmmmmmmmmmmmmmmmmmmmmmmmmmmmmmmmmmmmmmmmmmmmmmmmmmmmmmmmmmmmmmmmmmmmmmmmmmmmmmmmmmmmmmmmmmmmmmmmmmmcfeddddddddddddccmmmmmmmmmmmmmmmmmmmmmmmmmmmmmmmmmmmmmmmmmmmmmmmmmmmmmmmmmmmmmmmmmmmmmmmmmmmmmmmmmmmmmmmmmmmmmmmmmmwvvvvvvvvvvvvvvvvvvwmmmmmmmmmmmmmmmmmm",
"mmmmmmmmmmmmmmmmmmtsssssssssssssssssstmmmmmmmmmmmmmmmmmmmmmmmmmmmmmmmmmmmmmmmmmmmmmmmmmmmmmmmmmmmmmmmmmmmmmmmmmmmmmmmmmmmmmmmmmmmmmmmmmmmmmmmmmmmmmcfeddddddddddddccmmmmmmmmmmmmmmmmmmmmmmmmmmmmmmmmmmmmmmmmmmmmmmmmmmmmmmmmmmmmmmmmmmmmmmmmmmmmmmhmmmmmmmmmmmmmmmmmmmwvvvvvvvvvvvvvvvvvvwmmmmmmmmmmmmmmmmmm",
"mmmmmmmmmmmmmmmmmmtsssssssssssssssssstmmmmmmmmmmmmmmmmmmmmmmmmmmmmmmmmmmmmmmmmmmmmmmmmmmmmmmmmmmmmmmmmmmmmmmmmmmmmmmmmmmmmmmmmmmmmmmmmmmmmmmmmmmmmmcfeddddddddddddccmmmmmmmmmmmmmmmmmmmmmmmmmmmmmmmmmmmmmmmmmmmmmmmmmmmmmmmmmmmmmmmmmmmmmmmmmmmmmmmmmmmmmmmmmmmmmmmmmmwvvvvvvvvvvvvvvvvvvwmmmmmmmmmmmmmmmmmm",
"mmmmmmmmmmmmmmmmmmtsssssssssssssssssstmmmmmmmmmmmmmmmmmmmmmmmmmmmmmmmmmmhmmmmmmmmmmmmmmmmmmmmmmmmmmmmmmmmmmmmmmmmmmmmmmmmmmmmmmmmmmmmmmmmmmmmmmmmmmcfeddddddddddddccmmmmmmmmmmmmmmmmmmmmmmmmmmmmmmmmmmmmmmmmmmmmmmmmmmmmmmmmmmmmmmmmmmmmmmmmmmmmmmmmmmmmmmmmmmmmmmmmmmwvvvvvvvvvvvvvvvvvvwmmmmmmmmmmmmmmmmmm",
"mmmmmmmmmmmmmmmmmmtsssssssssssssssssstmmmmmmmmmmmmmmmmmmmmmmmmmmmmmmmmmmmmmmmmmmmmmmmmmmmmmmmmmmmmmmmmmmmmmmmmmmmmmmmmmmmmmmmmmmmmmmmmmmmmmmmmmmmmmcfeddddddddddddccmmmmmmmmmmmmmmmmmmmmmmmmmmmmmmmmmmmmmmmmmmmmmmmmmmmmmmmmmmmmmmmmmmmmmmmmmmmmmmmmmmmmmmmmmmmmmmmmmmwvvvvvvvvvvvvvvvvvvwmmmmmmmmmmmmmmmmmm",
"mmmmmmmmmmmmmmmmmmtsssssssssssssssssstmmmmmmmmmmmmmmmmmmmmmmmmmmmmmmmmmmmmmmmmmmmmmmmmmmmmmmmmmmmmmmmmmmmmmmmmmmmmmmmmmmmmmmmmmmmmmmmmmmmmmmmmmmmmmcfeddddddddddddccmmmmmmmmmmmmmmmmmmmmmmmmmmmmmmmmmmmmmmmmmmmmmmmmmmmmmmmmmmmmmmmmmmmmmmmmmmmmmmmmmmmmmmmmmmmmmmmmmmwvvvvvvvvvvvvvvvvvvwmmmmmmmmmmmmmmmmmm",
"mmmmmmmmmmmmmmmmmmtsssssssssssssssssstmmmmmmmmmmmmmmmmmmmmmmmmmmmmmmmmmmmmmmmmmmmmmmmmmmmmmmmmmmmmmmmmmmmmmmmmmmmmmmmmmmmmmmmmmmmmmmmmmmmmmmmmmmmmmcfeddddddddddddccmmmmmmmmmmmmmmmmmmmmmmmmmmmmmmmmmmmmmmmmmmmmmmmmmmmmmmmmmmmmmmmmmmmmmmmmmmmmmmmmmmmmmmmmmmmmmmmmmmwvvvvvvvvvvvvvvvvvvwmmmmmmmmmmmmmmmmmm",
"mmmmmmmmmmmmmmmmmmtsssssssssssssssssstmmmmmmmmmmmmmmmmmmmmmmmmmmmmmmmmmmmmmmmmmmmmmmmmmmmmmmmmmmmmmmmmmmmmmmmmmmmmmmmmmmmmmmmmmmmmmmmmmmmmmmmmmmmmmcfeddddddddddddccmmmmmmmmmmmmmmmmmmmmmmmmmmmmmmmmmmmmmmmmmmmmmmmmmmmmmmmmmmmmmmmmmmmmmmmmmmmmmmmmmmmmmmmmmmmmmmmmmmwvvvvvvvvvvvvvvvvvvwmmmmmmmmmmmmmmmmmm",
"mmmmmmmmmmmmmmmmmmtsssssssssssssssssstmmmmmmmmmmmmmmmmmmmmmmmmmmmmmmmmmmmmmmmmmmmmmmmmmmmmmmmmmmmmmmmmmmmmmmmmmmmmmmmmmmmmmmmmmmmmmmmmmmmmmmmmmmmmmcfeddddddddddddccmmmmmmmmmmmmmmmmmmmmmmmmmmmmmmmmmmmmmmmmmmmmmmmmmmmmmmmmmmmmmmmmmmmmmmmmmmmmmmmmmmmmmmmmmmmmmmmmmmwvvvvvvvvvvvvvvvvvvwmmmmmmmmmmmmmmmmmm",
"mmmmmmmmmmmmmmmmmmtsssssssssssssssssstmmmmmmmmmmmmmmmmmmmmmmmmmmmmmmmmmmmmmmmmmmmmmmmmmmmmmmmmmmmmmmmmmmmmmmmmmmmmmmmmmmmmmmmmmmmmmmmmmmmmmmmmmmmmcfeddddddddddddccmmmmmmmmmmmmmmmmmmmmmmmmmmmmmmmmmmmmmmmmmmmmmmmmmmmmmmmmmmmmmmmmmmmmmmmmmmmmmmmmmmmmmmmmmmmmmmmmmmmwvvvvvvvvvvvvvvvvvvwmmmmmmmmmmmmmmmmmm",
"mmmmmmmmmmmmmmmmmmtsssssssssssssssssstmmmmmmmmmmmmmmmmmmmmmmmmmmmmmmmmmmmmmmmmmmmmmmmmmmmmmmmmmmmmmmmmmmmmmmmmmmmmmmmmmmmmmmmmmmmmmmmmmmmmmmmmmmmmcfeddddddddddddccmmmmmmmmmmmmmmmmmmmmmmmmmmmmmmmmmmmmmmmmmmmmmmmmmmmmmmmmmmmmmmmmmmmmmmmmmmmmmmmmmmmmmmmmmmmmmmmmmmmwvvvvvvvvvvvvvvvvvvwmmmmmmmmmmmmmmmmmm",
"mmmmmmmmmmmmmmmmmmtsssssssssssssssssstmmmmmmmmmmmmmmmmmmmmmmmmmmmmmmmmmmmmmmmmmmmmmmmmmmmmmmmmmmmmmmmmmmmmmmmmmmmmmmmmmmmmmmmmmmmmmmmmmmmmmmmmmmmmcfeddddddddddddccmmmmmmmmmmmmmmmmmmmmmmmmmmmmmmmmmmmmmmmmmmmmmmmmmmmmmmmmmmmmmmmmmmmmmmmmmmmmmmmmmmmmmmmmmmmmmmmmmmmwvvvvvvvvvvvvvvvvvvwmmmmmmmmmmmmmmmmmm",
"mmmmmmmmmmmmmmmmmmtssuuuuuuuuuuuuuusstmmmmmmmmmmmmmmmmmmmmmmmmmmmmmmmmmmmmmmmmmmmmmmmmmmmmmmmmmmmmmmmmmmmmmmmmmmmmmmmmmmmmmmmmmmmmmmmmmmmmmmmmmmmmcfeddddddddddddccmmmmmmmmmmmmmmmmmmmmmmmmmmmmmmmmmmmmmmmmmmmmmmmmmmmmmmmmmmmmmmmmmmmmmmmmmmmmmmmmmmmmmmmmmmmmmmmmmmmwvvuuuuuuuuuuuuuuvvwmmmmmmmmmmmmmmmmmm",
"lllllllllllllllllltssuuuuuuuuuuuuuusstllllllllllllllllllllllllllllllllllllllllllllllllllllllllllllllllllllllllllllllllllllllllllllllllllllllllllllcfeddddddddddddcclllllllllllllllllllllllllllllllllllllllllllllllllllllllllllllllllllllllllllllllllllllllllllllllllllwvvuuuuuuuuuuuuuuvvwllllllllllllllllll",
"lllllllllllllllyyytssuuuuuuuuuuuuuusstyyylllllllllllllllllllllllllllllllllllllllllllllllllllllllllllllllllllllllllllllllllllllllllllllllllllllllllcfeddddddddddddccllllllllllllllllllllllllllllllllllllllllllllllllllllllllllllllllllllllllllllllllllllllllllllllllyyywvvuuuuuuuuuuuuuuvvwyyylllllllllllllll",
"lllllllllllllllyyytssuuuuuuuuuuuuuusstyyyllllllllllllllllllllllllllllllllllllllllllllllllllllllllllllllllllllllllllllllllllllllllllllllllllllllllcfeddddddddddddcclllllllllllllllllllllllllllllllllllllllllllllllllllllllllllllllllllllllllllllllllllllllllllllllllyyywvvuuuuuuuuuuuuuuvvwyyylllllllllllllll",
"lllllllllllllllyyytssuuuuuuuuuuuuuusstyyyllllllllllllllllllllllllllllllllllllllllllllllllllllllllllllllllllllllllllllllllllllllllllllllllllllllllcfeddddddddddddcclllllllllllllllllllllllllllllllllllllllllllllllllllllllllllllllllllllllllllllllllllllllllllllllllyyywvvuuuuuuuuuuuuuuvvwyyylllllllllllllll",
"lllllllllllllllyyytssuuuuuuuuuuuuuusstyyyllllllllllllllllllllllllllllllllllllllllllllllllllllllllllllllllllllllllllllllllllllllllllllllllllllllllcfeddddddddddddcclllllllllllllllllllllllllllllllllllllllllllllllllllllllllllllllllllllllllllllllllllllllllllllllllyyywvvuuuuuuuuuuuuuuvvwyyylllllllllllllll",
"lllllllllllllllyyytsssssssssssssssssstyyyllllllllllllllllllllllllllllllllllllllllllllllllllllllllllllllllllllllllllllllllllllllllllllllllllllllllcfeddddddddddddcclllllllllllllllllllllllllllllllllllllllllllllllllllllllllllllllllllllllllllllllllllllllllllllllllyyywvvvvvvvvvvvvvvvvvvwyyylllllllllllllll",
"llllllllllllllllllttttttttttttttttttttlllllllllllllllllllllllllllllllllllllllllllllllllllllllllllllllllllllllllllllllllllllllllllllllllllllllllcfeddddddddddddddccllllllllllllllllllllllllllllllllllllllllllllllllllllllllllllllllllllllllllllllllllllllllllllllllllllwwwwwwwwwwwwwwwwwwwwllllllllllllllllll",
"lllllllllllllllllllllllllllllllllllllllllllllllllllllllllllllllllllllllllllllllllllllllllllllllllllllllllllllllllllllllllllllllllllllllllllllllcfeddddddddddddddccllllllllllllllllllllllllllllllllllllllllllllllllllllllllllllllllllllllllllllllllllllllllllllllllllllllllllllllllllllllllllllllllllllllllll",
"lllllllllllllllllllllllllllllllllllllllllllllllllllllllllllllllllllllllllllllllllllllllllllllllllllllllllllllllllllllllllllllllllllllllllllllllcfeddddddddddddddccllllllllllllllllllllllllllllllllllllllllllllllllllllllllllllllllllllllllllllllllllllllllllllllllllllllllllllllllllllllllllllllllllllllllll",
"lllllllllllllllllllllllllllllllllllllllllllllllllllllllllllllllllllllllllllllllllllllllllllllllllllllllllllllllllllllllllllllllllllllllllllllllcfeddddddddddddddccllllllllllllllllllllllllllllllllllllllllllllllllllllllllllllllllllllllllllllllllllllllllllllllllllllllllllllllllllllllllllllllllllllllllll",
"llllllllllllllllllllllllllllllllllllllllllllllllllllllllllllllllllllllllllllllllllllllllllllllllllllllllllllllllllllllllllllllllllllllllllllllcfeddddddddddddddcclllllllllllllllllllllllllllllllllllllllllllllllllllllllllllllllllllllllllllllllllllllllllllllllllllllllllllllllllllllllllllllllllllllllllll",
"llllllllllllllllllllllllllllllllllllllllllllllllllllllllllllllllllllllllllllllllllllllllllllllllllllllllllllllllllllllllllllllllllllllllllllllcfeddddddddddddddcclllllllllllllllllllllllllllllllllllllllllllllllllllllllllllllllllllllllllllllllllllllllllllllllllllllllllllllllllllllllllllllllllllllllllll",
"llllllllllllllllllllllllllllllllllllllllllllllllllllllllllllllllllllllllllllllllllllllllllllllllllllllllllllllllllllllllllllllllllllllllllllllcfeddddddddddddddcclllllllllllllllllllllllllllllllllllllllllllllllllllllllllllllllllllllllllllllllllllllllllllllllllllllllllllllllllllllllllllllllllllllllllll",
"llllllllllllllllllllllllllllllllllllllllllllllllllllllllllllllllllllllllllllllllllllllllllllllllllllllllllllllllllllllllllllllllllllllllllllllcfeddddddddddddddcclllllllllllllllllllllllllllllllllllllllllllllllllllllllllllllllllllllllllllllllllllllllllllllllllllllllllllllllllllllllllllllllllllllllllll",
"lllllllllllllllllllllllllllllllllllllllllllllllllllllllllllllllllllllllllllllllllllllllllllllllllllllllllllllllllllllllllllllllllllllllllllllcfeddddddddddddddccllllllllllllllllllllllllllllllllllllllllllllllllllllllllllllllllllllllllllllllllllllllllllllllllllllllllllllllllllllllllllllllllllllllllllll",
"lllllllllllllllllllllllllllllllllllllllllllllllllllllllllllllllllllllllllllllllllllllllllllllllllllllllllllllllllllllllllllllllllllllllllllllcfeddddddddddddddccllllllllllllllllllllllllllllllllllllllllllllllllllllllllllllllllllllllllllllllllllllllllllllllllllllllllllllllllllllllllllllllllllllllllllll",
"llllllllllllllllllllllllllllllllllllllllllllllllllllllllllllllllllllllllllllllllllllllllllllllllllllllllllllllllllllllllllllllllllllllllllllllllllllllllllllllllllllllllllllllllllllllllllllllllllllllllllllllllllllllllllllllllllllllllllllllllllllllllllllllllllllllllllllllllllllllllllllllllllllllllllll"
};
