/* XPM */
static char *obstacle_barrel_xpm[] = {
"64 64 8 2",
"aa c #000000",
"bu c #222222",
"cg c #A93226",
"ck c #6E2018",
"et c #885522",
"hm c #999966",
"in c #CC9933",
"jv c None",
/* pixels */
"jvjvjvjvjvjvjvjvjvjvjvjvjvjvjvjvjvjvjvjvjvjvjvjvjvjvjvjvjvjvjvjvjvjvjvjvjvjvjvjvjvjvjvjvjvjvjvjvjvjvjvjvjvjvjvjvjvjvjvjvjvjvjvjv",
"jvjvjvjvjvjvjvjvjvjvjvjvjvjvjvjvjvjvjvjvjvjvjvjvjvjvjvjvjvjvjvjvjvjvjvjvjvjvjvjvjvjvjvjvjvjvjvjvjvjvjvjvjvjvjvjvjvjvjvjvjvjvjvjv",
"jvjvjvjvjvjvjvjvjvjvjvjvjvjvjvjvjvjvjvjvjvjvjvjvjvjvjvjvjvjvjvjvjvjvjvjvjvjvjvjvjvjvjvjvjvjvjvjvjvjvjvjvjvjvjvjvjvjvjvjvjvjvjvjv",
"jvjvjvjvjvjvjvjvjvjvjvjvjvjvjvjvjvjvjvjvjvjvjvjvjvjvjvjvjvjvjvjvjvjvjvjvjvjvjvjvjvjvjvjvjvjvjvjvjvjvjvjvjvjvjvjvjvjvjvjvjvjvjvjv",
"jvjvjvjvjvjvjvjvjvjvjvjvjvjvjvjvjvjvjvjvjvjvjvjvjvaaaaaaaaaaaaaaaaaaaaaaaaaaaajvjvjvjvjvjvjvjvjvjvjvjvjvjvjvjvjvjvjvjvjvjvjvjvjv",
"jvjvjvjvjvjvjvjvjvjvjvjvjvjvjvjvjvjvjvjvjvaaaaaaaacgcgcgcgcgcgcgcgetetetcgcgcgaaaaaaaajvjvjvjvjvjvjvjvjvjvjvjvjvjvjvjvjvjvjvjvjv",
"jvjvjvjvjvjvjvjvjvjvjvjvjvjvjvjvjvjvjvaaaaetetcgcgckckckckckckckckckckckckckbuetetetcgaaaajvjvjvjvjvjvjvjvjvjvjvjvjvjvjvjvjvjvjv",
"jvjvjvjvjvjvjvjvjvjvjvjvjvjvjvjvjvaaaacgcgckckckckckckckckckckckckckckckckckckckckckcketcgaaaajvjvjvjvjvjvjvjvjvjvjvjvjvjvjvjvjv",
"jvjvjvjvjvjvjvjvjvjvjvjvjvjvjvjvaaetetckckckckckckcgcgcgcgcgcgcgcgcgcgcgcgcgcgckckckckckckcgcgaajvjvjvjvjvjvjvjvjvjvjvjvjvjvjvjv",
"jvjvjvjvjvjvjvjvjvjvjvjvjvjvjvaaetckckckckckcgcgcgcgcgcgcgcgcgcgcgcgcgcgcgcgcgcgcgcgcgckckckckcgaajvjvjvjvjvjvjvjvjvjvjvjvjvjvjv",
"jvjvjvjvjvjvjvjvjvjvjvjvjvjvaaetckckckcgcgcgcgcgcgcgcgcgcgcgcgcgcgcgcgcgcgcgaaaaaaaaaacgcgcgckckcgaajvjvjvjvjvjvjvjvjvjvjvjvjvjv",
"jvjvjvjvjvjvjvjvjvjvjvjvjvjvaacgckcgcgcgcgcgcgcgcgcgcgcgcgcgcgcgcgcgcgcgcgaacgaaaaaacgckcgcgcgckcgaajvjvjvjvjvjvjvjvjvjvjvjvjvjv",
"jvjvjvjvjvjvjvjvjvjvjvjvjvjvaacgckcgcgcgcgcgcgcgcgcgcgcgcgcgcgcgcgcgcgcgcgckcketcgcgckcgcgcgcgckcgaajvjvjvjvjvjvjvjvjvjvjvjvjvjv",
"jvjvjvjvjvjvjvjvjvjvjvjvjvjvaackcgckckcgcgcgcgcgcgcgcgcgcgcgcgcgcgcgcgcgcgcgckckckckcgcgcgckckcgcgaajvjvjvjvjvjvjvjvjvjvjvjvjvjv",
"jvjvjvjvjvjvjvjvjvjvjvjvjvjvjvaaaacgcgckckcgcgcgcgcgcgcgcgcgcgcgcgcgcgcgcgcgcgcgcgcgcgckckcgcgaaaajvjvjvjvjvjvjvjvjvjvjvjvjvjvjv",
"jvjvjvjvjvjvjvjvjvjvjvjvjvjvjvaackaackcgcgckckckckcgcgcgcgcgcgcgcgcgcgcgcgcgcgckckckckcgcgaaaackaajvjvjvjvjvjvjvjvjvjvjvjvjvjvjv",
"jvjvjvjvjvjvjvjvjvjvjvjvjvjvjvaackckaaaaaacgcgcgcgckckckckckckckckckckckckckckcgcgcgcgaaaackckckaajvjvjvjvjvjvjvjvjvjvjvjvjvjvjv",
"jvjvjvjvjvjvjvjvjvjvjvjvjvjvjvaackckckckckaaaaaaaacgcgcgcgcgcgcgcgcgcgcgcgcgcgaaaaaaaackckckckckaajvjvjvjvjvjvjvjvjvjvjvjvjvjvjv",
"jvjvjvjvjvjvjvjvjvjvjvjvjvjvjvaackckckckckckckckckaaaaaaaaaaaaaaaaaaaaaaaaaaaackckckckckckckckckaajvjvjvjvjvjvjvjvjvjvjvjvjvjvjv",
"jvjvjvjvjvjvjvjvjvjvjvjvjvjvjvaackckckcgcgckckckckckckckckckckckckckckckckckckckcgcgckckckckckckaajvjvjvjvjvjvjvjvjvjvjvjvjvjvjv",
"jvjvjvjvjvjvjvjvjvjvjvjvjvjvjvaackckckcgcgcgckckckckckckckcgcgcgcgcgcgcgcgckckckcgcgckckckckckckaajvjvjvjvjvjvjvjvjvjvjvjvjvjvjv",
"jvjvjvjvjvjvjvjvjvjvjvjvjvjvjvaackckckcgcgcgckckcgcgckcgcgcgcgcgcgcgcgcgcgckckckcgcgckckckckckckaajvjvjvjvjvjvjvjvjvjvjvjvjvjvjv",
"jvjvjvjvjvjvjvjvjvjvjvjvjvjvjvaackckckcgcgcgckckcgcgckcgcgcgcgcgcgcgcgcgcgcgckckcgcgckckckckckckaajvjvjvjvjvjvjvjvjvjvjvjvjvjvjv",
"jvjvjvjvjvjvjvjvjvjvjvjvjvjvaackckckckcgcgcgckcgckcgcgcgcgcgcgcgcgcgcgcgcgcgckckcgcgckckckckckckckaajvjvjvjvjvjvjvjvjvjvjvjvjvjv",
"jvjvjvjvjvjvjvjvjvjvjvjvjvjvaackckckckcgcgcgckcgckcgcgcgcgcgcgcgcgcgcgcgcgcgckckcgcgckckckckckckckaajvjvjvjvjvjvjvjvjvjvjvjvjvjv",
"jvjvjvjvjvjvjvjvjvjvjvjvjvjvaackckckckcgcgcgcgcgckcgcgcgcgcgcgcgcgcgcgcgcgcgckckcgcgckckckckckckckaajvjvjvjvjvjvjvjvjvjvjvjvjvjv",
"jvjvjvjvjvjvjvjvjvjvjvjvjvjvaackcgckckcgcgcgcgcgckcgcgcgcgcgcgcgcgcgcgcgcgcgckckcgcgckckckckckckckaajvjvjvjvjvjvjvjvjvjvjvjvjvjv",
"jvjvjvjvjvjvjvjvjvjvjvjvjvjvjvaacgcgcgckckcgcgcgcgcgcgcgcgcgcgcgcgcgcgcgcgcgckckckcgckckcketetckaajvjvjvjvjvjvjvjvjvjvjvjvjvjvjv",
"jvjvjvjvjvjvjvjvjvjvjvjvjvjvjvaaaaaacgcgcgckckckckcgcgcgcgcgcgcgcgcgcgcgcgckckckckckcketetetaaaaaajvjvjvjvjvjvjvjvjvjvjvjvjvjvjv",
"jvjvjvjvjvjvjvjvjvjvjvjvjvjvjvaackckaaaaaacgcgcgcgckckckckckckckckckckckckckcketetetckaaaaaackckaajvjvjvjvjvjvjvjvjvjvjvjvjvjvjv",
"jvjvjvjvjvjvjvjvjvjvjvjvjvjvjvaackckckckckaaaaaaaacgcgcgcgetetetetcgcgcgcgcgcgaaaaaaaackckckckckaajvjvjvjvjvjvjvjvjvjvjvjvjvjvjv",
"jvjvjvjvjvjvjvjvjvjvjvjvjvjvjvaackckckckckckckckckaaaaaaaaaaaaaaaaaaaaaaaaaaaackckckckckckckckckaajvjvjvjvjvjvjvjvjvjvjvjvjvjvjv",
"jvjvjvjvjvjvjvjvjvjvjvjvjvjvjvaackckckcgckcgcgcgcgckckckckckckckckckckckckckckckcgcgckckckckckckaajvjvjvjvjvjvjvjvjvjvjvjvjvjvjv",
"jvjvjvjvjvjvjvjvjvjvjvjvjvjvjvaackckckcgcgcgcgcgcgcgcgcgcgcgcgcgcgcgcgcgcgcgckckcgcgckckckckckckaajvjvjvjvjvjvjvjvjvjvjvjvjvjvjv",
"jvjvjvjvjvjvjvjvjvjvjvjvjvjvjvaackckckbucgcgcgcgcgaacgcgcgcgcgcgcgcgcgcgcgcgckckcgcgckckckckckckaajvjvjvjvjvjvjvjvjvjvjvjvjvjvjv",
"jvjvjvjvjvjvjvjvjvjvjvjvjvjvjvaackckcgcgcgcgcgcgcgaaaaincgcgcgcgcgcgcgcgckckckckcgcgckckckckckckaajvjvjvjvjvjvjvjvjvjvjvjvjvjvjv",
"jvjvjvjvjvjvjvjvjvjvjvjvjvjvjvaackckcgcgcgcgcghmcgckckaacgcgcgcgcgcgcgcgcgcgckckcgcgckckckckckckaajvjvjvjvjvjvjvjvjvjvjvjvjvjvjv",
"jvjvjvjvjvjvjvjvjvjvjvjvjvjvjvaackckcgcgcgcgcgincginckcgckcgcgcgcgcgcgcgcgcgckckcgcgckckckckckckaajvjvjvjvjvjvjvjvjvjvjvjvjvjvjv",
"jvjvjvjvjvjvjvjvjvjvjvjvjvjvaackckckckcgcgcgcgcgincgcgincgcgcgcgcgcgcgcgcgcgckckckcgckckckckckckckaajvjvjvjvjvjvjvjvjvjvjvjvjvjv",
"jvjvjvjvjvjvjvjvjvjvjvjvjvjvaackckckckcgcgcgcgcgcgincgcgcgcgcgcgcgcgcgcgcgcgckckckcgckckckckckckckaajvjvjvjvjvjvjvjvjvjvjvjvjvjv",
"jvjvjvjvjvjvjvjvjvjvjvjvjvjvaackckckckcgcgcgcgcgcgcgcgcgcgcgcgcgcgcgcgcgcgcgckckckcgckckckckckckckaajvjvjvjvjvjvjvjvjvjvjvjvjvjv",
"jvjvjvjvjvjvjvjvjvjvjvjvjvjvjvaackckckckckcgcgcgcgcgcgcgcgcgcgcgcgcgcgcgcgckckckckckckckckckckckaajvjvjvjvjvjvjvjvjvjvjvjvjvjvjv",
"jvjvjvjvjvjvjvjvjvjvjvjvjvjvjvaaaackcketcgckckckckcgcgcgcgcgcgcgcgcgcgcgcgckckckckckckckckckckaaaajvjvjvjvjvjvjvjvjvjvjvjvjvjvjv",
"jvjvjvjvjvjvjvjvjvjvjvjvjvjvjvaackaaaaaackcgcgcgcgckckckcgcgcgcgcgcgckckckckckcgcgcgcgckckaaaackaajvjvjvjvjvjvjvjvjvjvjvjvjvjvjv",
"jvjvjvjvjvjvjvjvjvjvjvjvjvjvjvaackckckckckaaaaaaaacgcgcgcgcgcgcgcgcgcgcgcgcgcgaaaaaaaaaaaackckckaajvjvjvjvjvjvjvjvjvjvjvjvjvjvjv",
"jvjvjvjvjvjvjvjvjvjvjvjvjvjvjvaackckcgcgckckckckckaaaaaaaaaaaaaaaaaaaaaaaaaaaackckckckckckckckckaajvjvjvjvjvjvjvjvjvjvjvjvjvjvjv",
"jvjvjvjvjvjvjvjvjvjvjvjvjvjvjvaackckckcgcgcgckckcgckckckckckckckckckckckckckckckckcgckckckckckckaajvjvjvjvjvjvjvjvjvjvjvjvjvjvjv",
"jvjvjvjvjvjvjvjvjvjvjvjvjvjvjvaackckcgcgcgcgckckcgcgcgcgcgcgcgcgcgcgcgcgckcgckckckcgckckckckckckaajvjvjvjvjvjvjvjvjvjvjvjvjvjvjv",
"jvjvjvjvjvjvjvjvjvjvjvjvjvjvjvaackckcgcgcgcgcgckcgcgcgcgcgcgcgcgcgcgcgcgcgcgckckckcgckckckckckckaajvjvjvjvjvjvjvjvjvjvjvjvjvjvjv",
"jvjvjvjvjvjvjvjvjvjvjvjvjvjvjvaackckcgcgcgcgcgckcgcgcgcgcgcgcgcgcgcgcgcgcgcgcgckckcgckckckckckckaajvjvjvjvjvjvjvjvjvjvjvjvjvjvjv",
"jvjvjvjvjvjvjvjvjvjvjvjvjvjvjvaackckckcgcgcgcgckcgcgcgcgcgcgcgcgcgcgcgcgcgcgcgckckcgckckckckckckaajvjvjvjvjvjvjvjvjvjvjvjvjvjvjv",
"jvjvjvjvjvjvjvjvjvjvjvjvjvjvaackckckckcgcgcgcgcgckcgcgcgcgcgcgcgcgcgcgcgcgcgcgckckcgckckckckckckckaajvjvjvjvjvjvjvjvjvjvjvjvjvjv",
"jvjvjvjvjvjvjvjvjvjvjvjvjvjvaackckckckcgcgcgcgcgcgcgcgcgcgcgcgcgcgcgcgcgcgcgcgckckcgckckckckckckckaajvjvjvjvjvjvjvjvjvjvjvjvjvjv",
"jvjvjvjvjvjvjvjvjvjvjvjvjvjvaackckckckcgcgcgcgcgcgcgckcgcgcgcgcgcgcgcgcgcgcgckckckcgckckckckckckckaajvjvjvjvjvjvjvjvjvjvjvjvjvjv",
"jvjvjvjvjvjvjvjvjvjvjvjvjvjvaackckckckcgcgcgcgcgcgcgcgcgcgcgcgcgcgcgcgcgcgckckckckckckckckckckckckaajvjvjvjvjvjvjvjvjvjvjvjvjvjv",
"jvjvjvjvjvjvjvjvjvjvjvjvjvjvjvaackckckckckcgcgcgcgcgcgcgcgcgcgcgcgcgcgcgckcgckckckckckckckckckckaajvjvjvjvjvjvjvjvjvjvjvjvjvjvjv",
"jvjvjvjvjvjvjvjvjvjvjvjvjvjvjvjvaaaackcgcgckckckckcgcgcgcgcgcgcgcgcgcgcgckckckckckckcketetckaaaajvjvjvjvjvjvjvjvjvjvjvjvjvjvjvjv",
"jvjvjvjvjvjvjvjvjvjvjvjvjvjvjvjvjvjvaaaaaacgcgcgcgckckckckckckckckckckckckckcketetetetaaaaaajvjvjvjvjvjvjvjvjvjvjvjvjvjvjvjvjvjv",
"jvjvjvjvjvjvjvjvjvjvjvjvjvjvjvjvjvjvjvjvjvaaaaaaaaetetcgcgcgcgcgcgcgcgcgcgcgcgaaaaaaaajvjvjvjvjvjvjvjvjvjvjvjvjvjvjvjvjvjvjvjvjv",
"jvjvjvjvjvjvjvjvjvjvjvjvjvjvjvjvjvjvjvjvjvjvjvjvjvaaaaaaaaaaaaaaaaaaaaaaaaaaaajvjvjvjvjvjvjvjvjvjvjvjvjvjvjvjvjvjvjvjvjvjvjvjvjv",
"jvjvjvjvjvjvjvjvjvjvjvjvjvjvjvjvjvjvjvjvjvjvjvjvjvjvjvjvjvjvjvjvjvjvjvjvjvjvjvjvjvjvjvjvjvjvjvjvjvjvjvjvjvjvjvjvjvjvjvjvjvjvjvjv",
"jvjvjvjvjvjvjvjvjvjvjvjvjvjvjvjvjvjvjvjvjvjvjvjvjvjvjvjvjvjvjvjvjvjvjvjvjvjvjvjvjvjvjvjvjvjvjvjvjvjvjvjvjvjvjvjvjvjvjvjvjvjvjvjv",
"jvjvjvjvjvjvjvjvjvjvjvjvjvjvjvjvjvjvjvjvjvjvjvjvjvjvjvjvjvjvjvjvjvjvjvjvjvjvjvjvjvjvjvjvjvjvjvjvjvjvjvjvjvjvjvjvjvjvjvjvjvjvjvjv",
"jvjvjvjvjvjvjvjvjvjvjvjvjvjvjvjvjvjvjvjvjvjvjvjvjvjvjvjvjvjvjvjvjvjvjvjvjvjvjvjvjvjvjvjvjvjvjvjvjvjvjvjvjvjvjvjvjvjvjvjvjvjvjvjv"
};
