/* XPM */
static char *obstacle_danger_xpm[] = {
"64 64 12 2",
"aa c #000000",
"aj c #383838",
"al c #555555",
"bb c #8B7355",
"bo c #1A5276",
"bu c #222222",
"bv c #FEF9E7",
"ck c #6E2018",
"et c #885522",
"hm c #999966",
"io c #CC9966",
"jv c None",
/* pixels */
"jvjvjvjvjvjvjvjvjvjvjvjvjvjvjvjvjvjvjvjvjvjvjvjvjvjvjvjvjvjvjvjvjvjvjvjvjvjvjvjvjvjvjvjvjvjvjvjvjvjvjvjvjvjvjvjvjvjvjvjvjvjvjvjv",
"jvjvjvjvjvjvjvjvjvjvjvjvjvjvjvjvjvjvjvjvjvjvjvjvjvjvjvjvjvjvjvjvjvjvjvjvjvjvjvjvjvjvjvjvjvjvjvjvjvjvjvjvjvjvjvjvjvjvjvjvjvjvjvjv",
"jvjvjvjvjvjvjvjvjvjvjvjvjvjvjvjvjvjvjvjvjvjvjvjvjvjvjvjvjvjvjvjvjvjvjvjvjvjvjvjvjvjvjvjvjvjvjvjvjvjvjvjvjvjvjvjvjvjvjvjvjvjvjvjv",
"jvjvjvjvjvjvjvjvjvjvjvjvjvjvjvjvjvjvjvjvjvjvjvjvjvjvjvjvjvjvjvjvjvjvjvjvjvjvjvjvjvjvjvjvjvjvjvjvjvjvjvjvjvjvjvjvjvjvjvjvjvjvjvjv",
"jvjvjvjvjvjvjvjvjvjvjvjvjvjvjvjvjvjvjvjvjvjvjvjvjvjvjvjvjvjvjvjvjvjvjvjvjvjvjvjvjvjvjvjvjvjvjvjvjvjvjvjvjvjvjvjvjvjvjvjvjvjvjvjv",
"jvjvjvjvjvjvjvjvjvjvjvjvjvjvjvjvjvjvjvjvjvjvjvjvjvjvjvjvjvjvjvjvjvjvjvjvjvjvjvjvjvjvjvjvjvjvjvjvjvjvjvjvjvjvjvjvjvjvjvjvjvjvjvjv",
"jvjvjvjvjvjvjvjvjvjvjvjvjvjvjvjvjvjvjvaaaaaajvjvjvjvjvjvjvjvjvjvjvjvjvjvjvjvjvjvjvjvjvjvjvjvjvjvjvjvjvjvjvjvjvjvjvjvjvjvjvjvjvjv",
"jvjvjvjvjvjvjvjvjvjvjvjvjvjvjvjvjvjvaahmhmhmaajvjvjvjvjvjvjvjvjvjvjvjvjvjvjvjvjvjvjvjvjvjvjvjvjvjvjvjvjvjvjvjvjvjvjvjvjvjvjvjvjv",
"jvjvjvjvjvjvjvjvjvjvjvjvjvjvjvjvjvjvaacketetaajvjvjvjvjvjvaaaaaaaaaajvjvjvjvjvjvjvjvjvjvjvjvjvjvjvjvjvjvjvjvjvjvjvjvjvjvjvjvjvjv",
"jvjvjvjvjvjvjvjvjvjvjvjvjvjvjvjvjvjvaackaletaaaaaaaaaaaaaahmhmhmioioaajvjvjvjvjvjvjvjvjvjvjvjvjvjvjvjvjvjvjvjvjvjvjvjvjvjvjvjvjv",
"jvjvjvjvjvjvjvjvjvjvjvjvjvaaaaaaaaaaaaaaaaaahmhmhmhmhmhmhmetetetetetaajvjvjvjvjvjvjvjvjvjvjvjvjvjvjvjvjvjvjvjvjvjvjvjvjvjvjvjvjv",
"jvjvjvjvjvjvaaaaaaaaaaaaaahmhmhmhmhmhmhmhmhmetetetetetetetethmhmhmhmaajvjvjvjvjvjvjvjvjvjvjvjvjvjvjvjvjvjvjvjvjvjvjvjvjvjvjvjvjv",
"jvjvjvjvjvaahmhmhmhmhmhmhmetetetetetetetetetethmhmhmhmhmhmhmhmhmhmhmaajvjvjvjvjvjvjvjvjvjvjvjvjvjvjvjvjvjvjvjvjvjvjvjvjvjvjvjvjv",
"jvjvjvjvjvaaetetetetetetetethmhmhmhmhmhmhmhmhmhmhmhmhmhmhmhmbbbbbbbbaajvjvjvjvjvjvjvjvjvjvjvjvjvjvjvjvjvjvjvjvjvjvjvjvjvjvjvjvjv",
"jvjvjvjvjvaaetethmhmhmhmhmhmhmhmhmhmhmhmhmhmhmckckhmckckckhmckckbbbbaajvjvjvjvjvjvjvjvjvjvjvjvjvjvjvjvjvjvjvjvjvjvjvjvjvjvjvjvjv",
"jvjvjvjvjvaaethmhmckckhmhmhmckhmhmckhmhmckhmckhmhmhmckhmhmhmckhmckhmaajvjvjvjvjvjvjvjvjvjvjvjvjvjvjvjvjvjvjvjvjvjvjvjvjvjvjvjvjv",
"jvjvjvjvjvaaethmhmckckhmhmckhmckhmckckhmckhmckhmhmhmckckhmhmckckhmhmaajvjvjvjvjvjvjvjvjvjvjvjvjvjvjvjvjvjvjvjvjvjvjvjvjvjvjvjvjv",
"jvjvjvjvjvjvaaethmckhmckhmckhmckhmckhmckckhmckhmckhmckhmhmhmckhmckhmhmaajvjvjvjvjvjvjvjvjvjvjvjvjvjvjvjvjvjvjvjvjvjvjvjvjvjvjvjv",
"jvjvjvjvjvjvaaethmckhmckhmckckckhmckhmhmckhmckckckhmckckckhmckhmckhmhmaajvjvjvjvjvjvjvjvjvjvjvjvjvjvjvjvjvjvjvjvjvjvjvjvjvjvjvjv",
"jvjvjvjvjvjvaaethmckhmckhmckhmckhmckhmhmckhmhmckckhmhmhmhmhmhmhmhmhmetaajvjvjvjvjvjvjvjvjvjvjvjvjvjvjvjvjvjvjvjvjvjvjvjvjvjvjvjv",
"jvjvjvjvjvjvaaethmckckhmhmethmbbhmhmhmhmhmhmhmhmhmhmhmhmhmhmhmhmhmhmetaajvjvjvjvjvjvjvjvjvjvjvjvjvjvjvjvjvjvjvjvjvjvjvjvjvjvjvjv",
"jvjvjvjvjvjvaaethmhmhmhmhmhmhmhmhmckcketetetetethmhmhmhmhmetetetetetetaajvjvaaaaaaaaaaaajvjvjvjvjvaaaaaaaaaajvjvjvjvjvjvbbaaaaaa",
"jvjvjvjvjvjvaaethmetetethmhmhmhmhmhmhmhmhmetetetetetetetetetaaaaaaaaaajvjvaackcketetetetaajvjvaaalbbbbbbbbbbaajvjvjvjvaaalalalbb",
"jvjvjvjvjvjvaaethmhmhmhmetetetetetetetetetaaaaaaaaaaaaaaaaaajvjvjvjvjvjvaaetetetetetetaaetaaaaalbbbbbbbbbbaabbaajvjvaaalbbbbbbbb",
"jvjvjvjvjvjvaaetetetetetetaaaaaaaaaaaaaaaackalaajvjvjvjvjvjvjvjvjvjvjvjvaaaaetetetetetetaaaaaaaaalbbbbbbbbbbaaaajvjvaaaabbalalbb",
"jvjvjvjvjvjvjvaaaaaaaaaaaajvjvjvjvjvjvaackckckaajvjvjvjvjvjvjvjvjvjvjvjvaaetaaaaaaaaaaaaetaaaaalaaaaaaaaaaaaalaajvjvaaalaaaaaaaa",
"jvjvjvjvjvjvjvjvjvjvjvjvjvjvjvjvjvjvjvaackckbbaajvjvjvjvjvjvjvjvjvjvjvjvaaetetetetetetetetaaaaalalalalalalalalaajvjvaaalalalalal",
"jvjvjvjvjvjvjvjvjvjvjvjvjvjvjvjvjvjvjvaackbbbbaajvjvjvjvjvjvjvjvjvjvjvjvaaetetetetetetetetaaaaalalalalalalalalaajvjvaaalalalalal",
"jvjvjvjvjvjvjvjvjvjvjvjvjvjvjvjvjvjvjvaackbbbbaajvjvjvjvjvjvjvjvjvjvjvjvaaaaetetetetetetaaaaaaaaalalalalalalaaaajvjvaaaaalalalal",
"jvjvjvjvjvjvjvjvjvjvjvjvjvjvjvjvjvjvjvaackbbbbaajvjvjvjvjvjvjvjvjvjvjvjvaaetaaaaaaaaaaaaalaaaaalalaaaaaabubualaajvjvaaalalaaaaaa",
"jvjvjvjvjvjvjvjvjvjvjvjvjvjvjvjvjvjvjvaackbbbbaajvjvjvjvjvjvjvjvjvjvjvjvaaetetetetetbbajajaaaaalalalalalalalalaajvjvaaalalalalal",
"jvjvjvjvjvjvjvjvjvjvjvjvjvjvjvjvjvjvjvaackbbbbaajvjvjvjvjvjvjvjvjvjvjvjvaaaaetetetetbbalaaaaaaaaalalalalalalaaaajvjvaabualalalal",
"jvjvjvjvjvjvjvjvjvjvjvjvjvjvjvjvjvjvjvaackbbbbaajvjvjvjvjvjvjvjvjvjvjvjvaaetajajalalbuajckaaaaalajalalalalaaalaajvjvaaboboalalbb",
"jvjvjvjvjvjvjvjvjvjvjvjvjvjvjvjvjvjvjvaackbbbbaajvjvjvjvjvjvjvjvjvjvjvjvaaetetetajajetckckaaaaalbbaaaaaaaaalalaajvjvaaboboaaaaaa",
"jvjvjvjvjvjvjvjvjvjvjvjvjvjvjvjvjvjvjvjvaackaajvjvjvjvjvjvjvjvjvjvjvjvjvaaetetetetetetckckaaaaalbbbbbbbbbbalalaajvjvaaboalalalal",
"jvjvjvjvjvjvjvjvjvjvjvjvjvjvjvjvjvjvjvjvjvjvjvjvjvjvjvjvjvjvjvjvjvjvjvjvjvaaetetalckckckaajvjvaaalbbbbalalalaajvjvjvjvaaalalalal",
"jvjvjvjvjvjvjvjvjvjvjvjvjvjvjvjvjvjvjvjvjvjvjvjvjvjvjvjvjvjvjvjvjvjvjvjvjvjvaaaaaaaaaaaajvjvjvjvaaaaaaaaaaaajvjvjvjvjvjvaaaaaaaa",
"jvjvjvjvjvjvjvjvjvjvjvjvjvjvjvjvjvjvjvjvjvjvjvjvjvjvjvjvjvjvjvjvjvjvjvjvjvjvjvjvjvjvjvjvjvjvjvjvjvjvjvjvjvjvjvjvjvjvjvjvjvjvjvjv",
"jvjvjvjvjvjvjvjvjvjvjvjvjvjvjvjvjvjvjvjvjvjvjvjvjvjvjvjvjvjvjvjvjvjvjvjvjvjvjvjvjvjvjvjvjvjvjvjvjvjvjvjvjvjvjvjvjvjvjvjvjvjvjvjv",
"jvjvjvjvjvjvjvjvjvjvjvjvjvjvjvjvjvjvjvjvjvjvjvjvjvjvjvjvjvjvjvjvjvjvjvjvjvjvjvjvjvjvjvjvjvjvjvjvjvjvjvjvjvjvjvjvjvjvjvjvjvjvjvjv",
"jvjvjvjvjvjvjvjvjvjvjvjvjvjvbvbvbvbvbvbvbvbvbvbvbvbvbvbvbvbvbvbvbvbvbvbvbvbvbvbvbvbvbvbvbvbvbvbvbvbvbvbvbvbvbvbvbvbvbvbvbvbvbvbv",
"bvbvbvbvbvbvbvbvbvbvbvbvbvjvjvjvjvjvjvjvjvjvjvjvhmhmhmhmjvhmhmhmhmhmjvjvhmhmhmhmjvjvjvhmjvjvhmjvjvjvjvhmhmhmjvjvjvjvhmhmhmhmjvjv",
"jvjvjvjvjvhmjvjvjvjvjvjvjvjvjvjvjvjvjvjvjvjvjvjvjvjvjvjvjvjvjvjvjvjvjvjvjvjvjvjvjvjvjvjvjvjvjvjvjvjvjvjvjvjvjvjvjvjvjvjvhmhmjvjv",
"jvjvjvjvhmhmjvjvjvjvjvjvjvjvjvjvjvjvjvjvjvjvjvjvjvjvjvjvjvjvjvjvjvjvjvjvjvjvjvjvjvjvjvjvjvjvjvjvjvjvjvjvjvjvjvjvjvjvjvjvhmhmjvjv",
"jvjvjvjvjvjvjvjvjvjvjvjvjvjvjvjvjvjvjvjvjvjvjvjvjvjvjvjvjvjvjvjvjvjvjvjvjvjvjvjvjvjvjvjvjvjvjvjvjvjvjvjvjvjvjvjvjvjvjvjvjvjvjvjv",
"jvjvjvjvjvjvjvjvjvjvjvjvjvjvjvjvjvjvjvjvjvjvjvjvjvjvjvjvjvjvjvjvjvjvjvjvjvjvjvjvjvjvjvjvjvjvjvjvjvjvjvjvjvjvjvjvjvjvjvjvjvjvjvjv",
"jvjvjvjvjvjvjvjvjvjvjvjvjvjvjvjvjvjvjvjvjvjvjvjvjvjvjvjvjvjvjvjvjvjvjvjvjvjvjvjvjvjvjvjvjvjvjvjvjvjvjvjvjvjvjvjvjvjvjvjvjvjvjvjv",
"jvjvjvjvjvjvjvjvjvjvjvjvjvjvjvjvjvjvjvjvjvjvjvjvjvjvjvjvjvjvjvjvjvjvjvjvjvjvjvjvjvjvjvjvjvjvjvjvjvjvjvjvjvjvjvjvjvjvjvjvjvjvjvjv",
"jvjvjvjvjvjvjvjvjvjvjvjvjvjvjvjvjvjvjvjvjvjvjvjvjvjvjvjvjvjvjvjvjvjvjvjvjvjvjvjvjvjvjvjvjvjvjvjvjvjvjvjvjvjvjvjvjvjvhmjvjvjvjvjv",
"jvjvjvjvjvjvjvjvjvjvjvjvjvjvjvjvjvjvjvjvjvjvjvjvjvjvjvjvjvjvjvjvjvjvjvjvjvjvjvjvhmjvjvjvjvjvjvjvjvjvjvjvjvhmhmhmhmhmhmhmjvjvjvjv",
"jvjvjvjvjvjvjvjvjvjvjvjvjvjvjvjvjvjvjvjvjvjvjvjvjvjvjvjvjvjvjvjvjvjvjvjvjvjvjvjvaaaaaaaaaaaajvjvjvjvjvjvjvjvaaaaaaaaaaaaaajvjvjv",
"jvjvjvjvjvjvjvjvjvjvjvjvjvjvjvjvjvjvjvjvjvjvjvjvjvjvjvjvjvjvjvjvjvjvjvjvhmaaaaaaalalalalalalaaaaaajvjvjvhmaaalckckckckckckaaaajv",
"jvjvjvjvjvjvjvjvjvjvjvjvjvjvjvjvjvjvjvjvjvjvjvjvjvjvjvjvjvjvjvjvjvjvjvjvaaalalalaaaaaaaaaaaaalalalaajvjvaaalalbbbbbbbbbbbbckckaa",
"jvjvjvjvjvjvjvjvjvjvjvjvjvjvjvjvjvjvjvjvjvjvjvjvjvaaaaaaaaaaaaaaaajvjvaaalalaaaabubububububuaaaaalalaaaackalaaaabbbbbbbbbbbbbbbb",
"jvjvjvjvjvjvjvjvjvjvjvjvjvjvjvjvjvjvjvjvjvjvjvaaaaalalalbbbbbbbbaaaaaaaaalalaaaabubububububuaaaaalalaaaackbbbbbbbbbbbbbbbbbbbbet",
"jvjvjvjvjvjvjvjvjvjvjvjvjvjvjvjvjvjvjvjvjvhmaaalalalaaaaaaaaaaaaajajajaaalalalaaaaaaaaaaaaaaalalalalaaaaaaaackckckckckckckckaaaa",
"jvjvjvjvjvjvjvjvjvjvjvjvjvjvjvjvjvjvjvjvjvaaalalaaaaaabubububububuaaalajaabualalalalalalalalalalalbuaaaackckaaaaaaaaaaaaaaaackck",
"jvjvjvjvjvjvjvjvjvjvjvhmjvaaaaaaaaaaaaaajvaaalalalaaaaaaaaaaaaaaaaalalajaabubuaaalalajajajajbubububuaaaackckckckckckckckckckckck",
"jvjvjvjvjvjvjvjvjvjvhmaaaaalalalalalalalaaaaajalalalbubububualalalalalajaabubuaabualalbubububuaabubuaaaackckckckckckckckckckckck",
"jvjvjvjvjvjvjvjvjvhmaaalalalalalalalalalalaaajajalalalalalalalalalbuajajaabububualbububububuaaalalbuaaaaajckckckckckckckckckhmaa",
"jvjvjvjvjvjvjvjvjvhmaaalalalalalalalalalalaabuaabuajalalbualalbubububuajaaaabubuajajajajajajbubuaaaaaaaaaaaabbbbbbbbbbbbbbckaaaa",
"jvjvjvjvjvjvjvjvjvhmaaalaaalalalalalalaaaaaabubuajaabualalbualbubuajajbuaaajaaaabubububububuaaaabubuaaaackckaaaaaaaaaaaaaaaackck",
"jvjvhmjvjvjvjvjvjvhmaaalalaaaaaaaaaaaaalalaaaaaaajajalbualalbuajajajaaaaaaajajajaaaaaaaaaaaaalalbubuaaaackckckckckckckckckckckck",
"jvjvjvjvjvjvjvjvjvhmaaalalalalalaletetalalaaaaaaaaaaaabububuaaaaaaaaaaaaaaaabubualalalalajajajbububuaaaackckckckckckckckckckckck"
};
