/* XPM */
static char *obstacle_haybale_xpm[] = {
"64 64 11 2",
"aa c #000000",
"bu c #222222",
"ck c #6E2018",
"et c #885522",
"fw c #FDE68A",
"hm c #999966",
"in c #CC9933",
"io c #CC9966",
"it c #CCCC66",
"jr c #FFCC33",
"jv c #FF00FF",
/* pixels */
"jvjvjvjvjvjvjvjvjvjvjvjvjvjvjvjvjvjvjvjvjvjvjvjvjvjvjvjvjvjvjvjvjvjvjvjvjvjvjvjvjvjvjvjvjvjvjvjvjvjvjvjvjvjvjvjvjvjvjvjvjvjvjvjv",
"jvjvjvjvjvjvjvjvjvjvjvjvjvjvjvjvjvjvjvjvjvjvjvjvjvjvjvjvjvjvjvjvjvjvjvjvjvjvjvjvjvjvjvjvjvjvjvjvjvjvjvjvjvjvjvjvjvjvjvjvjvjvjvjv",
"jvjvjvjvjvjvjvjvjvjvjvjvjvjvjvjvjvjvjvjvjvjvjvjvjvjvjvjvjvjvjvjvjvjvjvjvjvjvjvjvjvjvjvjvjvjvjvjvjvjvjvjvjvjvjvjvjvjvjvjvjvjvjvjv",
"jvjvjvjvjvjvjvjvjvjvjvjvjvjvjvjvjvjvjvjvjvjvjvjvjvjvjvjvjvjvjvjvjvjvjvjvjvjvjvjvjvjvjvjvjvjvjvjvjvjvjvjvjvjvjvjvjvjvjvjvjvjvjvjv",
"jvjvjvjvjvjvjvjvjvjvjvjvjvjvjvjvjvjvjvjvjvjvjvjvjvjvjvjvjvjvjvjvjvjvjvjvjvjvjvjvjvjvjvjvjvjvjvjvjvjvjvjvjvjvjvjvjvjvjvjvjvjvjvjv",
"jvjvjvjvjvjvjvjvjvjvjvjvjvjvjvjvjvjvjvjvjvjvjvjvjvjvjvjvjvjvjvjvjvjvjvjvjvjvjvjvjvjvjvjvjvjvjvjvjvjvjvjvjvjvjvjvjvjvjvjvjvjvjvjv",
"jvjvjvjvjvjvjvjvjvjvjvjvjvjvjvjvjvjvjvjvjvjvjvjvjvjvjvjvjvjvjvjvjvjvjvjvjvjvjvjvjvjvjvjvjvjvjvjvjvjvjvjvjvjvjvjvjvjvjvjvjvjvjvjv",
"jvjvjvjvjvjvjvjvjvjvjvjvjvjvjvjvjvjvjvjvjvjvjvjvjvjvjvjvjvjvjvjvjvjvjvjvjvjvjvjvjvjvjvjvjvjvjvjvjvjvjvjvjvjvjvjvjvjvjvjvjvjvjvjv",
"jvjvjvjvjvjvjvjvjvjvjvjvjvjvjvjvjvjvjvjvjvjvjvjvjvjvjvjvjvjvjvjvjvjvjvjvjvjvjvjvjvjvjvjvjvjvjvjvjvjvjvjvjvjvjvjvjvjvjvjvjvjvjvjv",
"jvjvjvjvjvjvjvjvjvjvjvjvjvjvjvjvjvjvjvjvjvjvjvjvjvjvjvjvjvjvjvjvjvjvjvjvjvjvjvjvjvjvjvjvjvjvjvjvjvjvjvjvjvjvjvjvjvjvjvjvjvjvjvjv",
"jvjvjvjvjvjvjvjvjvjvjvjvjvjvjvjvjvjvjvjvjvjvjvjvjvjvjvjvjvjvjvjvjvjvjvjvjvjvjvjvjvjvjvjvjvjvjvjvjvjvjvjvjvjvjvjvjvjvjvjvjvjvjvjv",
"jvjvjvjvjvjvjvjvjvjvjvjvjvjvjvjvjvjvjvjvjvjvjvjvjvjvjvjvjvjvjvjvjvjvjvjvjvjvjvjvjvjvjvjvjvjvjvjvjvjvjvjvjvjvjvjvjvjvjvjvjvjvjvjv",
"jvjvjvjvjvjvjvjvjvjvjvjvjvjvjvjvjvjvjvjvjvjvjvjvjvjvjvjvjvjvjvjvjvjvjvjvjvjvjvjvjvjvjvjvjvjvjvjvjvjvjvjvjvjvjvjvjvjvjvjvjvjvjvjv",
"jvjvjvjvjvjvjvjvjvjvjvjvjvjvjvjvjvjvjvjvjvjvjvjvjvjvjvjvjvjvjvjvjvjvjvjvjvjvjvjvjvjvjvjvjvjvjvjvjvjvjvjvjvjvjvjvjvjvjvjvjvjvjvjv",
"jvjvjvjvjvjvjvjvjvjvjvjvjvjvjvjvjvjvjvjvjvjvjvjvjvjvjvjvjvjvjvjvjvjvjvjvjvjvjvjvjvjvjvaaaaaaaajvjvjvjvjvjvjvjvjvjvjvjvjvjvjvjvjv",
"jvjvjvjvjvjvjvjvjvjvjvjvjvjvjvjvjvjvjvjvjvjvjvjvjvjvjvjvjvjvjvjvjvjvjvjvjvjvjvjvjvaaaajrjrjrjraaaaaajvjvjvjvjvjvjvjvjvjvjvjvjvjv",
"jvjvjvjvjvjvjvjvjvjvjvjvjvjvjvjvjvjvjvjvjvjvjvjvjvjvjvjvjvjvjvjvjvjvjvjvjvjvaaaaaajrjrjrininjrjrjrhmaajvjvjvjvjvjvjvjvjvjvjvjvjv",
"jvjvjvjvjvjvjvjvjvjvjvjvjvjvjvjvjvjvjvjvjvjvjvjvjvjvjvjvjvjvjvjvjvjvaaaaaaaajrjrjrjrjrjrititjrinjrjrjraajvjvjvjvjvjvjvjvjvjvjvjv",
"jvjvjvjvjvjvjvjvjvjvjvjvjvjvjvjvjvjvjvjvjvjvjvjvjvjvjvjvjvjvjvaaaaaajrjrjrjraajrjrjritititititjrjretjrinaajvjvjvjvjvjvjvjvjvjvjv",
"jvjvjvjvjvjvjvjvjvjvjvjvjvjvjvjvjvjvjvjvjvjvjvjvjvjvjvjvjvaaaajrjrjrjrjrjrjrjraaititititititititjretinjraajvjvjvjvjvjvjvjvjvjvjv",
"jvjvjvjvjvjvjvjvjvjvjvjvjvjvjvjvjvjvjvjvjvjvjvjvjvjvaaaaaajrjrjrjrjrjrjrititjrjraaititititititititjretjrjraajvjvjvjvjvjvjvjvjvjv",
"jvjvjvjvjvjvjvjvjvjvjvjvjvjvjvjvjvjvjvjvjvjvaaaaaaaajrjrjrjrjrjritititititititjrjraaitititititjrjrjrjretitaajvjvjvjvjvjvjvjvjvjv",
"jvjvjvjvjvjvjvjvjvjvjvjvjvjvjvjvjvjvjvjvaaaainjrjrjraajrjrjrititititititititititjrjraaitjrjrjrjrjrjrjrjretjraajvjvjvjvjvjvjvjvjv",
"jvjvjvjvjvjvjvjvjvjvjvjvjvjvjvjvjvaaaaaajrjrjrjrjrjrjrinaaititititititititititititjrjraajrjrjrjrjrjrjrjretjraajvjvjvjvjvjvjvjvjv",
"jvjvjvjvjvjvjvjvjvjvjvjvjvjvaaaaaaaajrjrjrjrjrjritititititaaititititititititjrjrjrjrjraajrjrjrjrjrjrjrjrjretjraajvjvjvjvjvjvjvjv",
"jvjvjvjvjvjvjvjvjvjvjvjvaaaaioioiojraaaajrjrititititititititaaititititjrjrjrjrjraajrjrjraajrjrjrjrjrjrjrjretjraajvjvjvjvjvjvjvjv",
"jvjvjvjvjvjvjvjvjvjvjvaaininckckckckititaaitititititititititjraaitjrjrjrjrjrjrinaabujrjraajrjrjrjrjrjrjrjretjraajvjvjvjvjvjvjvjv",
"jvjvjvjvjvjvjvjvjvjvaaincketininininckckitaaititititititititjraaitjrjrjrjrjrjrckaaaajrjrjraajrjrjrjrjrjrjrjretjraajvjvjvjvjvjvjv",
"jvjvjvjvjvjvjvjvjvaaininckininininininetckitaaitititititititjrjraajrjrjrjrjraaaaaaaaetjrjraajrjrjrjrjrjrjrjretjraajvjvjvjvjvjvjv",
"jvjvjvjvjvjvjvjvjvaainckinininininininininckitbuitititjrjrjrjrjrjretjrjraaaaaaaaaaaaaajrjraajrjrjrjrjrjrjrjretjraajvjvjvjvjvjvjv",
"jvjvjvjvjvjvjvjvjvaainckinetetininininininckitbujrjrjrjrjrjrjrjrjraajrjrjraaaaaaaaaaitaajretjrjrjrjrjrjrjrjretjraajvjvjvjvjvjvjv",
"jvjvjvjvjvjvjvjvaainckininaaaaetininininininckitbujrjrjrjrjrjrjrjraajrjrjrjraaaaaaaajrjrjrinaajrjrjrjrjrjrjretjraajvjvjvjvjvjvjv",
"jvjvjvjvjvjvjvjvaainckininaaaaetininininininckitbujrjrjrjrjrjrjrjrjraajrjrjraaaaaajrjrjrjrinaajrjrjrjrjrjrjretjraajvjvjvjvjvjvjv",
"jvjvjvjvjvjvjvjvaainckininaaaaetinininininininckitbujrjrjrjrjrjrjrjraajrjrjraaaajrjrjrjrjrinaajrjrjrjretetetetjraajvjvjvjvjvjvjv",
"jvjvjvjvjvjvjvjvaainckininetetetinininininininckitbujrjrjrjrjretjrjraajrjraaaajrjrjrjrjrjrinaajrjrjrjretetetckjraajvjvjvjvjvjvjv",
"jvjvjvjvjvjvjvjvaainckinininetinininininininininckckjrjrjrjretjrjrjrinaajrjrjrjrjrjrjrjrjrinaajrjretetetetckhmaajvjvjvjvjvjvjvjv",
"jvjvjvjvjvjvjvjvaainckinininininininininininininetckjrjrjrjretjrjrjrinaajrjrjrjrjrjrjrjrjrinaainetetetetetckioaajvjvjvjvjvjvjvjv",
"jvjvjvjvjvjvjvjvaainckinininininininininininininetbujrjretetetjrjrjrinaajrjrjrjrjrjrininininaainetetetetetckioaajvjvjvjvjvjvjvjv",
"jvjvjvjvjvjvjvjvjvaaiockininininininininininininetjraajretetetetjrjrinaajrjrjrininininininaaetetetcketetcketaaiojvjvjvjvjvjvjvjv",
"jvjvjvjvjvjvjvjvjvaainckininininininininininininetjraaetetetetetjrjrinaainininininininininaaetetetcketaaaaaaioioaaaajvjvjvjvjvjv",
"jvjvjvjvjvjvjvjvjvaainckininininininininininininetjraaetetetetetinininaainininininininininaaaaaaaaaaaaioioioioioioioaaaajvjvjvjv",
"jvjvjvjvjvjvjvjvjvjvaaiocketininininininininininetjraaetetetetetinininaaetininininaaaaaaaaioioioioioioioiofwfwfwfwfwfwfwfwjvjvjv",
"jvjvjvjvjvjvjvjvjvjvaaioaaaaaaaaaaaaaaininetininetjraaetetetetetetinaaetininininaaioioioioioioioioioitititfwfwfwfwfwfwfwfwjvjvjv",
"jvjvjvjvjvjvjvjvjvjvaaaaioioioioioioioaaaainetinetjraaetetioetetetinaahmhmhmaaaaioioioioitititititititititfwfwfwfwfwfwfwjvjvjvjv",
"jvjvjvjvjvjvjvjvaaaahmioioioitititioioioioaaaainetjraaetetetetetetinaahmaaaaioioioititititititititititititfwfwfwfwfwfwjvjvjvjvjv",
"jvjvjvjvjvjvaaaafwfwfwititititititititioioioaaaaetjraaetetetetetetetaaaaioioioioititititititititfwfwfwfwfwfwfwfwfwfwjvjvjvjvjvjv",
"jvjvjvfwfwaafwfwfwfwfwfwfwititititititititioioioaaaahmaaaaaaaaaaaaaaioioioioitititititititititfwfwfwfwfwfwfwfwfwfwjvjvjvjvjvjvjv",
"jvjvjvfwfwfwfwfwfwfwfwfwfwfwfwititititititititioioioaaaaioioioioioioioioioititititititititfwfwfwfwfwfwfwfwfwfwjvjvjvjvjvjvjvjvjv",
"jvjvjvjvjvfwfwfwfwfwfwfwfwfwfwfwfwfwfwitititititioioioioioioioioioioitititititfwfwfwfwfwfwfwfwfwfwfwfwfwfwfwjvjvjvjvjvjvjvjvjvjv",
"jvjvjvjvjvjvjvjvjvfwfwfwfwfwfwfwfwfwfwfwfwfwititititititititititititititfwfwfwfwfwfwfwfwfwfwfwfwfwfwjvjvjvjvjvjvjvjvjvjvjvjvjvjv",
"jvjvjvjvjvjvjvjvjvjvjvjvjvjvfwfwfwfwfwfwfwfwfwfwfwfwfwfwitititititfwfwfwfwfwfwfwfwfwfwfwfwfwjvjvjvjvjvjvjvjvjvjvjvjvjvjvjvjvjvjv",
"jvjvjvjvjvjvjvjvjvjvjvjvjvjvjvjvjvjvjvjvjvjvfwfwfwfwfwfwfwfwfwfwfwfwfwfwfwfwfwfwjvjvjvjvjvjvjvjvjvjvjvjvjvjvjvjvjvjvjvjvjvjvjvjv",
"jvjvjvjvjvjvjvjvjvjvjvjvjvjvjvjvjvjvjvjvjvjvjvjvjvjvjvjvjvjvjvjvjvjvjvjvjvjvjvjvjvjvjvjvjvjvjvjvjvjvjvjvjvjvjvjvjvjvjvjvjvjvjvjv",
"jvjvjvjvjvjvjvjvjvjvjvjvjvjvjvjvjvjvjvjvjvjvjvjvjvjvjvjvjvjvjvjvjvjvjvjvjvjvjvjvjvjvjvjvjvjvjvjvjvjvjvjvjvjvjvjvjvjvjvjvjvjvjvjv",
"jvjvjvjvjvjvjvjvjvjvjvjvjvjvjvjvjvjvjvjvjvjvjvjvjvjvjvjvjvjvjvjvjvjvjvjvjvjvjvjvjvjvjvjvjvjvjvjvjvjvjvjvjvjvjvjvjvjvjvjvjvjvjvjv",
"jvjvjvjvjvjvjvjvjvjvjvjvjvjvjvjvjvjvjvjvjvjvjvjvjvjvjvjvjvjvjvjvjvjvjvjvjvjvjvjvjvjvjvjvjvjvjvjvjvjvjvjvjvjvjvjvjvjvjvjvjvjvjvjv",
"jvjvjvjvjvjvjvjvjvjvjvjvjvjvjvjvjvjvjvjvjvjvjvjvjvjvjvjvjvjvjvjvjvjvjvjvjvjvjvjvjvjvjvjvjvjvjvjvjvjvjvjvjvjvjvjvjvjvjvjvjvjvjvjv",
"jvjvjvjvjvjvjvjvjvjvjvjvjvjvjvjvjvjvjvjvjvjvjvjvjvjvjvjvjvjvjvjvjvjvjvjvjvjvjvjvjvjvjvjvjvjvjvjvjvjvjvjvjvjvjvjvjvjvjvjvjvjvjvjv",
"jvjvjvjvjvjvjvjvjvjvjvjvjvjvjvjvjvjvjvjvjvjvjvjvjvjvjvjvjvjvjvjvjvjvjvjvjvjvjvjvjvjvjvjvjvjvjvjvjvjvjvjvjvjvjvjvjvjvjvjvjvjvjvjv",
"jvjvjvjvjvjvjvjvjvjvjvjvjvjvjvjvjvjvjvjvjvjvjvjvjvjvjvjvjvjvjvjvjvjvjvjvjvjvjvjvjvjvjvjvjvjvjvjvjvjvjvjvjvjvjvjvjvjvjvjvjvjvjvjv",
"jvjvjvjvjvjvjvjvjvjvjvjvjvjvjvjvjvjvjvjvjvjvjvjvjvjvjvjvjvjvjvjvjvjvjvjvjvjvjvjvjvjvjvjvjvjvjvjvjvjvjvjvjvjvjvjvjvjvjvjvjvjvjvjv",
"jvjvjvjvjvjvjvjvjvjvjvjvjvjvjvjvjvjvjvjvjvjvjvjvjvjvjvjvjvjvjvjvjvjvjvjvjvjvjvjvjvjvjvjvjvjvjvjvjvjvjvjvjvjvjvjvjvjvjvjvjvjvjvjv",
"jvjvjvjvjvjvjvjvjvjvjvjvjvjvjvjvjvjvjvjvjvjvjvjvjvjvjvjvjvjvjvjvjvjvjvjvjvjvjvjvjvjvjvjvjvjvjvjvjvjvjvjvjvjvjvjvjvjvjvjvjvjvjvjv",
"jvjvjvjvjvjvjvjvjvjvjvjvjvjvjvjvjvjvjvjvjvjvjvjvjvjvjvjvjvjvjvjvjvjvjvjvjvjvjvjvjvjvjvjvjvjvjvjvjvjvjvjvjvjvjvjvjvjvjvjvjvjvjvjv"
};
