/* XPM */
static char *oil_puddle_xpm[] = {
"64 64 12 2",
"ad c #999999",
"ae c #666666",
"al c #555555",
"bb c #8B7355",
"bi c #7A7A7A",
"bj c #4A4A4A",
"cc c #505050",
"cm c #686868",
"hm c #999966",
"io c #CC9966",
"ip c #CC9999",
"jv c #FF00FF",
/* pixels */
"jvjvjvjvjvjvjvjvjvjvjvjvjvjvjvjvjvjvjvjvjvjvjvjvjvjvjvjvjvjvjvjvjvjvjvjvjvjvjvjvjvjvjvjvjvjvjvjvjvjvjvjvjvjvjvjvjvjvjvjvjvjvjvjv",
"jvjvjvjvjvjvjvjvjvjvjvjvjvjvjvjvjvjvjvjvjvjviohmhmaebbccbjccccccccccccccccccccccccccccccccbbbbbbbbjvjvjvjvjvhmbbjvjvjvjvjvjvjvjv",
"jvjvjvjvjvjvjvjvjvjvjvjvjvjvjvjvjvjvjvjvjvjvhmhmaeaebbccccccccccccccccccccccccccccccccccccccbbbbbbjvjvjvjvjvjvjvjvjvjvjvjvjvjvjv",
"jvjvjvjvjvjvjvjvjvjvjvjvjvjvjvjvjvjvjvjvhmhmhmhmaeaeaeccccccccccccccccccccccccccccccccccccccbbbbbbjvjvjvjvjvjvjvjvjvjvjvjvjvjvjv",
"jvjvjvjvjvjvjvjvjvjvjvjvjvjvjvjvjvjvjvjvhmhmhmaeaeaebbccccccccccccccccccccccccccccccccccccccccbbbbjvjvjvjvjvjvjvjvjvjvjvjvjvjvjv",
"jvjvjvjvjvjvjvjvjvjvjvjvjvjvjvjvjvjvhmhmhmhmaeaeaeaeccccccccccccccccccccccccccccccccccccccccbbbbbbbbjvjvjvjvjvjvjvjvjvjvjvjvjvjv",
"jvjvjvjvjvjvjvjvjvjvjvjvjvjvjvjvjvjvhmhmhmaeaeaeaeaeccccccccccccccccccccccccccccccccccccccccccbbbbbbjvjvjvjvjvjvjvjvjvjvjvjvjvjv",
"jvjvjvjvjvjvjvjvjvjvjvjvjvjvjvjvjvjvhmhmhmhmaeaeaeccccccccccccccccccccccccccccccccccccccccccccbbbbbbbbjvjvjvjvjvjvjviojvjvjvjvjv",
"jvjvjvjvjvjvjvjvjvjvjvjvjvjvjvjvjvhmhmhmhmhmhmaeccccccccccccccccccccccccccccccccccccccccccccccbbbbbbbbbbjvjvjvjvjvjviojvjvjvjvjv",
"jvjvjvjvjvjvjvjvjvjvjvjvjvjvjvjvhmhmhmhmhmbbbbaeccccccccccccccccccccccccccccccccccccccccccccccbbbbbbbbbbbbhmjvjvjvjvjvjvjvjvjvjv",
"jvjvjvjvjvjvjvjvjvjvjvjvjvjvjvhmhmhmhmbbbbbbaeccccccccccccccccccccccccccccccccccccccccccccccccbbbbbbbbbbbbhmjvjvjvjvjvjvjvjvjvjv",
"jvjvjvjvjvjvjvjvjvjvjvjvjvjvhmhmhmhmhmbbbbaeaeccccccccccccccccccccccccccccccccccccccccccccccccccbbbbbbbbbbhmhmjvjvjvjvjvjvjvjvjv",
"jvjvjvjvjvjvjvjvjvjvjvjvjvhmhmhmhmhmhmbbaeaeccccccccccccccccccccccccccccccccccccccccccccccccccccccbbbbbbbbbbhmjvjvjvjvjvjvjvjvjv",
"jvjvjvjvjvjvjvjvjvjviobbhmhmhmhmhmhmhmbbaeccccbbccccccccccccccccccccccccccccccccccccccccccccccccccbbbbbbbbbbhmjvjvjvjvjvjvjvjvjv",
"jvjvjvjvjvjvjvjvjvjvbbhmhmhmhmhmhmhmhmbbbbbbbbbbccccccccccccccccccccccccccccccccccccccccccccccccccccbbbbbbbbhmjvjvjvjvjvjvjvjvjv",
"jvjvjvjvjvjvjvjvjvbbhmhmhmhmhmhmhmhmhmbbbbbbbbccccccccccccccccccccccccccccccccccccccccccccccccccccccccbbbbbbhmjvjvjvjvjvjvjvjvjv",
"jvjvjvjvjvjvjvjvjvioiohmhmhmhmhmhmbbbbbbbbbbccccccccccccccccccccccccccccccccccccccccccccccccccccccccccaebbbbhmjvjvjvjvjvjvjvjvjv",
"jvjvjvjvjvjvioiojviohmhmhmhmhmhmbbbbbbbbbbccccccccccccccccccccccccccccccccccccccccccccccccccccccccccccaebbbbjvjvjvjvjvjvjvjvjvjv",
"jvjvjvjvjvjvioiojvhmhmhmhmhmhmhmbbbbbbbbbbccccccccccccccccccccccccccccccccccccccccccccccccccccccccccccccbbbbjvjvjvjvjvjvjvjvjvjv",
"jvjvjvjvjvjvioiohmhmhmbbbbbbhmbbbbbbbbbbbbccccccccccccccccccccccccccccccccccccccccccccccccccccccccccccccbbbbbbjvjvjvjvjvjvjvjvjv",
"jvjvjvjvjvjvioiohmhmbbbbbbbbbbbbbbbbbbbbccccccccccccccccccccccccccccccccccccccccccccccccccccccccccccccccbbbbbbjvjvjvjvjvjvjvjvjv",
"jvjvjvjvjvjvhmhmhmbbbbbbbbbbbbbbbbbbbbccccccccccccccccccccccccccccccccccccccccccccccccccccccccccccccccccbbbbbbjvhmjvjvjvjvjvjvjv",
"jvjvjvjvjvjvhmhmbbbbccccccccccbbbbbbccccccccccccccccccccccccccccccccccccccccccccccccccccccccccccccccccccbbbbbbjvhmjvjvjvjvjvjvjv",
"jvjvjvjvjvbbbbbbbbccccccccccccbbccccccccccccccccccccccccccccccccccccccccccccccccccccccccccccccccccccccccccbbbbbbjvjvjvjvjvjvjvjv",
"jvjvjvjvbbbbbbbbccccccccbbccccccccccccccccccccccccccccccccccccccccccccccccccccccccccccccccccccccccccccccccbbbbbbbbjvjvjvjvjvjvjv",
"jvjvjvhmbbbbccccccccccccccccccccccccccccccccccccccccccccccccccccccccccccccccccccccccccccccccccccccccccccccccbbbbbbbbjvjvjvjvjvjv",
"jvjvhmbbbbadccccccccccccccccccccccccccccccccccccccccccccccccccccccccccccccccccccccccccccccccccccccccccccccccbbbbbbiojvjvjvjvjvjv",
"jvjvhmaladadccccccccccccccccccccccccccccccccccccccccccccccccccccccccccccccccccccccccccccccccccccccccccccccccccbbbbiojvhmjvjvjvjv",
"jvjvhmaladadccccccccccccccccccccccccccccccccccccccccccccccccccccccccccccccccccccccccccccccccccccccccccccccccccbbbbiojvhmjvjvjvjv",
"jvjvhmaladadccccccccccccccccccccccccccccccccccccccccccccccccccccccccccccccccccccccccccccccccccccccccccccccccccccbbioipbbbbjvjvjv",
"jvjvalaladadccccccccccccccccccccccccccccccccccccccccccccccccccccccccccccccccccccccccccccccccccccccccccccccccccccbbbbipbbbbjvjvjv",
"jvjvalaladadccccccccccccccccccccccccccccccccccccccccccccccccccccccccccccccccccccccccccccccccccccccccccccccccccccbbipipbbbbjvjvjv",
"jvjvalaladadccccccccccccccccccccccccccccccccccccccccccccccccccccccccccccccccccccccccccccccccccccccccccccccccccccccipipbbbbaejvjv",
"jvjvccaladadcccccccccccccccccccccccccccccccccccccccccccccccccccccccccccccccccccccccccccccccccccccccccccccccccccccchmipaeaeaejvjv",
"jvjvccaladadcccccccccccccccccccccccccccccccccccccccccccccccccccccccccccccccccccccccccccccccccccccccccccccccccccccchmipaeaeaejvjv",
"jvjvccaladadcccccccccccccccccccccccccccccccccccccccccccccccccccccccccccccccccccccccccccccccccccccccccccccccccccccchmipaeaeaejvjv",
"jvjvbbaladadcccccccccccccccccccccccccccccccccccccccccccccccccccccccccccccccccccccccccccccccccccccccccccccccccccccchmipaeaeaejvjv",
"jvjvbbbiadadcccccccccccccccccccccccccccccccccccccccccccccccccccccccccccccccccccccccccccccccccccccccccccccccccccccchmadaeaeaejvjv",
"jvjvbbbiadadcccccccccccccccccccccccccccccccccccccccccccccccccccccccccccccccccccccccccccccccccccccccccccccccccccccchmadaeaejvjvjv",
"jvjvjvbiadadcccccccccccccccccccccccccccccccccccccccccccccccccccccccccccccccccccccccccccccccccccccccccccccccccccccchmadaeaejvjvjv",
"jvjvjvjvbiadaeaecccccccccccccccccccccccccccccccccccccccccccccccccccccccccccccccccccccccccccccccccccccccccccccccccchmhmaejvjviojv",
"jvjvjvjvjvbbaeaeaeccccccccccccccccccccccccccccccccccccccccccccccccccccccccccccccccccccccccccccccccccccccccccccccbbhmhmaejvjviojv",
"jvjvjvjvjvbbaeaeaeaeccccccccccccccccccccccccccccccccccccccccccccccccccccccccccccccccccccccccccccccccccccccccccccbbhmhmjvjvjvjvjv",
"jvjvjvjvjvioaeaecccccmccccccccccccccccccccccccccccccccccccccccccccccccccccccccccccccccccccccccccccccccccccccccbbbbhmhmjvjvjvjvjv",
"jvjvjvjvjviobbbbbbcccmcmcmccccccccccccccccccccccccccccccccccccccccccccccccccccccccccccccccccccccccccccccccccccbbbbhmhmiojvjvjvjv",
"jvjvjvjvjvioiobbbbbbcccccmcmccccccccccccccccccccccccccccccccccccccccccccccccccccccccccccccccccccccccccccccccbbbbbbhmhmjvjvjvjvjv",
"jvjvjvjvjviohmbbbbbbbbcccccmccccccccccccccccccccccccccccccccccccccccccccccccccccccccccccccccccccccccccccccccbbbbbbhmiojvjvjvjvjv",
"jvjvjvjvjvjvhmhmbbbbbbbbccccccccccccccccccccccccccccccccccccccccccccccccccccccccccccccccccccccccccccccccccbbbbbbbbhmiojvjvjvjvjv",
"jvjvjvjvjvjvhmhmhmbbbbbbbbccccccccccccccccccccccccccccccccccccccccccccccccccccccccccccccccccccccccccccccbbbbbbbbhmhmhmjvjvjvjvjv",
"jvjvjvjvjvjvjvhmhmhmbbbbbbbbccccccccccccccccccccccccccccccccccccccccccccccccccccccccccccccccccccccccccccbbbbbbhmhmhmjvjvjvjvjvjv",
"jvjvjvjvjvjvjvjvhmhmhmbbbbbbbbccccccccccccccccccccccccccccccccccccccccccccccccccccccccccccccccccccccccbbbbbbhmhmhmjvjvjvjvjvjvjv",
"jvjvjvjvjvjvjvjvjvhmhmbbbbbbbbbbbbccccccccccccccccccccccccccccccccccccccccccccccccccccccccccccccccccccbbbbhmhmhmhmjvjvjvjvjvjvjv",
"jvjvjvjvjvjvjvjvjvhmhmhmhmbbbbbbbbbbbbccccccccccccccccccccccccccccccccccccccccccccccccccccccccccccccbbbbbbhmhmhmhmjvjvjvjvjvjvjv",
"jvjvjvjvjvjvjvjvjvjvjvhmhmbbbbbbbbbbbbbbbbbbccccccccccccccccccccccccccccccccccccccccccccccccccccccaeaeaehmhmhmhmjvjvjvjvjvjvjvjv",
"jvjvjvjvjvjvjvjvjvjvjvhmhmhmbbbbbbbbhmhmbbbbbbccccccccccccccccccccccccccccccccccccccccccccccccccccaeaehmhmhmhmjvjvjvbbjvjvjvjvjv",
"jvjvjvjvjvjvjvjvjvjvjvjvjvjvhmbbbbbbbbhmhmbbaeaeccccccccccccccccccccccccccccccccccccccccccccccccaeaebbbbhmhmhmjvjvbbbbjvjvjvjvjv",
"jvjvjvjvjvjvjvjvjvjvjvjvjvjvjvjvbbbbbbbbbbhmhmaeaeaeccccccccccccccccccccccccccccccccccccccccccccaebbbbhmhmhmjvjvbbbbbbjvjvjvjvjv",
"jvjvjvjvjvjvjvjvjvjvjvjvjvjvjvjvjvjvbbbbbbbbhmhmaeaeaeccccccccccccccccccccccccccccccccccccccccccaebbhmhmhmhmhmbbbbbbjvjvjvjvjvjv",
"jvjvjvjvjvjvjvjvjvjvjvjvjvjvjvjvjvjvjvjvbbbbbbhmhmaeaeccccccccccccccccccccccccccccccccccccccccbbbbbbhmhmhmhmbbbbbbjvjvjvjvjvjvjv",
"jvjvjvjvjvjvjvjvjvjvjvjvjvjvjvjvjvjvjvjvjvjvbbbbhmhmaeccccccccccccccccccccccccccccccccccccccccbbbbbbbbaehmbbbbbbbbjvjvjvjvjvjvjv",
"jvjvjvjvjvjvjvjvjvjvjvjvjvjvjvjvjvjvjvjvjvjvjvbbbbhmhmbbccccccccccccccccccccccccccccccccccccccbbbbbbbbbbhmbbbbbbjvjvjvjvjvjvjvjv",
"jvjvjvjvjvjvjvjvjvjvjvjvjvjvjvjvjvjvjvjvjvjvjvjvhmbbhmbbbbccccccccccccccccccccccccccccccccccccbbbbbbbbbbbbbbbbjvjvjvjvjvjvjvjvjv",
"jvjvjvjvjvjvjvjvjvjvjvjvjvjvjvjvjvjvjvjvjvjvjvjvjvjvbbbbbbbbccccccccccccccccccccccccccccccccccbbbbbbbbbbbbjvjvjvjvjvjvjvjvjvjvjv",
"jvjvjvjvjvjvjvjvjvjvjvjvjvjvjvjvjvjvjvjvjvjvjvjvjvjvhmhmhmbbbbccccccccccccccccccccccccccccccccaebbbbbbbbjvjvjvjvjvjvjvjvjvjvjvjv"
};
