static char *blossom_wall_xpm[] = {
"64 64 19 1",
"! c #FF00FF",
"# c #6D452B",
"$ c #5C3923",
"% c #7E5434",
"& c #503020",
"' c #3F261B",
"( c #000000",
") c #D5C7AA",
"* c #B5A68D",
"+ c #BFAD9A",
", c #A6947B",
"- c #96876D",
". c #736456",
"/ c #8F6D4A",
"0 c #4B3C32",
"1 c #847563",
"2 c #B09D82",
"3 c #54483D",
"4 c #341F15",
"!!!!!!!!!!!!!!!!!!!!!!!!!!!!!!!!!!!!!!!!!!!!!!!!!!!!!!!!!!!!!!!!",
"!!!!!!!!!!!!!!!!!!!!!!!!!!!!!!!!!!!!!!!!!!!!!!!!!!!!!!!!!!!!!!!!",
"!!!!!!!!!!!!!!!!!!!!!!!!!!!!!!!!!!!!!!!!!!!!!!!!!!!!!!!!!!!!!!!!",
"!!!!!!!!!!!!!!!!!!!!!!!!!!!!!!!!!!!!!!!!!!!!!!!!!!!!!!!!!!!!!!!!",
"!!!!!!!!!#####!!!!!!!!!!!!!!!!!!!!!!!!!!!!!!!!!!!!!!!!!!!!!!!!!!",
"!!!!!!!##################################!!!!!##########$!!!!!!!",
"!!!!!!$#####%%%##########################################&!!!!!!",
"!!!!!$##########%##############%%######%%#####%######%%%%#&!!!!!",
"!!!!!$########################%%%#############%%#####%%%%%$!!!!!",
"!!!!'#########################%(((########$$$$$$%%####%%%%#'!!!!",
"!!!!'#########################()*+(######$$$$$$$$$######%%%'!!!!",
"!!!!'########################(,++--(#####$$$$$$$$$$#####%#%'!!!!",
"!!!!&########################(-*+--(#####$$$$$$$$$$$######'!!!!!",
"!!!!'######$#################(.----(#####&$$$$$$$$$$$#####&!!!!!",
"!!!!!$#####/$#########(((((((.((00(1((((((($$$$$$$$$$$####&!!!!!",
"!!!!!######/$########(*****-*0,,,22(...,,.-($$$$$$$$$$####&!!!!!",
"!!!!!################(+------+33333+......-($$$$$$$$$$$###&!!!!!",
"!!!!!################(+------+------+.....-($$$$$$$$$$$###&!!!!!",
"!!!!!################(+-----+-------+.....-($$$$$$$$$$$###&!!!!!",
"!!!!!################(+----+---------+....-($$$$$$$$$$####!!!!!!",
"!!!!!################(+---+-----------*3..-($$$$$$$$$####'!!!!!!",
"!!!!!################(+--+------------**3.-($$$$$$$$#####'!!!!!!",
"!!!!!!###############(+-+-.------------**3-(&$$$$$$######&!!!!!!",
"!!!!!!###############(-+----------------**.(&$############!!!!!!",
"!!!!!################(3-*****************..(##############4!!!!!",
"!!!!!#################(333................(###############'!!!!!",
"!!!!!##################(((((((((((((((((((################'!!!!!",
"!!!!!####################(...(((+(((...(##################&!!!!!",
"!!!!!####################(...(((+(((...(##################&!!!!!",
"!!!!!###################((--.(((+(((.,,((#################&!!!!!",
"!!!!!##################(*(--..((+((..,2(1(#################4!!!!",
"!!!!&#####&&##########(**(---........,2(11(################4!!!!",
"!!!!$####&/&##########(**33,,,,,,,,,,,3321(################'!!!!",
"!!!!$#####&###########(***3333333333333221(################'!!!!",
"!!!!##################(11*****222222222211(################'!!!!",
"!!!!##################((11111111111111111((################&!!!!",
"!!!!##################(.(111111111111111(.(################&!!!!",
"!!!!#################(.11(((((((((((((((...(###############'!!!!",
"!!!!!################(1(11333............(.(##############'!!!!!",
"!!!!!###############(11(,,,,,--------,,+,(..(#############&!!!!!",
"!!!!!#########&$&&&&(11(,,,,11111111,,,,,(..(#############&!!!!!",
"!!!!!!######&$$$$$&&&((,,,,1(((((((((1,,,,(('#############&!!!!!",
"!!!!!!#####&&$$$$$&&&&(,,,1('''''''''(1,,,(''#############&!!!!!",
"!!!!!!####&&$$$$$$&&&&(,,,.('''''''''(.,,,(&&#############$!!!!!",
"!!!!!$####&&$$$$$$&&&(,,,1('''''''''''(1,,,(&#############$!!!!!",
"!!!!!#####&&$$$$$&&&&(,,,1('''''''''''(11,,(&#############$!!!!!",
"!!!!!#####&&&$$$$&&&&(,111('''''''''''(1111(&##############!!!!!",
"!!!!!######&&&&$&&&&&&((((&''''''''''''(((('###############!!!!!",
"!!!!!######&&&&&&&&&&&&&&&&&'''''''''''''''&###############!!!!!",
"!!!!!#######&&&&&&&&&&&&&&&##########################&#####'!!!!",
"!!!!!########&&&&&&&&&&&&&&#######################/##&#####&!!!!",
"!!!!!#########&&&&&&&&&&&&########################''#######&!!!!",
"!!!!!##########&&&&&&&&&&##################################&!!!!",
"!!!!!###########&&####&####################################&!!!!",
"!!!!!#####################################################&!!!!!",
"!!!!!!####################################################$!!!!!",
"!!!!!!####################################################$!!!!!",
"!!!!!!#####################################################!!!!!",
"!!!!!!!###########################$$$$$$$$$$$$&$$$$$$$$$$+!!!!!!",
"!!!!!!!!!!#####!!!!!!!&&&&'!!!!!!!!!!!!!!!!!!!!!!!!!!!!!!!!!!!!!",
"!!!!!!!!!!!!!!!!!!!!!!!!!!!!!!!!!!!!!!!!!!!!!!!!!!!!!!!!!!!!!!!!",
"!!!!!!!!!!!!!!!!!!!!!!!!!!!!!!!!!!!!!!!!!!!!!!!!!!!!!!!!!!!!!!!!",
"!!!!!!!!!!!!!!!!!!!!!!!!!!!!!!!!!!!!!!!!!!!!!!!!!!!!!!!!!!!!!!!!",
"!!!!!!!!!!!!!!!!!!!!!!!!!!!!!!!!!!!!!!!!!!!!!!!!!!!!!!!!!!!!!!!!"
};
