static char *ground_forest_branches_xpm[] = {
"64 64 26 1",
"! c #FF00FF",
"# c #3F261B",
"$ c #341F15",
"% c #503020",
"& c #000000",
"' c #231510",
"( c #845B38",
") c #5C3923",
"* c #8F6D4A",
"+ c #6D452B",
", c #F49BB5",
"- c #F5A0C0",
". c #4B3C32",
"/ c #7F4D49",
"0 c #F092AB",
"1 c #D5748D",
"2 c #C18B67",
"3 c #F6ACB6",
"4 c #994A53",
"5 c #A86563",
"6 c #F4A8AD",
"7 c #A65661",
"8 c #F9B8BD",
"9 c #ECC196",
": c #7E5434",
"; c #736456",
"!!!!!!!!!!!!!!!!!!!!!!!!!!!!!!!!!!!!!!!!!!!!!!!!!!!!!!!!!!!!!!!!",
"!!!!!!!!!!!!!!!!!!!!!!!!!!!!!!!!!!!!!!!!!!!!!!!!!!!!!!!!!!!!!!!!",
"!!!!!!!!!!!!!!!!!!!!!!!!!!!!!!!!!!!!!!!!!!!!!!!!!!!!!!!!!!!!!!!!",
"!!!!!!!!!!!!!!!!!!!!!!!!!!!!!!!!!!!!!!!!!!!!!!!!!!!!!!!!!!!!!!!!",
"!!!!!!!!!####$!!!!!!!!!!!!!!!!!!!!!!!!!!!!!!!!!!!!!!!!!!!!!!!!!!",
"!!!!!!!$$##%################$#$$$$$$$##&&!!!!!#$#####$$$$!!!!!!!",
"!!!!!!'##%#%%%##%#####################&&&$$$#$########&&#'!!!!!!",
"!!!!!'###%%%%%%%##################&###&(&###########&&)&&#$!!!!!",
"!!!!!'####################''#####&*&##&(&##########&)))&&##!!!!!",
"!!!!'########%$$$$$$$##''''''####&*%&#&(&$$$$$$$##&)))#&#%#&!!!!",
"!!!!'#######$$$$$$'''''''''''####&*%%&+%&$$$$$$$#&)))#&&%%%&!!!!",
"!!!!'#######$$$$$''''''''''''#####&*%&+%&$$$$$$&&)))##&%%#%&!!!!",
"!!!!$######$$$$'''''''''''''######&*%&+%&$$$$$&)))###&#%%#&!!!!!",
"!!!!'#####$$$$',,-$$''''''##.######&%&+%&$$$$&)####&&#####&!!!!!",
"!!!!!$####$$$',,,,$''$'''''#########&#+%&$$&&)####&&$$#%##'!!!!!",
"!!!!!$###$$$$$,,,/'$$''''''''#######&#+%&$&#)#)##&$$$$$%##'!!!!!",
"!!!!!$###$$$$$,,0'$'''''''''########&&+&&&$)#)##&$$$$$$%##'!!!!!",
"!!!!!$###$$$$$'$''$'''''''''########&&+&&$##)##&$$$$$$$%##$!!!!!",
"!!!!!$###$$$$$$$$$$$''''''$$########&)#&$#))##&$$$$$$$$###$!!!!!",
"!!!!!####$$$$$$$$$$'''---$$$#######&&)#$#))$$&$$$$$$$$###&!!!!!!",
"!!!!!#####$$$$$$$''''$,,,$$$#######&&)$$))$$&$$$$$$$$####&!!!!!!",
"!!!!!#####$$$$$$'''''$1,--$########&))#))$$&$$$$$$$$#####&!!!!!!",
"!!!!!!#####$$'''''''$$$,--$#######&#)#))##&$$$$$$$$######&!!!!!!",
"!!!!!!######$''''''$$$$$#$#######&###))$$#&$$$$##########&!!!!!!",
"!!!!!'########''--$$$$$$$#######&&##))$$##$&&&$###########&!!!!!",
"!!!!!'########'----$$$$########&&#))#)))))))))&&##########&!!!!!",
"!!!!!'#########$--#$$##########&#)#)$####)))))++&&&&&&&&##&!!!!!",
"!!!!!'#################&&&###&&#)#)$$$$$#######++#&&...&##&!!!!!",
"!!!!!'################&222&&&###))$$$&&&&&&######++&&&&###&!!!!!",
"!!!!!'#########&&&#####&%2+&##)))#$&&#&####&###&###).&&###&!!!!!",
"!!!!!'#######&&%%%&&###&#++&#)))##&&#######&###&&$#$...&&&.&!!!!",
"!!!!'#####&#&++%%%%%&&##&%++&))##&&########&##&&#&&$$$....&&!!!!",
"!!!!$######&##++%%++%&&&&#++&###&##########&&#%&###&&&&....)&!!!",
"!!!!$######&###++%%++###&#+++&#&########33##&#%&#######&&&..&!!!",
"!!!!$#####&#####+++%%+##&#+++&&########333##&&%&&########&&&&!!!",
"!!!!$#####&###++##++%%##&##+++&#########44###&%&5##########&!!!!",
"!!!!######&###))))$%+++%#&##+++&########667###&55##########&!!!!",
"!!!!######&######$$%%%++####++++&#########8###&55&#########&!!!!",
"!!!!!######&#####%%$$$%%++###++++&&&########2##&&*########&!!!!!",
"!!!!!#######&#####%'))$$%+++##+++++&&&##########&*########&!!!!!",
"!!!!!######&####&&$$%%)$$$%+++##)+++##&##########&########&!!!!!",
"!!!!!!#####&&##&&$$%$%)))$$#++++$+++)))&##################&!!!!!",
"!!!!!!#####$$&&&$$$$%)$)))$$$$$$$$$$$999&#################'!!!!!",
"!!!!!!$###$$$$$$&&$$$$)$$$)#99999*$992292&######,,,#######'!!!!!",
"!!!!!'$###$$$$$$$$&&$$$$$$$$$$*9999929929&####,,,,,#######'!!!!!",
"!!!!!$####$$$$$$$$$$&&$$$$$)$$$$999222229&####,,,,$#######'!!!!!",
"!!!!!$####$$$$$$$$$$$$&&$#$$%%$#$$9299299&######$$########'!!!!!",
"!!!!!$###$$$$$$$$$$$$$$$&&$$$$%##$9299299&################$!!!!!",
"!!!!!$####$$$$$$$$$$$$$$$&&&$####$929299&&################$!!!!!",
"!!!!!$####$$$$$$$$$$$$$$&&$$&&###$99229:&##########;#######'!!!!",
"!!!!!$#####$$$$$'$$$$$$$&&&&##&&&#&929&&###########;#######'!!!!",
"!!!!!$####$$3--$$$$$$$$$&299&&##&&&&9&&####################'!!!!",
"!!!!!#####$3---$$$$$$$$$&92299&&&##&&##############.#######$!!!!",
"!!!!!#####-3,-2$$$$$$$$$&&992299+&&########################'!!!!",
"!!!!!######--,###########&&&992999&&######################'!!!!!",
"!!!!!!######################&&999299&#####################'!!!!!",
"!!!!!!########################&&&99&######################$!!!!!",
"!!!!!!##########################&&&#######################$!!!!!",
"!!!!!!!$$$#####&&&&&&&#####'$$$$$#$$$$$''''&&&&$'$$$$####$!!!!!!",
"!!!!!!!!!!$$$&&!!!!!!!&&&&&!!!!!!!!!!!!!!!!!!!!!!!!!!!!!!!!!!!!!",
"!!!!!!!!!!!!!!!!!!!!!!!!!!!!!!!!!!!!!!!!!!!!!!!!!!!!!!!!!!!!!!!!",
"!!!!!!!!!!!!!!!!!!!!!!!!!!!!!!!!!!!!!!!!!!!!!!!!!!!!!!!!!!!!!!!!",
"!!!!!!!!!!!!!!!!!!!!!!!!!!!!!!!!!!!!!!!!!!!!!!!!!!!!!!!!!!!!!!!!",
"!!!!!!!!!!!!!!!!!!!!!!!!!!!!!!!!!!!!!!!!!!!!!!!!!!!!!!!!!!!!!!!!"
};
