/* XPM */
static char *ground_blossom1_xpm[] = {
"64 64 10 1",
"a c #FF00FF",
"b c #000000",
"c c #3F261B",
"d c #231510",
"e c #503020",
"f c #4B3C32",
"g c #54483D",
"h c #5C3923",
"i c #6D452B",
"j c #341F15",
"aaaaaaaaaaaaaaaaaaaaaaaaaaaaaaaaaaaaaaaaaaaaaaaaaaaaaaaaaaaaaaaa",
"aaaaaaaaaaaaaaaaaaaaaaaaaaaaaaaaaaaaaaaaaaaaaaaaaaaaaaaaaaaaaaaa",
"aaaaaaaaaaaaaaaaaaaaaaaaaaaaaaaaaaaaaaaaaaaaaaaaaaaaaaaaaaaaaaaa",
"aaaaaaaaaaaaaaaaaaaaaaaaaaaaaaaaaaaaaaaaaaaaaaaaaaaaaaaaaaaaaaaa",
"aaaaaabbbbbbbbbbbbbbbbbbbbbbbbbbbbbbbbbbbbbbbbbbbbbbbbbbbbaaaaaa",
"aaaaabcccccccccccccccccccccccccccccccccccdddddddccccccccccbaaaaa",
"aaaabccccccccccccccccccccccccccccccccccccccccccccccccccccccbaaaa",
"aaaabccccccccccccccccccccccccccccccccccccccccccccccccccccccbaaaa",
"aaaabccccccccccccccccccccccccccccccccccccccccccccccccccccccbaaaa",
"aaaabccccccccccccccccccccccccccccccccccccccccccccccccccccccbaaaa",
"aaaabccccccccccccccccccccccccccccccccccccccccccccccccccccccbaaaa",
"aaaabccccccccccccccccccccccccccccccccccccccccccccccccccccccbaaaa",
"aaaabccccccccccccccccccccccccccccccccccccccccccccccccccccccbaaaa",
"aaaabccccccccccccccccccccccccccccccccccccccceecccccccccccccbaaaa",
"aaaabcccccccccccccccccccccccccccccccccccccceeecccccccccccccbaaaa",
"aaaabcccccccccccccccccccccccccccccccccccccccedcccccccccccccbaaaa",
"aaaabcccccccccccccccccccccccccccccccccccccccbdcccccccccccccbaaaa",
"aaaabccccccccccccccccccccccccccccccccccccccccccccccccccccccbaaaa",
"aaaabccccccccccccccccccccccccccccccccccccccccccccccccccccccbaaaa",
"aaaabccccccccccccccccccccccccccccccccccccccccccccccccccccccbaaaa",
"aaaabccccccccccccccccccccccccccccccccccccccccccccccccccccccbaaaa",
"aaaabccccccccccccccccccccccccccccccccccccccccccccccccccccccbaaaa",
"aaaabccccccccccccccccccccccccccccccccccccccccccccccccccccccbaaaa",
"aaaabccccccccccccccccccccccccccccccccccccccccccccccccccccccbaaaa",
"aaaabbcccccccccccccccccccccccccccccccccccccccccccccccccccccbaaaa",
"aaaabbcccccccccccccccccccccccccccccccccccccccccccccccccccccbaaaa",
"aaaabbcccccccccccccccccccccccccccccccccccccccccccccccccccccbaaaa",
"aaaabdcccccccccccccccccccccccccccccccccccccccccccccccccccccbaaaa",
"aaaabdcccccccccccccccccccccccccccccccccccccccccccccccccccccbaaaa",
"aaaabdcccccccccccccccccccccccccccccccccccccccccccccccccccccbaaaa",
"aaaabdcccccccccccccccccccccccccccccccccccccccccccffccccccccbaaaa",
"aaaabdcccccccccccccccccccccccccccccccccccccccccccccccccccccbaaaa",
"aaaabccccccccccccccccccccccccccccccccccccccccccccccccccccccbaaaa",
"aaaabccccccccccccccccccccccccccccccccccccccccccccccccccccccbaaaa",
"aaaabccccccccccccccccccccccccccccccccccccccccccccccccccccccbaaaa",
"aaaabccccccccccccccccccccccccccccccccccccccccccccccccccccccbaaaa",
"aaaabccccccccccccccccccccccccccccccccccccccccccccccccccccccbaaaa",
"aaaabccccccccccccccccccccccccccccccccccccccccccccccccccccccbaaaa",
"aaaabdcccccccccccccccccccccccccccccccccccccccccccccccccccccbaaaa",
"aaaabdccccccccccccccccccccccccccccccccccccccccccccccccccccdbaaaa",
"aaaabdccccccccccccccccccccccccccccccccccccccccccccccccccccdbaaaa",
"aaaaddcccccccccccccccccccccccccccccccccccccccccccccccccccccbaaaa",
"aaaaddcccccccccccccccccccccccccccccccccccccccccccccccccccccbaaaa",
"aaaaddcccccccccccccccccccccccccccccccccbbccccccccccccccccccbaaaa",
"aaaaddccccccccccccccccccccccccccccccccbggccccccccccccccccccbaaaa",
"aaaadccccccccccccccccccccccccccccccccccddccccccccccccccccccbaaaa",
"aaaadccccccccccccccccccccccccccccccccccccccccccccccccccccccbaaaa",
"aaaabccccccccccccccccchicccccccccccccccccccccccccccccccccccbaaaa",
"aaaabccccccccccccccccccccccccccccccccccccccccccccccccccccccbaaaa",
"aaaabccccccccccccccccccccccccccccccccccccccccccccccccccccccbaaaa",
"aaaabccccccccccccccccccccccccccccccccccccccccccccccccccccccbaaaa",
"aaaabccccccccccccccccccccccccccccccccccccccccccccccccccccccbaaaa",
"aaaabccccccccccccccccccccccccccccccccccccccccccccccccccccccbaaaa",
"aaaabccccccccccccccccccccccccccccccccccccccccccccccccccccccbaaaa",
"aaaabccccccccccccccccccccccccccccccccccccccccccccccccccccccbaaaa",
"aaaabccccccccccccccccccccccccccccccccccccccccccccccccccccccbaaaa",
"aaaabccccccccccccccccccccccccccccccccccccccccccccccccccccccbaaaa",
"aaaabccccccccccccccccccccccccccccccccccccccccccccccccccccccbaaaa",
"aaaaabcccccccccccccccccccccccccccccccccccjddbbccccccccccccbaaaaa",
"aaaaaabbbbbbbbbbbbbbbbbbbbbbbbbbbbbbbbbbbdjjjcbbbbbbbbbbbbaaaaaa",
"aaaaaaaaaaaaaaaaaaaaaaaaaaaaaaaaaaaaaaaaaaaaaaaaaaaaaaaaaaaaaaaa",
"aaaaaaaaaaaaaaaaaaaaaaaaaaaaaaaaaaaaaaaaaaaaaaaaaaaaaaaaaaaaaaaa",
"aaaaaaaaaaaaaaaaaaaaaaaaaaaaaaaaaaaaaaaaaaaaaaaaaaaaaaaaaaaaaaaa",
"aaaaaaaaaaaaaaaaaaaaaaaaaaaaaaaaaaaaaaaaaaaaaaaaaaaaaaaaaaaaaaaa"
};
