/* XPM */
static char *ground_forest2_xpm[] = {
"64 64 39 1",
"a c #FF00FF",
"b c #FFF4FF",
"c c #FAF0ED",
"d c #FEE3F1",
"e c #FCDADD",
"f c #FCCBCE",
"g c #F9B8BD",
"h c #F6ACB6",
"i c #F4A8AD",
"j c #F5A0C0",
"k c #F39EA9",
"l c #E89DAD",
"m c #F49BB5",
"n c #F092AB",
"o c #E8909E",
"p c #DE8191",
"q c #D5748D",
"r c #C87A86",
"s c #CD6F7D",
"t c #BC6E74",
"u c #C56378",
"v c #B35F70",
"w c #A86563",
"x c #BD566A",
"y c #B15167",
"z c #AD4A5C",
"A c #A65661",
"B c #994A53",
"C c #A24259",
"D c #7F4D49",
"E c #913E49",
"F c #7F393F",
"G c #6D452B",
"H c #5C3923",
"I c #503020",
"J c #682E2F",
"K c #3F261B",
"L c #341F15",
"M c #231510",
/* pixels */
"aaaaaaaaaaaaaaaaaaaaaaaaaaaaaaaaaaaaaaaaaaaaaaaaaaaaaaaaaaaaaaaa",
"aaaaaaaaaaaaaaaaaaaaaaaaaaaaaaaaaaaaaaaaaaaaaaaaaaaaaaaaaaaaaaaa",
"aaaaaaaaaaaaaaaaaaaaaaaaaaaaaaaaaaaaaaaaaaaaaaaaaaaaaaaaaaaaaaaa",
"aaaaaaaaaaaaaaaaaaaaaaaaaaaaaaaaaaaaaaaaaaaaaaaaaaaaaaaaaaaaaaaa",
"aaaaaaaaKKKKKKaaaaaaaaaaaaaaaaaaaaaaaaaaaaaaaaahhiKKLLLLaaaaaaaa",
"aaaaaaLKKKKKKKKKKKKKKKKxLLLLKKKKKKKKKLLKKKKKKKKiiiiLKKKKKLaaaaaa",
"aaaaaaLKKKKKKKKKKKKKKKxxxLLLLKKKKKKKKkkoKKKKKKKLiiKKKKKKKLLkkaaa",
"aaaaaLKKKkkkKKKhhKKKKKKxxxLghgKKknnKKoooKkkkkHLLJJKKKkkDKkkkkaaa",
"aaaaaLKKKkkkKKvhhgKKKKIIIKLgggKKKkknuoooBkkkrrLKKKKKEkkEKBBBBaaa",
"aaaaLKKKKlkKLLuhhgLLLLhhhKLgggKKKnnnnnKLBkkKLLLLKKKKEkkEKKKLaaaa",
"aaaaLKKKKKKLghLLrqLLLLhhhhLLLLKKKKAnnnLEKKKKLnEELKKKKEEKKKKLaaaa",
"aaaaLKKKKKKhhhLLLLLLLLhhhhLLLkAkKKznnKKEuuukmmmnELLKKKKKKKKLaaaa",
"aaaaLKKKKKKLLLhhLLhhxxCChhBkkkkwAKKAAKKummmmmmmmEiiiKKKKKkkkaaaa",
"aaaaKKKKKKKLLhhhhhhhCCxxLLikkkkAggKKKKhhmmmmmJmFiiiKKKKKKkkLLaaa",
"aaaaaKKKKthjLhhghhhhhCxELLkJkkJgggggFFhmmummmJJJAwKKKKKKKKKLaaaa",
"aaaaaKKKhhjjLLLggLhhEoxKLLKiJIhgggggffJJJumkKIIghwKKKFAAAKLaaaaa",
"aaaaaKKKrrrLLLLLLhEoooFLLiihhhhhFFffffffJkmmvgggggLLLFkkAKKaaaaa",
"aaaaaKKKKKKLLLAvLhEEooFLiiiJJJhFyyEfffffoJkIvgggvtvvLFkkAKKaaaaa",
"aaaaaKKKKKBBgggvpppgoLLiiiiihiFkkkEgBooonJIgggEgJkkkyyKKKKKaaaaa",
"aaaaaKKKlkkkLgggpppggghhiiiCzCkkkkkkkEEoyfgggggFmmnIyyIIvoFsaaaa",
"aaaaaKKKKKlkkLgggggggggvkkiCCCeekeeyykkkkkFrggJkmmIAyKIyoonFaaaa",
"aaaaaKKKKKKLLLLLBgggpdggkkkkCCikEeeyzzkfkkeEggJmkKIKKKKIpppLaaaa",
"aaaaaaKKKKKsssLhhsggpdyFkkkkiiiEeCeezzfzkkpEgggKKKtKKKKIKKKaaaaa",
"aaaaaaLKKKsshhhhhFssKoynEEEFiiEfeCeezzzkkkIgggggghhhKKhhKKKaaaaa",
"aaaaaLLhhhsshhhhhhIKkkkkekkkuiFfBBCCkkkBkkkKKgggvhhhKhhhgKKaaaaa",
"aaaaaLLhhhhFhhhJJJffkkkekkkkBEfEfefekkkdkiibKggyvhvvKKhhhKKaaaaa",
"aaaaaLLhhhLEEJJttJffkkeekkkBffkkEEFekkkkkiihhggLggLLLKhhhlKaaaaa",
"aaaaaLihhhLEEffttJfJkeeekkkfffkkkkFfkkkkkyyhggKgggggLLLIilLaaaaa",
"aaaaaLhhhhLLtttthhhiiueeeJffffIIeeeJkkkyxyguggIggggLhhLhIILaaaaa",
"aaaaaLLhyxLLtttLhhhhiueeofffpfffJJJJzyyoxxgsFgIgggLvhhggIILaaaaa",
"aaaaaLLLqLLLLLLLhhhhiiFFoffpJffJfeeeiihxxiEFqpqIggLvhhhrIIIMaaaa",
"aaaaLLiipLLhiihFhKKKiiikooffJffJeekkiiCxxxEhhhgIggLusssLlllLaaaa",
"aaaaLKiiFLLhhhhhhhhhiiiCCoofoJJeeeBiiiCCCEhhzzggggppqLLLlllLaaaa",
"aaaaLKiisLLhhhhhhhhhiiiCCooFeeekkBBiiCgChhhhzhggggppLLLklllLaaaa",
"aaaaLKKiikLLhiJJhhhiiiiiCEEFeeekCByyJghChhhhzqCgggLLLLikkIlLaaaa",
"aaaaLKKiikiLiiiiJhhKKiiihhqeeekkkkvyJhhhhhhCCzCCBBoooLiiiLLLaaaa",
"aaaaLKKKKiiLttiiKiKkkkKcJeeeeikkBBhhhhhhhhhCllldooooLLiiiLLLaaaa",
"aaaaLKKKKKKKDDDLKLLkkBIrJJeeizCChBhhLLhhhKLllllEoohhhhhLLLLLaaaa",
"aaaaaLKKKKKKKKKLLLLBBBqrqrJJhhhhhJFFFLJJthLllllEpshhhhLLLLLaaaaa",
"aaaaaKCzzzzKKKLkkLLLLqrrqqqqhiLLiiLLLLLLtggFEEEEpJhhhKLhhhLaaaaa",
"aaaaaLgggzyLLLiiiLLLLvviFiiiKhiiihLLJssLLgggLppppKJJJKLhhmhaaaaa",
"aaaaaLJJJLLLLtkiLLLLLhhEFiiiKiiiihhhJrggKKKKKphgpKKKKKLhhmhiaaaa",
"aaaaaaLLLLLLLttLLLLLLrhELEiEKLiiwphhhJFJKKKKKLhhKKKKKKKLhmhiaaaa",
"aaaaaaLKLLLLLLLLLLiiLLhELLFFLLKKKKpFFKKKKKKKKLttKKKKKKKKLhiiaaaa",
"aaaaaLKKLLLLLLLLLiiiiLLLLLLLiiiKKKKKKKKKhwDIILkkKKKhhhKKKLLLaaaa",
"aaaaaLKKLLLLLLLLLiiiiLLLLLEiiiiiKKKKKKxhhwDIIiiiiKKhhhhKKKLaaaaa",
"aaaaaLKKLLLLLLLLLLiiDLLLLLFiiiiikkktKKxhhwIIIiiiiKKKhhhKKKKaaaaa",
"aaaaaLKKIILLLkkkGLLLLLLLLLLLLKKLkkkkKKECCIIIIFDFKKKKKIKKKKKaaaaa",
"aaaaLLpppLLLLkkkkLLLLFFFLLLLLKKkkkkkKIIIIIIIIIIKIKKKKKKKKKKaaaaa",
"aaaaKpppLLLLLGkkktLLgggFLLLLLLlkkkkKKIIKIIIIIKKKIIIKKKKKKKKLaaaa",
"aaaaLppLLLLLLLJJJJLggggLLLKKKKKIIIKIIKIKIKIIIKKIIIIKIKKKKKKKaaaa",
"aaaaKKKKLLLLLLLLLLLtJJJLKKKKBBBIIIIIIIKKKkkKKKKIIKKKoovKKKKKaaaa",
"aaaaKKKKLLkLLLLLLLLLLLLKKKKBkkBIKIKKIKKKkkkiKIKKKKKjjjjKKKKKaaaa",
"aaaaKKKKkkmmLLLEAAAALLKKKKKBkkBKIKKKKDhBkiiKKKKKKKKjjjjKKKKKaaaa",
"aaaaaKKKKmmmKKDrgggLKKKKKKKKBCKKiKKKKeeiKIKKKHKKKKKjjjKKKKLaaaaa",
"aaaaaaKKKmmmKKKDBBBKKKKKKKKKKKKiiiKKKtdoKKKKKKKKKKKKKKKKKKLaaaaa",
"aaaaaaKLKKKKKKKKKKKKKKKKKKKKKKLiiiiKKKKKKKKKKKKKKKKKKKKKKKLaaaaa",
"aaaaaaknkFKKKKKKKKKKKKKkkiKKKKKLvvLKKKKKKKKKKKKKKKKKKKKKKKLaaaaa",
"aaaaalnnkFKKKKKKKKKKKKkkkkKLKKLLLLLLLLLLLLLLLLLLLLKKKKKKKLaaaaaa",
"aaaaannnELLKKKLaaaaaaakkkALaaaaaaaaaaaaaaaaaaaaaaaKKKKKKaaaaaaaa",
"aaaaaLLLLaaaaaaaaaaaaakiLLaaaaaaaaaaaaaaaaaaaaaaaaaaaaaaaaaaaaaa",
"aaaaaaaaaaaaaaaaaaaaaaaaaaaaaaaaaaaaaaaaaaaaaaaaaaaaaaaaaaaaaaaa",
"aaaaaaaaaaaaaaaaaaaaaaaaaaaaaaaaaaaaaaaaaaaaaaaaaaaaaaaaaaaaaaaa",
"aaaaaaaaaaaaaaaaaaaaaaaaaaaaaaaaaaaaaaaaaaaaaaaaaaaaaaaaaaaaaaaa"
};
