/* XPM */
static char *ground_blossom5_xpm[] = {
"64 64 19 1",
"a c #FF00FF",
"b c #000000",
"c c #3F261B",
"d c #341F15",
"e c #231510",
"f c #F49BB5",
"g c #F5A0C0",
"h c #FFF4FF",
"i c #F092AB",
"j c #994A53",
"k c #7F4D49",
"l c #503020",
"m c #F9B8BD",
"n c #E89DAD",
"o c #E8909E",
"p c #BC6E74",
"q c #F39EA9",
"r c #C56378",
"s c #4B3C32",
"aaaaaaaaaaaaaaaaaaaaaaaaaaaaaaaaaaaaaaaaaaaaaaaaaaaaaaaaaaaaaaaa",
"aaaaaaaaaaaaaaaaaaaaaaaaaaaaaaaaaaaaaaaaaaaaaaaaaaaaaaaaaaaaaaaa",
"aaaaaaaaaaaaaaaaaaaaaaaaaaaaaaaaaaaaaaaaaaaaaaaaaaaaaaaaaaaaaaaa",
"aaaaaaaaaaaaaaaaaaaaaaaaaaaaaaaaaaaaaaaaaaaaaaaaaaaaaaaaaaaaaaaa",
"aaaaaabbbbbbbbbbbbbbbbbbbbbbbbbbbbbbbbbbbbbbbbbbbbbbbbbbbbaaaaaa",
"aaaaabcccccccccdebbbccccccccccccccccccccbbbbbbbbccccccccccbaaaaa",
"aaaabccccccccccccccccccccccccccccccccccccccccccccccccccccccbaaaa",
"aaaabccccccccccccccccccccccccccccccccccccccccccccccccccccccbaaaa",
"aaaabccccccccccccccccccccccccccccccccccccccccccccccccccccccbaaaa",
"aaaabcccccccccccccccccccccccccccccccccccccccddcccccccccccccbaaaa",
"aaaabccccccccccccccccccccccccccccccccccccceeeeeecccccccccccbaaaa",
"aaaabcccccccccdffgccccccccccccccccccccccceeeeeeeeecccccccccbaaaa",
"aaaabcccccccccfffgcccccccccccccccccccccceeeeeeeeeeeecccccccbaaaa",
"aaaabcccccccccfffgccccccccccccccccccccceeeeeeeeeeeeeeecccccbaaaa",
"aaaabccccccccchgfccccccccccccccccccccceeeeeeeeeeeeeeeeeccccbaaaa",
"aaaabcccccccccccccccccccccccccccccccceeeeeeeeeeeeiieeeeccccbaaaa",
"aaaabccccccccccccccccccccccccccccccccceeeeeeeeeeiiieeeeccccbaaaa",
"aaaabccccccccccccccccccccccccccccccccceeeeeeeeeiiifeeeeccccbaaaa",
"aaaabcccccccccccccccccccccccccccccccccceeeeeeeeiiieeeeeccccbaaaa",
"aaaabccccccccccccccccccccccccccccccccccceeeeeeejjeeeeecccccbaaaa",
"aaaabccccccccccccccccccccccccccccccccccccccceeeeeeeeeccccccbaaaa",
"aaaabccccccccccccccccccccccccccccccccccccccccceeeeeecccccccbaaaa",
"aaaabcccccccccccccccccccccccccccccccccccccccccccceedcccccccbaaaa",
"aaaabcccccccccccccccccccccccccccccccccccccccccccccccccccccbbaaaa",
"aaaabcccccccccccccccccccccccccccccccccccccccccccccccccccccbbaaaa",
"aaaabcccccccccccccccccccccccccccccccccccccccccccccccccccccbbaaaa",
"aaaabcccccbbccccccccccccccccccccccccccccccccccccccccccccccbbaaaa",
"aaaabccccbkkbcccccccccccccccccccccccccccccccccccccccccccccbbaaaa",
"aaaabccccbkbccccccccccccccccccccccccccccccccccccccccccccccebaaaa",
"aaaabcccccbcccccccccccccccccccccccccccccccccccccccccccccccebaaaa",
"aaaabccccccccccccccccccccccccccccccccccccccccccccccccccccccbaaaa",
"aaaabccccccccccccccccccccccccccccccccccccccccccccccccccccccbaaaa",
"aaaabccccccccccccccccccccccccccccccccccccccccccccccccccccccbaaaa",
"aaaabccccccccccccccccccccccccccccccccccccccccccccccccccccccbaaaa",
"aaaabccccccccccccccccccccccccccccccccccccccccccccccccccccccbaaaa",
"aaaabccccccccccccccccccccccccccccccccccccccccccccccccccccccbaaaa",
"aaaabccccccccccccccccccccccccccccccccccccccccccccccccccccccbaaaa",
"aaaabcccccccccceeeeccccccccccccccccccccccccccccccccccccccccbaaaa",
"aaaaeccccccccceeeeeecccccciiiccccccccccccccccccccccccccccccbaaaa",
"aaaaceccccccceeeeeeeeecccciiiiccccccccccccccccccccccccccccbbaaaa",
"aaaalbcccccceeeeeeeeeecccciiiiccccccccccccccccccccccccccccbaaaaa",
"aaaacbccccceeeeeeeeeeecccceiiiccccccccccccccccccccccccccccbaaaaa",
"aaaalbcccceeeeeeeeeeeeecccccccccccccccccccccccccccccccccccbaaaaa",
"aaaalbcccceeeeeeeeeeemmeccccccccccccccceecccccccccccccccccbaaaaa",
"aaaacbcccceeeeeeeeeeemmmecccccccccccccenoeccccccccccccccccbaaaaa",
"aaaacbcccceeeeeeeeeeeemmpeccccccccccccfffoccccccccccccccccbaaaaa",
"aaaacbcccceeeeeeeeeeeemmpecccccccccccccqfoccccccccccccccccbaaaaa",
"aaaaccccccceeeeeeeeeeeeprbdcccccccccccciiiccccccccccccccccbaaaaa",
"aaaabccccccceeeeeeeeeeeeebdccccccccccccccccccccccccccccccccbaaaa",
"aaaabcccccccceeeeeeeeeeeeedccccccccccccccccccccccccccccccccbaaaa",
"aaaabccccccccceeeeeeeeeeeecccccccccccccccccccccccccccccccccbaaaa",
"aaaabcccccccccceeeeeeeeeeccccccccccccccccccccccccccccbbccccbaaaa",
"aaaabccccccccccceeeeeeeeccccccccccccccccccccccccccccbssccccbaaaa",
"aaaabcccccccccccccceeeccccccccccccccccccccccccccccccbssccccbaaaa",
"aaaabccccccccccccccccccccccccccccccccccccccccccccccccbbccccbaaaa",
"aaaabccccccccccccccccccccccccccccccccccccccccccccccccccccccbaaaa",
"aaaabccccccccccccccccccccccccccccccccccccccccccccccccccccccbaaaa",
"aaaabccccccccccccccccccccccccccccccccccccccccccccccccccccccbaaaa",
"aaaaabcccccccccccccccccccccccccccccccccbbbbbbbccccccccccccbaaaaa",
"aaaaaabbbbbbbbbbbaaaebbbbbbbbbbbbbbbbbbcccclllbbbbbbbbbbbbaaaaaa",
"aaaaaaaaaaaaaaaaaaaaaaaaaaaaaaaaaaaaaaaaaaaaaaaaaaaaaaaaaaaaaaaa",
"aaaaaaaaaaaaaaaaaaaaaaaaaaaaaaaaaaaaaaaaaaaaaaaaaaaaaaaaaaaaaaaa",
"aaaaaaaaaaaaaaaaaaaaaaaaaaaaaaaaaaaaaaaaaaaaaaaaaaaaaaaaaaaaaaaa",
"aaaaaaaaaaaaaaaaaaaaaaaaaaaaaaaaaaaaaaaaaaaaaaaaaaaaaaaaaaaaaaaa"
};
