/* XPM */
static char *ground_blossom6_xpm[] = {
"64 64 19 1",
"a c #FF00FF",
"b c #231510",
"c c #5C3923",
"d c #341F15",
"e c #3F261B",
"f c #503020",
"g c #FFF4FF",
"h c #F6AECB",
"i c #F5A0C0",
"j c #B15167",
"k c #845B38",
"l c #C56378",
"m c #C87A86",
"n c #F6ACB6",
"o c #994A53",
"p c #F49BB5",
"q c #7F4D49",
"r c #DE8191",
"s c #D5748D",
"aaaaaaaaaaaaaaaaaaaaaaaaaaaaaaaaaaaaaaaaaaaaaaaaaaaaaaaaaaaaaaaa",
"aaaaaaaaaaaaaaaaaaaaaaaaaaaaaaaaaaaaaaaaaaaaaaaaaaaaaaaaaaaaaaaa",
"aaaaaaaaaaaaaaaaaaaaaaaaaaaaaaaaaaaaaaaaaaaaaaaaaaaaaaaaaaaaaaaa",
"aaaaaaaaaaaaaaaaaaaaaaaaaaaaaaaaaaaaaaaaaaaaaaaaaaaaaaaaaaaaaaaa",
"aaaaaabbbbbbbbbbbbbbbbbbbbbbbbbbbbbbbbbbbbbbbbbbbbbbbbbbbbaaaaaa",
"aaaaabccccccddccccccccccccccccccccccccccdeeeeeefccccccccccbaaaaa",
"aaaabccccccccccccccccccccccccccccccccccccccccccccccccccccccbaaaa",
"aaaabccccccccccccccccccccccccccccccccccccccccccccccccccccccbaaaa",
"aaaabccccccccccccccccccccccccccccccccccccccccccccccccccccccbaaaa",
"aaaabcccccccccccccccccccccccccccccccccccccdddccccccccccccccbaaaa",
"aaaabccccccccccccccccccccccccccccccccccccdddddddfccccccccccbaaaa",
"aaaabcccccccccccccccccccccccccccccccccccdddddddddddccccccccbaaaa",
"aaaabccccccccccccccccccccccccccccccccccdddddddddddddddcccccbaaaa",
"aaaabccccccccccccccccccccccccccccccccccdddddddddddddddcccccbaaaa",
"aaaabcccccccccccccccccccccccccccccccccdddedddddddddddedccccbaaaa",
"aaaabcccccccccccccccghhcccccccccccccccddeedddddddiideeeccccbaaaa",
"aaaabcccccccccccccchhhhcccccccccccccccddddddddddiiiddeeccccbaaaa",
"aaaabcccccccccccccchhhfcccccccccccccccdddddddddiiiidddeccccbaaaa",
"aaaabcccccccccccccccccccccccccccccccccdddddddddiiidddeeccccbaaaa",
"aaaabcccccccccccccccccccccccccccccccccccddddddejjddddecccccbaaaa",
"aaaabcccccccccccccccccccccccccccccccccccccddddeddddddccccccbaaaa",
"aaaabcccccccccccccccccccccccbcccccccccccccccdddddddddccccccbaaaa",
"aaaabccccccccccccccccccccccbkcccccccciicccccdddcccddcccccccbaaaa",
"aaaabccccccccccccccccccccccccccccccliiiicccccccccccccccccccbaaaa",
"aaaabbcccccccccccccccccccccccccccccliiifccccccccccccccccccebaaaa",
"aaaabbcccccccccccccccccccccccccccccciifcccccccccccccccccccebaaaa",
"aaaabbcccccccccccciiccccccccccccccccccccccccccccccccccccccebaaaa",
"aaaabccccccccccccciiicccccccccccccccccccccccccccccccccccccebaaaa",
"aaaabccccccccccccciiiiccccccccccccccccccccccccccccccccccccebaaaa",
"aaaabcccccccccccccdiiiccccccccccccccccccccccccccccccccccccdbaaaa",
"aaaabccccccccccccccdddccccccccccccccccccccccccccccccccccccdbaaaa",
"aaaabccccccccccccccccccccccccccccccccccccccccmhiccccccccccdbaaaa",
"aaaabccccccccccccccccccccccccccccccccccccccccmnihccccccccccbaaaa",
"aaaabccccccccccccccccccccccccccccccccccccccccmnihicccccccccbaaaa",
"aaaabccccccccccccccccccccccccccccccccccccccccciinocccccccccbaaaa",
"aaaabccccccccccccccccccccccccccccccccccccccccccnhccccccccccbaaaa",
"aaaabccccccccccccccccccccccccccccccccccccccccccccccccccccccbaaaa",
"aaaabccccccccccdddcccccccccccccccccccccccccccccccccccccccccbaaaa",
"aaaabccccccccdddddddccccccpppccccccccccccccccccccccccccccccbaaaa",
"aaaaabccccccdddddddddcccccppppcccccccccccccccccccccccccccccbaaaa",
"aaaaabccccccddddddddddccccppppccccccccccccccccccccccccccccbaaaaa",
"aaaaabcccccdddddddddddccccbpppccccccccccccccccccccccccccccbaaaaa",
"aaaaabccccddddddddeddddccccdddccccccccccccccccccccccccccccbaaaaa",
"aaaaabccccddddddddddddddccccccccccccccceecccccccccccccccccbaaaaa",
"aaaaabccccddddddddddeeddddccccccccccccbqqcccccccccccccccccbaaaaa",
"aaaaabcccccdddddddddeeeeeeccccccccccccbbbcccccccccccccccccbaaaaa",
"aaaaabcccccdhhhdddddeeeeeedccccccccccccbccccccccccccccccccbaaaaa",
"aaaaabcccccchhhhdddddeeeeeecccccccccccccccccccccccccccccccbaaaaa",
"aaaabcccccccrhhhlddddeeeeeeccccccccccccccccccccccccccccccccbaaaa",
"aaaabcccccccbshhldddddddddeccccccccccccccccccccccccccccccccbaaaa",
"aaaabcccccccccbbdddddddddecccccccccccccccccccccccccccccccccbaaaa",
"aaaabccccccccccddddddddddccccccccccccccccccccccccccccbbccccbaaaa",
"aaaabcccccccccccddddddddccccccccccccccccccccccccccccbqqdcccbaaaa",
"aaaabcccccccccccccddddccccccccccccccccccccccccccccccbqqdcccbaaaa",
"aaaabccccccccccccccccccccccccccccccccccccccccccccccccddccccbaaaa",
"aaaabccccccccccccccccccccccccccccccccccccccccccccccccccccccbaaaa",
"aaaabccccccccccccccccccccccccccccccccccccccccccccccccccccccbaaaa",
"aaaabccccccccccccccccccccccccccccccccccccccccccccccccccccccbaaaa",
"aaaaabcccccccccccccccccccccccccccccccccccbbbbbccccccccccccbaaaaa",
"aaaaaabbbbbbbbbbbaaafffbbbbbbbbbaabbbbbbbaaaaabbbbbbbbbbbbaaaaaa",
"aaaaaaaaaaaaaaaaaaaaaaaaaaaaaaaaaaaaaaaaaaaaaaaaaaaaaaaaaaaaaaaa",
"aaaaaaaaaaaaaaaaaaaaaaaaaaaaaaaaaaaaaaaaaaaaaaaaaaaaaaaaaaaaaaaa",
"aaaaaaaaaaaaaaaaaaaaaaaaaaaaaaaaaaaaaaaaaaaaaaaaaaaaaaaaaaaaaaaa",
"aaaaaaaaaaaaaaaaaaaaaaaaaaaaaaaaaaaaaaaaaaaaaaaaaaaaaaaaaaaaaaaa"
};
