/* XPM */
static char *ground_blossom4_xpm[] = {
"64 64 9 1",
"a c #FF00FF",
"b c #503020",
"c c #5C3923",
"d c #3F261B",
"e c #7E5434",
"f c #845B38",
"g c #6D452B",
"h c #341F15",
"i c #8F6D4A",
"aaaaaaaaaaaaaaaaaaaaaaaaaaaaaaaaaaaaaaaaaaaaaaaaaaaaaaaaaaaaaaaa",
"aaaaaaaaaaaaaaaaaaaaaaaaaaaaaaaaaaaaaaaaaaaaaaaaaaaaaaaaaaaaaaaa",
"aaaaaaaaaaaaaaaaaaaaaaaaaaaaaaaaaaaaaaaaaaaaaaaaaaaaaaaaaaaaaaaa",
"aaaaaaaaaaaaaaaaaaaaaaaaaaaaaaaaaaaaaaaaaaaaaaaaaaaaaaaaaaaaaaaa",
"aaaaaabbbbcccbbbbbbbbbbbbbbbbbbbbcccccccbbbbbbbbbbbbbbbbbdaaaaaa",
"aaaaadeffffffffgggggffffffffffffffffffffccccgccfffffffffffdaaaaa",
"aaaabefffffffffffffffffffffffffffffffffffffffffffffffffffffdaaaa",
"aaaabffffffffffffffffffffffffffffffffffffffffffffffffffffffdaaaa",
"aaaabffffffffffffffffffffffffffffffffffffffffffffffffffffffdaaaa",
"aaaabfffffffffffffffffffffffffffffffffffffccccccccfffffffffdaaaa",
"aaaabffffffffffffffffffffffffffffffffffffcccccccccccgffffffbaaaa",
"aaaabfffffffffffffffffffffffffffffffffffcccccccccccccffffffbaaaa",
"aaaabffffffffffffffffffffffffffffffffffcccccccccccccccfffffbaaaa",
"aaaabfffffffffffffffffffffffffffffffffcccccccccccccccccffffbaaaa",
"aaaabffffffffffffffffffffffffffffffffccccccccccccccccccffffbaaaa",
"aaaabffffffffffffffffffffffffffffffffccccccccccccccccccffffcaaaa",
"aaaabffffffffffffffffffffffffffffffffccccccccccccccccccfffccaaaa",
"aaaabffffffffffffffffffffffffffffffffccccccccccccccccccfffcbaaaa",
"aaaabfffffffffffffffffffffffffffffffffcccccccccccccccccfffcbaaaa",
"aaaabffffffffffffffffffffffffffffffffffcccccccccccccccfffffbaaaa",
"aaaabffffffffffffffffffffffffffffffffffffcccccccccccccfffffbaaaa",
"aaaabfffffffffffffffffffffffffffffffffffffccccccccccccfffffbaaaa",
"aaaabffffffffffffffffffffffffffffffcfffffffcccccccccccfffffbaaaa",
"aaaabfffffffffffffffffffffffffffffbccfffffffcccccccccfffffcbaaaa",
"aaaaccfffffffffffffffffffffffffffbbcbcfffffffccccfffffffffcbaaaa",
"aaaaccfffffcffffffffffffffffffffffbbcfffffffffffffffffffffcbaaaa",
"aaaaccffffccffffffffffffffffffffffffffffffffffffffffffffffcbaaaa",
"aaaaccfffffccfffffffffffffffffffffffffffffffffffffffffffffcbaaaa",
"aaaaccffffffffffffffffffffffffffffffffffffffffffffffffffffccaaaa",
"aaaaccffffffffffffffffffffffffffffffffffffffffffffffffffffccaaaa",
"aaaaccffffffffffffffffffffffffffffffffffffffffffffffffffffccaaaa",
"aaaaccffffffffffffffffffffffffffffffffffffffffffffffffffffcdaaaa",
"aaaacffffffffffffffffffffffffffffffffffffffffffffffffffffffdaaaa",
"aaaacffffffffffffffffffffffffffffffffffffffffffffffffffffffbaaaa",
"aaaacffffffffffffffffffffffffffffffffffffffffffffffffffffffbaaaa",
"aaaacffffffffffffffffffffffffffffffffffffffffffffffffffffffbaaaa",
"aaaacffffffffffffffffffffffffffffffffffffffffffffffffffffffbaaaa",
"aaaacffffffffffccccffffffffffffffffffffffffffffffffffffffffcaaaa",
"aaaacffffffffcccccccfffffffbcffffffffffffffffffffffffffffffcaaaa",
"aaaaecffffffcccccccccfffffbcccffffffffffffffffffffffffffffccaaaa",
"aaaaecfffffcccccccccccffffccccffffffffffffffffffffffffffffccaaaa",
"aaaaecffffccccccccccccfffffbcfffffffffffffffffffffffffffffcgaaaa",
"aaaaecffffccccccccccccccffffffffffffffffffffffffffffffffffggaaaa",
"aaaaegffffcccccccccccccccfffffffffffffffffffffffffffffffffggaaaa",
"aaaaggfffcccccccccccccccccffffffffffffffffffffffffffffffffgeaaaa",
"aaaaggfffccccccccccccccccccfffffffffffffffffffffffffffffffceaaaa",
"aaaaggfffccccccccccccccccccfffffffffffffffffffffffffffffffffaaaa",
"aaaaggffffcccccccccccccccccfffffffffffffffffffffffffffffffffaaaa",
"aaaacfffffcccccccccccccccccffffffffffffffffffffffffffffffffhaaaa",
"aaaacfffffcccccccccccccccccfffffffffffffffffffffcffcfffffffdaaaa",
"aaaacfffffccccccccccccccccfffffffffffffffffffffffcccfffffffdaaaa",
"aaaacfffffcccccccccccccccffffffffffffffffffffffffffffffffffbaaaa",
"aaaacffffffccccccccccccccffffffffffffffffffffffffffffffffffbaaaa",
"aaaabfffffffcccccccccccffffffffffffffffffffffffffffffffffffbaaaa",
"aaaabffffffffcccccccccfffffffffffffffffffffffffffffffffffffbaaaa",
"aaaabffffffffffffffffffffffffffffffffffffffffffffffffffffffbaaaa",
"aaaabffffffffffffffffffffffffffffffffffffffffffffffffffffffcaaaa",
"aaaabffffffffffffffffffffffffffffffffffffffffffffffffffffffbaaaa",
"aaaaabfffffffffffffffffffffffffffffffffbcbbbbbffffffffffffbaaaaa",
"aaaaaabbbbbbbbbbdaaaffbccccccccccccccccciiiiiibcbbbbbbbbbbaaaaaa",
"aaaaaaaaaaaaaaaaaaaaaaaaaaaaaaaaaaaaaaaaaaaaaaaaaaaaaaaaaaaaaaaa",
"aaaaaaaaaaaaaaaaaaaaaaaaaaaaaaaaaaaaaaaaaaaaaaaaaaaaaaaaaaaaaaaa",
"aaaaaaaaaaaaaaaaaaaaaaaaaaaaaaaaaaaaaaaaaaaaaaaaaaaaaaaaaaaaaaaa",
"aaaaaaaaaaaaaaaaaaaaaaaaaaaaaaaaaaaaaaaaaaaaaaaaaaaaaaaaaaaaaaaa"
};
