/* XPM */
static char *ground_blossom3_xpm[] = {
"64 64 10 1",
"a c #FF00FF",
"b c #341F15",
"c c #231510",
"d c #5C3923",
"e c #6D452B",
"f c #3F261B",
"g c #7F4D49",
"h c #503020",
"i c #7E5434",
"j c #E7DBCE",
"aaaaaaaaaaaaaaaaaaaaaaaaaaaaaaaaaaaaaaaaaaaaaaaaaaaaaaaaaaaaaaaa",
"aaaaaaaaaaaaaaaaaaaaaaaaaaaaaaaaaaaaaaaaaaaaaaaaaaaaaaaaaaaaaaaa",
"aaaaaaaaaaaaaaaaaaaaaaaaaaaaaaaaaaaaaaaaaaaaaaaaaaaaaaaaaaaaaaaa",
"aaaaaaaaaaaaaaaaaaaaaaaaaaaaaaaaaaaaaaaaaaaaaaaaaaaaaaaaaaaaaaaa",
"aaaaaabbbbbbbbbbbbbbbbbbbbbbbbbbbbbbbbbbbbcccccbbbbbbbbbccaaaaaa",
"aaaaabdeeeeeeeffffffeeeeeeeeeeeeeeeeeeeeebbfffffeeeeeeeeeecaaaaa",
"aaaabdeeeeeeeeeeeeeeeeeeeeeeeeeeeeeeeeeeeeeeeeeeeeeeeeeeeeecaaaa",
"aaaabeeeeeeeeeeeeeeeeeeeeeeeeeeeeeeeeeeeeeeeeeeeeeeeeeeeeeecaaaa",
"aaaabeeeeeeeeeeeeeeeeeeeeeeeeeeeeeeeeeeeeeeeeeeeeeeeeeeeeeebaaaa",
"aaaabeeeeeeeeeeeeeeeeeeeeeeeeeeeeeeeeeeeeeffffeeeeeeeeeeeeebaaaa",
"aaaabeeeeeeeeeeeeeeeeeeeeeeeeeeeeeeeeeeeefffffffeeeeeeeeeeebaaaa",
"aaaabeeeeeeeffeeeeeeeeeeeeeeeeeeeeeeeeeefffffffffddeeeeeeeebaaaa",
"aaaabeeeeeebgfeeeeeeeeeeeeeeeeeeeeeeeeeefffffffffffffeeeeeebaaaa",
"aaaabeeeeebgggheeeeeeeeeeeeeeeeeeeeeeeeeefffffffffffffeeeeefaaaa",
"aaaabeeeeebgggheeeeeeeeeeeeeeeeeeeeeeeeeeefffffffffffffeeeefaaaa",
"aaaabeeeeeebbheeeeeeeeeeeeeeeeeeeeeeeeeeeeeeeefffffffffeeedcaaaa",
"aaaabeeeeeeeeeeeeeeeeeeeeeeeeeeeeeeeeeeeeeeeeeeefffffffeeedcaaaa",
"aaaabeeeeeeeeeeeeeeeeeeeeeeeeeeeeeeeeeeeeeeeeeeefffffffeeeecaaaa",
"aaaafeeeeeeeeeeeeeeeeeeeeeeeeeeeeeeeeeeeeeeeeeeefffffffeeeecaaaa",
"aaaafeeeeeeeeeeeeeeeeeeeeeeeeeeeeeeeeeeeeeeeeeeeffffffeeeeebaaaa",
"aaaafeeeeeeeeeeeeeeeeeeeeeeeeeeeeeeeeeeeeeeeeeeeffffffeeeeebaaaa",
"aaaabeeeeeeeeeeeeeeeeeeeeeeeeeeeeeeeeeeeeeeeeeeefffffeeeeeebaaaa",
"aaaabeeeeeeeeeeeeeeeeeeeeeeeeeeeeeeeeeeeeeeeeeeeffffeeeeeeebaaaa",
"aaaabeeeeeeeeeeeeeeeeeeeeeefffeeeeeeeeeeeeeeeeeeeeeeeeeeeehbaaaa",
"aaaaffeeeeeeeeeeeeeeeeeeeeefffeeeeeeeeeeeeeeeeeeeeeeeeeeeehbaaaa",
"aaaabfeeeeeeeeeeeeeeeeeeeeeeeeeeeeeeeeeeeeeeeeeeeeeeeeeeeehbaaaa",
"aaaabfeeeeeeeeeeeeeeeeeeeeeeeeeeeeeeeeeeeeeeeeeeeeeeeeeeeehbaaaa",
"aaaabfeeeeeeeeeeeeeeeeeeeeeeeeeeeeeeeeeeeeeeeeeeeeeeeeeeeehbaaaa",
"aaaabfeeeeeeeeeeeeeeeeeeeeeeeeeeeeeeeeeeeeeeeeeeeeeeeeeeeehbaaaa",
"aaaabfeeeeeeeeeeeeeeeeeeeeeeeeeeeeeeeeeeeeeeeeeeeeeeeeeeeefbaaaa",
"aaaabfeeeeeeeeeeeeeeeeeeeeeeeeeeeeeeeeeeeeeeeeeeeeeeeeeeeefbaaaa",
"aaaabfeeeeeeeeeeeeeeeeeeeeeeeeeeeeeeeeeeeeeeeeeeehheeeeeeefbaaaa",
"aaaabeeeeeeeeeeeeeeeeeeeeeeeeeeeeeeeeeeeeeeeeeeeeeeeeeeeeeebaaaa",
"aaaabeeeeeeeeeeeeeeeeeeeeeeeeeeeeeeeeeeeeeeeeeeeeeeeeeeeeeebaaaa",
"aaaabeeeeeeeeeeeeeeeeeeeeeeeeeeeeeeeeeeeeeeeeeeeeeeeeeeeeeebaaaa",
"aaaabeeeeeeeeeeeeeeeeeeeeeeeeeeeeeeeeeeeeeeeeeeeeeeeeeeeeeebaaaa",
"aaaabeeeeeeeeeeeeeeeeeeeeeeeeeeeeeeeeeeeeeeeeeeeeeeeeeeeeeebaaaa",
"aaaabeeeeeeeeeefffeeeeeeeeeeeeeeeeeeeeeeeeeeeeeeeeeeeeeeeeebaaaa",
"aaaafeeeeeeeefffffffeeeeeeeeeeeeeeeeeeeeeeeeeeeeeeeeeeeeeeebaaaa",
"aaaaefeeeeeefffffffffeeeeeeeeeeeeeeeeeeeeeeeeeeeeeeeeeeeeehfaaaa",
"aaaaefeeeeeeffffffffffeeeeeeeeeeeeeeeeeeeeeeeeeeeeeeeeeeeehfaaaa",
"aaaaefeeeeefffffffffffeeeeeeeeeeeeeeeeeeeeeeeeeeeeeeeeeeeehhaaaa",
"aaaaefeeeeffffffffffffeeeeeeeeeeeeeeeeeeeeeeeeeeeeeeeeeeeeddaaaa",
"aaaaifeeeeffffffffffffffeeeeeeeeeeeeeeehheeeeeeeeeeeeeeeeeddaaaa",
"aaaaifeeeeffffffffffffffeeeeeeeeeeeeeebeeheeeeeeeeeeeeeeeeddaaaa",
"aaaaefeeeefffffffffffffffeeeeeeeeeeeeebbbheeeeeeeeeeeeeeeeedaaaa",
"aaaaefeeeeefffffffffffffffeeeeeeeeeeeeehheeeeeeeeeeeeeeeeeeeaaaa",
"aaaaefeeeeeeffffffffffffffeeeeeeeeeeeeeeeeeeeeeeeeeeeeeeeeeeaaaa",
"aaaabeeeeeeeffffffffffffffeeeeeeeeeeeeeeeeeeeeeeeeeeeeeeeeecaaaa",
"aaaabeeeeeeeefffffffffffffeeeeeeeeeeeeeeeeeeeeeeeeeeeeeeeeebaaaa",
"aaaabeeeeeeeeeffffffffffffeeeeeeeeeeeeeeeeeeeeeeeeeeeeeeeeebaaaa",
"aaaabeeeeeeeeeeffffffffffeeeeeeeeeeeeeeeeeeeeeeeeeeeecceeeebaaaa",
"aaaabeeeeeeeeeeeffffffffeeeeeeeeeeeeeeeeeeeeeeeeeeeebeeeeeebaaaa",
"aaaabeeeeeeeeeeeeeefffeeeeeeeeeeeeeeeeeeeeeeeeeeeeeebeeeeeebaaaa",
"aaaabeeeeeeeeeeeeeeeeeeeeeeeeeeeeeeeeeeeeeeeeeeeeeeeeffeeeebaaaa",
"aaaabeeeeeeeeeeeeeeeeeeeeeeeeeeeeeeeeeeeeeeeeeeeeeeeeeeeeeefaaaa",
"aaaabeeeeeeeeeeeeeeeeeeeeeeeeeeeeeeeeeeeeeeeeeeeeeeeeeeeeeefaaaa",
"aaaabeeeeeeeeeeeeeeeeeeeeeeeeeeeeeeeeeeeeeeeeeeeeeeeeeeeeeebaaaa",
"aaaaabeeeeeeeeeeeeeeeeeeeeeeeeeeeeeeeeebbbbbbbeeeeeeeeeeeecaaaaa",
"aaaaaabbfbbfffffbjjjdebffffbbbbffffffffhddeeeeffffffffbbbcaaaaaa",
"aaaaaaaaaaaaaaaaaaaaaaaaaaaaaaaaaaaaaaaaaaaaaaaaaaaaaaaaaaaaaaaa",
"aaaaaaaaaaaaaaaaaaaaaaaaaaaaaaaaaaaaaaaaaaaaaaaaaaaaaaaaaaaaaaaa",
"aaaaaaaaaaaaaaaaaaaaaaaaaaaaaaaaaaaaaaaaaaaaaaaaaaaaaaaaaaaaaaaa",
"aaaaaaaaaaaaaaaaaaaaaaaaaaaaaaaaaaaaaaaaaaaaaaaaaaaaaaaaaaaaaaaa"
};
