/* XPM */
static char *ground_blossom2_xpm[] = {
"64 64 8 1",
"a c #FF00FF",
"b c #231510",
"c c #503020",
"d c #5C3923",
"e c #341F15",
"f c #3F261B",
"g c #7F4D49",
"h c #96876D",
"aaaaaaaaaaaaaaaaaaaaaaaaaaaaaaaaaaaaaaaaaaaaaaaaaaaaaaaaaaaaaaaa",
"aaaaaaaaaaaaaaaaaaaaaaaaaaaaaaaaaaaaaaaaaaaaaaaaaaaaaaaaaaaaaaaa",
"aaaaaaaaaaaaaaaaaaaaaaaaaaaaaaaaaaaaaaaaaaaaaaaaaaaaaaaaaaaaaaaa",
"aaaaaaaaaaaaaaaaaaaaaaaaaaaaaaaaaaaaaaaaaaaaaaaaaaaaaaaaaaaaaaaa",
"aaaaaabbbbbbbbbbbbbbbbbbbbbbbbbbbbbbbbbbbbbbbbbbbbbbbbbbbbaaaaaa",
"aaaaabcdddddddbbbbbbdddddddddddddddddddddeeeebbbddddddddddbaaaaa",
"aaaabcdddddddddddddddddddddddddddddddddddddddddddddddddddddbaaaa",
"aaaabddddddddddddddddddddddddddddddddddddddddddddddddddddddbaaaa",
"aaaabddddddddddddddddddddddddddddddddddddddddddddddddddddddbaaaa",
"aaaabddddddddddddddddddddddddddddddddddddddddddddddddddddddbaaaa",
"aaaabdddddddddddddddddddddddddddddddddddddeeeedddddddddddddbaaaa",
"aaaabddddddddddddddddddddddddddddddddddddeeeeeeedddddddddddbaaaa",
"aaaabdddddddddddddddddddddddddddddddddddeeeeeeeeeeeeeddddddbaaaa",
"aaaabddddddddddddddddddddddddddddddddddeeeeeeeeeeeeeeedddddbaaaa",
"aaaabdddddddddddddddddddddddddddddddddeeeeeeeeeeeeeeeeeddddbaaaa",
"aaaabddddddddddddddddddddddddddddddddeeeeeeeeeeeeeeeeeeddddbaaaa",
"aaaabdddddddddddddddddddddddddddddddddeeeeeeeeeeeeeeeeecddfbaaaa",
"aaaabdddddddddddddddddddddddddddddddddeeeeeeeeeeeeeeeeedddfbaaaa",
"aaaabdddddddddddddddddddddddddddddddddeeeeeeeeeeeeeeeeddddfbaaaa",
"aaaabdddddddddddddddddddddddddddddddddddbebeeeeeeeeeeedddddbaaaa",
"aaaabdddddddddddddddddddddddddddddddddddddddddbeeeeeeddddddbaaaa",
"aaaabdddddddddddddddddddddddddddddddddddddddddebbeeeeddddddbaaaa",
"aaaabddddddddddddddddddddddddddddddddddddddddddddbbedddddddbaaaa",
"aaaabdddddddddddddddddddddddddddddddddddddddddddddddddddddfbaaaa",
"aaaabdddddddddddddddddddddddddddddddddddddddddddddddddddddfbaaaa",
"aaaabdddddddddddddddddddddddddddddddddddddddddddddddddddddfbaaaa",
"aaaabcddddbbddddddddddddddddddddddddddddddddddddddddddddddfbaaaa",
"aaaabcdddbggbdddddddddddddddddddddddddddddddddddddddddddddfbaaaa",
"aaaabfdddbgbddddddddddddddddddddddddddddddddddddddddddddddfbaaaa",
"aaaabfdddddddddddddddddddddddddddddddddddddddddddddeddddddfbaaaa",
"aaaabfddddddddddddddddddddddddddddddddddddddddddbdbfddddddfbaaaa",
"aaaabfdddddddddddddddddddddddddddddddddddddddddddbfdddddddfbaaaa",
"aaaabddddddddddddddddddddddddddddddddddddddddddddddddddddddbaaaa",
"aaaabddddddddddddddddddddddddddddddddddddddddddddddddddddddbaaaa",
"aaaabddddddddddddddddddddddddddddddddddddddddddddddddddddddbaaaa",
"aaaaeddddddddddddddddddddddddddddddddddddddddddddddddddddddbaaaa",
"aaaaeddddddddddddddddddddddddddddddddddddddddddddddddddddddbaaaa",
"aaaaeddddddddddeeeedddccddcddddddddddddddddddddddddddddddddbaaaa",
"aaaaedddddddddeeeeeeddcccccedddddddddddddddddddddddddddddddbaaaa",
"aaaafddddddddeeeeeeeeccccccdedddddddddddddddddddddddddddddebaaaa",
"aaaafcddddddeeeeeeeeeecccccdedddddddddddddddddddddddddddddfbaaaa",
"aaaafcddddeeeeeeeeeeeecccceeedddddddddddddddddddddddddddddfeaaaa",
"aaaafbddddeeeeeeeeeeeeeecccdddddddddddddddddddddddddddddddffaaaa",
"aaaaceddddeeeeeeeeeeeeeecccdddddddddddddddddddddddddddddddffaaaa",
"aaaaceddddeeeeeeeeeeeeeeeeddddddddddddddddddddddddddddddddfcaaaa",
"aaaacbdddddeeeeeeeeeeeeeeeeddddddddddddddddddddddddddddddddcaaaa",
"aaaacbdddddeeeeeeeeeeeeeeeeddddddddddddddddddddddddddddddddcaaaa",
"aaaacddddddeeeeeeeeeeeeeeeeddddddddddddddddddddddddddddddddcaaaa",
"aaaabdddddddbeeeeeeeeeeeeeeddddddddddddddddddddddddddddddddbaaaa",
"aaaabddddddddbeeeeeeeeeeeeeddddddddddddddddddddddddddddddddbaaaa",
"aaaabdddddddddbbeeeeeeeeeedddddddddddddddddddddddddddddddddbaaaa",
"aaaabddddddddddbbbeeeeeeeddddddddddddddddddddddddddddbfddddbaaaa",
"aaaabdddddddddddbbbeeeeeddddddddddddddddddddddddddddbddfdddbaaaa",
"aaaabddddddddddddddbbeddddddddddddddddddddddddddddddbddfdddbaaaa",
"aaaabddddddddddddddddddddddddddddddddddddddddddddddddbbddddbaaaa",
"aaaabddddddddddddddddddddddddddddddddddddddddddddddddddddddbaaaa",
"aaaabddddddddddddddddddddddddddddddddddddddddddddddddddddddbaaaa",
"aaaabddddddddddddddddddddddddddddddddddddddddddddddddddddddbaaaa",
"aaaaabdddddddddddddddddddddddddddddddddbbbbbbbddddddddddddbaaaaa",
"aaaaaabbbbbbbbbbbddhddbbbbbbbbbbbbbbbbbfccddddbbbbbbbbbbbbaaaaaa",
"aaaaaaaaaaaaaaaaaaaaaaaaaaaaaaaaaaaaaaaaaaaaaaaaaaaaaaaaaaaaaaaa",
"aaaaaaaaaaaaaaaaaaaaaaaaaaaaaaaaaaaaaaaaaaaaaaaaaaaaaaaaaaaaaaaa",
"aaaaaaaaaaaaaaaaaaaaaaaaaaaaaaaaaaaaaaaaaaaaaaaaaaaaaaaaaaaaaaaa",
"aaaaaaaaaaaaaaaaaaaaaaaaaaaaaaaaaaaaaaaaaaaaaaaaaaaaaaaaaaaaaaaa"
};
