/* XPM */
static char *ground_forest_xpm[] = {
"64 64 38 1",
"a c #FF00FF",
"b c #FCDADD",
"c c #FCCBCE",
"d c #F9B8BD",
"e c #F6ACB6",
"f c #F4A8AD",
"g c #F5A0C0",
"h c #F39EA9",
"i c #F49BB5",
"j c #E89DAD",
"k c #F092AB",
"l c #E8909E",
"m c #DE8191",
"n c #96876D",
"o c #D5748D",
"p c #C87A86",
"q c #CD6F7D",
"r c #BC6E74",
"s c #A86563",
"t c #C56378",
"u c #B35F70",
"v c #845B38",
"w c #BD566A",
"x c #B15167",
"y c #A65661",
"z c #AD4A5C",
"A c #A24259",
"B c #994A53",
"C c #913E49",
"D c #7F4D49",
"E c #7F393F",
"F c #54483D",
"G c #4B3C32",
"H c #503020",
"I c #682E2F",
"J c #3F261B",
"K c #341F15",
"L c #231510",
/* pixels */
"aaaaaaaaaaaaaaaaaaaaaaaaaaaaaaaaaaaaaaaaaaaaaaaaaaaaaaaaaaaaaaaa",
"aaaaaaaaaaaaaaaaaaaaaaaaaaaaaaaaaaaaaaaaaaaaaaaaaaaaaaaaaaaaaaaa",
"aaaaaaaaaaaaaaaaaaaaaaaaaaaaaaaaaaaaaaaaaaaaaaaaaaaaaaaaaaaaaaaa",
"aaaaaaaaaaaaaaaaaaaaaaaaaaaaaaaaaaaaaaaaaaaaaaaaaaaaaaaaaaaaaaaa",
"aaaaaaLLLLLLLLLLLLLLLLLLLLLLLLLLLLLLLLLLLLLLLLLLedeLLLLLLaaaaaaa",
"aaaaaLJJJJJJJJJJJJJJJJJJJJJJJJJJJJJJJJJKKKKJJJKfffKKKJJHJKaaaaaa",
"aaaaLLJJJJJJJJJJJJJJJJJJJJJJJJJJJJJJJJKKKJKJKKKJzzKKJffHHHkkkaaa",
"aaaaLJJJJJJJJJJJJJJJJJJJJJJJJJJJJJJJJKKKKjhijKJJKJJJzfeHHkkkiaaa",
"aaaaLJJJJJJJJJJJJJJJJJJJJJJJJJJJJJJJJKKKKhhiKKJJJJJJzffJJJJLaaaa",
"aaaaLJJJJJJJJJLLLLLLLLLLLLLJJJJJJJJfffKKKidKLKKKJJKKJBBJJJJLaaaa",
"aaaaLJJJJJJtfiLLLLLLLLLLLLLJJJJJJJtffeKKKLLLLfBBKKKJJKKJJKLLaaaa",
"aaaaLJJJJJJtffeLLLLLLLLLLLLffhhJJJCffKKKLLLsffffBKKKKKJJffiLaaaa",
"aaaaLJJJJJJKfffLLLLLLLLLLLxfhhfJJJKCCKKLLLLfffffBfffKKJJhhhhaaaa",
"aaaaLJJJJJJKLDBLLLLLLLLLLLxhfBBJKJKKKKsfffhhhIuCfffKKKJJJffLaaaa",
"aaaaLJJJJJLLLLLLLLLLLfuLLLLyxKKKKKKKKyfffyhhhHHHHJJKKKJJJJJLaaaa",
"aaaaLJJJJLLLLLLLLLLLffwLLLLLLKKKJJKKKIIIKyhhLLLLLLLKKCttjJJLaaaa",
"aaaaLJJJJLLLLLLLLLLqhfALLLLLLKKjAAAKKKKKKyhhLLLLLqqGKKtjjJJLaaaa",
"aaaaLJJJJLLLLLLLLLLLCBLLLLLLLLjjjjzKKKKKKKIILLLLhhiiKKjjJJJLaaaa",
"aaaaLJJJJJLLLLLLLLLLLLLLLLIIyjjjiiewKKhhhLLLKKKhhhjKJJJJJJJLaaaa",
"aaaaLJJJJJLLLLLLLLLLLLLLhhhxxxjjwccuuJlhhhLKKKKhhhJJJJJJBeeLaaaa",
"aaaaLJJJJJLLLLLLLLLLLLLhhhhhhJwwwcccwwJJhhhKKKKhjpJJJJJDfeeLaaaa",
"aaaaLJJJJJLLLLLLLLLLLLLhhhCCJJwwmwccwwJhhhhKKKJJJJJJJJJJDDDLaaaa",
"aaaaLJJJJJJLLLLLLLLLLLKKJJJJJJwmmwwwwwKhlhJKKJJJJJJJJJJJJJLnaaaa",
"aaaaLJJJJJJJhhhLLLLLLLKKKJJJJJJmHHHJhhhhlhJKJJJJJJJJJJJJJJLnaaaa",
"aaaaaLJJJJJAhhhLLLLLLLKKpgggJJJttttJhhhLhhjKJJJJJJJJJJJJJJLaaaaa",
"aaaaaLJJJJJJkjiLLLLLJJJgeggJJJfttttJhhhhhjjJJJJJJJJJJJJJJJLaaaaa",
"aaaaaLJJJJJJEELLLLJJJJJDggJJJJftcbAAhhhhJJJJJJJJJJJJJJJJJJLaaaaa",
"aaaaaLJJJJJJJJJJJJJJJJJJJJJJJJJCAAAAwxxxJJJJJJJJJJJJJJJJJJLaaaaa",
"aaaaaLJJJJJJJJJJJJJJJJJJJJJJJmmJuwwwxxxttJJJJJJJJJJJJJJJJJLaaaaa",
"aaaaaLJJJJJJJJJJJJJJJJJJJJJJEccJJJJJeeCtttJJJJJJJJJJJJJJJJLaaaaa",
"aaaaaLJJJJJJJJJJJJJJJJJJJJJJEccJJJJeeBCJttJJJJJJJJJJJJJJJJLaaaaa",
"aaaaaKJJJLGLJJJJJJJJJJJJBffJEEEJJJleeqCJJKKwwwJJJJJJJJJJJJJLaaaa",
"aaaaLJJJJLHLJJJJJJJJJJJJBffBJJJJJJyfeqJJKhkkwjxJJJJJJJJJJJJLaaaa",
"aaaaLJJJJJJJJJJJJJJJJJJJJBBBJJJJhyyyyJJJkkkkwkxJJJJJJJJJJJJLaaaa",
"aaaaLJJJJJJJJJxxxJJJsfyJJJJJJJhhhhyJJJJkkkkxIIIJJJJJJJJJJJJLaaaa",
"aaaaLJJJJJJJjjhfKKKfexyJJJJJJhhhhhydJHkkkkzxfffJJJJJJJJJJJJLaaaa",
"aaaaLJJJJJJJEEEEKKKuuuJJJJJJJhhkJIddHHkkkJzfiifyJtffpJJJJJJLaaaa",
"aaaaLJJJJJJJJJJKKKKKKKJJJJJJJJJJJIHHHHHJJJJhhfhyJJffpJJJJJJLaaaa",
"aaaaaLJJJJJJJJJKKKKKKKJJJJmmJJJJJJJJHHJJJJJJEEEEJJffpJJJJJJLaaaa",
"aaaaaLBzzABJJJffuKKKKyyKKmdcmJJJJJxxHutJJJJJJJJJJJJJJJJJJJJLaaaa",
"aaaaaLdddABJJfffuLLLLllxKodclxJJJwddHtjjJJJJJJJJJJJJJJJJJJLaaaaa",
"aaaaaLHIIILLEffDLLLLLLlxKKqcwKJJJwdddJJJJJJJJJJJJJJJJJJJJJLaaaaa",
"aaaaaLKKJLLLEEELLLLLLLhzLKKLKKKJJJBBJJJJJJJJJJJJJJJJJJJJJJLaaaaa",
"aaaaaLKKJLLLLLLLLDhhwLLLLKKfffrKKJJJJJJiiJJJJJeeJJJJJJJJJJLaaaaa",
"aaaaaLKJJLLLLLLLDhhhwLLLKKBffffeKJJJJJtiisJJCeeeeJJJJJJJJJLaaaaa",
"aaaaaLJJJLLLLLLLLLhhwLLLKKCffxwwfhhfJJtiiuJJCfeeeJJJJJJJJJLaaaaa",
"aaaaaLKKKLLLLfzzLLLLLLLLKKKzzJJKhhhhfJCiJJJJJEEEJJJJJJJJJJLaaaaa",
"aaaaaLmmvKLLCfffxLLLBhhKKKKKJJJhhhhhfJJJJJJJJJJJJJJJJJJJJJLaaaaa",
"aaaaLmmmKKKLCfffxLLLhhfKKKKKJJJEhhhhJJJJJJJJJJJJJJJJJJJJJJJLaaaa",
"aaaaLmmKKKKKLEEEELLhhhIKKKKKJJJJIIJJJJJJJJJJJJJJJJJrhfJJJJJLaaaa",
"aaaaLKKKKKKLLLLLLLIIIIKKKKKKyyyJJJJJJJJJJkkJJJJJJLfhffJJJJJLaaaa",
"aaaaLKKJKKFLLLLLLLLLLKKKKKKKeeyJJJJJJJJJkkkkJJJJJJyhffJJJJJLaaaa",
"aaaaLKJJfffLLLLyyyyLKKKKKKKKfeyJJJJJJJJJkkkJJJJJJJLLLLJJJJJLaaaa",
"aaaaLKJJJhffLLyfeeeLKKKKKKKKyyJJJJJJJJJJJJJJJJJJJJJJJJJJJJJLaaaa",
"aaaaLJKJJhhsLKKurrKKKKKKKKKKKJJemmJJJJJJJJJJJJJJJJJJJJJJJJJLaaaa",
"aaaaLKJJJJJJJJJJJJJJJKKKKKKKKJJfffeJJJJJJJJJJJJJJJJJJJJJJJJLaaaa",
"aaaaLKlklJJJJJJJJJJJJKKffeEKKKKIIIIJJJJJJJJJJJJJJJJJJJJJJJJLaaaa",
"aaaakkkkkJJJJJJJJJJJJJfffeEKKKJKKJJJJJJJJJJJJJJJJJJJJJJJJJJLaaaa",
"aaaalkkkHJJJJJJJJJJJJJhffEKKKJKKLLJJJJJJJLLLLLJJJJJJJJJJJJLaaaaa",
"aaaaaIIIaLLLLLLaaaaaaJHGGGGGvvvvaaLLLLLLLaaaaaLLLLLLLLLLLLaaaaaa",
"aaaaaaaaaaaaaaaaaaaaaaaaaaaaaaaaaaaaaaaaaaaaaaaaaaaaaaaaaaaaaaaa",
"aaaaaaaaaaaaaaaaaaaaaaaaaaaaaaaaaaaaaaaaaaaaaaaaaaaaaaaaaaaaaaaa",
"aaaaaaaaaaaaaaaaaaaaaaaaaaaaaaaaaaaaaaaaaaaaaaaaaaaaaaaaaaaaaaaa",
"aaaaaaaaaaaaaaaaaaaaaaaaaaaaaaaaaaaaaaaaaaaaaaaaaaaaaaaaaaaaaaaa"
};
