/* XPM */
static char *tile_road_forest_xpm[] = {
"64 64 20 1",
"a c #FF00FF",
"b c #E3E6E2",
"c c #DFE2D8",
"d c #D7DFE1",
"e c #D9DCD4",
"f c #D3D5D3",
"g c #CCD0CA",
"h c #B7BCBA",
"i c #B6B8B7",
"j c #9CA09F",
"k c #8A8E8F",
"l c #848787",
"m c #7A7E7F",
"n c #5E757D",
"o c #6A6E71",
"p c #66696B",
"q c #54595E",
"r c #464B53",
"s c #43484B",
"t c #3B4147",
/* pixels */
"aaaaaaaaaaaaaaaaaaaaaaaaaaaaaaaaaaaaaaaaaaaaaaaaaaaaaaaaaaaaaaaa",
"aaaaaaaaaaaaaaaaaaaaaaaaaaaaaaaaaaaaaaaaaaaaaaaaaaaaaaaaaaaaaaaa",
"aaatsssrrrrrrrrssstttaatttsssssssssssssstaatrrrrrrrrrrrssssttaaa",
"aatllfefffeeeeeeeeikkttnhifgffkrsjefffffjttkhhhhgggffffeeeekktaa",
"aatllfhhhhhhhhhhhhhhkttchhhhhhhrrchhhhhhhttchhhhhhhhhhhhhhehktaa",
"aatlehhhhhhhhhhhhhhhcttchhhhhhhrrchhhhhhhttchhhhhhhhhhhhhhhhktaa",
"aatehhhhhhhhhhhhhhhhctschhhhhhhrrhhhhhhhhsschhhhhhhhhhhhhhhhhtaa",
"aatehhhhhhhhhhhhhhhhcrschhhhhhhrrhhhhhhhhsschhhhhhhhhhhhhhhhhtaa",
"aatehhhhhhhhhhhhhhhhcrrchhhhhhhrrhhhhhhhkrschhhhhhhhhhhhhhhhgsaa",
"aatehhhhhhhhhhhhhhhhcrrchhhhhhhrrhhhhhhhkrschhhhhhhhhhhhhhhhgsaa",
"aarehhhhhhhhhhhhhhhhcrrkhhhhhhkrrlhhhhhkkrschhhhhhhhhhhhhhhhgsaa",
"aarehhhhhhhhhhhhhhhhcrrrrrrrrrrrrrrrrrrrrrschhhhhhhhhhhhhhhhgsaa",
"aarehhhhhhhhhhhhhhhhcrrrrrrrrrrrrrlkkllllrschhhhhhhhhhhhhhhhgsaa",
"aarehhhhhhhhhhhhhhhhcrrjiiihihkrrhiiiiihlsschhhhhhhhhhhhhhhhfsaa",
"aatehhhhhhhhhhhhhhhhbrrehihihhhrrchhiiihhsschhhhhhhhhhhhhhhhfsaa",
"aatehhhhhhhhhhhhhhhhbrrehhiihhhrrchiiiihhsschhhihhhhhhhhhhhhfraa",
"aatehhhhhhhhhhhhhhhhcrrehhhhhhhrrchiiiihhrschhihhhhhhhhhhhhhfsaa",
"aatehhhhhhhhhhhhhhhhcrrehhhhhhhrrchiiiiihrrchhiiiiiiiiihhhhggsaa",
"aatohhhhhhhhhhhhhhffkrrehhhhhhhrrchiiiiihrriechiihhiihhiiggglsaa",
"aarookkkkkkkhhfffffkkrrehhhhhhhrrkhiiiikkrrllccceeeeffffgggllsaa",
"aarookkkkkkkkkkkkkkkkrrmhhhhhhkrrkkkkkkkkrrmlllkkkkkkkkkllllsraa",
"aaattsssssssssssssssrmmrrrsssrrrrrrrrrrrrmmrrssssssssssssssrtaaa",
"aaatssrrrrrrsrsrrrrrrmmrrrrrrrrrrrrrrrrrrmmrsrrrsssssrsrsrrrtaaa",
"aarlbbbbbblsskcccccckttkieeeeeccccccccchlttkhhhhhhkssjddeeccitaa",
"aarghhhhhhkrschhhhhhhstchhhhhhhhhhhhhhccbtthhhhhhhhsschhhihhitaa",
"aarghhhhhhhrrchhhhhhhsschhhhhhhhhhhhhhhhbsshhhhhhhhssdhhhhhhhtaa",
"aarghhhhhhhrrhhhhhhhhsschhhhhhhhhhhhhhhhbtshhhhhhhhrrhhhhhhhhsaa",
"aarghhhhhhhrrhhhhhhhhsschhhhhhhhhhhhhhhhctshhhhhhhhrrhhhhhhhhsaa",
"aarfhhhhhhhrrhhhhhhhhsschhhhhhhhhhhhhhhhcsshhhhhhhhrrhhhhhhhhraa",
"aarehhhhhhhrrhhhhhhhhrrchhhhhhhhhhhhhhhhcsshhhhhhhhrrhhhhhhhhraa",
"aarkhhhhhhlrrmhhhhhkkrrchhhhhhhhhhhhhhhhcsslkhhhhhhrrkhhhhhhkraa",
"aarrssssrrrrrrrrrrrrrrschhhhhhhhhhhhhhhhcsssssssrrrrrrrrrrrrrraa",
"aasrrrrrrrrrrriiiiiirrschhhhhhhhhhhhhhhhctsmmmllllrrrrrrrrrrrraa",
"aasjeeeeecrrrfiiiiiiirschhhhhhhhhhhhhhhhcssemhhhhhhrrhiihihilsaa",
"aatehhhhhhbrrfhiiiiiirschhhhhhhhhhhhhhhhcssehhhhhhhrrchiiiihhsaa",
"aatfhhhhhhhrrfhiiiiiirschhhhhhhhhhhhhhhhcssehhhhhhhrrchhhiihhsaa",
"aarfhhhhhhhrrehiiiiihrschhhhhhhhhhhhhhhhcrsehhhhhhhrrchhhhhhhsaa",
"aarfhhhhhhhrreiiiiiihrschhhhhhhhhhhhhhhfjrrehhhhhhhrrchhhihhhsaa",
"aatfhhhhhhhrrehiiiiihrrchhhihiiihhhhhhffjrrehhhhhhhrrchhhiihhsaa",
"aarjhhhhhhkrrkiiiiikkrrjjffffffffffffffkkrrhhhhhhhhrrkhihihllsaa",
"aarrjjjjjjkrrkkkkkkkkrrojjjjjkkkkkkkkkkkkrrkhhhhhhmrrlkkkkklssaa",
"aaasrrrrrrrrrrrrrrrrrmmrrrrrrssssssssssrrllrrrssrrrrrrrrrrrrsaaa",
"aaassrrrrrrrrrrrrrrrrmmrrrrrrrrssrrrrrrrsllssrrrrrrrrrrrrrrrraaa",
"aarjgbbbbbccccceeeellttkhhhhhhlrskcbbbbbjttmhcccbbbbbbbbccckktaa",
"aargghhhhhhhhhhhhhehitthhhhhhhhrrciiiihhhttccihhhhhhhhhhhhhhktaa",
"aarfhhhhhhhhhhhhhhheetthhhhhhhhrrhhiiiihhsschhhhhhhhhhhhhhhhftaa",
"aarfhhhhhhhhhhhhhhhhetthhhhhhhhrrhhihiihhsschihhhhhhhhhhhhhhftaa",
"aarfhhhhhhhhhhhhhhhhetthhhhhhhhrrhhiiiihhrrchihhhhhhhhhhhhhhftaa",
"aatehhhhhhhhhhhhhhhhetthhhhhhhhrrhhiiiiihrrchhhhhhhhhhhhhhhhfsaa",
"aatehhhhhhhhhhhhhhhhetthhhhhhhhrrhhihiihhrrchhhhhhhhhhhhhhhhfsaa",
"aatehhhhhhhhhhhhhhhhetsmhhhhhhjrrlhhhhhhkrrchhhhhhhhhhhhhhhhfsaa",
"aatehhhhhhhhhhhhhhhhettssssssrrrrrrssssrrrrchhhhhhhhhhhhhhhhfsaa",
"aarehhhhhhhhhhhhhhhhettjhhhhhhkrrriiiiinnrrchhhhhhhhhhhhhhhhfsaa",
"aarehhhhhhhhhhhhhhhhettfhhhhhhhrrgiiiiiiirrchhhhhhhhhhhhhhhhfsaa",
"aarehhhhhhhhhhhhhhhhdssfhhhhhhhrrgiiiiiihrrchhhhhhhhhhhhhhhhfsaa",
"aarehhhhhhhhhhhhhhhhdssfhhhhhhhrrgiiiiihhrrehhhhhhhhhhhhhhhhfsaa",
"aarehhhhhhhhhhhhhhhhdssfhhhhhhhrrfhiiiiihrrehhhhhhhhhhhhhhhhgsaa",
"aarehhhhhhhhhhhhhhhhhrrfhhhhhhhrrfiiiiiihrrehhhhhhhhhhhhhhhhgsaa",
"aarlhhhhhhhhhhhhhhedjrrfhhhhhhhrrfiiiiiihrrifghhhhhhhhhiihggmraa",
"aarllhhhdddeeddddeillrrkeehhhhprrliiiiiklrrllggggghlljjjgggmmraa",
"aaqrlkkkkkkkkkkklllllrrnkkkkkkprrllllllllrrllllllkkklkllllmlmraa",
"aaarrrrsrssrrrrrrrrrraassssrrrrrrrrrrrrrraarsssssssrrrrrrrrrraaa",
"aaaaaaaaaaaaaaaaaaaaaaaaaaaaaaaaaaaaaaaaaaaaaaaaaaaaaaaaaaaaaaaa",
"aaaaaaaaaaaaaaaaaaaaaaaaaaaaaaaaaaaaaaaaaaaaaaaaaaaaaaaaaaaaaaaa"
};
