/* XPM */
static char *tile_road_cobble_xpm[] = {
"64 64 27 1",
"a c #FF00FF",
"b c #C8B99D",
"c c #BDB09A",
"d c #AFB0A8",
"e c #B5AA91",
"f c #A7A79F",
"g c #9D9F97",
"h c #A69684",
"i c #98978F",
"j c #9F907E",
"k c #909088",
"l c #8C8A7E",
"m c #83847D",
"n c #90806A",
"o c #867F69",
"p c #82745E",
"q c #797A7B",
"r c #75746B",
"s c #6F6E67",
"t c #716A5B",
"u c #65635C",
"v c #565959",
"w c #5C584D",
"x c #50524E",
"y c #43463C",
"z c #373B3B",
"A c #2F3335",
/* pixels */
"aaaaaaaaaaaaaaaaaaaaaaaaaaaaaaaaaaaaaaaaaaaaaaaaaaaaaaaaaaaaaaaa",
"aaaaaaaaaaaaaaaaaaaaaaaaaaaaaaaaaaaaaaaaaaaaaaaaaaaaaaaaaaaaaaaa",
"aazzzzzzzzzzzzzzzAaaaaaaaazzzzzzzzzzzzzAaaaaaazzzzzzzzzzzzzAaaaa",
"aazzzzzzzzzzzzzzzzaaaaaaaazzzzzzzzzzzzAAaaaaaazzzzzzzzzzzzzAaaaa",
"zzzzffmmmmmmmmmmllzzaaaazzbbjjjjjjjjjjjjzzzzzzffffmmmmmmmmffAAaa",
"zzzsffmmmmmmmmmmmlzzaaaazzbbjjjjjjjjjjjjzzzzzzffffmmmmmmmmffzAaa",
"zzffmmmmmmmmmmmmmkyyzzzAbbjjjjjjjjjjjjjjppzzffmmmmmmmmmmmmmmefAz",
"zzffmmmmmmmmmmmmkksszzzzbbjjjjjjjjjjjjjjppzzffmmmmmmmmmmmmmmffzz",
"zzffmmmmmmmmmmmmiksssszzjjbbbbbbbbbbbjppppzzssfmmmmmmmmmmmmmmfzz",
"zzffmmmmmmmmmmmmiisssrzzjnbbbbbbbbbbbbppppzzssffmmmmmmmmmmmmmfzz",
"zzffmmmmmmmmmmggsszzzzzzzznnnnnnnnnnnnzzzzzzzzuuffffmmmmmmmmmgzz",
"zzffmmmmmmmmmmggsszzzzzzzznnnnnnnnnnnnzzzzzzzzuuffffmmmmmmmmmgzz",
"zzffmmffffffsssszzffffffvvzzzzzzzzzzzzuubbbbuuzzuuuuffffmmmmmgzz",
"zzffmmggggffssvxzzffffffvvzzzzzzzzzzzzuucbbbtuzzuuuuffffmmmmmgzz",
"zzzzusssssxxzzxzffmmmmmmggggggzzwwwubbbbjjjjbbbbzzzzuuuuffffuuzz",
"zzzzusssssxzzzzzffmmmmmmmgggggzzwwuubbbbjjjjbbbbzzzzuuuuffffuuAz",
"zzzzzzzzzvzzzzffffmmmmmmmmmmmmddzzbbjjjjjjjjjjjjbbzzzzzzuuuuzzaa",
"zzzzzzzzzzzzzzffffmmmmmmmmmmmmddzzbbjjjjjjjjjjjjbbzzzzzzuuuuzzaa",
"zzzzbbbbjlzzffmmmmmmmmmmmmmmmmmmzzbbjjjjjjjjjjjjjjbbzzrrzzzzzzaa",
"zzzzbbbbjjzzffmmmmmmmmmmmmmmmmmmzzbbjjjjjjjjjjjjjjbbzzrrzzzzzzaa",
"zzbbjjjjbbzzmmffmmmmmmmmmmmmmmmmzzbbjjjjjjjjjjjjjjjjbbwvvwbbzzaa",
"zzbbjjjjbbzzmmffmmmmmmmmmmmmmmiizzbbjjjjjjjjjjjjjjjjbbvwvvbbzzaa",
"zzjjjjjjjjjhzzuuffmmmmmmmmmmgguvzzbbjjjjjjjjjjjjjjjjbbzzbbbbhhAz",
"zzjjjjjjjjjjzzuuffmmmmmmmmmmggvvzzbbjjjjjjjjjjjjjjjjbbzzbbbhhhzz",
"zzjjjjjjjjjjzzzzzzffffffffffsszzzzjjbbjjjjjjjjjjjjeczzzybbhhhhzz",
"zzjjjjjjjjjjzzzzzzffffffffffsszzzzljbbjjjjjjjjjjjjeezzzzbbhhhhzz",
"zzbbjjjjjjjjzzrrppzzzzzzzzzzzzttttzzbbbbccjjjjjjjjnnzzbbbbhhhhzz",
"zzbbjjjjjjjjzzrpppzzzzzzzzzzzzssstzzbbbbccjjjjjjjjnnzzbbbbhjhhzz",
"zzppjjjjjjppzzppppppppzuzzttbbbbbbzzzzzzooccceeejjzzzzbbhjjjjhzz",
"zzrpjjjjjjppzzrrppppppzuzzstbbbbbbzzzzzzooccccceeezzzzbbjjjjjhzz",
"zzzzoooooozzzzzzppppppzzbbbbjjjjjjbbbbuuzzzzzzzzzzzzvvbbjjjjjhzz",
"zzzzoooooozzzzzzppppppzzbbbbjjjjjjbbbbtuzzzzzzzzzzzzuubbjjjjjhzz",
"aazzzzzzzzffffffzzppzzbbhjjjjjjjjjjjjjtuzzzzuuffffzzuubbjjjjjjzz",
"aazzzzzzzzfffffdzzppzzbbhjjjjjjjjjjjjjuuzzzzzzfffdzzuubbjjjjjjzz",
"aazzffffffmmmmmmddzzvvbbjjjjjjjjjjjjbbzzzzffffmmmmddzzbbjjjjjjzz",
"aazzffggggmmmmmmddzzvubbjjjjjjjjjjjjbbzzzzffffmmmmddzzbbjjjjjjzz",
"zzuufggmmmmmmmmmmlzzuubbjjjjjjjjjjbbttzzffmmmmmmmmmmzzbbbbjjjjzz",
"zzuuggmmmmmmmmmmmmzzvubbjjjjjjjjjjbbttzzffmmmmmmmmmmzzbbbbjjjjzz",
"zzffmmmmmmmmmmmmmmmmzzbbjjjjccccoooozzffmmmmmmmmmmmmzzttbbjjbbzz",
"zzffmmmmmmmmmmmmmmmmzzbbjjjjccccnooozzffmmmmmmmmmmmmzzttbbjjbbzz",
"zzffmmmmmmmmmmmmmmmdzzjbbbbbnnnnnnzzvvffmmmmmmmmmmmmzzzzutbbjjzz",
"zzffmmmmmmmmmmmmmmddzzjjbbbbnnnnnnzzvvffmmmmmmmmmmmmzzzzutbbjjzz",
"zzffmmmmmmmmmmffffzzyyzzzznnnnnnzzvvvvffmmmmmmmmmmffzzuuzzttttzz",
"zzffmmmmmmmmmmffffzzyyzzzznnnnnnzzvvvvffmmmmmmmmmmffzzuuzzttttAz",
"zzuufmmgggggffsssszzyyffffzzzzzzvvvvvvmmmmmmmmmmffuuzzzzbbzzzAaa",
"zzuufffggggfffuusszzyyffffzzzzzzvvvvvvqqqqmmmmmmffuuzzzzbbzzzzaa",
"zzzzuuuuuuuuuuzzzzffffmmmmmmmmddddzzzzuuuuggggffuuzzoobbppppzzaa",
"zzzzuuuuuuuuuuzzzzffffmmmmmmmmdfddzzzzuuuuggggffzzzzonbbppppzzaa",
"aazzzzzzzzzzzzwwvwffmmmmmmmmmmmmmmddddzzzzuuuuuuzznnbbppppppppzz",
"aazzzzzzzzzzzzuwuuffmmmmmmmmmmmmmmdfddzzzzuuuuuuzznncbppppppppzz",
"aazznnbbbbbbbbzzvuffmmmmmmmmmmmmmmmmmmffffzzzzzzllbbppppppppppzz",
"aazznnbbbbbbbbzzuuffmmmmmmmmmmmmmmmmmmffffzzzzzzllcbppppppppppzz",
"zzmnbbjjjjjjjjbbzzmuffmmmmmmmmmmmmmmmmmmmmffzzllccppppppppppppzz",
"zzmlcbjjjjjjjjebzzuuffmmmmmmmmmmmmmmmmmmmmffzzllccppppppppppppzz",
"zzbbjjjjjjjjjjjjjjzzuuffffmmmmmmmmmmmmmmffffzzbbppppppppppppppzz",
"zzbbjjjjjjjjjjjjjjzzuuffffmmmmmmmmmmmmmmffffzzbbppppppppppppppzz",
"zzbbjjjjjjjjjjjjjjbbzzusssffffmmmmmmmmffuuuuzzbbppppppppppnjppzz",
"zzbbjjjjjjjjjjjjjjbbzzuuusffffmmmmmmmmffuuuuzzbbppppppppppnjppzz",
"zzttbbjjjjjjjjjjjjjjjjzzuuuuuuffffffffuuuuzzzztthpppppponnppzzzz",
"zzttbbjjjjjjjjjjjjjjjjzzuuuuuuffffffffuuuuzzzztthhppppppnnppzzzz",
"zzzzttttbbbbbbbbttttzzzzzzzzuuuuuuuuuuuuzzzzzzzztthhhhwwwwwwzzzz",
"zzzzttttbbbbbbbbtttxzzzzzzzzuuuuuuuuuuuuzzzzzzzztthhhhwwwwwwzzzz",
"aazzzzzzzzzzzzzzzzzzzzaaaazzzzzzzzzzzzzzzzaaaazzzzzzzzzzzzzzzzaa",
"aazzzzzzzzzzzzzzzzzzzzaaaazzzzzzzzzzzzzzzzaaaazzzzzzzzzzzzzzzzaa"
};
