/* XPM */
char * redcar_s1_1_xpm[] = {
"64 64 37 1",
" 	c #000000",
".	c #000100",
"+	c #951B24",
"@	c #851E21",
"#	c #988A87",
"$	c #CAC6CE",
"%	c #F9F5F5",
"&	c #E32044",
"*	c #EDE5EB",
"=	c #D6D5DE",
"-	c #754338",
";	c #781B1F",
">	c #65161F",
",	c #9B2D32",
"'	c #AB2334",
")	c #C7282E",
"!	c #4C5561",
"~	c #516D83",
"{	c #6A889C",
"]	c #94BBC9",
"^	c #D2272E",
"/	c #6E6669",
"(	c #BD3836",
"_	c #AB3533",
":	c #B82D33",
"<	c #A9463D",
"[	c #87272C",
"}	c #43444B",
"|	c #5F5A74",
"1	c #2E3744",
"2	c #562628",
"3	c #501419",
"4	c #362829",
"5	c #CF3C3F",
"6	c #EEBDBF",
"7	c #D8B5B6",
"8	c #C9B0A8",
"                                                                ",
"                                                                ",
"                                                                ",
"                                                                ",
"                                                                ",
"                         ..............                         ",
"                     ....+++++++++++@@@....                     ",
"                    .##$%++&&&&&&&&&&&@*=--.                    ",
"                   .+#$*;&&&&&&&&&&&&&&>==,;.                   ",
"                   .+=*;&&&&&&&&&&&&&&&&;==;.                   ",
"                  .+'=;&&&&&&&&&&&&&&&&&&>=@@.                  ",
"                  .+';&&&&&&&&&&&&&&&&&&&&+@'.                  ",
"                  .'&'&&&&&&&&&&&&&&&&&&&&+&'.                  ",
"                 .@'&'&&&&&&&&&&&&&&&&&&&&+&'+.                 ",
"                 .+'&'&&&&&&&&&&&&&&&&&&&&+&'+.                 ",
"                 .+'&'&&&&............&&&&+&'+.                 ",
"                 .+)&'&&..!~~~~!!!!!~~..&&+&'+.                 ",
"                 .+)&'..!!!~{{{{{{{]]]~~..+&'+.                 ",
"                 .+)^.!{{{{{{{{{{{]]]]]]]/.''@.                 ",
"                 ...^.!{{{{{{{{{{]]]]]]]]/.'...                 ",
"                .,,..(.{{{{{{{{{]]]]]]]]]._..::.                ",
"               .,,,..(.{{{{{{{{]]]]]]]]]].<..:::.               ",
"               ....[.._.{{{{{{]]]]]]]]]].<..'....               ",
"                  .[.},.{..............].(|.,.                  ",
"                  .,.|,..+&&&&&&&&&&&&+..(|.'.                  ",
"                  .,.|.'&&&&&&&&&&&&&&&&'.|.+.                  ",
"                  .,.|.'&&&&&&&&&&&&&&&&'.|.+.                  ",
"                  .,.|.'&&&&&&&&&&&&&&&&'.|.+.                  ",
"                  .,.|.'&&&&&&&&&&&&&&&&'.|.+.                  ",
"                  .[.|.'&&&&&&&&&&&&&&&&'.|.+.                  ",
"                  .[.|.'&&&&&&&&&&&&&&&&'.|.,.                  ",
"                  .[.|.'&&&&&&&&&&&&&&&&'.|.,.                  ",
"                  .[.|.'&&&&&&&&&&&&&&&&'.|.,.                  ",
"                  .[.1.'&&&&&&&&&&&&&&&&'.2.[.                  ",
"                  .[[[.'&&&&&&&&&&&&&&&&'.2.[.                  ",
"                  .[[..'&&&&&&&&&&&&&&&&'..[[.                  ",
"                  .[.|.'&&&&&&&&&&&&&&&&'.|.[.                  ",
"                  .[.|.'&&&&&&&&&&&&&&&&'.|.[.                  ",
"                  .[.|.'&&&&&&&&&&&&&&&&'.|.,.                  ",
"                  .[.|.'&&&&&&&&&&&&&&&&'.|.,.                  ",
"                  .[.|.'&&&&&&&&&&&&&&&&'.~.,.                  ",
"                  .,.3+^&&&&&&&&&&&&&&&&''4.,.                  ",
"                  .,.3+^'&&&&&&&&&&&&&&'''4.,.                  ",
"                  .,.++^^''''''''''''''&'''.'.                  ",
"                 .+'.+))^^^&&&&&&&&&&&&&'''.''.                 ",
"                 .+'+')...^^&&&&&&&&&&...'''''.                 ",
"                 .''''.~~~............!!!@''''.                 ",
"                 .''''.~~~~~~~~~~~~~~~{{!.''''.                 ",
"                 .''''.~{{{{{{{{{{{{{{{{{.''''.                 ",
"                 .+'>'.~{{{{{{{{{{{{{{{{{.'>''.                 ",
"                 .+33@:..{{{{{{{{{{{{{{..'>>>'.                 ",
"                 .+>'3@::..............+5>>'>+.                 ",
"                 .+>553@+(((::))))55555+>>55>+.                 ",
"                 .++>553+++++++66+++++++>55>++.                 ",
"                  .++3>3>++++++++++++++>3>>++.                  ",
"                  .++++++>>>>>>>>>>>>>>++++++.                  ",
"                   .++++++++++++++++++++++++.                   ",
"                    ..+++++++777778,,,,,,,..                    ",
"                      ....................                      ",
"                                                                ",
"                                                                ",
"                                                                ",
"                                                                ",
"                                                                "};
