/* XPM */
static char *car_blue[] = {
"64 64 6 2",
"aa c #000000",
"ab c #1A5276",
"ac c #2471A3",
"ad c #154360",
"ae c #222222",
"af c #FF00FF",
/* pixels */
"afafafafafafafafafafafafafafafafafafafafafafafafafafafafafafafafafafafafafafafafafafafafafafafafafafafafafafafafafafafafafafafaf",
"afafafafafafafafafafafafafafafafafafafafafafafafafafafafafafafafafafafafafafafafafafafafafafafafafafafafafafafafafafafafafafafaf",
"afafafafafafafafafafafafafafafafafafafafafafafafafafafafafafafafafafafafafafafafafafafafafafafafafafafafafafafafafafafafafafafaf",
"afafafafafafafafafafafafafafafafafafafafafafafafafafafafafafafafafafafafafafafafafafafafafafafafafafafafafafafafafafafafafafafaf",
"afafafafafafafafafafafafafafafafafafafafafafafafafafafafafafafafafafafafafafafafafafafafafafafafafafafafafafafafafafafafafafafaf",
"afafafafafafafafafafafafafafafafafafafafafafafafafafafabafaeaeabacaeaeaeadadafafafafafafafafafafafafafafafafafafafafafafafafafaf",
"afafafafafafafafafafafafafafafafafafafafafafafafafafadadafafaeadadaeaeaeadabadafafafafafafafafafafafafafafafafafafafafafafafafaf",
"afafafafafafafafafafafafafafafafafafafafafafafafaeaeacacaeaeaeabacaeaeaeacababadadaeafafafafafafafafafafafafafafafafafafafafafaf",
"afafafafafafafafafafafafafafafafafafafafafafaaaeadabacacaeaeaeababaeaeaeacacabacabacabafafafafafafafafafafafafafafafafafafafafaf",
"afafafafafafafafafafafafafafafafafafafafafadabacadacabacaeaeaeaaaaaeaeaeacacacabacababadafafafafafafafafafafafafafafafafafafafaf",
"afafafafafafafafafafafafafafafafafafafafafabacacacabacacaeaeaaaeaeaaaeaaacacacacacabababafafafafafafafafafafafafafafafafafafafaf",
"afafafafafafafafafafafafafafafafafafafafaeabacacabacacacaaaaaeaeaeaeaaaaacacacacacacabadafafafafafafafafafafafafafafafafafafafaf",
"afafafafafafafafafafafafafafafafafafafafadabacacabacacacaaaeaeaeaeaeaeaaacacacacabacababadafafafafafafafafafafafafafafafafafafaf",
"afafafafafafafafafafafafafafafafafafafafababacacacacacacaaaeaeaeaeaeaeaaacacacacabacacabadafafafafafafafafafafafafafafafafafafaf",
"afafafafafafafafafafafafafafafafafafafafababacabacacacacaaaeaeaeaeaeaeaaacacacacabacacabadafafafafafafafafafafafafafafafafafafaf",
"afafafafafafafafafafafafafafafafafafafafababacabacacacacaaaeaeaeaeaeaeaaacacacacabacacababafafafafafafafafafafafafafafafafafafaf",
"afafafafafafafafafafafafafafafafafafafafababacabacacacacaaaeaeaeaeaeaeaaacacacacabacacababafafafafafafafafafafafafafafafafafafaf",
"afafafafafafafafafafafafafafafafafafafafababacabacacacacaaaaaaaaaaaaaaaaacacacacabacacababafafafafafafafafafafafafafafafafafafaf",
"afafafafafafafafafafafafafafafafafafafafadabacabacacacacadaeaeababaeaeaaacacacacabacacababafafafafafafafafafafafafafafafafafafaf",
"afafafafafafafafafafafafafafafafafafafafababacabacacacacadaeadabacadadaeacacacacabacacadabafafafafafafafafafafafafafafafafafafaf",
"afafafafafafafafafafafafafafafafafafafafadabacabacacacacaeaeaeababadadaaacacacacabacacababafafafafafafafafafafafafafafafafafafaf",
"afafafafafafafafafafafafafafafafafafafafaeabacabacacaeaaaaaaaaaaaaaaaaaaaaaaaaacabacacabafafafafafafafafafafafafafafafafafafafaf",
"afafafafafafafafafafafafafafafafafafafafafabacabaeaeaeaeaeaeaeaeaeaeaeaeaeadaeaaaeadacabafafafafafafafafafafafafafafafafafafafaf",
"afafafafafafafafafafafafafafafafafafafafafabacaeadadaeaeaeaeaeaeaeaeaeaeaeaeaeaeadaeacadafafafafafafafafafafafafafafafafafafafaf",
"afafafafafafafafafafafafafafafafafafafafafadacaaadaeaeaeaeaeaeaeaeaeaeaeaeaeaeaeadaaabadafafafafafafafafafafafafafafafafafafafaf",
"afafafafafafafafafafafafafafafafafafafafafafadabaaaeaeaeaeaeadaeadaeaeaeaeaeaeaeaaadafafafafafafafafafafafafafafafafafafafafafaf",
"afafafafafafafafafafafafafafafafafafafafafabafadadaaadaaaeaeaeaeaeaeaeaaaaaaadaaadafafadafafafafafafafafafafafafafafafafafafafaf",
"afafafafafafafafafafafafafafafafafafafafafafafafadadaeacacacacacacacacacacacaaabadafafafafafafafafafafafafafafafafafafafafafafaf",
"afafafafafafafafafafafafafafafafafafafafafadaeafafadacacacacacacacacacacacacacabaaaeafadafafafafafafafafafafafafafafafafafafafaf",
"afafafafafafafafafafafafafafafafafafafafafadaeafafabacacacacacacacacacacacacacabaaaeafaeafafafafafafafafafafafafafafafafafafafaf",
"afafafafafafafafafafafafafafafafafafafafafadaeaeafabacacacacacacacacacabacacacabaaadafadafafafafafafafafafafafafafafafafafafafaf",
"afafafafafafafafafafafafafafafafafafafafafadaeaeafadacacacacacacacacacacacacacabaaaeafadafafafafafafafafafafafafafafafafafafafaf",
"afafafafafafafafafafafafafafafafafafafafafadaeaeafadacacacacacacacacacacacacacabaaadafadafafafafafafafafafafafafafafafafafafafaf",
"afafafafafafafafafafafafafafafafafafafafafadaeaeafabacacacacacacacacacacacacacabaaaeaaadafafafafafafafafafafafafafafafafafafafaf",
"afafafafafafafafafafafafafafafafafafafafafadaeaeafadacacacacacacacacacacacacacabaaaeaaadafafafafafafafafafafafafafafafafafafafaf",
"afafafafafafafafafafafafafafafafafafafafafadaeaeafabacacacacacacacacacacacacacabaaaeaaadafafafafafafafafafafafafafafafafafafafaf",
"afafafafafafafafafafafafafafafafafafafafafadadaeafabacacacacacacacacacacacacacabaaaeaaadafafafafafafafafafafafafafafafafafafafaf",
"afafafafafafafafafafafafafafafafafafafafafadaeaaaeabacacacacacacacacacacacacacabaaaeaaadafafafafafafafafafafafafafafafafafafafaf",
"afafafafafafafafafafafafafafafafafafafafafadaaaeadabacacacacacacacacacacacacacabadaeadabafafafafafafafafafafafafafafafafafafafaf",
"afafafafafafafafafafafafafafafafafafafafafabaeababadabacacacacacacacacacacacacadabaaababafafafafafafafafafafafafafafafafafafafaf",
"afafafafafafafafafafafafafafafafafafafafafababadababadababadabababadababababadadababababafafafafafafafafafafafafafafafafafafafaf",
"afafafafafafafafafafafafafafafafafafafafaaabacabadaaaaaaaaaaaaaaaaaaaaaaaaaaaaaaababacabafafafafafafafafafafafafafafafafafafafaf",
"afafafafafafafafafafafafafafafafafafafafaeabacabadaaaeadaeadadaeaeadadaeaeaeaeaaadabacabafafafafafafafafafafafafafafafafafafafaf",
"afafafafafafafafafafafafafafafafafafafafadabacabaaaeaeaeaeaeaeadaeaeaeaeaeaeaeaeaaabacabadafafafafafafafafafafafafafafafafafafaf",
"afafafafafafafafafafafafafafafafafafafafababacabaaadaeaeaeaeaeaeaeaeaeaeaeaeaeaeaeabacababafafafafafafafafafafafafafafafafafafaf",
"afafafafafafafafafafafafafafafafafafafafababacabaeadaeaeaeaeaeaeaeaeaeaeaeaaaaaaacabacabadafafafafafafafafafafafafafafafafafafaf",
"afafafafafafafafafafafafafafafafafafafafababacabadaaaaaaaaaaaaaaaaaaaaaaadacacacacabacababafafafafafafafafafafafafafafafafafafaf",
"afafafafafafafafafafafafafafafafafafafafabacacabacacacacacaeaeaeabaeaeadacacacacacabacababafafafafafafafafafafafafafafafafafafaf",
"afafafafafafafafafafafafafafafafafafafafadacacabacacacacacadaeaeacadaeaeacacacacacabacababafafafafafafafafafafafafafafafafafafaf",
"afafafafafafafafafafafafafafafafafafafafadacacabacacacacacadaeaeacadaeaeacacacacacababababafafafafafafafafafafafafafafafafafafaf",
"afafafafafafafafafafafafafafafafafafafafababacacacacacacacadaeaeacadaeadacacacacababadababafafafafafafafafafafafafafafafafafafaf",
"afafafafafafafafafafafafafafafafafafafafadabacacacacacacacadaeaeacadaeaeacacabababacabadabafafafafafafafafafafafafafafafafafafaf",
"afafafafafafafafafafafafafafafafafafafafaeabacabacacacacacaeaeaeabaeaeaeacacacacadacacadafafafafafafafafafafafafafafafafafafafaf",
"afafafafafafafafafafafafafafafafafafafafafabacabacacacacacaeaeaeacadaeaeadacaeaaaaadacacafafafafafafafafafafafafafafafafafafafaf",
"afafafafafafafafafafafafafafafafafafafafafabababacababababaeaeaeabaeaeaeacaaadabadaaadadafafafafafafafafafafafafafafafafafafafaf",
"afafafafafafafafafafafafafafafafafafafafafabadadacacabababaaaaaaaaaaaaaaaaaaaaaaaaaaaaadafafafafafafafafafafafafafafafafafafafaf",
"afafafafafafafafafafafafafafafafafafafafafadadaaaaaaaaaaaaaaaeaeaeaeaeaeaeaeadabadadaaaeafafafafafafafafafafafafafafafafafafafaf",
"afafafafafafafafafafafafafafafafafafafafafadaaacabababaeaeaeaeaaaaaaaaaeaeadaeaeaeaeadaeafafafafafafafafafafafafafafafafafafafaf",
"afafafafafafafafafafafafafafafafafafafafafafaeaaaaaaaaadadadaeadaeaeaeafafafaeadadaeadafafafafafafafafafafafafafafafafafafafafaf",
"afafafafafafafafafafafafafafafafafafafafafafafadadaeaeafafafafafafafafafafafafafafafafafafafafafafafafafafafafafafafafafafafafaf",
"afafafafafafafafafafafafafafafafafafafafafafafafafafafafafafafafafafafafafafafafafafafafafafafafafafafafafafafafafafafafafafafaf",
"afafafafafafafafafafafafafafafafafafafafafafafafafafafafafafafafafafafafafafafafafafafafafafafafafafafafafafafafafafafafafafafaf",
"afafafafafafafafafafafafafafafafafafafafafafafafafafafafafafafafafafafafafafafafafafafafafafafafafafafafafafafafafafafafafafafaf",
"afafafafafafafafafafafafafafafafafafafafafafafafafafafafafafafafafafafafafafafafafafafafafafafafafafafafafafafafafafafafafafafaf"
};
