/* XPM */
static char *car_red_destroyed[] = {
"64 64 6 2",
"aa c #000000",
"ab c #999999",
"ac c #222222",
"ad c #484848",
"ae c #282828",
"af c #FF00FF",
/* pixels */
"afafafafafafafafafafafafafafafafafafafafafafafafafafafafafafafafafafafafafafafafafafafafafafafafafafafafafafafafafafafafafafafaf",
"afafafafafafafafafafafafafafafafafafafafafafafafafafafafafafafafafafafafafafafafafafafafafafafafafafafafafafafafafafafafafafafaf",
"afafafafafafafafafafafafafafafafafafafafafafafafafafafafafafafafafafafafafafafafafafafafafafafafafafafafafafafafafafafafafafafaf",
"afafafafafafafafafafafafafafafafafafafafafafafafafafafafafafafafafafafafafafafafafafafafafafafafafafafafafafafafafafafafafafafaf",
"afafafafafafafafafafafafafafafafafafafafafafafafafafafafafafafafafafafafafafafafafafafafafafafafafafafafafafafafafafafafafafafaf",
"afafafafafafafafafafafafafafafafafafafafafafafafafafafafafafafafafafafafafafafafafafafafafafafafafafafafafafafafafafafafafafafaf",
"afafafafafafafafafafafafafafafafafafafafafafafafafafafafafafafafafafafadadadafafafafafafafafafafafafafafafafafafafafafafafafafaf",
"afafafafafafafafafafafafafafafafafafafafafafafafafafafafafaeadadadadadafadafadadafaeafafafafafafafafafafafafafafafafafafafafafaf",
"afafafafafafafafafafafafafafafafafafafafafafaeaeafadadadadadafafafafafafadafafafafaeaeafafafafafafafafafafafafafafafafafafafafaf",
"afafafafafafafafafafafafafafafafafafafafafafaeafafafafafafafafafadadadadadafadadafaeaeafafafafafafafafafafafafafafafafafafafafaf",
"afafafafafafafafafafafafafafafafafafafafafafaeafafafaeafadadabadafafafafadafafafafaeaeafafafafafafafafafafafafafafafafafafafafaf",
"afafafafafafafafafafafafafafafafafafafafafafafafafafadadafafafafafafaeafafadafafafaeaeafafafafafafafafafafafafafafafafafafafafaf",
"afafafafafafafafafafafafafafafafafafafafafafafaeaeafadafadafaeaeaeaeafabafadafafafaeadafaeafafafafafafafafafafafafafafafafafafaf",
"afafafafafafafafafafafafafafafafafafafafafaeafafadafafafadafafaeaeaeafabafadafafafaeadafaeafafafafafafafafafafafafafafafafafafaf",
"afafafafafafafafafafafafafafafafafafafafafafafafadafafafadafadaeaeaeafabafadafafaeadadafaeafafafafafafafafafafafafafafafafafafaf",
"afafafafafafafafafafafafafafafafafafafafaeafafafaeafafafadafaeaeaeaeafabafadafafaeaeadafaeafafafafafafafafafafafafafafafafafafaf",
"afafafafafafafafafafafafafafafafafafafafafafafafaeafafafadafadadadadafabafadafafaeadaeaeaeafafafafafafafafafafafafafafafafafafaf",
"afafafafafafafafafafafafafafafafafafafafafafafafacafaeafadafafafafafafafafadafafaeaeaeaeaeafafafafafafafafafafafafafafafafafafaf",
"afafafafafafafafafafafafafafafafafafafafafafafaeafafafafafafafadaeadadafaeafafafafaeadadadafafafafafafafafafafafafafafafafafafaf",
"afafafafafafafafafafafafafafafafafafafacafafacaeafafafadadadadaeadadadadadaeadafaeaeadadadafafafafafafafafafafafafafafafafafafaf",
"afafafafafafafafafafafafafafafafafafafafafafaeaaaeadadadaeadaaaaaaaaaaaaaaadadaeaeaeadaeadafafafafafafafafafafafafafafafafafafaf",
"afafafafafafafafafafafafafafafafafafafafafafadacaeadaaaaaaaaaeaaacacaeaeacaaaaaaaeaeadaeafafafafafafafafafafafafafafafafafafafaf",
"afafafafafafafafafafafafafafafafafafafafafacadaeaaaaacacaeaeaeacacacaeacaeaeacacaaacadaeafafafafafafafafafafafafafafafafafafafaf",
"afafafafafafafafafafafafafafafafafafafafafadadaaaaaaacaaacacaaacacacacacacaeaeaeacaaadaeafafafafafafafafafafafafafafafafafafafaf",
"afafafafafafafafafafafafafafafafafafafafafaeadaaaaaaaaaaaaaaaaaaaaaaaaaaaaaaaaacaaaeaeaeafafafafafafafafafafafafafafafafafafafaf",
"afafafafafafafafafafafafafafafafafafafafafadadadaaaaaaaaaaaaaaaaaaaaaaaaaaaaaaaaaaaeaeaeafafafafafafafafafafafafafafafafafafafaf",
"afafafafafafafafafafafafafafafafafafafafafaeafadadaaaaaeaeaeaeaeadaeadaeaeaaaaaaaeaeaaaeafafafafafafafafafafafafafafafafafafafaf",
"afafafafafafafafafafafafafafafafafafafafafadafadadacaaaeaeaeaeaeadadadadadaeaeaeaeacaaadafafafafafafafafafafafafafafafafafafafaf",
"afafafafafafafafafafafafafafafafafafafafafaeafafadadaeaeaeaeaeaeadadadadadadadaeaaacaaadafafafafafafafafafafafafafafafafafafafaf",
"afafafafafafafafafafafafafafafafafafafafafaeafafadadacaeaeaeaeadaeaeadadadadadaeaaacaaaeafafafafafafafafafafafafafafafafafafafaf",
"afafafafafafafafafafafafafafafafafafafafafaeafafadadacaeaeaeaeadaeadaeadaeadadaeaaacaaaeafafafafafafafafafafafafafafafafafafafaf",
"afafafafafafafafafafafafafafafafafafafafafaeafafadadaeaeacacaeaeadaeadaaaeacadaeaaacaaaeafafafafafafafafafafafafafafafafafafafaf",
"afafafafafafafafafafafafafafafafafafafafafaeafafaeadadadadadacacaeaeadadaeacadaeaaacaaaeafafafafafafafafafafafafafafafafafafafaf",
"afafafafafafafafafafafafafafafafafafafafafafafafaeaeadadadadadadacacacacacadadaeaaacaaaeafafafafafafafafafafafafafafafafafafafaf",
"afafafafafafafafafafafafafafafafafafafafafafafafacadacaaaaacadadadadacacaeadadadaaacaaaeafafafafafafafafafafafafafafafafafafafaf",
"afafafafafafafafafafafafafafafafafafafafafaeafafaeadacacacacaeadaaadadacaeaeadadaaaeaaaeafafafafafafafafafafafafafafafafafafafaf",
"afafafafafafafafafafafafafafafafafafafafafaeafafadaeadacacacacacadaaaeaeaeaeadadaaacaaadafafafafafafafafafafafafafafafafafafafaf",
"afafafafafafafafafafafafafafafafafafafafafaeafafadadadacacacacacaeaaaeaeacaeadaeaaaaaaadafafafafafafafafafafafafafafafafafafafaf",
"afafafafafafafafafafafafafafafafafafafafafaeaeafafadaeadadadacadadaeaeaeaeaeadadadaaadadafafafafafafafafafafafafafafafafafafafaf",
"afafafafafafafafafafafafafafafafafafafafafaeadafaeadaeadadadadaeaeadadadadadadadadaaadadafafafafafafafafafafafafafafafafafafafaf",
"afafafafafafafafafafafafafafafafafafafafafadacaeaeaeafafaeadadadadadadadadadadadadadadaeafafafafafafafafafafafafafafafafafafafaf",
"afafafafafafafafafafafafafafafafafafafafafaeafaeaeafafafafafaeaeaeaeaeaeafafaaadadadadacafafafafafafafafafafafafafafafafafafafaf",
"afafafafafafafafafafafafafafafafafafafafafafafaeaeafafafafafafafafafafafafafafafaeadaeacafafafafafafafafafafafafafafafafafafafaf",
"afafafafafafafafafafafafafafafafafafafafafafafafafafafafafafafafafafafafafafafafafadaeaeafafafafafafafafafafafafafafafafafafafaf",
"afafafafafafafafafafafafafafafafafafafafafafafaeafafafacacafafafafafafafaeafafafafaeaeaeafafafafafafafafafafafafafafafafafafafaf",
"afafafafafafafafafafafafafafafafafafafaeacafafaeafafafafacafafafafaeacaeafacafafaaaeaeafafafafafafafafafafafafafafafafafafafafaf",
"afafafafafafafafafafafafafafafafafafafafaeafafaeaeafafafafafafaeaeaeacafafafafafaeadaeafafafafafafafafafafafafafafafafafafafafaf",
"afafafafafafafafafafafafafafafafafafaeafafafaeaeaeadaeadadafafafafafafafaeaeadadadadaeafafafafafafafafafafafafafafafafafafafafaf",
"afafafafafafafafafafafafafafafafafafafafaeafaeaeaeadaaaaaeaeadadaeaeaeaeadaeadadadadaeafafafafafafafafafafafafafafafafafafafafaf",
"afafafafafafafafafafafafafafafafafafaeafaeafaeaeadaaacaeadadadaeadaeaeaeaeaeadadadadafafafafafafafafafafafafafafafafafafafafafaf",
"afafafafafafafafafafafafafafafafafafafafafafaeaeacadacaeaeaeaeadadaeaeaeaeadadadadadafafafafafafafafafafafafafafafafafafafafafaf",
"afafafafafafafafafafafafafafafafafafafafafafaeadaeadadadacaeadaeadaeaeaeaeadadadaeadafafafaeafafafafafafafafafafafafafafafafafaf",
"afafafafafafafafafafafafafafafafafafafafafafaeaeaeadadadaeaeaeaeadaeaeaeadadadadaeadafafafafafafafafafafafafafafafafafafafafafaf",
"afafafafafafafafafafafafafafafafafafafafafafaeaaaeaeaeaeaeaeaeaeadaeaeaeaeaeadaeafadafafafafafafafafafafafafafafafafafafafafafaf",
"afafafafafafafafafafafafafafafafafafafafafafaeaaaeafafafafacafafafafafafafafafafafafadadafafafafafafafafafafafafafafafafafafafaf",
"afafafafafafafafafafafafafafafafafafafafafafaeaeafafafaeafafafaeafafafafafafafafafafafaeafafafafafafafafafafafafafafafafafafafaf",
"afafafafafafafafafafafafafafafafafafafafafafafadafafafaeaeaeafafadadadadadaeaeafafafaeafafafafafafafafafafafafafafafafafafafafaf",
"afafafafafafafafafafafafafafafafafafafafafafafaeaeadadaaadaeaeaeaaaeaaaaaeafafafafaeaeafafafafafafafafafafafafafafafafafafafafaf",
"afafafafafafafafafafafafafafafafafafafafafafafafaeaeaeaeafaeaeaeadadaeaeadafafadaeaeafafafafafafafafafafafafafafafafafafafafafaf",
"afafafafafafafafafafafafafafafafafafafafafafafafafafafafafafafaeaeacaeadadaeafafafafafafafafafafafafafafafafafafafafafafafafafaf",
"afafafafafafafafafafafafafafafafafafafafafafafafafafafafafafafafafafafafafafafafafafafafafafafafafafafafafafafafafafafafafafafaf",
"afafafafafafafafafafafafafafafafafafafafafafafafafafafafafafafafafafafafafafafafafafafafafafafafafafafafafafafafafafafafafafafaf",
"afafafafafafafafafafafafafafafafafafafafafafafafafafafafafafafafafafafafafafafafafafafafafafafafafafafafafafafafafafafafafafafaf",
"afafafafafafafafafafafafafafafafafafafafafafafafafafafafafafafafafafafafafafafafafafafafafafafafafafafafafafafafafafafafafafafaf"
};
