/* XPM */
static char *getaway_car_title[] = {
"512 128 11 1",
"  c #0d0d1a",
". c #1a1a2e",
"B c #2563eb",
"G c #e8c547",
"K c #111111",
"R c #dc2626",
"W c #ffffff",
"Y c #e8c547",
"b c #93c5fd",
"r c #fca5a5",
"s c #aaaaaa",
/* pixels */
"                                                                                                                                                                                                                                                                                            s                                                                                                                                                                                                                                   ",
"                                                                                                                  s                                                                                                                                                                                                                                                                                                                                                                                                             ",
"                                                                                                                                                                                                                                                                              s                                                                                                                                                                 s                                                                               ",
"                                                                                                                                                                                                                                                                                                                                                                                                                                                                                                                                ",
"                                                                                                                                                                                                    s                                                                                                                                                                                                                                                                                                                           ",
"                              s                                                                                                                                                                                                                                                                                                                                                                                                                                                                                          s      ",
"                                                                                                                                                                                                                                                                                                                                                        s                                                                                                                                                                       ",
"                                                s                                                                                                                                                                                                                                                                                                                                                                                                                                                                               ",
"                                                                                                                                     YYYYYYYYYYYYYYYYYYYYYYYYYYYYYY      YYYYYYYYYYYYYYYYYYYYYYYYYYYYYY      YYYYYYYYYYYYYYYYYYYYYYYYYYYYYY                  YYYYYY            s     YYYYYY                  YYYYYY                  YYYYYY                  YYYYYY                  YYYYYY                                                                                                                                     ",
"                                                                                                                                     YYYYYYYYYYYYYYYYYYYYYYYYYYYYYY      YYYYYYYYYYYYYYYYYYYYYYYYYYYYYY      YYYYYYYYYYYYYYYYYYYYYYYYYYYYYY                  YYYYYY                  YYYYYY                  YYYYYY                  YYYYYY                  YYYYYY                  YYYYYY                                                                                          s                                          ",
"                                                                                                                                     YYYYYYYYYYYYYYYYYYYYYYYYYYYYYY      YYYYYYYYYYYYYYYYYYYYYYYYYYYYYY      YYYYYYYYYYYYYYYYYYYYYYYYYYYYYY               s  YYYYYY                  YYYYYY                  YYYYYY                  YYYYYY                  YYYYYY                  YYYYYY                                                                                                                                     ",
"                                                                                                                                     YYYYYYYYYYYYYYYYYYYYYYYYYYYYYY      YYYYYYYYYYYYYYYYYYYYYYYYYYYYYY      YYYYYYYYYYYYYYYYYYYYYYYYYYYYYY                  YYYYYY                  YYYYYY                  YYYYYY                  YYYYYY                  YYYYYY                  YYYYYY                                                                                                                                     ",
"                                                                                                                                     YYYYYYYYYYYYYYYYYYYYYYYYYYYYYY      YYYYYYYYYYYYYYYYYYYYYYYYYYYYYY      YYYYYYYYYYYYYYYYYYYYYYYYYYYYYY                  YYYYYY                  YYYYYY                  YYYYYY                  YYYYYY                  YYYYYY                  YYYYYY                                                                                                                                     ",
"                                                                   s                                                                 YYYYYYYYYYYYYYYYYYYYYYYYYYYYYY      YYYYYYYYYYYYYYYYYYYYYYYYYYYYYY      YYYYYYYYYYYYYYYYYYYYYYYYYYYYYY                  YYYYYY                  YYYYYY                  YYYYYY               s  YYYYYY                  YYYYYY                  YYYYYY                                                                                                                                     ",
"                                                         s                       s                                                   YYYYYY                              YYYYYY                                          YYYYYYs                       YYYYYY      YYYYYY            YYYYYY                  YYYYYY            YYYYYY      YYYYYY            YYYYYY                  YYYYYY                                                  s                                                                                  ",
"                                                                                                                                     YYYYYY                              YYYYYY                                          YYYYYY                        YYYYYY      YYYYYY            YYYYYY                  YYYYYY            YYYYYY      YYYYYY            YYYYYY                  YYYYYY                                                                                                                                     ",
"                                                                                                                                     YYYYYY                              YYYYYY                                          YYYYYY                        YYYYYY      YYYYYY            YYYYYY                  YYYYYY            YYYYYY      YYYYYY            YYYYYY                  YYYYYY                                                                                                                                     ",
"                                                                                                                                     YYYYYY                              YYYYYY                                          YYYYYY                        YYYYYY      YYYYYY            YYYYYY                  YYYYYY            YYYYYY      YYYYYY           sYYYYYY                  YYYYYY                               s                                                                                                     ",
"                                                                                                                                     YYYYYY                              YYYYYY                                          YYYYYY          s             YYYYYY      YYYYYY            YYYYYY                  YYYYYY            YYYYYY      YYYYYY            YYYYYY                  YYYYYY                                                                                                                                     ",
"                                                                                                                                     YYYYYY                              YYYYYY                                          YYYYYY                        YYYYYY      YYYYYY            YYYYYY                  YYYYYY            YYYYYY      YYYYYY            YYYYYY                  YYYYYY                                                                                                                                     ",
"                                s                                                                                                    YYYYYY            YYYYYYYYYYYY      YYYYYY                                          YYYYYY s                YYYYYY                  YYYYYY      YYYYYY                  YYYYYY      YYYYYY                  YYYYYY            YYYYYY      YYYYYY                                                                                                                                           ",
"                                                                                                                                     YYYYYY            YYYYYYYYYYYY      YYYYYY                                          YYYYYY                  YYYYYY                  YYYYYY      YYYYYY                  YYYYYY      YYYYYY                  YYYYYY            YYYYYY      YYYYYY                                                                                                                                           ",
"                                                                                                   s                                 YYYYYY            YYYYYYYYYYYY      YYYYYY                                          YYYYYY                  YYYYYY                  YYYYYY      YYYYYY                  YYYYYY      YYYYYY                  YYYYYY            YYYYYY      YYYYYY      s                                                                                                                                    ",
"                                                                                                                                     YYYYYY            YYYYYYYYYYYY      YYYYYY                                          YYYYYY                  YYYYYY                  YYYYYY      YYYYYY                  YYYYYY      YYYYYY                  YYYYYY            YYYYYY      YYYYYY                                   s                                                                                                       ",
"                                                                 s                            s        s                       s     YYYYYY            YYYYYYYYYYYY      YYYYYY                                          YYYYYY                  YYYYYY                  YYYYYY      YYYYYY                  YYYYYY      YYYYYY                  YYYYYY            YYYYYY      YYYYYY                                                                                                    s                                      ",
"                                                                                                                                     YYYYYY            YYYYYYYYYYYY      YYYYYY                                          YYYYYY                  YYYYYY                  YYYYYY      YYYYYY                  YYYYYY      YYYYYY                  YYYYYY            YYYYYY      YYYYYY                                                                                                                                          s",
"                                                                                                                                     YYYYYY                  YYYYYY      YYYYYYYYYYYYYYYYYYYYYYYY                        YYYYYY                  YYYYYY                  YYYYYY      YYYYYY      YYYYYY      YYYYYY      YYYYYY                  YYYYYY                  YYYYYY                                                                                                                                                 ",
"                                                                                                                                     YYYYYY                  YYYYYYs     YYYYYYYYYYYYYYYYYYYYYYYY                        YYYYYY                  YYYYYY                  YYYYYY      YYYYYY      YYYYYY      YYYYYY      YYYYYY                  YYYYYY                  YYYYYY                                                                                                                                                 ",
"                                                                                                                                     YYYYYY                  YYYYYY      YYYYYYYYYYYYYYYYYYYYYYYY                        YYYYYY                  YYYYYY                  YYYYYY      YYYYYY      YYYYYY      YYYYYY      YYYYYY                  YYYYYY                  YYYYYY                                                                                                                                                 ",
"                                                                                                                                     YYYYYY                  YYYYYY      YYYYYYYYYYYYYYYYYYYYYYYY                        YYYYYY                  YYYYYY                  YYYYYY      YYYYYY s    YYYYYY      YYYYYY      YYYYYY                  YYYYYY                  YYYYYY                                                                                                                                                 ",
"                                                                                                                                     YYYYYY                  YYYYYY      YYYYYYYYYYYYYYYYYYYYYYYY                        YYYYYY                  YYYYYY                  YYYYYY      YYYYYY      YYYYYY      YYYYYY      YYYYYY                  YYYYYY                  YYYYYY                                                                                                                                                 ",
"                                                                                                                                     YYYYYY                  YYYYYY      YYYYYYYYYYYYYYYYYYYYYYYY                        YYYYYY                  YYYYYY                  YYYYYY      YYYYYY      YYYYYY      YYYYYY      YYYYYY                  YYYYYY                  YYYYYY                                                                                                                                                 ",
"                                                                                                                                     YYYYYY                  YYYYYY      YYYYYY                                          YYYYYY                  YYYYYYYYYYYYYYYYYYYYYYYYYYYYYY      YYYYYY      YYYYYY      YYYYYY      YYYYYYYYYYYYYYYYYYYYYYYYYYYYYY                  YYYYYY                                                                                                                                                 ",
"                                                                                                                                     YYYYYY                  YYYYYY      YYYYYY                                          YYYYYY                  YYYYYYYYYYYYYYYYYYYYYYYYYYYYYY      YYYYYY      YYYYYY      YYYYYY      YYYYYYYYYYYYYYYYYYYYYYYYYYYYYY                  YYYYYY                                                                                                                                                 ",
"                                                                                                        s                            YYYYYY                  YYYYYY      YYYYYYs                                         YYYYYY                  YYYYYYYYYYYYYYYYYYYYYYYYYYYYYY      YYYYYY      YYYYYY      YYYYYY      YYYYYYYYYYYYYYYYYYYYYYYYYYYYYY                  YYYYYY                                                                                                       s                                         ",
"                           s                                                    s                                                    YYYYYY                  YYYYYY      YYYYYY                                          YYYYYY                  YYYYYYYYYYYYYYYYYYYYYYYYYYYYYY      YYYYYY      YYYYYY      YYYYYY      YYYYYYYYYYYYYYYYYYYYYYYYYYYYYY                  YYYYYY                                                                                                                                                 ",
"                                                                                                                                     YYYYYY                  YYYYYY      YYYYYY                                          YYYYYY                  YYYYYYYYYYYYYYYYYYYYYYYYYYYYYY      YYYYYY      YYYYYY      YYYYYY      YYYYYYYYYYYYYYYYYYYYYYYYYYYYYY                  YYYYYY   s                                                                                                                                             ",
"                                                                                         s                                           YYYYYY                  YYYYYY      YYYYYY                                          YYYYYY                  YYYYYYYYYYYYYYYYYYYYYYYYYYYYYY      YYYYYY      YYYYYY      YYYYYY      YYYYYYYYYYYYYYYYYYYYYYYYYYYYYY                  YYYYYY                                                                       s                    s                                                    ",
"                                                                         s                                                           YYYYYY                  YYYYYY      YYYYYY                                          YYYYYY                  YYYYYY                  YYYYYY      YYYYYYYYYYYY      YYYYYYYYYYYY      YYYYYY                  YYYYYY         s        YYYYYY                                                                                                                                                 ",
"                                                                                                                                     YYYYYY                  YYYYYY      YYYYYY                                          YYYYYY                  YYYYYY                  YYYYYY      YYYYYYYYYYYY      YYYYYYYYYYYY      YYYYYY                  YYYYYY                  YYYYYY                                                                                                                                                 ",
"                                                                                                                                     YYYYYY                 sYYYYYY      YYYYYY                                          YYYYYY                  YYYYYY                  YYYYYY     sYYYYYYYYYYYY      YYYYYYYYYYYY      YYYYYY                  YYYYYY                  YYYYYY                                                                                                                                                 ",
"                                                                                                                                     YYYYYY                  YYYYYY      YYYYYY                            s             YYYYYY                  YYYYYY                  YYYYYY  s   YYYYYYYYYYYY      YYYYYYYYYYYY      YYYYYY                  YYYYYY                  YYYYYY                                                                                                                                                 ",
"                                              s                                                                                      YYYYYY                  YYYYYY      YYYYYY                                       s  YYYYYY                  YYYYYY                  YYYYYY      YYYYYYYYYYYY      YYYYYYYYYYYY      YYYYYY                  YYYYYY                  YYYYYY                                                                                                                                                 ",
"                                                                                                                                     YYYYYY                  YYYYYY      YYYYYY                                          YYYYYY                  YYYYYY                  YYYYYY      YYYYYYYYYYYY      YYYYYYYYYYYY      YYYYYY                  YYYYYY                  YYYYYY                                                                                                                                                 ",
"                                                                                                                                     YYYYYYYYYYYYYYYYYYYYYYYYYYYYYY      YYYYYYYYYYYYYYYYYYYYYYYYYYYYYY                  YYYYYY                  YYYYYY                  YYYYYY      YYYYYY                  YYYYYY      YYYYYY                  YYYYYY                  YYYYYY                                                                                                                                                 ",
"                                                                                                                                     YYYYYYYYYYYYYYYYYYYYYYYYYYYYYY      YYYYYYYYYYYYYYYYYYYYYYYYYYYYYY                  YYYYYY                  YYYYYY                  YYYYYY      YYYYYY                  YYYYYY      YYYYYY                  YYYYYY                  YYYYYY                                                                                                                                                 ",
"                                                                                                                                     YYYYYYYYYYYYYYYYYYYYYYYYYYYYYY      YYYYYYYYYYYYYYYYYYYYYYYYYYYYYY                  YYYYYY                  YYYYYY                  YYYYYY      YYYYYY                  YYYYYY      YYYYYY                  YYYYYY                  YYYYYY                                                                                                                                                 ",
"                                                                                                                                     YYYYYYYYYYYYYYYYYYYYYYYYYYYYYY      YYYYYYYYYYYYYYYYYYYYYYYYYYYYYY                  YYYYYY                  YYYYYY                  YYYYYY      YYYYYY                  YYYYYY      YYYYYY                  YYYYYY                  YYYYYY                                                                                                                                                 ",
"                                                                                                                                     YYYYYYYYYYYYYYYYYYYYYYYYYYYYYY      YYYYYYYYYYYYYYYYYYYYYYYYYYYYYY                  YYYYYY                  YYYYYY                  YYYYYY      YYYYYY                  YYYYYY      YYYYYY                  YYYYYY                  YYYYYY                                                                                                                                                 ",
"                                                                                                                                     YYYYYYYYYYYYYYYYYYYYYYYYYYYYYY      YYYYYYYYYYYYYYYYYYYYYYYYYYYYYY                  YYYYYY                  YYYYYY                  YYYYYY      YYYYYY                  YYYYYY      YYYYYY                  YYYYYY                  YYYYYY                                                                                                                                                 ",
"                                                                                                                                                                                                                                                                                                                                                                                                                                                                                                                                ",
"                                                                                                                                                                                                                                                                                                                                                                                                                                                                                                                                ",
"                                                                                                                                                                                                                                                                                                                                                                                                                                                                                                                                ",
"                                                                                                                                                                                                                                                                                                                                                                                                                                                                                                                                ",
"                                                                                                                                                                                                                                                                                                                                                                                                                                                                                                                                ",
"                                                                                                                                                                                                                                                                                                                                                                                                                                                                                                                                ",
"                                                                                                                                                                                                                                                                                                                                                                                                                                                                                                                                ",
"                                                                                                                                                                                                                                                                                                                                                                                                                                                                                                                                ",
"                                                                                                                                                                                                                         WWWWWWWWWWWWWWW                     WWWWW                WWWWWWWWWWWWWWWWWWWW                                                                                                                                                                                                                          ",
"                                                                                                                                                                                                                         WWWWWWWWWWWWWWW                     WWWWW                WWWWWWWWWWWWWWWWWWWW                                                                                                                                                                                                                          ",
"                                                                                                                                                                                                                         WWWWWWWWWWWWWWW                     WWWWW                WWWWWWWWWWWWWWWWWWWW                                                                                                                                                                                                                          ",
"                                                                                                                                                                                                                         WWWWWWWWWWWWWWW                     WWWWW                WWWWWWWWWWWWWWWWWWWW                                                                                                                                                                                                                          ",
"                                                                                                                                                                                                                         WWWWWWWWWWWWWWW                     WWWWW                WWWWWWWWWWWWWWWWWWWW                                                                                                                                                                                                                          ",
"                                                                                                                                                                                                                    WWWWW               WWWWW           WWWWW     WWWWW           WWWWW               WWWWW                                                                                                                                                                                                                     ",
"                                                                                                                                                                                                                    WWWWW               WWWWW           WWWWW     WWWWW           WWWWW               WWWWW                                                                                                                                                                                                                     ",
"                                                                                                                                                                                                                    WWWWW               WWWWW           WWWWW     WWWWW           WWWWW               WWWWW                                                                                                                                                                                                                     ",
"                                                                                                                                                                                                                    WWWWW               WWWWW           WWWWW     WWWWW           WWWWW               WWWWW                                                                                                                                                                                                                     ",
"                                                                                                                                                                                                                    WWWWW               WWWWW           WWWWW     WWWWW           WWWWW               WWWWW                                                                                                                                                                                                                     ",
"                                                                                                                                                                                                                    WWWWW                          WWWWW               WWWWW      WWWWW               WWWWW                                                                                                                                                                                                                     ",
"                                                                                                                                                                                                                    WWWWW                          WWWWW               WWWWW      WWWWW               WWWWW                                                                                                                                                                                                                     ",
"                                                                                                                                                                                                                    WWWWW                          WWWWW               WWWWW      WWWWW               WWWWW                                                                                                                                                                                                                     ",
"                                                                                                                                                                                                                    WWWWW                          WWWWW               WWWWW      WWWWW               WWWWW                                                                                                                                                                                                                     ",
"                                                                                                                                                                                                                    WWWWW                          WWWWW               WWWWW      WWWWW               WWWWW                                                                                                                                                                                                                     ",
"                                                                                                                                                                                                                    WWWWW                          WWWWW               WWWWW      WWWWWWWWWWWWWWWWWWWW                                                                                                                                                                                                                          ",
"                                                                                                                                                                                                                    WWWWW                          WWWWW               WWWWW      WWWWWWWWWWWWWWWWWWWW                                                                                                                                                                                                                          ",
"                                                                                                                                                                                                                    WWWWW                          WWWWW               WWWWW      WWWWWWWWWWWWWWWWWWWW                                                                                                                                                                                                                          ",
"                                                                                                                                                                                                                    WWWWW                          WWWWW               WWWWW      WWWWWWWWWWWWWWWWWWWW                                                                                                                                                                                                                          ",
"                                                                                                                                                                                                                    WWWWW                          WWWWW               WWWWW      WWWWWWWWWWWWWWWWWWWW                                                                                                                                                                                                                          ",
"                                                                                                                                                                                                                    WWWWW                          WWWWWWWWWWWWWWWWWWWWWWWWW      WWWWW     WWWWW                                                                                                                                                                                                                               ",
"                                        GGGG........................................................................................................................................................................WWWWW..........................WWWWWWWWWWWWWWWWWWWWWWWWW......WWWWW.....WWWWW...................................................................................................................................................................................GGGG                                        ",
"                                        GGGG........................................................................................................................................................................WWWWW..........................WWWWWWWWWWWWWWWWWWWWWWWWW......WWWWW.....WWWWW...................................................................................................................................................................................GGGG                                        ",
"                                        GGGG........................................................................................................................................................................WWWWW..........................WWWWWWWWWWWWWWWWWWWWWWWWW......WWWWW.....WWWWW...................................................................................................................................................................................GGGG                                        ",
"                                        GGGG........................................................................................................................................................................WWWWW..........................WWWWWWWWWWWWWWWWWWWWWWWWW......WWWWW.....WWWWW...................................................................................................................................................................................GGGG                                        ",
"                                        GGGG.....................................BBBBBBBBBBBBBBBBBBBB...............................................................................................................WWWWW...............WWWWW......WWWWW........GG.....WWWWW......WWWWW..........WWWWW...............................................................................RRRRRRRRRRRRRRRRRRRR...........................................................................GGGG                                        ",
"                                        GGGG.....................................BBBBBBBBBBBBBBBBBBBB...............................................................................................................WWWWW...............WWWWW......WWWWW........GG.....WWWWW......WWWWW..........WWWWW...............................................................................RRRRRRRRRRRRRRRRRRRR...........................................................................GGGG                                        ",
"                                        GGGG.....................................BBbbbbbbBBBBbbbbbbBB...............................................................................................................WWWWW...............WWWWW......WWWWW...............WWWWW......WWWWW..........WWWWW...............................................................................RRrrrrrrRRRRrrrrrrRR...........................................................................GGGG                                        ",
"                                        GGGG.....................................BBbbbbbbBBBBbbbbbbBB...............................................................................................................WWWWW...............WWWWW......WWWWW...............WWWWW......WWWWW..........WWWWW...............................................................................RRrrrrrrRRRRrrrrrrRR...........................................................................GGGG                                        ",
"                                        GGGG.....................................BBbbbbbbBBBBbbbbbbBB...............................................................................................................WWWWW...............WWWWW......WWWWW...............WWWWW......WWWWW..........WWWWW...............................................................................RRrrrrrrRRRRrrrrrrRR...........................................................................GGGG                                        ",
"                                        GGGG.....................................BBbbbbbbBBBBbbbbbbBB....................................................................................................................WWWWWWWWWWWWWWW...........WWWWW...............WWWWW......WWWWW...............WWWWW..........................................................................RRrrrrrrRRRRrrrrrrRR...........................................................................GGGG                                        ",
"                                        GGGG.....................................BBbbbbbbBBBBbbbbbbBB....................................................................................................................WWWWWWWWWWWWWWW...........WWWWW........GG.....WWWWW......WWWWW...............WWWWW..........................................................................RRrrrrrrRRRRrrrrrrRR...........................................................................GGGG                                        ",
"                                        GGGG.....................................BBbbbbbbBBBBbbbbbbBB....................................................................................................................WWWWWWWWWWWWWWW...........WWWWW........GG.....WWWWW......WWWWW...............WWWWW..........................................................................RRrrrrrrRRRRrrrrrrRR...........................................................................GGGG                                        ",
"                                        GGGG................................BBBBBBBBBBBBBBBBBBBBBBBBBBBBBB...............................................................................................................WWWWWWWWWWWWWWW...........WWWWW........GG.....WWWWW......WWWWW...............WWWWW.....................................................................RRRRRRRRRRRRRRRRRRRRRRRRRRRRRR......................................................................GGGG                                        ",
"                                        GGGG................................BBBBBBBBBBBBBBBBBBBBBBBBBBBBBB...............................................................................................................WWWWWWWWWWWWWWW...........WWWWW........GG.....WWWWW......WWWWW...............WWWWW.....................................................................RRRRRRRRRRRRRRRRRRRRRRRRRRRRRR......................................................................GGGG                                        ",
"                                        GGGG................................BBBBBBBBBBBBBBBBBBBBBBBBBBBBBB......................................................................................................................................................................................................................................................................RRRRRRRRRRRRRRRRRRRRRRRRRRRRRR......................................................................GGGG                                        ",
"                                        GGGG................................BBBBBBBBBBBBBBBBBBBBBBBBBBBBBB......................................................................................................................................................................................................................................................................RRRRRRRRRRRRRRRRRRRRRRRRRRRRRR......................................................................GGGG                                        ",
"                                        GGGG................................BBBBBBBBBBBBBBBBBBBBBBBBBBBBBB......................................................................................................................................................................................................................................................................RRRRRRRRRRRRRRRRRRRRRRRRRRRRRR......................................................................GGGG                                        ",
"                                        GGGG................................BBBBBBBBBBBBBBBBBBBBBBBBBBBBBB......................................................................................................................................................................................................................................................................RRRRRRRRRRRRRRRRRRRRRRRRRRRRRR......................................................................GGGG                                        ",
"                                        GGGG................................BBBBBBBBBBBBBBBBBBBBBBBBBBBBBB......................................................................................................................................................GG..............................................................................................................RRRRRRRRRRRRRRRRRRRRRRRRRRRRRR......................................................................GGGG                                        ",
"                                        GGGG................................BBBBBBBBBBBBBBBBBBBBBBBBBBBBBB......................................................................................................................................................GG..............................................................................................................RRRRRRRRRRRRRRRRRRRRRRRRRRRRRR......................................................................GGGG                                        ",
"                                        GGGG................................BBBBBBBBBBBBBBBBBBBBBBBBBBBBBB......................................................................................................................................................GG..............................................................................................................RRRRRRRRRRRRRRRRRRRRRRRRRRRRRR......................................................................GGGG                                        ",
"                                        GGGG................................BBBBBBBBBBBBBBBBBBBBBBBBBBBBBB......................................................................................................................................................GG..............................................................................................................RRRRRRRRRRRRRRRRRRRRRRRRRRRRRR......................................................................GGGG                                        ",
"                                        GGGG................................BBBBBBBBBBBBBBBBBBBBBBBBBBBBBB......................................................................................................................................................................................................................................................................RRRRRRRRRRRRRRRRRRRRRRRRRRRRRR......................................................................GGGG                                        ",
"                                        GGGG................................BBBBBBBBBBBBBBBBBBBBBBBBBBBBBB......................................................................................................................................................................................................................................................................RRRRRRRRRRRRRRRRRRRRRRRRRRRRRR......................................................................GGGG                                        ",
"                                        GGGG................................BBBKKKKKKBBBBBBBBBBBBKKKKKKBBB......................................................................................................................................................................................................................................................................RRRKKKKKKRRRRRRRRRRRRKKKKKKRRR......................................................................GGGG                                        ",
"                                        GGGG................................BBBKKKKKKBBBBBBBBBBBBKKKKKKBBB......................................................................................................................................................................................................................................................................RRRKKKKKKRRRRRRRRRRRRKKKKKKRRR......................................................................GGGG                                        ",
"                                        GGGG...................................KKKKKK............KKKKKK.........................................................................................................................................................GG.................................................................................................................KKKKKK............KKKKKK.........................................................................GGGG                                        ",
"                                        GGGG...................................KKKKKK............KKKKKK.........................................................................................................................................................GG.................................................................................................................KKKKKK............KKKKKK.........................................................................GGGG                                        ",
"                                        GGGG...................................KKKKKK............KKKKKK.........................................................................................................................................................GG.................................................................................................................KKKKKK............KKKKKK.........................................................................GGGG                                        ",
"                                        GGGG...................................KKKKKK............KKKKKK.........................................................................................................................................................GG.................................................................................................................KKKKKK............KKKKKK.........................................................................GGGG                                        ",
"                                        GGGG........................................................................................................................................................................................................................................................................................................................................................................................................................................GGGG                                        ",
"                                        GGGG........................................................................................................................................................................................................................................................................................................................................................................................................................................GGGG                                        ",
"                                        GGGG........................................................................................................................................................................................................................................................................................................................................................................................................................................GGGG                                        ",
"                                        GGGG........................................................................................................................................................................................................................................................................................................................................................................................................................................GGGG                                        ",
"                                        GGGG....................................................................................................................................................................................................................GG..................................................................................................................................................................................................................GGGG                                        ",
"                                        GGGG....................................................................................................................................................................................................................GG..................................................................................................................................................................................................................GGGG                                        ",
"                                        GGGG....................................................................................................................................................................................................................GG..................................................................................................................................................................................................................GGGG                                        ",
"                                        GGGG....................................................................................................................................................................................................................GG..................................................................................................................................................................................................................GGGG                                        ",
"                                        GGGG........................................................................................................................................................................................................................................................................................................................................................................................................................................GGGG                                        ",
"                                        GGGG........................................................................................................................................................................................................................................................................................................................................................................................................................................GGGG                                        ",
"                                        GGGG........................................................................................................................................................................................................................................................................................................................................................................................................................................GGGG                                        ",
"                                        GGGG........................................................................................................................................................................................................................................................................................................................................................................................................................................GGGG                                        ",
"                                        GGGG....................................................................................................................................................................................................................GG..................................................................................................................................................................................................................GGGG                                        ",
"                                        GGGG....................................................................................................................................................................................................................GG..................................................................................................................................................................................................................GGGG                                        ",
"                                        GGGG....................................................................................................................................................................................................................GG..................................................................................................................................................................................................................GGGG                                        ",
"                                        GGGG....................................................................................................................................................................................................................GG..................................................................................................................................................................................................................GGGG                                        ",
"                                        GGGG........................................................................................................................................................................................................................................................................................................................................................................................................................................GGGG                                        ",
"                                        GGGG........................................................................................................................................................................................................................................................................................................................................................................................................................................GGGG                                        ",
"                                        GGGG........................................................................................................................................................................................................................................................................................................................................................................................................................................GGGG                                        "
};

