/* XPM */
static char *instructions_button_xpm[] = {
"256 64 5 1",
"  c #0d0d1a",
"B c #1e40af",
"H c #3b82f6",
"D c #1e3a8a",
"T c #ffffff",
/* pixels */
"                                                                                                                                                                                                                                                                ",
"                                                                                                                                                                                                                                                                ",
"                                                                                                                                                                                                                                                                ",
"                                                                                                                                                                                                                                                                ",
"                                                                                                                                                                                                                                                                ",
"                                                                                                                                                                                                                                                                ",
"      HHHHHHHHHHHHHHHHHHHHHHHHHHHHHHHHHHHHHHHHHHHHHHHHHHHHHHHHHHHHHHHHHHHHHHHHHHHHHHHHHHHHHHHHHHHHHHHHHHHHHHHHHHHHHHHHHHHHHHHHHHHHHHHHHHHHHHHHHHHHHHHHHHHHHHHHHHHHHHHHHHHHHHHHHHHHHHHHHHHHHHHHHHHHHHHHHHHHHHHHHHHHHHHHHHHHHHHHHHHHHHHHHHHHHHHHHHHHHHHHHHHHBB    ",
"      HHHHHHHHHHHHHHHHHHHHHHHHHHHHHHHHHHHHHHHHHHHHHHHHHHHHHHHHHHHHHHHHHHHHHHHHHHHHHHHHHHHHHHHHHHHHHHHHHHHHHHHHHHHHHHHHHHHHHHHHHHHHHHHHHHHHHHHHHHHHHHHHHHHHHHHHHHHHHHHHHHHHHHHHHHHHHHHHHHHHHHHHHHHHHHHHHHHHHHHHHHHHHHHHHHHHHHHHHHHHHHHHHHHHHHHHHHHHHHHHHHHHBB    ",
"      HHBBBBBBBBBBBBBBBBBBBBBBBBBBBBBBBBBBBBBBBBBBBBBBBBBBBBBBBBBBBBBBBBBBBBBBBBBBBBBBBBBBBBBBBBBBBBBBBBBBBBBBBBBBBBBBBBBBBBBBBBBBBBBBBBBBBBBBBBBBBBBBBBBBBBBBBBBBBBBBBBBBBBBBBBBBBBBBBBBBBBBBBBBBBBBBBBBBBBBBBBBBBBBBBBBBBBBBBBBBBBBBBBBBBBBBBBBBBBBBBBBBDD    ",
"      HHBBBBBBBBBBBBBBBBBBBBBBBBBBBBBBBBBBBBBBBBBBBBBBBBBBBBBBBBBBBBBBBBBBBBBBBBBBBBBBBBBBBBBBBBBBBBBBBBBBBBBBBBBBBBBBBBBBBBBBBBBBBBBBBBBBBBBBBBBBBBBBBBBBBBBBBBBBBBBBBBBBBBBBBBBBBBBBBBBBBBBBBBBBBBBBBBBBBBBBBBBBBBBBBBBBBBBBBBBBBBBBBBBBBBBBBBBBBBBBBBBBDD    ",
"      HHBBBBBBBBBBBBBBBBBBBBBBBBBBBBBBBBBBBBBBBBBBBBBBBBBBBBBBBBBBBBBBBBBBBBBBBBBBBBBBBBBBBBBBBBBBBBBBBBBBBBBBBBBBBBBBBBBBBBBBBBBBBBBBBBBBBBBBBBBBBBBBBBBBBBBBBBBBBBBBBBBBBBBBBBBBBBBBBBBBBBBBBBBBBBBBBBBBBBBBBBBBBBBBBBBBBBBBBBBBBBBBBBBBBBBBBBBBBBBBBBBBDD    ",
"      HHBBBBBBBBBBBBBBBBBBBBBBBBBBBBBBBBBBBBBBBBBBBBBBBBBBBBBBBBBBBBBBBBBBBBBBBBBBBBBBBBBBBBBBBBBBBBBBBBBBBBBBBBBBBBBBBBBBBBBBBBBBBBBBBBBBBBBBBBBBBBBBBBBBBBBBBBBBBBBBBBBBBBBBBBBBBBBBBBBBBBBBBBBBBBBBBBBBBBBBBBBBBBBBBBBBBBBBBBBBBBBBBBBBBBBBBBBBBBBBBBBBDD    ",
"      HHBBBBBBBBBBBBBBBBBBBBBBBBBBBBBBBBBBBBBBBBBBBBBBBBBBBBBBBBBBBBBBBBBBBBBBBBBBBBBBBBBBBBBBBBBBBBBBBBBBBBBBBBBBBBBBBBBBBBBBBBBBBBBBBBBBBBBBBBBBBBBBBBBBBBBBBBBBBBBBBBBBBBBBBBBBBBBBBBBBBBBBBBBBBBBBBBBBBBBBBBBBBBBBBBBBBBBBBBBBBBBBBBBBBBBBBBBBBBBBBBBBDD    ",
"      HHBBBBBBBBBBBBBBBBBBBBBBBBBBBBBBBBBBBBBBBBBBBBBBBBBBBBBBBBBBBBBBBBBBBBBBBBBBBBBBBBBBBBBBBBBBBBBBBBBBBBBBBBBBBBBBBBBBBBBBBBBBBBBBBBBBBBBBBBBBBBBBBBBBBBBBBBBBBBBBBBBBBBBBBBBBBBBBBBBBBBBBBBBBBBBBBBBBBBBBBBBBBBBBBBBBBBBBBBBBBBBBBBBBBBBBBBBBBBBBBBBBDD    ",
"      HHBBBBBBBBBBBBBBBBBBBBBBBBBBBBBBBBBBBBBBBBBBBBBBBBBBBBBBBBBBBBBBBBBBBBBBBBBBBBBBBBBBBBBBBBBBBBBBBBBBBBBBBBBBBBBBBBBBBBBBBBBBBBBBBBBBBBBBBBBBBBBBBBBBBBBBBBBBBBBBBBBBBBBBBBBBBBBBBBBBBBBBBBBBBBBBBBBBBBBBBBBBBBBBBBBBBBBBBBBBBBBBBBBBBBBBBBBBBBBBBBBBDD    ",
"      HHBBBBBBBBBBBBBBBBBBBBBBBBBBBBBBBBBBBBBBBBBBBBBBBBBBBBBBBBBBBBBBBBBBBBBBBBBBBBBBBBBBBBBBBBBBBBBBBBBBBBBBBBBBBBBBBBBBBBBBBBBBBBBBBBBBBBBBBBBBBBBBBBBBBBBBBBBBBBBBBBBBBBBBBBBBBBBBBBBBBBBBBBBBBBBBBBBBBBBBBBBBBBBBBBBBBBBBBBBBBBBBBBBBBBBBBBBBBBBBBBBBDD    ",
"      HHBBBBBBBBBBBBBBBBBBBBBBBBBBBBBBBBBBBBBBBBBBBBBBBBBBBBBBBBBBBBBBBBBBBBBBBBBBBBBBBBBBBBBBBBBBBBBBBBBBBBBBBBBBBBBBBBBBBBBBBBBBBBBBBBBBBBBBBBBBBBBBBBBBBBBBBBBBBBBBBBBBBBBBBBBBBBBBBBBBBBBBBBBBBBBBBBBBBBBBBBBBBBBBBBBBBBBBBBBBBBBBBBBBBBBBBBBBBBBBBBBBDD    ",
"      HHBBBBBBBBBBBBBBBBBBBBBBBBBBBBBBBBBBBBBBBBBBBBBBBBBBBBBBBBBBBBBBBBBBBBBBBBBBBBBBBBBBBBBBBBBBBBBBBBBBBBBBBBBBBBBBBBBBBBBBBBBBBBBBBBBBBBBBBBBBBBBBBBBBBBBBBBBBBBBBBBBBBBBBBBBBBBBBBBBBBBBBBBBBBBBBBBBBBBBBBBBBBBBBBBBBBBBBBBBBBBBBBBBBBBBBBBBBBBBBBBBBDD    ",
"      HHBBBBBBBBBBBBBBBBBBBBBBBBBBBBBBBBBBBBBBBBBBBBBBBBBBBBBBBBBBBBBBBBBBBBBBBBBBBBBBBBBBBBBBBBBBBBBBBBBBBBBBBBBBBBBBBBBBBBBBBBBBBBBBBBBBBBBBBBBBBBBBBBBBBBBBBBBBBBBBBBBBBBBBBBBBBBBBBBBBBBBBBBBBBBBBBBBBBBBBBBBBBBBBBBBBBBBBBBBBBBBBBBBBBBBBBBBBBBBBBBBBDD    ",
"      HHBBBBBBBBBBBBBBBBBBBBBBBBBBBBBBBBBBBBBBBBBBBBBBBBBBBBBBBBBBBBBBBBBBBBBBBBBBBBBBBBBBBBBBBBBBBBBBBBBBBBBBBBBBBBBBBBBBBBBBBBBBBBBBBBBBBBBBBBBBBBBBBBBBBBBBBBBBBBBBBBBBBBBBBBBBBBBBBBBBBBBBBBBBBBBBBBBBBBBBBBBBBBBBBBBBBBBBBBBBBBBBBBBBBBBBBBBBBBBBBBBBDD    ",
"      HHBBBBBBBBBBBBBBBBBBBBBBBBBBBBBBBBBBBBBBBBBBBBBBBBBBBBBBBBBBBBBBBBBBBBBBBBBBBBBBBBBBBBBBBBBBBBBBBBBBBBBBBBBBBBBBBBBBBBBBBBBBBBBBBBBBBBBBBBBBBBBBBBBBBBBBBBBBBBBBBBBBBBBBBBBBBBBBBBBBBBBBBBBBBBBBBBBBBBBBBBBBBBBBBBBBBBBBBBBBBBBBBBBBBBBBBBBBBBBBBBBBDD    ",
"      HHBBBBBBBBBBBBBBBBBBBBBBBBBBBBBBBTTTBBBBBBBBBTTTBBBBBBTTTTTTTTTBBBBBBTTTBBBBBBBBBTTTBBBBBBBBBBBBTTTTTTTTTTTTTTTBBBBBBTTTTTTTTTBBBBBBBBBBBBBBBTTTTTTTTTTTTBBBBBBTTTBBBBBBBBBBBBBBBBBBTTTTTTTTTBBBBBBTTTBBBBBBBBBTTTBBBBBBBBBBBBBBBBBBBBBBBBBBBBBBBBBBDD    ",
"      HHBBBBBBBBBBBBBBBBBBBBBBBBBBBBBBBTTTBBBBBBBBBTTTBBBBBBTTTTTTTTTBBBBBBTTTBBBBBBBBBTTTBBBBBBBBBBBBTTTTTTTTTTTTTTTBBBBBBTTTTTTTTTBBBBBBBBBBBBBBBTTTTTTTTTTTTBBBBBBTTTBBBBBBBBBBBBBBBBBBTTTTTTTTTBBBBBBTTTBBBBBBBBBTTTBBBBBBBBBBBBBBBBBBBBBBBBBBBBBBBBBBDD    ",
"      HHBBBBBBBBBBBBBBBBBBBBBBBBBBBBBBBTTTBBBBBBBBBTTTBBBBBBTTTTTTTTTBBBBBBTTTBBBBBBBBBTTTBBBBBBBBBBBBTTTTTTTTTTTTTTTBBBBBBTTTTTTTTTBBBBBBBBBBBBBBBTTTTTTTTTTTTBBBBBBTTTBBBBBBBBBBBBBBBBBBTTTTTTTTTBBBBBBTTTBBBBBBBBBTTTBBBBBBBBBBBBBBBBBBBBBBBBBBBBBBBBBBDD    ",
"      HHBBBBBBBBBBBBBBBBBBBBBBBBBBBBBBBTTTBBBBBBBBBTTTBBBTTTBBBBBBBBBTTTBBBTTTBBBBBBBBBTTTBBBBBBBBBBBBBBBBBBTTTBBBBBBBBBTTTBBBBBBBBBTTTBBBBBBBBBBBBTTTBBBBBBBBBTTTBBBTTTBBBBBBBBBBBBBBBTTTBBBBBBBBBTTTBBBTTTBBBBBBBBBTTTBBBBBBBBBBBBBBBBBBBBBBBBBBBBBBBBBBDD    ",
"      HHBBBBBBBBBBBBBBBBBBBBBBBBBBBBBBBTTTBBBBBBBBBTTTBBBTTTBBBBBBBBBTTTBBBTTTBBBBBBBBBTTTBBBBBBBBBBBBBBBBBBTTTBBBBBBBBBTTTBBBBBBBBBTTTBBBBBBBBBBBBTTTBBBBBBBBBTTTBBBTTTBBBBBBBBBBBBBBBTTTBBBBBBBBBTTTBBBTTTBBBBBBBBBTTTBBBBBBBBBBBBBBBBBBBBBBBBBBBBBBBBBBDD    ",
"      HHBBBBBBBBBBBBBBBBBBBBBBBBBBBBBBBTTTBBBBBBBBBTTTBBBTTTBBBBBBBBBTTTBBBTTTBBBBBBBBBTTTBBBBBBBBBBBBBBBBBBTTTBBBBBBBBBTTTBBBBBBBBBTTTBBBBBBBBBBBBTTTBBBBBBBBBTTTBBBTTTBBBBBBBBBBBBBBBTTTBBBBBBBBBTTTBBBTTTBBBBBBBBBTTTBBBBBBBBBBBBBBBBBBBBBBBBBBBBBBBBBBDD    ",
"      HHBBBBBBBBBBBBBBBBBBBBBBBBBBBBBBBTTTBBBBBBBBBTTTBBBTTTBBBBBBBBBTTTBBBTTTBBBBBBBBBTTTBBBBBBBBBBBBBBBBBBTTTBBBBBBBBBTTTBBBBBBBBBTTTBBBBBBBBBBBBTTTBBBBBBBBBTTTBBBTTTBBBBBBBBBBBBBBBTTTBBBBBBBBBTTTBBBBBBTTTBBBTTTBBBBBBBBBBBBBBBBBBBBBBBBBBBBBBBBBBBBBDD    ",
"      HHBBBBBBBBBBBBBBBBBBBBBBBBBBBBBBBTTTBBBBBBBBBTTTBBBTTTBBBBBBBBBTTTBBBTTTBBBBBBBBBTTTBBBBBBBBBBBBBBBBBBTTTBBBBBBBBBTTTBBBBBBBBBTTTBBBBBBBBBBBBTTTBBBBBBBBBTTTBBBTTTBBBBBBBBBBBBBBBTTTBBBBBBBBBTTTBBBBBBTTTBBBTTTBBBBBBBBBBBBBBBBBBBBBBBBBBBBBBBBBBBBBDD    ",
"      HHBBBBBBBBBBBBBBBBBBBBBBBBBBBBBBBTTTBBBBBBBBBTTTBBBTTTBBBBBBBBBTTTBBBTTTBBBBBBBBBTTTBBBBBBBBBBBBBBBBBBTTTBBBBBBBBBTTTBBBBBBBBBTTTBBBBBBBBBBBBTTTBBBBBBBBBTTTBBBTTTBBBBBBBBBBBBBBBTTTBBBBBBBBBTTTBBBBBBTTTBBBTTTBBBBBBBBBBBBBBBBBBBBBBBBBBBBBBBBBBBBBDD    ",
"      HHBBBBBBBBBBBBBBBBBBBBBBBBBBBBBBBTTTTTTTTTTTTTTTBBBTTTBBBBBBBBBTTTBBBTTTBBBTTTBBBTTTBBBBBBBBBBBBBBBBBBTTTBBBBBBBBBTTTBBBBBBBBBTTTBBBBBBBBBBBBTTTTTTTTTTTTBBBBBBTTTBBBBBBBBBBBBBBBTTTTTTTTTTTTTTTBBBBBBBBBTTTBBBBBBBBBBBBBBBBBBBBBBBBBBBBBBBBBBBBBBBBDD    ",
"      HHBBBBBBBBBBBBBBBBBBBBBBBBBBBBBBBTTTTTTTTTTTTTTTBBBTTTBBBBBBBBBTTTBBBTTTBBBTTTBBBTTTBBBBBBBBBBBBBBBBBBTTTBBBBBBBBBTTTBBBBBBBBBTTTBBBBBBBBBBBBTTTTTTTTTTTTBBBBBBTTTBBBBBBBBBBBBBBBTTTTTTTTTTTTTTTBBBBBBBBBTTTBBBBBBBBBBBBBBBBBBBBBBBBBBBBBBBBBBBBBBBBDD    ",
"      HHBBBBBBBBBBBBBBBBBBBBBBBBBBBBBBBTTTTTTTTTTTTTTTBBBTTTBBBBBBBBBTTTBBBTTTBBBTTTBBBTTTBBBBBBBBBBBBBBBBBBTTTBBBBBBBBBTTTBBBBBBBBBTTTBBBBBBBBBBBBTTTTTTTTTTTTBBBBBBTTTBBBBBBBBBBBBBBBTTTTTTTTTTTTTTTBBBBBBBBBTTTBBBBBBBBBBBBBBBBBBBBBBBBBBBBBBBBBBBBBBBBDD    ",
"      HHBBBBBBBBBBBBBBBBBBBBBBBBBBBBBBBTTTBBBBBBBBBTTTBBBTTTBBBBBBBBBTTTBBBTTTBBBTTTBBBTTTBBBBBBBBBBBBBBBBBBTTTBBBBBBBBBTTTBBBBBBBBBTTTBBBBBBBBBBBBTTTBBBBBBBBBBBBBBBTTTBBBBBBBBBBBBBBBTTTBBBBBBBBBTTTBBBBBBBBBTTTBBBBBBBBBBBBBBBBBBBBBBBBBBBBBBBBBBBBBBBBDD    ",
"      HHBBBBBBBBBBBBBBBBBBBBBBBBBBBBBBBTTTBBBBBBBBBTTTBBBTTTBBBBBBBBBTTTBBBTTTBBBTTTBBBTTTBBBBBBBBBBBBBBBBBBTTTBBBBBBBBBTTTBBBBBBBBBTTTBBBBBBBBBBBBTTTBBBBBBBBBBBBBBBTTTBBBBBBBBBBBBBBBTTTBBBBBBBBBTTTBBBBBBBBBTTTBBBBBBBBBBBBBBBBBBBBBBBBBBBBBBBBBBBBBBBBDD    ",
"      HHBBBBBBBBBBBBBBBBBBBBBBBBBBBBBBBTTTBBBBBBBBBTTTBBBTTTBBBBBBBBBTTTBBBTTTBBBTTTBBBTTTBBBBBBBBBBBBBBBBBBTTTBBBBBBBBBTTTBBBBBBBBBTTTBBBBBBBBBBBBTTTBBBBBBBBBBBBBBBTTTBBBBBBBBBBBBBBBTTTBBBBBBBBBTTTBBBBBBBBBTTTBBBBBBBBBBBBBBBBBBBBBBBBBBBBBBBBBBBBBBBBDD    ",
"      HHBBBBBBBBBBBBBBBBBBBBBBBBBBBBBBBTTTBBBBBBBBBTTTBBBTTTBBBBBBBBBTTTBBBTTTTTTBBBTTTTTTBBBBBBBBBBBBBBBBBBTTTBBBBBBBBBTTTBBBBBBBBBTTTBBBBBBBBBBBBTTTBBBBBBBBBBBBBBBTTTBBBBBBBBBBBBBBBTTTBBBBBBBBBTTTBBBBBBBBBTTTBBBBBBBBBBBBBBBBBBBBBBBBBBBBBBBBBBBBBBBBDD    ",
"      HHBBBBBBBBBBBBBBBBBBBBBBBBBBBBBBBTTTBBBBBBBBBTTTBBBTTTBBBBBBBBBTTTBBBTTTTTTBBBTTTTTTBBBBBBBBBBBBBBBBBBTTTBBBBBBBBBTTTBBBBBBBBBTTTBBBBBBBBBBBBTTTBBBBBBBBBBBBBBBTTTBBBBBBBBBBBBBBBTTTBBBBBBBBBTTTBBBBBBBBBTTTBBBBBBBBBBBBBBBBBBBBBBBBBBBBBBBBBBBBBBBBDD    ",
"      HHBBBBBBBBBBBBBBBBBBBBBBBBBBBBBBBTTTBBBBBBBBBTTTBBBTTTBBBBBBBBBTTTBBBTTTTTTBBBTTTTTTBBBBBBBBBBBBBBBBBBTTTBBBBBBBBBTTTBBBBBBBBBTTTBBBBBBBBBBBBTTTBBBBBBBBBBBBBBBTTTBBBBBBBBBBBBBBBTTTBBBBBBBBBTTTBBBBBBBBBTTTBBBBBBBBBBBBBBBBBBBBBBBBBBBBBBBBBBBBBBBBDD    ",
"      HHBBBBBBBBBBBBBBBBBBBBBBBBBBBBBBBTTTBBBBBBBBBTTTBBBBBBTTTTTTTTTBBBBBBTTTBBBBBBBBBTTTBBBBBBBBBBBBBBBBBBTTTBBBBBBBBBBBBTTTTTTTTTBBBBBBBBBBBBBBBTTTBBBBBBBBBBBBBBBTTTTTTTTTTTTTTTBBBBBBBBBBBBBBBBBBBBBBBBBBBTTTBBBBBBBBBBBBBBBBBBBBBBBBBBBBBBBBBBBBBBBBDD    ",
"      HHBBBBBBBBBBBBBBBBBBBBBBBBBBBBBBBTTTBBBBBBBBBTTTBBBBBBTTTTTTTTTBBBBBBTTTBBBBBBBBBTTTBBBBBBBBBBBBBBBBBBTTTBBBBBBBBBBBBTTTTTTTTTBBBBBBBBBBBBBBBTTTBBBBBBBBBBBBBBBTTTTTTTTTTTTTTTBBBBBBBBBBBBBBBBBBBBBBBBBBBTTTBBBBBBBBBBBBBBBBBBBBBBBBBBBBBBBBBBBBBBBBDD    ",
"      HHBBBBBBBBBBBBBBBBBBBBBBBBBBBBBBBTTTBBBBBBBBBTTTBBBBBBTTTTTTTTTBBBBBBTTTBBBBBBBBBTTTBBBBBBBBBBBBBBBBBBTTTBBBBBBBBBBBBTTTTTTTTTBBBBBBBBBBBBBBBTTTBBBBBBBBBBBBBBBTTTTTTTTTTTTTTTBBBBBBBBBBBBBBBBBBBBBBBBBBBTTTBBBBBBBBBBBBBBBBBBBBBBBBBBBBBBBBBBBBBBBBDD    ",
"      HHBBBBBBBBBBBBBBBBBBBBBBBBBBBBBBBBBBBBBBBBBBBBBBBBBBBBBBBBBBBBBBBBBBBBBBBBBBBBBBBBBBBBBBBBBBBBBBBBBBBBBBBBBBBBBBBBBBBBBBBBBBBBBBBBBBBBBBBBBBBBBBBBBBBBBBBBBBBBBBBBBBBBBBBBBBBBBBBBBBBBBBBBBBBBBBBBBBBBBBBBBBBBBBBBBBBBBBBBBBBBBBBBBBBBBBBBBBBBBBBBBBDD    ",
"      HHBBBBBBBBBBBBBBBBBBBBBBBBBBBBBBBBBBBBBBBBBBBBBBBBBBBBBBBBBBBBBBBBBBBBBBBBBBBBBBBBBBBBBBBBBBBBBBBBBBBBBBBBBBBBBBBBBBBBBBBBBBBBBBBBBBBBBBBBBBBBBBBBBBBBBBBBBBBBBBBBBBBBBBBBBBBBBBBBBBBBBBBBBBBBBBBBBBBBBBBBBBBBBBBBBBBBBBBBBBBBBBBBBBBBBBBBBBBBBBBBBBDD    ",
"      HHBBBBBBBBBBBBBBBBBBBBBBBBBBBBBBBBBBBBBBBBBBBBBBBBBBBBBBBBBBBBBBBBBBBBBBBBBBBBBBBBBBBBBBBBBBBBBBBBBBBBBBBBBBBBBBBBBBBBBBBBBBBBBBBBBBBBBBBBBBBBBBBBBBBBBBBBBBBBBBBBBBBBBBBBBBBBBBBBBBBBBBBBBBBBBBBBBBBBBBBBBBBBBBBBBBBBBBBBBBBBBBBBBBBBBBBBBBBBBBBBBBDD    ",
"      HHBBBBBBBBBBBBBBBBBBBBBBBBBBBBBBBBBBBBBBBBBBBBBBBBBBBBBBBBBBBBBBBBBBBBBBBBBBBBBBBBBBBBBBBBBBBBBBBBBBBBBBBBBBBBBBBBBBBBBBBBBBBBBBBBBBBBBBBBBBBBBBBBBBBBBBBBBBBBBBBBBBBBBBBBBBBBBBBBBBBBBBBBBBBBBBBBBBBBBBBBBBBBBBBBBBBBBBBBBBBBBBBBBBBBBBBBBBBBBBBBBBDD    ",
"      HHBBBBBBBBBBBBBBBBBBBBBBBBBBBBBBBBBBBBBBBBBBBBBBBBBBBBBBBBBBBBBBBBBBBBBBBBBBBBBBBBBBBBBBBBBBBBBBBBBBBBBBBBBBBBBBBBBBBBBBBBBBBBBBBBBBBBBBBBBBBBBBBBBBBBBBBBBBBBBBBBBBBBBBBBBBBBBBBBBBBBBBBBBBBBBBBBBBBBBBBBBBBBBBBBBBBBBBBBBBBBBBBBBBBBBBBBBBBBBBBBBBDD    ",
"      HHBBBBBBBBBBBBBBBBBBBBBBBBBBBBBBBBBBBBBBBBBBBBBBBBBBBBBBBBBBBBBBBBBBBBBBBBBBBBBBBBBBBBBBBBBBBBBBBBBBBBBBBBBBBBBBBBBBBBBBBBBBBBBBBBBBBBBBBBBBBBBBBBBBBBBBBBBBBBBBBBBBBBBBBBBBBBBBBBBBBBBBBBBBBBBBBBBBBBBBBBBBBBBBBBBBBBBBBBBBBBBBBBBBBBBBBBBBBBBBBBBBDD    ",
"      HHBBBBBBBBBBBBBBBBBBBBBBBBBBBBBBBBBBBBBBBBBBBBBBBBBBBBBBBBBBBBBBBBBBBBBBBBBBBBBBBBBBBBBBBBBBBBBBBBBBBBBBBBBBBBBBBBBBBBBBBBBBBBBBBBBBBBBBBBBBBBBBBBBBBBBBBBBBBBBBBBBBBBBBBBBBBBBBBBBBBBBBBBBBBBBBBBBBBBBBBBBBBBBBBBBBBBBBBBBBBBBBBBBBBBBBBBBBBBBBBBBBDD    ",
"      HHBBBBBBBBBBBBBBBBBBBBBBBBBBBBBBBBBBBBBBBBBBBBBBBBBBBBBBBBBBBBBBBBBBBBBBBBBBBBBBBBBBBBBBBBBBBBBBBBBBBBBBBBBBBBBBBBBBBBBBBBBBBBBBBBBBBBBBBBBBBBBBBBBBBBBBBBBBBBBBBBBBBBBBBBBBBBBBBBBBBBBBBBBBBBBBBBBBBBBBBBBBBBBBBBBBBBBBBBBBBBBBBBBBBBBBBBBBBBBBBBBBDD    ",
"      HHBBBBBBBBBBBBBBBBBBBBBBBBBBBBBBBBBBBBBBBBBBBBBBBBBBBBBBBBBBBBBBBBBBBBBBBBBBBBBBBBBBBBBBBBBBBBBBBBBBBBBBBBBBBBBBBBBBBBBBBBBBBBBBBBBBBBBBBBBBBBBBBBBBBBBBBBBBBBBBBBBBBBBBBBBBBBBBBBBBBBBBBBBBBBBBBBBBBBBBBBBBBBBBBBBBBBBBBBBBBBBBBBBBBBBBBBBBBBBBBBBBDD    ",
"      HHBBBBBBBBBBBBBBBBBBBBBBBBBBBBBBBBBBBBBBBBBBBBBBBBBBBBBBBBBBBBBBBBBBBBBBBBBBBBBBBBBBBBBBBBBBBBBBBBBBBBBBBBBBBBBBBBBBBBBBBBBBBBBBBBBBBBBBBBBBBBBBBBBBBBBBBBBBBBBBBBBBBBBBBBBBBBBBBBBBBBBBBBBBBBBBBBBBBBBBBBBBBBBBBBBBBBBBBBBBBBBBBBBBBBBBBBBBBBBBBBBBDD    ",
"      HHBBBBBBBBBBBBBBBBBBBBBBBBBBBBBBBBBBBBBBBBBBBBBBBBBBBBBBBBBBBBBBBBBBBBBBBBBBBBBBBBBBBBBBBBBBBBBBBBBBBBBBBBBBBBBBBBBBBBBBBBBBBBBBBBBBBBBBBBBBBBBBBBBBBBBBBBBBBBBBBBBBBBBBBBBBBBBBBBBBBBBBBBBBBBBBBBBBBBBBBBBBBBBBBBBBBBBBBBBBBBBBBBBBBBBBBBBBBBBBBBBBDD    ",
"      HHBBBBBBBBBBBBBBBBBBBBBBBBBBBBBBBBBBBBBBBBBBBBBBBBBBBBBBBBBBBBBBBBBBBBBBBBBBBBBBBBBBBBBBBBBBBBBBBBBBBBBBBBBBBBBBBBBBBBBBBBBBBBBBBBBBBBBBBBBBBBBBBBBBBBBBBBBBBBBBBBBBBBBBBBBBBBBBBBBBBBBBBBBBBBBBBBBBBBBBBBBBBBBBBBBBBBBBBBBBBBBBBBBBBBBBBBBBBBBBBBBBDD    ",
"      HHBBBBBBBBBBBBBBBBBBBBBBBBBBBBBBBBBBBBBBBBBBBBBBBBBBBBBBBBBBBBBBBBBBBBBBBBBBBBBBBBBBBBBBBBBBBBBBBBBBBBBBBBBBBBBBBBBBBBBBBBBBBBBBBBBBBBBBBBBBBBBBBBBBBBBBBBBBBBBBBBBBBBBBBBBBBBBBBBBBBBBBBBBBBBBBBBBBBBBBBBBBBBBBBBBBBBBBBBBBBBBBBBBBBBBBBBBBBBBBBBBBDD    ",
"      HHBBBBBBBBBBBBBBBBBBBBBBBBBBBBBBBBBBBBBBBBBBBBBBBBBBBBBBBBBBBBBBBBBBBBBBBBBBBBBBBBBBBBBBBBBBBBBBBBBBBBBBBBBBBBBBBBBBBBBBBBBBBBBBBBBBBBBBBBBBBBBBBBBBBBBBBBBBBBBBBBBBBBBBBBBBBBBBBBBBBBBBBBBBBBBBBBBBBBBBBBBBBBBBBBBBBBBBBBBBBBBBBBBBBBBBBBBBBBBBBBBBDD    ",
"      BBDDDDDDDDDDDDDDDDDDDDDDDDDDDDDDDDDDDDDDDDDDDDDDDDDDDDDDDDDDDDDDDDDDDDDDDDDDDDDDDDDDDDDDDDDDDDDDDDDDDDDDDDDDDDDDDDDDDDDDDDDDDDDDDDDDDDDDDDDDDDDDDDDDDDDDDDDDDDDDDDDDDDDDDDDDDDDDDDDDDDDDDDDDDDDDDDDDDDDDDDDDDDDDDDDDDDDDDDDDDDDDDDDDDDDDDDDDDDDDDDDDDD    ",
"      BBDDDDDDDDDDDDDDDDDDDDDDDDDDDDDDDDDDDDDDDDDDDDDDDDDDDDDDDDDDDDDDDDDDDDDDDDDDDDDDDDDDDDDDDDDDDDDDDDDDDDDDDDDDDDDDDDDDDDDDDDDDDDDDDDDDDDDDDDDDDDDDDDDDDDDDDDDDDDDDDDDDDDDDDDDDDDDDDDDDDDDDDDDDDDDDDDDDDDDDDDDDDDDDDDDDDDDDDDDDDDDDDDDDDDDDDDDDDDDDDDDDDD    ",
"                                                                                                                                                                                                                                                                ",
"                                                                                                                                                                                                                                                                ",
"                                                                                                                                                                                                                                                                ",
"                                                                                                                                                                                                                                                                ",
"                                                                                                                                                                                                                                                                ",
"                                                                                                                                                                                                                                                                ",
};
