/* XPM */
static char *grass1[] = {
"64 64 6 2",
"aa c #3A7D44",
"ab c #2A6030",
"ac c #4A9A55",
"ad c #1A5C1A",
"ae c #2E7D32",
"af c #4CAF50",
/* pixels */
"acacaaaaaeaeabadadadadadadadababababababababababababaeaaaaacacacacacacaaaaaaaaaaacaaaaaaaaacacafafafacaaaeaeababadadabababaeaaaa",
"acaaaaaaaeaeabadadadadadadabababababababababababababaeaaaaaaacacacacaaaaaaaaaaaaaaaaaaaaaaacacafafafacaaaeaeababadababababaeaaaa",
"aaaaaaaeaeabababadababababababababababababababaeaeaeaeaeaaaaaaaaaaaaaaaeaeaeaeaaaaaaaaaaaaacacacafacacaaaeaeababadabababaeaeaaaa",
"aaaaaeaeababababababababaeaeaeabababababababaeaeaaaeaeaeaeaeaeaeaeaeaeaeaeaeaeaeaeaeaaaaaaacacacacacacaaaeaeababababababaeaeaaaa",
"aaaaaeaeabababababababaeaeaeaeabababababababaeaaaaaaaaaeaeaeaeababababababababababaeaeaaaaaaacacacacacaaaaaeaeababababaeaeaeaeaa",
"aaaaaeaeabababababababaeaeaeaeababababababaeaeaaaaaaaaaeaeaeababababababababababababaeaeaaaaacacacacaaaaaaaeaeaeabaeaeaeaeaeaeaa",
"aaaaaeaeabababababababaeaeaeabababababaeaeaeaaaaaaaaaaaeaeabababadadabababababababababaeaeaaaaaaaaaaaaaaaaaaaaaeaeaeaeaeaeaeaeaa",
"aaaaaeaeababababaeaeaeaeaeaeabababababaeaeaeaaaaaaaaaeaeaeababadadadabababababababababaeaeaaaaaaaaaaaaacacacaaaaaaaaaaaeaeaeaaaa",
"aaaaaaaeabababaeaeaeaeaeaeaeababadababaeaeaaaaaaaaaaaeaeaeababadadadabababababababababaeaeaeaaaaaaaaaaacacacacacaaaaaaaeaeaeaaaa",
"aaaaaeaeabababaeaeaeaeaeaeaeabababababaeaeaaaaaaaaaaaeaeaeabababadababababababababababaeaeaeaaaaaaaaaaaaacaaaaaaaaaaaaaeaeaeaaaa",
"aaaeaeaeabababaeaeaeaeaeaeaeaeabababaeaeaeaeaeaaaaaeaeaeababababababababaeaeaeaeaeaeaeaeaeaeaeaeaeaeaaaaaaaaaaaeaeaeaeaeaeaeaeaa",
"aeaeaeabababaeaeaeaeaeaeaaaeaeaeaeaeaeaeaeaeaeaeaeaeaeabababaeaeaeaeaeaeaeaeaeaeaeaeaeaeaeaeaeaeaeaeaeaeaeaeaeaeabaeaeaaaaaaaeae",
"aeaeababababaeaeaaaaaaaaaaaaaaaeaeaeaeaeaeaeaeaeaeaeababababaeaeaaaaaaaeaeaeaaaaaaaaaaaaaeaeaeaeabaeaeaeaeaeababababaeaeaaaaaeae",
"aeaeaeababaeaeaaaaaaaaaaaaaaaaaaaaaaaaaaaeaeaeababababababaeaeaaaaaaaaaaaaaaaaaaaaaaaaaaaeaeaeaeababaeaeaeabababababaeaeaaaeaeae",
"aeaeaeaeaeaeaeaaaaaaaaaaaaaaaaaaacaaaaaaaaaeababababababaeaeaaaaaaaaaaaaaaaaaaacacaaaaaeaeaeaeaeaeaeaeaeaeababababababaeaeaeaeae",
"aeaeaeaeaaaaaaaaaaaaaeaeaaaaaaacacacacaaaaaeabadadadababaeaeaaaaaaaaaaacacacacacacacaaaeaeaeaeaeaeaeaeaeaeababababababaeaeaeaeae",
"aeaeaeaaaaaaaaaaaeaeaeaeaeaaacacafacacacaaaeabadadadababaeaaaaaaaaaaaaacacacacacacacaaaeaeaeaeaeaeaeaeaeaeababababababaeaeaeaeae",
"aeaeaeaeaaaaaaaaaeaeaeaeaeaaaaacacacacaaaaaeabadadadabaeaeaaaaaaaaaaaaacacacacacacaaaaaeaeaeaeaeaeaeaeaeaeababababababaeaeaeaeae",
"aeaeaeaeaeaeaaaaaaaaaaaaaaaaaaaaaaaaaaaaaeaeabababababaeaeaaaaaaaaaaacacacacaaaaaaaaaaaeaeaeaeaeaeaeaeaeaeaeabababababaeaeaeaeae",
"aeaeaeaeaeaeaeaeaaaaaaaaaaaaaaaaaeaeaeaeaeabababababaeaeaeaaaaaaaaacacacacaaaaaaaaaaaeaeaeaeaeaeaeaeaeaeaeaeaeababababaeaeaeaeae",
"aaaaaeaeaeaeaeaeaeaeaaaaaaaaaeaeaeaeaeababababaeaeaeaeaeaaaaaaacacacacacaaaaaaaeaeaeaeaeaeaeaeaeaeaaaaaaaaaaaeaeaeaeaeaeaeaeaeaa",
"aaaaaaaaaeaeaeaeaeaeaeaaaaaeaeaeababababababababaeaeaeaeaaaaaaacacacacaaaaaaaaaaaeaaaaaaaaaaaaaaaaaaaaaaaaaaaaaeaeaeaeaeaeaaaaaa",
"aaaaaaaaaaaeaeaeaeaeaeaeaeaeaeaeababababadabababababaeaeaaaaaaaaaaaaaaaaaaaaaaaaaaaaaaaaaaaaaaaaaaaaaaacacaaaaaaaaaaaaaaaaaaaaaa",
"aaaaaaaaaaaaaeaeabaeaeaeaeaeaeaeaeababadadadadababababaeaaaaaaaaaaaaaaaaaaaaaaaaacacaaaaaaaaaaacacacacacacacacacacacaaaaaaaaaaaa",
"aaaaacacaaaaaeaeababaeaeaeaeaeaeaeababadadadadadadababaeaaaaaaaaaaaaaaaaaaaaaaacacacacaaaaacacacacacacacacacacacacacacaaaaaaaaaa",
"aaaaacacaaaaaeaeabaeaeaeaeaeaeaeaeababadadadadababababaeaaaaaaaaaaaaaaaaaaaaaaacacacaaaaaaaaacacacacacacacacacacacacaaaaaaaaaaaa",
"aaaaaaaaaaaaaeaeaeaeaeaeaeaeaeaeaeaeababababababababaeaeaeaaaaaaaaaaaaaaaaaaaaacacacaaaaaaaaaaaaaaaaacacacacacacacaaaaaaaaaaaaaa",
"aaaaaaaaaaaaaaaeaeaeaeaeaeaeaeaeaeaeaeaeaeaeaeaeaeaeaeaeaeaeaaaaacacaaaaaaaaaaacacacaaaaaaaaaaaaaaaaaaacaaaaaaaaaaaaaaaaaaaaaaaa",
"aaaaaaaaaaaaaaaaaaaaaaaaaeaeaeaeaeaeaeaeaeaeaeaaaaaaaeaeaeaeaaaaacacaaaaaaaaaaacacacaaaaaaaaaaaaaaaaaaaaaaaaaaaaaaaaaaaaaaaaaaaa",
"aeaaaaaaaaaaaaaaaaaaaaaaaaaeaeaeaeaeaeaeaeaeaaaaaaaaaaaeaeaaaaacacacacaaaaaaaaacacacaaaaaaaaaaaaaaaaaaaaaaaaaaaaaaaaaaaaaaaaaeae",
"aeaeaaaaacacacacacacacacaaaaaaaeaeaeaeaeaeaeaaaaaaaaaaaaaaaaacacacacacacacacacacacacaaaaaaaaaaaaacaaaaaaaaaaaaaaaaaaaeaeaeaeaeae",
"aeaeaaacacacacacacacacacacaaaaaeaeaeaeaeaeaeaaaaacacacacacacacacafafacacacacacacacacaaaaaaaaaaacacacaaaaaaaaaaaaaaaaaeaeaeaeaeae",
"aeaeaaacacafacacacacacacacaaaaaeaeaeaeababaeaaaaacacacacacacacafafafafacacacacacacacaaaaaaaaaaacacacaaaaaaaaaaaaaaaeaeaeaeaeaeae",
"aeaeaaacacacacacacacacacacaaaaaeaeaeaeaeaeaeaaaaacacacacacacacacafacacacacacacaaaaaaaaaaaaaaaaacacacaaaaaaaaaaaaaaaaaeaeaeaeaeae",
"aeaaaaacacacacacaaacacacacaaaaaeaeaeaeaeaeaeaaaaacacacacacacacacacacacacacaaaaaaaaaaaaaeaaaaaaacacacaaaaaaaaaaaaaaaaaaaeaeaeaeae",
"aaaaaaacacacaaaaaaaaaaaaaaaaaeaeaeaeaeaeaeaeaaaaaaaaaaacacacaaaaaaaaaaaaaaaaaaaeaeaeaeaeaeaaaaacacacaaaaaaaaaaaeaeaaaaaaaaaaaaaa",
"aaaaaaacacaaaaaeaeaeaeaaaaaeaeaeaeaeaeaeaeaeaaaaaaaaaaaaaaaaaaaaaeaeaaaaaaaaaeaeabaeaeaeaeaeaaaaaaaaaaaaaeaeaeaeaeaeaaaaaaaaaaaa",
"aaaaaaaaaaaaaeaeabaeaeaeaeaeaeaeababaeaeaeaeaeaaaaaaaaaaaaaaaeaeaeaeaeaeaeaeaeababababababaeaeaaaaaaaeaeaeaeaeaeaeaeaeaaaaaaaaaa",
"aaaaaaaaaaaeaeabababaeaeaeaeaeabababaeaeaeaeaeaeaeaeaeaeaeaeaeaeabaeaeaeaeaeaeabababababababaeaeaeaeaeaeabaeaeaeaeaeaeaaaaaaaaaa",
"aeaaaaaaaeaeabababababaeaeaeababababaeaeaeaeaeababababababababababababaeaeaeabababababababababaeaeaeabababababaeaeaeaeaeaaaaaaaa",
"aeaeaaaeaeaeabababababaeaeaeababababaeaeaaaeaeabababababababababababababaeabababababababadababaeaeaeabababababaeaeaeaeaeaaaaaaae",
"aeaaaaaaaeaeabababababaeaeaeababababaeaeaeaeaeabababababababababababababababababababababababababaeabababababaeaeaeaeaeaaaaaaaaaa",
"aaaaaaaaaeaeabababababaeaeaeaeabababaeaeaeaeaeababababababababababababababaeabababababaeababababababababababaeaeaeaaaaaaaaaaaaaa",
"aaaaaaaaaeaeaeabababaeaeaeaeaeabababaeaeaeaeaeababababababababababababababaeaeaeaeaeaeaeaeaeaeababababaeaeaeaeaaaaaaaaaaacacaaaa",
"aaaaaaaaaeaeaeababaeaeaeaeaeaeabababaeaeaeaeaeababababababababaeaeaeababaeaeaeaeaeaaaaaaaaaaaeabababaeaeaeaeaaaaaaaaaaacacacaaaa",
"aaaaaaaaaeaeaeaeaeaeaeaeaaaeaeaeabaeaeaeaeaeaeababababababababaeaeaeaeaeaeaeaaaaaaaaaaacaaaaaeaeaeaeaeaeaeaeaaaaacacacacacacaaaa",
"aaaaaeaeaeaeaeaeaeaeaeaaaaaaaeaeaeaeaeaeaeaeaeababababababababaeaeaeaeaeaaaaaaacacacacacacacaaaaaeaeaeaeaeaeaaaaacacaaaaaaaaaaaa",
"aeaeaeaeaeaeaeaeaeaeaeaaaaaaaaaaaaaaaaaaaeaeaeabababababababaeaeaeaeaeaaaaacacacacacacafacacacaaaaaaaaaeaeaeaaaaacaaaaaaaaaaaaae",
"aeaeaeaeaeaeaeaeabaeaeaaaaaaaaaaaaaaaaaaaeaeaeabababababababaeaeaeaeaaaaaaacacacacafafafafacacacaaaaaaaeaeaeaaaaacaaaaaaaaaaaeae",
"aeaeaeaeaeaeaeaeabaeaeaeaaaaaaaaaaaaaeaeaeaeaeabababababababaeaeaeaeaaaaaaacacacacacacafacacacaaaaaaaaaeaeaeaaaaacaaaaaaaeaeaeae",
"aeaaaaaaaaaeaeaeaeaeaeaeaeaeaeaeaeaeaeaeaeaeaeabababababaeaeaeaeaaaaaaaaaaaaacacacacacacacacaaaaaaaaaaaaaaaaaaacacaaaaaeaeaeaeae",
"aaaaaaaaaaaaaeaeaeaeaeaeaeabababababaeaeaeaeababababaeaeaeaeaaaaaaaaaaaaaaaaacacacacacaaaaaaaaaaaaaaaaaaacacacacacaaaaaeaeaeaeae",
"aeaaaaaaaaaaaaaeaeaeaeaeabababababababaeaeaeababababaeaeaaaaaaaaaaaaaaaaaaaaaaacacacaaaaaaaaaaaaaaaaaaacacacacacacacaaaeaeaeaeae",
"aeaeaeaaaaaaaaaeaeaeaeaeaeabababababababaeaeaeaeabaeaeaeaaaaacacacacaaaaaaaaaaaaacaaaaaaaaaaaaaaaaaaaaacacacacacacacaaaeaeaeaeae",
"aeaeaeaeaaaaaaaeaeaeaeaeaeaeabababababababaeaeaeaeaeaeaaaaaaacacacacacaaaaaaaaaaaaaaaaaaaaaaaaaaaaaaaaaaaaacacacacacaaaeaeaeaeae",
"abababaeaeaeaeaeaeaeaaaaaaaeaeabababababababaeaeaeaeaaaaaaacacacacacacaaaaaaaeaeaeaaaaaaacaaaaaaaaaaaaaaaaaaacacacacaaaaaeaeaeab",
"ababababaeaeaeaeaeaaaaaaaaaeaeaeababababababaeaeaaaaaaaaaaacacacacacacaaaaaeaeaeaeaeaaaaacacacacacaaaaaaaaaaacacacacaaaaaeaeaeab",
"ababababaeaeaeaeaeaeaaaaaaaeaeaeaeababababaeaeaeaaaaaaaaaaacacacacacacaaaaaaaeaeaeaaaaacacacacaaaaaaaaaaaaaaaaacacaaaaaaaeaeaeab",
"ababababaeaeaeaeaeaeaaaaaaaeaeaeaeaeaeaeaeaeaeaeaaaaaaaaaaaaacacacacaaaaaaaaaaaaaaaaaaacacacacaaaaaaaaaaaaaaaaaaaaaaaaaaaaaeaeab",
"abababababaeaeaeaeaeaeaaaaaeaeaeaeaeaeaeaeaeaeaaaaaaaeaeaeaaaaacacacaaaaaaaaaaaaaaacacacacacacaaaaaaaaaaaaaaaeaeaeaeaaaaaaaaaeab",
"abababababababaeaeaeaeaeaaaeaeaeaeaeaeaeaeaeaeaaaaaeaeaeaeaaaaaaaaaaaaaaaaaaaaacacacacacacacacaaaaaaaaaaaaaaaeaeabaeaeaaaaaaaeae",
"aeaeaeaeababababababaeaeaeaeaeaeaeaeaeaeaeaeaeaeaeaeaeaeaeaaaaaaaaaaaaaaaaaaaaacacacacacacacacacacacaaaaaaaeaeabababaeaeaaaaaeae",
"aaaaaeaeaeabababababababababaeaeaeaeaeaeaeaeaeaeaeaeaeaeaaaaaaacacacaaaaaaaaaaaaacacacacacacacacacacacaaaaaeabababababaeaeaeaaaa",
"aaaaaaaaaeaeabadadadadadadabababababababababababababaeaaaaaaacacacacaaaaaaaaaaaaacacaaaaacacacafafacacaaaeaeababadabababaeaeaaaa"
};
