/* XPM */
static char *grass[] = {
"64 64 6 2",
"aa c #3A7D44",
"ab c #2A6030",
"ac c #4A9A55",
"ad c #1A5C1A",
"ae c #2E7D32",
"af c #4CAF50",
/* pixels */
"adadadadadadadadadadadadadadadadadadadadadadadadadadadadadadadadadadadadadadadadadadadadadadadadadadadadadadadadadadadadadadadad",
"aaaaaaaaaaaaaaaaaaaaaaaaaaacacaaacacacacacaaaaaaaaaaacababababaaabaaacacaaababaaababaaacacababababababababababababababababababad",
"aaaaaaaaaaaaaaaaaaacacacacacacacacacacacacacacacacacacacadaeadaaaaacaaaaaaaaaaaaaaacaeaaaaaaaeaaaaaaaaaaababababababababaaaaacad",
"aaaaaaaaacaaacacaaaaacacaaacacacacacacacaaaaacaaacaaacacaeababaaaaaaacaeacaeacaaaaaaacabaeaaabaeaaacaaaaababababababababaaaaacad",
"aaaaaaaaaaaeaaacaaacacacaaacacaaacacacacacacacacacacaaacaaababaaaaaaaaaaaeaaaaaaacaaabadadaaadaaaaaaabaaababababababababaaaaabad",
"aaaeaaaaaaaaaeaaacafafafacaaacacaaaeaaaaacacaaacaaacaeacaeaeabaeaaaaaaaaadababaaaaaeadabacaeaaaeaaaaabaaaaaaabaeababababaaacabad",
"aaaeacacaaafaeacafafaaafafacacaaacacacacacacaeacaeababababadababaaadaaaeaaababadacacadababaeacaeaaaaaeaeaaaaabababaeabadabaaabad",
"aeaeacacaaafaeacafafaeafafaeaaacacaaacaaacacabacababababababababaaababaaabaeadaeacacaaaeabadaaaaaeaaaaabaaaaabababababaeabababad",
"aaaeacacaaaaaeaaafaeafaeaeafaeacacaeacabacacabacadaeabadaaaeababababaaafababacadabacacaaaaaeaaaaaeaeaaabaaaaadaeabababababababad",
"aaafaeaaacacacacafaaafafafafaeadadadaaaeacacacababacaaaeabaeacacacaaadabacaaadabaaacaeaeacaeaaadaeaeaaabababafadabababaeabababad",
"aaafaeaeacaeadadafafaeaaafaeacacacacababacacaeadabababacacacacacacadacacabadababaaaeabaeaaaaaaabadadababababaeafabababababababad",
"afaaaaaaacacacaaadafaaaeabafabaaaaababaaababadaeaaaaaaacacacaaaaacabacaaacacacacaeabaaababaaaaaaabaeababadabadafabababababababad",
"afafaaaaacacaeacadacaaadabafabacaaabaeaaaeabababaaaaaaacacaeaeacaaaeacacacaaacabababacababaaaaaaabadababaaababafabababababababad",
"afafaeacaaacacacaeaaadaeadaeabababababadaeababaaaaafafaaafacacabaeaeadadacaaaeababaaaaababaeaaabaaaaaaadabaeadaeaeababababababad",
"afafadaeacaaacaaacaaafaeadaeabadabaeafafabadabaaacacafaaacaeaeadacacaeadaaaeaeaaaeaaaaababadaeabaaaaadacababaeadaaaeabababababad",
"afadacaaacadacacadaeafacaaabadaaaaadafaeafafabababadaeaeaeadaeacacadaaacadadacaeaaaaaaababababaaaaaaacabaaacadaeaaababaaaaababad",
"aeacaeacacadaaacaaabaaaaaaabaaaaadaeafafaaadaeababababacabaaaaaeacaeacacabaeaaaaaaaaaaadababaeabaaafaeaaaaaeaaabaaaeadaaacaaaaad",
"aaadacacacaeabaaaaababaeaaadafadaeafafaeaeadababaeababababaaaaaeaaacacaaaaababaaaaaaacaaaaaeaeabaaafadaeaaaaacabaaaaaaaaacaaaaad",
"aaaeaeadacabababaaabaaacaaacacadaaafaeaaaaacabacadaeaaadabaaaaabacacacacacabaaaaaaaeaeaaaaaaaaaaaeafaeaaaaafacaaabaaaaabacaeabad",
"aaaaaaabaaabababaaadaeababaaadaaaaaaadaaadababafababaeadabababaaaaaaaaacacadacaaaaadaeaaaaaaaaaaaaaaafaaafafacacacadaeaaacadabad",
"aaaaaaaaaeadaaabacaeaaadaeadabaaaaabaaaeaeadaaabaaaaabaeaaaaaaaaaeacadabacaeaaaaacabaaaaaaacaaaaaaaeacafacacaeacacacaaaaacacacad",
"aeaaaeaaadaeacadacadaaababaeabaaacabaaababaeafadaaaaabaaaaaaaaaaadacabadacabaeacaaadaaaeaeacaaaaaaaeaaafafaaafaaacaaaaafaaacacad",
"abaeacaaaeaaababaeadabababacaaacababaaacabadafabaaadadaaaeadabaaaaaeadabaaacaaadaeadaaacacaaaeaeaeaaaeafafafafacaaacacaaaaacacad",
"acabadaaaaababababaaabaaacababababaeaaaaaaaeafadaaaaafafaaafafafababaaaaababababacacacafafaeaaaeaeaeafacafafaaaaacacacaeacacacad",
"aaaaaaabababaeaaaaabababadababababababaaaaaaaaacadacafaeafaeaaadabaaababadabaeaaacaaacacaaaaafaeaeaeafafacaaafacacaaacacacacacad",
"abaaacaaaaadaeabababadaeabababababababaaaeaaaaaeaaaeafacacaaaaaeabaaadaeabababaaacacaaafafafacaaaaaaafacafafacaaaaacacaaacacacad",
"aeacaaaaaeaeabadadaeadabaeadaeacacababaaaaaaaeaeaeaeafaaafaeaeaaaeaeaeadacabacacaaacaaafafafacafaeaaafaaafafacacaaaeaaacacacacad",
"aeaaaaaaaaafadaeafadadafafabacacacacacadaaaaafaaaaaeaeafaaaeaaaeaaafaeacaaacaaacacacaaacaeafafafacafacaeaeadaaaaaaadaeacaaaaacad",
"acaaaeadaaafaaacaaafafafafaeacacacacadafaeaaafafafaaaeafaeaaacacaaafacacacacacaaacacaaaaaaafafacaeacacafafacacaeaeabadaaaaaaaaad",
"aeafaeaeacafacaaafafafafafafacaaaaadafafaeaaafaaafafafadaeafafafaeafacacacacacacaaacacacafaaacaaacacacacacaaadabadababaaaaaaaaad",
"aaafaeaeaeafacacaeafafafafafaeacacadafafaeaaaeaaacafafaeadafafafaaafacacacaaaaacaaacaaafafaeacacaeaaacacaaaeadababababaaaeaaaaad",
"aeafacaeacafafacacaaafaeaeafaeaaaeafafaeaeaeaaaeadacafaeafafafafaaafacaaacacacacacaaaeafafaeafaaacaaaaacaeadaaabaaaaadaeaaaaabad",
"aeacaeaaafacaaacaaafaaafafadaaaaacacaaafaeaeaeadaaafaeaaaaafafacacafacaaaaacacacaaacaaaeaaafafafafafadacafafabaaaaaaaaaeaaaaabad",
"aaafaaacacaaacaaafaeaeafafafadacacadacafaeaaacacacaaaaacacaeacaeaeaeafafacaaacacacacaeacaeafaeafafafafadaeacaeadaaaaaaadabaaabad",
"afafafaeaaacacacaeacacadaeacaeaaaaaeaaafaaaeacacaaacacaaacaaacaeafaeafafacacaaaaacaaaeafaaafadafaaaeafabacaeaaaaaeaaaaababababad",
"afafafafaaaaaaacacacacababafabacaaabaaafacaeafadacacacaaaaacacaeacaeafafacacacacacacadacafafaeaaaaadafadaaaeaaacadaeaaababababad",
"afafafafafaaacacacaaadabadabaeaaaeadafacafafafadafadadacaaaeaaaaaeaaaeaaaaacacacaaacacacaaaeadaaaaaeacadaaaaaeaeababaeababababad",
"afacacacaaafaaaaacabacabababababadaeacadafafabaaafafafaeaaaaaaaeafafaeaaacacacacacaaacaeadaaaeaaabadaeabaaaaadaeaeadababababaaad",
"acafaaaeacaeacadacaeadabababababababacadaeabaeaeabaaafadaaaeaeafaeacaaaaaaaeaaacacaeacabadaeaaaaabababadabaeababaeababaeaaaaaaad",
"aaacaeaaacacaaaeababababaeabababababacaeadabacadabaaafaeadaaaaaaabaaaaaaaaadacacacadaaabababaaabababababababababaaaeababaaaaaaad",
"adacaaaaaaacadaeaeababababababababaaacadaeabaaabaeaeaaadabafafabababaaaaacaaacacabaaaaabababaaabababababababababaaadabaaabaaabad",
"aeaaaaaaacabaeadaaaaabaeabababababaaabaaababaaadabaaaaadaeacafabacaeaeacadacaaacafadaaaaaaaaaeabababaeababababaaaeaaacadacababad",
"adaaabadacabadaaaaaaababadabababaeabaaaaabadaeaeaaacaeaaafafafababafaeaeadacadabafaaababaaaeabababaeabadababadafafaaaaacabacacad",
"aaabaaaaacadabadaaacaaabaeabaeaeadaeababababacadaaaaaaafafaeaeadaeadafafadadadaeafadaeadadabababadadabaeababaeacabaeaaacaaacacad",
"aaabaaabacacaeababaaaeabaeadabadababadaeadaeacaeacaaaaacacabadabadaeafafaeaeadabafabadabababaeababaaadabababaeacadadacaaacaaacad",
"aaababadabacabadabafaaaaaeaeabaeabababadacaaadacaaaaaaaeabababaeafaaafafafadacaeabacabaeabadaeaaacaaaaabaeadafaaacacaaacaaacacad",
"afaeababacabaeababafaaaaaeaaaeaeaaabaeaeacacacadafacaeaeaeaaaaadafafafafadaaaeacaaabababadacaaaeaaafaaafaeacaaaaaaaaacacacacacad",
"abacaeabaaadaeadabafaaaaaaaaaaaaaaaeacacaaacadaaaaaeabacaeaaaaaaadafafafafaaaaaeaaaaabaaaaacabaaacacafacacaeacacaaacacaaacacacad",
"acafaaaaacaeadababafaeaaaaaaaaaaaaaeacaaaaacadaaaaaeaaaaaeaaaeaeaeafaeafafaeaaaeaaaeabaaaaacabaaacacafaeaaaeaaacaaacaaaaacacacad",
"aaaaacacaaacaeadaeafafaaaeaaaeacaeaaaaacacaeaaaaaaaaacaeaaaaaaafafafaeaaafacaeaaacadadaaaaaeaeacacacafacadadacaaacaaacacacaaacad",
"acacaaacacaaacadadafaeaeaaafaaaeaeacadaaabadaaaaaaaaaeaaabafafafafaeafafafafababacaeacaaaaaeaaabacafacacadadacacacacacacacacacad",
"acacacaaacacaaacafacaaafafaeafaeaeacacafacacaaaeaaaaaaaaaaabadafaaafaeaaacababadacadaaabababaaaeaeacaaadafafadacaeadadaeaaababad",
"acacacaaacaeafafaaacaaacaeafaeafafaaafaaacacafaaaaacaaaeaaaeadaeadafadaeacadacacacabacabababababadacaeacafafaeacadaeabaeabababad",
"acacaaacaaaeafafacaaacaaacaaacafafafafaaacacafaeaaaaaaacadadaeaaabaaaeadaeaeaaaaaaaeaaadabadabadabacaeafafafadacaeabadaeabababad",
"acadacacacacaaaaaeafacaaacacacafafafaaacaaacacaaaaacaaadaeababadadacadaeacacacacacadadaaacaeafafafacadadafafacacababaeadaeacacad",
"acadababacaaabaaafaaacacacaaaaafafaaacaaacacacafaaaeabaaababababacaaacacaaacaeadacaaaaafafadafadaeadafadafafacabaeaaacabaaababad",
"aaaeaaaaacababaaaaafaaacacaaacacacacacacafafafaaaaaaaaabaaabababacabacaaacabaeabaaaeafabadabaaadadafafafafaaacaeaaaeacacadababad",
"adadababacadabaeaaafaeacacacacaeaeaeaaaeacacafaeaaabababaaababaeacababacaeabaeaaababababababadaeaeafafaeaeaeaaacadacacaaadaeabad",
"adabaeabaaabaeadabacaaacaaacaaaeaeaeaaaeacacafaaaaadabaeaaababaeaaadadacadabaaacadacaeadabaaadaaaaaaafadadadacacaeaaacaaabacacad",
"adaeabadaeababadadaaacaaaeacacacaaaeaaaeaaacafaeaaaeaaaaaaaaaaaeaaadaeabaaaeaaadaeadaaaeabaaabaaaaaaaeaaaeacacacacaaacacaaacacad",
"abaeabababababababaaaaaeaeacaaacacacacacacacafaaaeaeaaaaaeaaaaaeabaaaaacabaaababaeaaacadadaaabaaaaabaaaaaaaaacacacacacaaacaaacad",
"acababababababababacacaaaaacacacacacaaacacacacaaaaaaaaaaaaaaaaacaaacacaaacacababaaacaaababacacaaacabaaaaaaaaaaacacacacaaacacacad",
"aaababaaabababababacacacacacacacacacacacacacacaaaaaaaaaaaaaaaaacacacacaaaaaaababadacacababaaaaacacabacaaacaaacacacaaacacacacaaad",
"adadadadadadadadadadadadadadadadadadadadadadadadadadadadadadadadadadadadadadadadadadadadadadadadadadadadadadadadadadadadadadadad"
};

