/* XPM */
static char *tree[] = {
"64 64 9 2",
"aa c #000000",
"ab c #3A7D44",
"ac c #2A6030",
"ad c #4A9A55",
"ae c #1A5C1A",
"af c #2E7D32",
"ag c #4CAF50",
"ah c #5D4037",
"ai c #FF00FF",
/* pixels */
"aiaiaiaiaiaiaiaiaiaiaiaiaiaiaiaiaiaiaiaiaiaiaiaiaiaiaiaiaiaiaiaiaiaiaiaiaiaiaiaiaiaiaiaiaiaiaiaiaiaiaiaiaiaiaiaiaiaiaiaiaiaiaiai",
"aiaiaiaiaiaiaiaiaiaiaiaiaiaiaiaiaiaiaiaiaiaiaiaiaiaiaiaiaiaiaiaiaiaiaiaiaiaiaiaiaiaiaiaiaiaiaiaiaiaiaiaiaiaiaiaiaiaiaiaiaiaiaiai",
"aiaiaiaiaiaiaiaiaiaiaiaiaiaiaiaiaiaiaiaiaiaiaiaiaiaiaiaiaiaiaiaiaiaiaiaiaiaiaiaiaiaiaiaiaiaiaiaiaiaiaiaiaiaiaiaiaiaiaiaiaiaiaiai",
"aiaiaiaiaiaiaiaiaiaiaiaiaiaiaiaiaiaiaiaiaiaiaiaiaiaiaiaiaiaiaiaiaiaiaiaiaiaiaiaiaiaiaiaiaiaiaiaiaiaiaiaiaiaiaiaiaiaiaiaiaiaiaiai",
"aiaiaiaiaiaiaiaiaiaiaiaiaiaiaiaiaiaiaiaiaiaiaiaiaiaiaiaiaiaiaiaiaiaiaiaiaiaiaiaiaiaiaiaiaiaiaiaiaiaiaiaiaiaiaiaiaiaiaiaiaiaiaiai",
"aiaiaiaiaiaiaiaiaiaiaiaiaiaiaiaiaiaiaiaiaiaiaiaiaiaiaiaiaiaiaiaiaiaiaiaiaiaiaiaiaiaiaiaiaiaiaiaiaiaiaiaiaiaiaiaiaiaiaiaiaiaiaiai",
"aiaiaiaiaiaiaiaiaiaiaiaiaiaiaiaiaiaiaiaiaiaiaiaiaiaiaiaiaiaiaiaiaiaiaiaiaiaiaiaiaiaiaiaiaiaiaiaiaiaiaiaiaiaiaiaiaiaiaiaiaiaiaiai",
"aiaiaiaiaiaiaiaiaiaiaiaiaiaiaiaiaiaiaiaiaiaiaiaiaiaiaiaiaiaiaiaiaiaiaiaiaiaiaiaiaiaiaiaiaiaiaiaiaiaiaiaiaiaiaiaiaiaiaiaiaiaiaiai",
"aiaiaiaiaiaiaiaiaiaiaiaiaiaiaiaiaiaiaiaiaiaiaiaiaiaiaiaiaiaiaiaiaiaiaiaiaiaiaiaiaiaiaiaiaiaiaiaiaiaiaiaiaiaiaiaiaiaiaiaiaiaiaiai",
"aiaiaiaiaiaiaiaiaiaiaiaiaiaiaiaiaiaiaiaiaiaiaiaiaiaiaiaiaiaiaiaiaiaiaiaiaiaiaiaiaiaiaiaiaiaiaiaiaiaiaiaiaiaiaiaiaiaiaiaiaiaiaiai",
"aiaiaiaiaiaiaiaiaiaiaiaiaiaiaiaiaiaiaiaiaiaiaiaiaiaiaiaiaiaiaiaiaiaiaiaiaiaiaiaiaiaiaiaiaiaiaiaiaiaiaiaiaiaiaiaiaiaiaiaiaiaiaiai",
"aiaiaiaiaiaiaiaiaiaiaiaiaiaiaiaiaiaiaiaiaiaiaiaiaiaiaiaiaiaiaiaiaiaiaiaiaiaiaiaiaiaiaiaiaiaiaiaiaiaiaiaiaiaiaiaiaiaiaiaiaiaiaiai",
"aiaiaiaiaiaiaiaiaiaiaiaiaiaiaiaiaiaiaiaiaiaiaiaiaiaiaiaiaiadadadadadaiaiaiaiaiaiaiaiaiaiaiaiaiaiaiaiaiaiaiaiaiaiaiaiaiaiaiaiaiai",
"aiaiaiaiaiaiaiaiaiaiaiaiaiaiaiaiaiaiaiaiaiaiaiaiaiaiaiadadadadadadadadadababaiaiaiaiaiaiaiaiaiaiaiaiaiaiaiaiaiaiaiaiaiaiaiaiaiai",
"aiaiaiaiaiaiaiaiaiaiaiaiaiaiaiaiaiaiaiaiaiaiaiaiaiaiababadadadadadadadabadadababacaiaiaiaiaiaiaiaiaiaiaiaiaiaiaiaiaiaiaiaiaiaiai",
"aiaiaiaiaiaiaiaiaiaiaiaiaiaiaiaiaiaiaiaiaiaiaiababababadabadadadadadadafadadadadabaeaiaiaiaiaiaiaiaiaiaiaiaiaiaiaiaiaiaiaiaiaiai",
"aiaiaiaiaiaiaiaiaiaiaiaiaiaiaiaiaiaiaiaiaiabababababadadadadadadadadadadafadadadabacacaiaiaiaiaiaiaiaiaiaiaiaiaiaiaiaiaiaiaiaiai",
"aiaiaiaiaiaiaiaiaiaiaiaiaiaiaiaiaiaiaiaiabadababadadadagadadadadadadadadagafadadafaeacacaiaiaiaiaiaiaiaiaiaiaiaiaiaiaiaiaiaiaiai",
"aiaiaiaiaiaiaiaiaiaiaiaiaiaiaiaiaiaiaiaiabadadabadagabadadadagadadadadadaeadadadadabaeacahaiaiaiaiaiaiaiaiaiaiaiaiaiaiaiaiaiaiai",
"aiaiaiaiaiaiaiaiaiaiaiaiaiaiaiaiaiaiaiababadadafadadacadagadadadadadadadafadadadadababaeacaiaiaiaiaiaiaiaiaiaiaiaiaiaiaiaiaiaiai",
"aiaiaiaiaiaiaiaiaiaiaiaiaiaiaiaiaiaiaiabacabadaeafagadafaeadadadadadadacaeadadadabababaeacacaiaiaiaiaiaiaiaiaiaiaiaiaiaiaiaiaiai",
"aiaiaiaiaiaiaiaiaiaiaiaiaiaiaiaiaiaiababacacacadadadadadadadabadadadadacadacadacacabaeaeacacaiaiaiaiaiaiaiaiaiaiaiaiaiaiaiaiaiai",
"aiaiaiaiaiaiaiaiaiaiaiaiaiaiaiaiaiadababacadadadadadadadadadabadadadacabadacaeabababaeaeacacacaiaiaiaiaiaiaiaiaiaiaiaiaiaiaiaiai",
"aiaiaiaiaiaiaiaiaiaiaiaiaiaiaiaiaiabadabababababadadadadadadabababadafafababacaeaeaeaeacaeacacacaiaiaiaiaiaiaiaiaiaiaiaiaiaiaiai",
"aiaiaiaiaiaiaiaiaiaiaiaiaiaiaiaiaeabababacabaeababadababafabababababacabacabacacaeaeaeacaeacacacaiaiaiaiaiaiaiaiaiaiaiaiaiaiaiai",
"aiaiaiaiaiaiaiaiaiaiaiaiaiaiaiaiacabaeababababafacabadabadababababababaeababacaeaeaeaeaeaeaeacaeaiaiaiaiaiaiaiaiaiaiaiaiaiaiaiai",
"aiaiaiaiaiaiaiaiaiaiaiaiaiaiaiababaeabababaeabababadababacadaeababababaeaeaeaeabababacacaeaeacacaiaiaiaiaiaiaiaiaiaiaiaiaiaiaiai",
"aiaiaiaiaiaiaiaiaiaiaiaiaiaiaiababaeacababaeabababacabababababaeabababaeaeaeacabadabaeaeaeaeaeaeacaiaiaiaiaiaiaiaiaiaiaiaiaiaiai",
"aiaiaiaiaiaiaiaiaiaiaiaiaiaiahababaeacaeababaaabababaeaeababababababababacabacababacacaeacacaeacahaiaiaiaiaiaiaiaiaiaiaiaiaiaiai",
"aiaiaiaiaiaiaiaiaiaiaiaiaiaiabababaeacabacababaeabababaeababababababababacacacababacaeaeacacaeaeahaiaiaiaiaiaiaiaiaiaiaiaiaiaiai",
"aiaiaiaiaiaiaiaiaiaiaiaiaiaiahabababaeababababaeacababaeabababababababacaeabababaeabababaeaeaeabacaiaiaiaiaiaiaiaiaiaiaiaiaiaiai",
"aiaiaiaiaiaiaiaiaiaiaiaiaiaiabababaeaeabababababaeacaeaeaeacabababaeabaeabaeaeaeaeababacaeaeacacacacaiaiaiaiaiaiaiaiaiaiaiaiaiai",
"aiaiaiaiaiaiaiaiaiaiaiaiaiaiacacacaeaeaeabababababaeaeaeaeaeaeabaeaeaeaeaeaeadabababacaeaeaeacacabaeaiaiaiaiaiaiaiaiaiaiaiaiaiai",
"aiaiaiaiaiaiaiaiaiaiaiaiaiaiaiacacacaeaeaeabababababababacacaeaeaeaeababacababadabacacaeaeacacaeacacaiaiaiaiaiaiaiaiaiaiaiaiaiai",
"aiaiaiaiaiaiaiaiaiaiaiaiaiaiaiacacaaacacacaeabababacababababacacabababababadabadacacaeaeaeabacaeacacaiaiaiaiaiaiaiaiaiaiaiaiaiai",
"aiaiaiaiaiaiaiaiaiaiaiaiaiaiaiaiaiacacaeaeacaeabacabababababacadadadadabadabacacacaeaeaeaeacabaeacaeaiaiaiaiaiaiaiaiaiaiaiaiaiai",
"aiaiaiaiaiaiaiaiaiaiaiaiaiaiaiaiacacacaeacaeaeaeaeacababacacacacadababacabaeacacaeacaeaeacacaeaeacaiaiaiaiaiaiaiaiaiaiaiaiaiaiai",
"aiaiaiaiaiaiaiaiaiaiaiaiaiaiaiacacacacacacaeaeaeaeaeaeaeacacacacacabacacacaeacaeaeaeaeacacacaeaeaeaiaiaiaiaiaiaiaiaiaiaiaiaiaiai",
"aiaiaiaiaiaiaiaiaiaiaiaiaiaiaiacaeaeaeacacacaeaeaeaeaeaeaeaeacabacacaeaeaeaeaeaeaeaeacacabacaeacaiaiaiaiaiaiaiaiaiaiaiaiaiaiaiai",
"aiaiaiaiaiaiaiaiaiaiaiaiaiaiaiacacaeacacaeacacaeaeaeaeaeaeaeacaeaeaeaeaeaeaeaeaeaeaeacabaeaeaeacaiaiaiaiaiaiaiaiaiaiaiaiaiaiaiai",
"aiaiaiaiaiaiaiaiaiaiaiaiaiaiaiaeaeaeacaeacacacacaeaeaeaeaeaeaeaeacacacaeaeacaeacaeacacabaeaeacaeaiaiaiaiaiaiaiaiaiaiaiaiaiaiaiai",
"aiaiaiaiaiaiaiaiaiaiaiaiaiaiaiaiaeaeacacacaeabacaeaeaeaeaeacaeaeacacacaeaeacacacacaeacaeacaeaeacaiaiaiaiaiaiaiaiaiaiaiaiaiaiaiai",
"aiaiaiaiaiaiaiaiaiaiaiaiaiaiaiaiaiaeacaeaeaeaeaeaeaeacacacacacacacacacaeaeaeacabaeacaeacaeacacaiaiaiaiaiaiaiaiaiaiaiaiaiaiaiaiai",
"aiaiaiaiaiaiaiaiaiaiaiaiaiaiaiaiaiaiacaeacacacaeaeacaeacacaeaeacacacacaeacaeacacaeacacacacacaiaiaiaiaiaiaiaiaiaiaiaiaiaiaiaiaiai",
"aiaiaiaiaiaiaiaiaiaiaiaiaiaiaiaiaiaiaiacacacaeaeacaeaeacaeaeacacacacaeaeacaeacaeaeacaeaeacaiaiaiaiaiaiaiaiaiaiaiaiaiaiaiaiaiaiai",
"aiaiaiaiaiaiaiaiaiaiaiaiaiaiaiaiaiaiaiaiacaeacacaeaeacaeaeacacacacacaeaeaeaeacacacaeacaiaiaiaiaiaiaiaiaiaiaiaiaiaiaiaiaiaiaiaiai",
"aiaiaiaiaiaiaiaiaiaiaiaiaiaiaiaiaiaiaiaiaiacacaeacacacaeaiacacaeaeaeacacaeacacaeaeacaiaiaiaiaiaiaiaiaiaiaiaiaiaiaiaiaiaiaiaiaiai",
"aiaiaiaiaiaiaiaiaiaiaiaiaiaiaiaiaiaiaiaiaiaiaiaiaiacacacaiaeacacaeacaeaiaiacacaiacaiaiaiaiaiaiaiaiaiaiaiaiaiaiaiaiaiaiaiaiaiaiai",
"aiaiaiaiaiaiaiaiaiaiaiaiaiaiaiaiaiaiaiaiaiaiaiaiaiaiaiaiaiacacacahaeaaacaiaiaiaiaiaiaiaiaiaiaiaiaiaiaiaiaiaiaiaiaiaiaiaiaiaiaiai",
"aiaiaiaiaiaiaiaiaiaiaiaiaiaiaiaiaiaiaiaiaiaiaiaiaiaiaiaiahaaaaaaaaaaahahaiaiaiaiaiaiaiaiaiaiaiaiaiaiaiaiaiaiaiaiaiaiaiaiaiaiaiai",
"aiaiaiaiaiaiaiaiaiaiaiaiaiaiaiaiaiaiaiaiaiaiaiaiaiaiaiahahahahaeahaeahahahaiaiaiaiaiaiaiaiaiaiaiaiaiaiaiaiaiaiaiaiaiaiaiaiaiaiai",
"aiaiaiaiaiaiaiaiaiaiaiaiaiaiaiaiaiaiaiaiaiaiaiaiaiaiaiaiaiacaeahahahahaiaiaiaiaiaiaiaiaiaiaiaiaiaiaiaiaiaiaiaiaiaiaiaiaiaiaiaiai",
"aiaiaiaiaiaiaiaiaiaiaiaiaiaiaiaiaiaiaiaiaiaiaiaiaiaiaiaiaiaiahahahahaiaiaiaiaiaiaiaiaiaiaiaiaiaiaiaiaiaiaiaiaiaiaiaiaiaiaiaiaiai",
"aiaiaiaiaiaiaiaiaiaiaiaiaiaiaiaiaiaiaiaiaiaiaiaiaiaiaiaiaiaiaiaiaiaiaiaiaiaiaiaiaiaiaiaiaiaiaiaiaiaiaiaiaiaiaiaiaiaiaiaiaiaiaiai",
"aiaiaiaiaiaiaiaiaiaiaiaiaiaiaiaiaiaiaiaiaiaiaiaiaiaiaiaiaiaiaiaiaiaiaiaiaiaiaiaiaiaiaiaiaiaiaiaiaiaiaiaiaiaiaiaiaiaiaiaiaiaiaiai",
"aiaiaiaiaiaiaiaiaiaiaiaiaiaiaiaiaiaiaiaiaiaiaiaiaiaiaiaiaiaiaiaiaiaiaiaiaiaiaiaiaiaiaiaiaiaiaiaiaiaiaiaiaiaiaiaiaiaiaiaiaiaiaiai",
"aiaiaiaiaiaiaiaiaiaiaiaiaiaiaiaiaiaiaiaiaiaiaiaiaiaiaiaiaiaiaiaiaiaiaiaiaiaiaiaiaiaiaiaiaiaiaiaiaiaiaiaiaiaiaiaiaiaiaiaiaiaiaiai",
"aiaiaiaiaiaiaiaiaiaiaiaiaiaiaiaiaiaiaiaiaiaiaiaiaiaiaiaiaiaiaiaiaiaiaiaiaiaiaiaiaiaiaiaiaiaiaiaiaiaiaiaiaiaiaiaiaiaiaiaiaiaiaiai",
"aiaiaiaiaiaiaiaiaiaiaiaiaiaiaiaiaiaiaiaiaiaiaiaiaiaiaiaiaiaiaiaiaiaiaiaiaiaiaiaiaiaiaiaiaiaiaiaiaiaiaiaiaiaiaiaiaiaiaiaiaiaiaiai",
"aiaiaiaiaiaiaiaiaiaiaiaiaiaiaiaiaiaiaiaiaiaiaiaiaiaiaiaiaiaiaiaiaiaiaiaiaiaiaiaiaiaiaiaiaiaiaiaiaiaiaiaiaiaiaiaiaiaiaiaiaiaiaiai",
"aiaiaiaiaiaiaiaiaiaiaiaiaiaiaiaiaiaiaiaiaiaiaiaiaiaiaiaiaiaiaiaiaiaiaiaiaiaiaiaiaiaiaiaiaiaiaiaiaiaiaiaiaiaiaiaiaiaiaiaiaiaiaiai",
"aiaiaiaiaiaiaiaiaiaiaiaiaiaiaiaiaiaiaiaiaiaiaiaiaiaiaiaiaiaiaiaiaiaiaiaiaiaiaiaiaiaiaiaiaiaiaiaiaiaiaiaiaiaiaiaiaiaiaiaiaiaiaiai",
"aiaiaiaiaiaiaiaiaiaiaiaiaiaiaiaiaiaiaiaiaiaiaiaiaiaiaiaiaiaiaiaiaiaiaiaiaiaiaiaiaiaiaiaiaiaiaiaiaiaiaiaiaiaiaiaiaiaiaiaiaiaiaiai",
"aiaiaiaiaiaiaiaiaiaiaiaiaiaiaiaiaiaiaiaiaiaiaiaiaiaiaiaiaiaiaiaiaiaiaiaiaiaiaiaiaiaiaiaiaiaiaiaiaiaiaiaiaiaiaiaiaiaiaiaiaiaiaiai"
};
