/* XPM */
static char *car_red_08_s1[] = {
/* columns rows colors chars-per-pixel */
"64 64 38 1 ",
"  c #FF00FF",
". c #000100",
"X c #232529",
"o c #362829",
"O c #2B2D34",
"+ c #501419",
"@ c #6F2227",
"# c #754338",
"$ c #383A43",
"% c #43444B",
"& c #4C5561",
"* c #5F5A74",
"= c #6E6669",
"- c #851E21",
"; c #951B24",
": c #87272C",
"> c #9B2D32",
", c #B83123",
"< c #AB2334",
"1 c #B82D33",
"2 c #AB3533",
"3 c #BD3836",
"4 c #C7282E",
"5 c #CF3C3F",
"6 c #825945",
"7 c #D45452",
"8 c #E14C49",
"9 c #CC695A",
"0 c #EC965D",
"q c #FFD96E",
"w c #516D83",
"e c #7DA5B5",
"r c #858081",
"t c #988A87",
"y c #A0989B",
"u c #ABA6A8",
"i c #BCB8BB",
"p c #CAC6CE",
/* pixels */
"                                                                ",
"                                                                ",
"                                                                ",
"                                                                ",
"                                                                ",
"                                                                ",
"                                                                ",
"                                                                ",
"                                                                ",
"                                                                ",
"                              ....                              ",
"                          ....2222....                          ",
"                       ...77772..22997...                       ",
"                      .723>>>>.33.2222777.                      ",
"                     .7222;;>.3333.>>2,227.                     ",
"                    .>2::-....3333....----2.                    ",
"                    ......:. .3333. .@......                    ",
"                         .:. .3333. .#.                         ",
"                  ....   .:&.>30012.w#.   ....                  ",
"                 .$%%%. .>.&.>0qqq2.e.#. .%%%%.                 ",
"                 .%%%%...>...>22222...:...%%%%.                 ",
"                 .%%%%.e.>:>.>....>.#::.r.%%%%.                 ",
"                 .XXXX...:$O..OOOO..oo:...XXXX.                 ",
"                 .XXXX. .:$O.O....$.%o:. .XXXX.                 ",
"                  ....  .#$o.$.$$.O.%o:.  ....                  ",
"                        .#$O.$$.O$$.%o:.                        ",
"                    .....#$$.$.O..o.%o:.....                    ",
"                   .5<7..#$$$.OO$o.%%o:..719.                   ",
"                   .5<7..#$$$O....$%%o>..719.                   ",
"                   .517.&......$%......=.719.                   ",
"                   .517.&.%&&&&..&&&&&.=.719.                   ",
"                  .5517.&.%%&&%..&&&&&.=.7199.                  ",
"                  .5517.&.%%&&%..%&&&&.=.7119.                  ",
"                  .7317.&.%&&&%..%&&&&.=.7419.                  ",
"                  .7337.&.%&&%%..%&&&O.*.7119.                  ",
"                  .7337.**XXXXX$$XXXXX**.7119.                  ",
"                  .7337.**$$$$$$$$$$$$**.7139.                  ",
"                  .7337..**%$$$$$$$$$**..8339.                  ",
"                  .9333...************...>129.                  ",
"                  ......@..............@......                  ",
"                        #.XXXX....Xooo.#                        ",
"                  ....  .#....pppp....:.  ....                  ",
"                 .$$$$. .#.iy.iyyy.==.:. .$$$$.                 ",
"                 .$$$$...#.iy.yiii.==.:...$%%%.                 ",
"                 .$$$$.t.#.iy.rrrr.==.:.r.$%%%.                 ",
"                 .$$$$...#.iO.uuui....#...%%%%.                 ",
"                 .XXXX. .#.iOO.....&&.>. .XXXX.                 ",
"                 .XXXX...6....rrrr....#...XXXX.                 ",
"                  ....777.............+177....                  ",
"                     .7,111144444444444417.                     ",
"                     .7,,,4444444444444447.                     ",
"                     .77777777777777777777.                     ",
"                      ....................                      ",
"                                                                ",
"                                                                ",
"                                                                ",
"                                                                ",
"                                                                ",
"                                                                ",
"                                                                ",
"                                                                ",
"                                                                ",
"                                                                ",
"                                                                "
};
