/* XPM */
static char *car_blue_02_s1[] = {
/* columns rows colors chars-per-pixel */
"64 64 31 1 ",
"  c #FF00FF",
". c #010000",
"X c #252923",
"o c #2D342B",
"O c #282936",
"+ c #37442E",
"@ c #3A4338",
"# c #141A50",
"$ c #262856",
"% c #162065",
"& c #1B2078",
"* c #22286F",
"= c #423875",
"- c #444B43",
"; c #55614C",
": c #1E2285",
"> c #1B2595",
", c #272D87",
"< c #2D339B",
"1 c #2335AB",
"2 c #3433AB",
"3 c #3023B8",
"4 c #2D34B8",
"5 c #3736BD",
"6 c #453DA9",
"7 c #2830C7",
"8 c #2730D2",
"9 c #3C40CF",
"0 c #955DEC",
"q c #B8BBBC",
"w c #C6CECA",
/* pixels */
"                                                                ",
"                                                                ",
"                           ..........                           ",
"                        ...7777777777...                        ",
"                      ..38878>>>>>>77775..                      ",
"                     .$*.88>>888888>>88.==.                     ",
"                    .**w.8>8888888888>8.q$=.                    ",
"                   .#*q.8>888888888888>7.q==.                   ",
"                   .$q.78>888888888888>88.q$.                   ",
"                  .3..78>88888888888888>87..>.                  ",
"                  .37788>88888888888888>887>>.                  ",
"                 .:7888>8888888888888888>888>>.                 ",
"                 .:7888>8888888888888888>8888>.                 ",
"                 .:8888>8888888888888888>8887>.                 ",
"                 .>888>8888>........>8888>887>.                 ",
"                 .>888>88...++++++++...88&887>.                 ",
"                 .>888>8..------------X.7&887>.                 ",
"                 .>888>.oo--------------.%787>.                 ",
"                 .:888.o-----------------.777>.                 ",
"                 .::88.oo----------------.77>>.                 ",
"                 .::88*.ooooooooo-------.&77>>.                 ",
"                  .:482.Xoooooooo-------.477>.                  ",
"                  ..4.2.Xoooooooo------o.4.9..                  ",
"                 .445..2.oo..........oo.4..9<<.                 ",
"                .1445..1...8888888887...5..9<<<.                ",
"                .1..5..1>1888888888888>>5..9,.<.                ",
"                ...:5.o.>88888888888888>.o.9,...                ",
"                  .,5.O.>88888888888888>.O.9<.                  ",
"                  .,5.O.>88888888888888>.O.9<.                  ",
"                  .,5.O.>88888888888888>.O.9<.                  ",
"                  .,5.O.>88888888888888>.O.9<.                  ",
"                  .,5.O.>88888888888888>.O.9<.                  ",
"                  .,5.O.>88888888888888>.o.9<.                  ",
"                  .,5.O.>88888888888888>.@.9<.                  ",
"                  .>7.O.>88888888888888>.@.9<.                  ",
"                  .,7...>88888888888888>...5<.                  ",
"                  .,8.O.>88888888888888>.#.5>.                  ",
"                  .,8.O.>88888888888888>.O.7<.                  ",
"                 .:88>.>>>888888888888>>>.>78>.                 ",
"                 .>88>.>>..............>>.>88>.                 ",
"                 .>88>%>>.X@@@@@@@@@++.>>.>88>.                 ",
"                 .>88>>>.X@@@@@@@@@@;;o.>>>88>.                 ",
"                ..>88>>>.X@@@@@@@@@@;;o.>>>88>..                ",
"                .:>888>>.X@@@@@@@@@@;-o.>>888>:.                ",
"                .:>888>>.X@@@@@@@@@@@-X.>>888>:.                ",
"                .:8888>>.XX@@@@@@@@@@XX.>>8888:.                ",
"                .:88888>>.X@@@@@@@@@XX.:>88888:.                ",
"                .:>8888>>7..@@@@@@@X..8>>8888<:.                ",
"                .:>8888>>333........888:>8888>:.                ",
"                .:>..888>38888877778888:788..>:.                ",
"                .:>.-.88>88888888888888:78.-.>:.                ",
"                .:>.--....888888888888....-;.>:.                ",
"                .:,.---;;;............;;;;-;.::.                ",
"                 .,.oo;;;;;;;;;;;;;;;;;;-;oo.:.                 ",
"                 .%...oooo;;;;;;;;;;;-oooo...:.                 ",
"                 .%.%&....oooooooooooo....&&.:.                 ",
"                  .%%222#%............#:655#&.                  ",
"                  .%%####::::::::::&&::####&&.                  ",
"                   .%#:::::::000000&&::>>>&&.                   ",
"                    ..#%%%%%%%%%%%%&&###&&..                    ",
"                      ....................                      ",
"                                    .. .                        ",
"                                                                ",
"                                                                "
};
