/* XPM */
static char *car_red_10_s1[] = {
/* columns rows colors chars-per-pixel */
"64 64 37 1 ",
"  c #FF00FF",
". c #000100",
"X c #232529",
"o c #362829",
"O c #2B2D34",
"+ c #501419",
"@ c #65161F",
"# c #781B1F",
"$ c #562628",
"% c #6F2227",
"& c #754338",
"* c #2E3744",
"= c #383A43",
"- c #43444B",
"; c #4C5561",
": c #6E6669",
"> c #851E21",
", c #951B24",
"< c #87272C",
"1 c #9B2D32",
"2 c #AB2334",
"3 c #B82D33",
"4 c #AB3533",
"5 c #BD3836",
"6 c #C7282E",
"7 c #D2272E",
"8 c #CF3C3F",
"9 c #A9463D",
"0 c #825945",
"q c #D45452",
"w c #E14C49",
"e c #858081",
"r c #988A87",
"t c #A0989B",
"y c #ABA6A8",
"u c #BCB8BB",
"i c #C9B0A8",
/* pixels */
"                                                                ",
"                                                                ",
"                                                                ",
"                                                                ",
"                                                                ",
"                                                                ",
"                                                                ",
"                                                                ",
"                           ..........                           ",
"                       ....ieeeeeeeee....                       ",
"                      .::r............eee.                      ",
"                      ....@6#667777,5#....                      ",
"                 .... .  .56>777777,55.  . ....                 ",
"                .OOX=. ...76>777777,65... .XX==.                ",
"                .OOX=.  .16>77777777,51.  .X=X=.                ",
"                .OOX=....,6>77777777,6,....=X==.                ",
"                .OXXX.::.,6>77777777,61.::.====.                ",
"                .O=X-.:.>66>77777777,65,.:.====.                ",
"                .OX=X.:.>6>7777777777>3,.:.X=XX.                ",
"                .OOX=...66>7777777777>63>..=X==.                ",
"                .OXOX..566>7777777777>333..X=XX.                ",
"                .OOXO..366>778888w777#333..XX-X.                ",
"                .OOXX.4#####>#>>>>>######4.XXXX.                ",
"                 .....2..................4.....                 ",
"                     ..t<<<<<<<<<<<<<&&.t..                     ",
"                    .%.t.e...*..........t.>.                    ",
"                   .%%.t..===..OOOOOOOO.t.>>.                   ",
"                   .%%.t.=...O.OtOOOOOO.t.>>.                   ",
"                   .4%.t..OOO.O.tOOOOOX.t.>4.                   ",
"                   .4%.t.O...OO.tOOOOOX.t.>4.                   ",
"                   .4%.t......OOOO......t.>4.                   ",
"                   .4%.t.00000.OO.00000.t.>4.                   ",
"                   .4%.y.00000.OO.00000.t.>4.                   ",
"                   .9%.y.00000.OO.00000.t.>4.                   ",
"                   .9%.y.&000o.OO.$000&.y.>4.                   ",
"                   .9<.y................y.<4.                   ",
"                   .9<.y.tttttyyytttttt.y.<4.                   ",
"                   .9<..rt............rr..<4.                   ",
"                   .9<.r..e...XXOX...e..r.14.                   ",
"                   .%<.r..e.XXOOOOXX.e..r.11.                   ",
"                    .%.:..=e........e:..;.1.                    ",
"                    .1,#9..t.;;;;;;.y..4#44.                    ",
"                    .8,#5..t.;;;;;;.u..4#44.                    ",
"                 ....w5#5..t.;;;;;;.y..4>3q....                 ",
"                .XXX.85>5.:.*........e.4>3q.XXX.                ",
"                .XXX.85>5.:.$$$$$$$$.e.4<3q.XOO.                ",
"                .XXX.85,5.:.+++++++$.e.4,3q.OXO.                ",
"                .X=X.85,5.:.$$$$$$$$.e.4,4q.OOX.                ",
"                .=X=.+555.:..........e.4,2@.=X=.                ",
"                .X=X=.@5>&&&&&&&&&&&<<###@.XXX=.                ",
"                .XX===....................XX=X=.                ",
"                .X=X==....-.. .XXX ..;....X=X==.                ",
"                .XXO=X.   .----;;;-;;.   .XX=X=.                ",
"                .X-O=X.    ..........    .-*XXX.                ",
"                .OOOXX.                  .=XXXX.                ",
"                 .....                    .....                 ",
"                                                                ",
"                                                                ",
"                                                                ",
"                                                                ",
"                                                                ",
"                                                                ",
"                                                                ",
"                                                                "
};
