/* XPM */
static char *car3_p2_s1[] = {
"64 64 31 2",
"aa	c #ff00ff",
"ab	c #000100",
"ac	c #c7282e",
"ad	c #b83123",
"ae	c #d2272e",
"af	c #951b24",
"ag	c #bd3836",
"ah	c #562628",
"ai	c #6f2227",
"aj	c #754338",
"ak	c #cac6ce",
"al	c #bcb8bb",
"am	c #501419",
"an	c #851e21",
"ao	c #2e3744",
"ap	c #781b1f",
"aq	c #43444b",
"ar	c #232529",
"as	c #2b2d34",
"at	c #65161f",
"au	c #b82d33",
"av	c #ab3533",
"aw	c #cf3c3f",
"ax	c #9b2d32",
"ay	c #ab2334",
"az	c #87272c",
"aA	c #362829",
"aB	c #383a43",
"aC	c #4c5561",
"aD	c #a9463d",
"aE	c #ec965d",
"aaaaaaaaaaaaaaaaaaaaaaaaaaaaaaaaaaaaaaaaaaaaaaaaaaaaaaaaaaaaaaaaaaaaaaaaaaaaaaaaaaaaaaaaaaaaaaaaaaaaaaaaaaaaaaaaaaaaaaaaaaaaaaaa",
"aaaaaaaaaaaaaaaaaaaaaaaaaaaaaaaaaaaaaaaaaaaaaaaaaaaaaaaaaaaaaaaaaaaaaaaaaaaaaaaaaaaaaaaaaaaaaaaaaaaaaaaaaaaaaaaaaaaaaaaaaaaaaaaa",
"aaaaaaaaaaaaaaaaaaaaaaaaaaaaaaaaaaaaaaaaaaaaaaaaaaaaaaababababababababababaaaaaaaaaaaaaaaaaaaaaaaaaaaaaaaaaaaaaaaaaaaaaaaaaaaaaa",
"aaaaaaaaaaaaaaaaaaaaaaaaaaaaaaaaaaaaaaaaaaaaaaaaabababacacacacacacacacacacabababaaaaaaaaaaaaaaaaaaaaaaaaaaaaaaaaaaaaaaaaaaaaaaaa",
"aaaaaaaaaaaaaaaaaaaaaaaaaaaaaaaaaaaaaaaaaaaaababadaeaeacaeafafafafafafacacacacagababaaaaaaaaaaaaaaaaaaaaaaaaaaaaaaaaaaaaaaaaaaaa",
"aaaaaaaaaaaaaaaaaaaaaaaaaaaaaaaaaaaaaaaaaaabahaiabaeaeafafaeaeaeaeaeaeafafaeaeabajajabaaaaaaaaaaaaaaaaaaaaaaaaaaaaaaaaaaaaaaaaaa",
"aaaaaaaaaaaaaaaaaaaaaaaaaaaaaaaaaaaaaaaaabaiaiakabaeafaeaeaeaeaeaeaeaeaeaeafaeabalahajabaaaaaaaaaaaaaaaaaaaaaaaaaaaaaaaaaaaaaaaa",
"aaaaaaaaaaaaaaaaaaaaaaaaaaaaaaaaaaaaaaabamaialabaeafaeaeaeaeaeaeaeaeaeaeaeaeafacabalajajabaaaaaaaaaaaaaaaaaaaaaaaaaaaaaaaaaaaaaa",
"aaaaaaaaaaaaaaaaaaaaaaaaaaaaaaaaaaaaaaabahalabacaeafaeaeaeaeaeaeaeaeaeaeaeaeafaeaeabalahabaaaaaaaaaaaaaaaaaaaaaaaaaaaaaaaaaaaaaa",
"aaaaaaaaaaaaaaaaaaaaaaaaaaaaaaaaaaaaabadababacaeafaeaeaeaeaeaeaeaeaeaeaeaeaeaeafaeacababafabaaaaaaaaaaaaaaaaaaaaaaaaaaaaaaaaaaaa",
"aaaaaaaaaaaaaaaaaaaaaaaaaaaaaaaaaaaaabadacacaeaeafaeaeaeaeaeaeaeaeaeaeaeaeaeaeafaeaeacafafabaaaaaaaaaaaaaaaaaaaaaaaaaaaaaaaaaaaa",
"aaaaaaaaaaaaaaaaaaaaaaaaaaaaaaaaaaabanacaeaeaeafaeaeaeaeaeaeaeaeaeaeaeaeaeaeaeaeafaeaeaeafafabaaaaaaaaaaaaaaaaaaaaaaaaaaaaaaaaaa",
"aaaaaaaaaaaaaaaaaaaaaaaaaaaaaaaaaaabanacaeaeaeafaeaeaeaeaeaeaeaeaeaeaeaeaeaeaeaeafaeaeaeaeafabaaaaaaaaaaaaaaaaaaaaaaaaaaaaaaaaaa",
"aaaaaaaaaaaaaaaaaaaaaaaaaaaaaaaaaaabanaeaeaeaeafaeaeaeaeaeaeaeaeaeaeaeaeaeaeaeaeafaeaeaeacafabaaaaaaaaaaaaaaaaaaaaaaaaaaaaaaaaaa",
"aaaaaaaaaaaaaaaaaaaaaaaaaaaaaaaaaaabafaeaeaeafaeaeaeaeafababababababababafaeaeaeaeafaeaeacafabaaaaaaaaaaaaaaaaaaaaaaaaaaaaaaaaaa",
"aaaaaaaaaaaaaaaaaaaaaaaaaaaaaaaaaaabafaeaeaeafaeaeabababaoaoaoaoaoaoaoaoabababaeaeapaeaeacafabaaaaaaaaaaaaaaaaaaaaaaaaaaaaaaaaaa",
"aaaaaaaaaaaaaaaaaaaaaaaaaaaaaaaaaaabafaeaeaeafaeababaqaqaqaqaqaqaqaqaqaqaqaqarabacapaeaeacafabaaaaaaaaaaaaaaaaaaaaaaaaaaaaaaaaaa",
"aaaaaaaaaaaaaaaaaaaaaaaaaaaaaaaaaaabafaeaeaeafabasasaqaqaqaqaqaqaqaqaqaqaqaqaqaqabatacaeacafabaaaaaaaaaaaaaaaaaaaaaaaaaaaaaaaaaa",
"aaaaaaaaaaaaaaaaaaaaaaaaaaaaaaaaaaabanaeaeaeabasaqaqaqaqaqaqaqaqaqaqaqaqaqaqaqaqaqabacacacafabaaaaaaaaaaaaaaaaaaaaaaaaaaaaaaaaaa",
"aaaaaaaaaaaaaaaaaaaaaaaaaaaaaaaaaaabananaeaeabasasaqaqaqaqaqaqaqaqaqaqaqaqaqaqaqaqabacacafafabaaaaaaaaaaaaaaaaaaaaaaaaaaaaaaaaaa",
"aaaaaaaaaaaaaaaaaaaaaaaaaaaaaaaaaaabananaeaeaiabasasasasasasasasasaqaqaqaqaqaqaqabapacacafafabaaaaaaaaaaaaaaaaaaaaaaaaaaaaaaaaaa",
"aaaaaaaaaaaaaaaaaaaaaaaaaaaaaaaaaaaaabanauaeavabarasasasasasasasasaqaqaqaqaqaqaqabauacacafabaaaaaaaaaaaaaaaaaaaaaaaaaaaaaaaaaaaa",
"aaaaaaaaaaaaaaaaaaaaaaaaaaaaaaaaaaaaababauabavabarasasasasasasasasaqaqaqaqaqaqasabauabawababaaaaaaaaaaaaaaaaaaaaaaaaaaaaaaaaaaaa",
"aaaaaaaaaaaaaaaaaaaaaaaaaaaaaaaaaaabauauagababavabasasababababababababababasasabauababawaxaxabaaaaaaaaaaaaaaaaaaaaaaaaaaaaaaaaaa",
"aaaaaaaaaaaaaaaaaaaaaaaaaaaaaaaaabayauauagababayabababaeaeaeaeaeaeaeaeaeacabababagababawaxaxaxabaaaaaaaaaaaaaaaaaaaaaaaaaaaaaaaa",
"aaaaaaaaaaaaaaaaaaaaaaaaaaaaaaaaabayababagababayafayaeaeaeaeaeaeaeaeaeaeaeaeafafagababawazabaxabaaaaaaaaaaaaaaaaaaaaaaaaaaaaaaaa",
"aaaaaaaaaaaaaaaaaaaaaaaaaaaaaaaaabababanagabasabafaeaeaeaeaeaeaeaeaeaeaeaeaeaeafabasabawazabababaaaaaaaaaaaaaaaaaaaaaaaaaaaaaaaa",
"aaaaaaaaaaaaaaaaaaaaaaaaaaaaaaaaaaaaabazagabaAabafaeaeaeaeaeaeaeaeaeaeaeaeaeaeafabaAabawaxabaaaaaaaaaaaaaaaaaaaaaaaaaaaaaaaaaaaa",
"aaaaaaaaaaaaaaaaaaaaaaaaaaaaaaaaaaaaabazagabaAabafaeaeaeaeaeaeaeaeaeaeaeaeaeaeafabaAabawaxabaaaaaaaaaaaaaaaaaaaaaaaaaaaaaaaaaaaa",
"aaaaaaaaaaaaaaaaaaaaaaaaaaaaaaaaaaaaabazagabaAabafaeaeaeaeaeaeaeaeaeaeaeaeaeaeafabaAabawaxabaaaaaaaaaaaaaaaaaaaaaaaaaaaaaaaaaaaa",
"aaaaaaaaaaaaaaaaaaaaaaaaaaaaaaaaaaaaabazagabaAabafaeaeaeaeaeaeaeaeaeaeaeaeaeaeafabaAabawaxabaaaaaaaaaaaaaaaaaaaaaaaaaaaaaaaaaaaa",
"aaaaaaaaaaaaaaaaaaaaaaaaaaaaaaaaaaaaabazagabaAabafaeaeaeaeaeaeaeaeaeaeaeaeaeaeafabaAabawaxabaaaaaaaaaaaaaaaaaaaaaaaaaaaaaaaaaaaa",
"aaaaaaaaaaaaaaaaaaaaaaaaaaaaaaaaaaaaabazagabaAabafaeaeaeaeaeaeaeaeaeaeaeaeaeaeafabasabawaxabaaaaaaaaaaaaaaaaaaaaaaaaaaaaaaaaaaaa",
"aaaaaaaaaaaaaaaaaaaaaaaaaaaaaaaaaaaaabazagabaAabafaeaeaeaeaeaeaeaeaeaeaeaeaeaeafabaBabawaxabaaaaaaaaaaaaaaaaaaaaaaaaaaaaaaaaaaaa",
"aaaaaaaaaaaaaaaaaaaaaaaaaaaaaaaaaaaaabafacabaAabafaeaeaeaeaeaeaeaeaeaeaeaeaeaeafabaBabawaxabaaaaaaaaaaaaaaaaaaaaaaaaaaaaaaaaaaaa",
"aaaaaaaaaaaaaaaaaaaaaaaaaaaaaaaaaaaaabazacabababafaeaeaeaeaeaeaeaeaeaeaeaeaeaeafabababagaxabaaaaaaaaaaaaaaaaaaaaaaaaaaaaaaaaaaaa",
"aaaaaaaaaaaaaaaaaaaaaaaaaaaaaaaaaaaaabazaeabaAabafaeaeaeaeaeaeaeaeaeaeaeaeaeaeafabamabagafabaaaaaaaaaaaaaaaaaaaaaaaaaaaaaaaaaaaa",
"aaaaaaaaaaaaaaaaaaaaaaaaaaaaaaaaaaaaabazaeabaAabafaeaeaeaeaeaeaeaeaeaeaeaeaeaeafabaAabacaxabaaaaaaaaaaaaaaaaaaaaaaaaaaaaaaaaaaaa",
"aaaaaaaaaaaaaaaaaaaaaaaaaaaaaaaaaaabanaeaeafabafafafaeaeaeaeaeaeaeaeaeaeaeaeafafafabafacaeafabaaaaaaaaaaaaaaaaaaaaaaaaaaaaaaaaaa",
"aaaaaaaaaaaaaaaaaaaaaaaaaaaaaaaaaaabafaeaeafabafafababababababababababababababafafabafaeaeafabaaaaaaaaaaaaaaaaaaaaaaaaaaaaaaaaaa",
"aaaaaaaaaaaaaaaaaaaaaaaaaaaaaaaaaaabafaeaeafatafafabaraBaBaBaBaBaBaBaBaBaoaoabafafabafaeaeafabaaaaaaaaaaaaaaaaaaaaaaaaaaaaaaaaaa",
"aaaaaaaaaaaaaaaaaaaaaaaaaaaaaaaaaaabafaeaeafafafabaraBaBaBaBaBaBaBaBaBaBaCaCasabafafafaeaeafabaaaaaaaaaaaaaaaaaaaaaaaaaaaaaaaaaa",
"aaaaaaaaaaaaaaaaaaaaaaaaaaaaaaaaababafaeaeafafafabaraBaBaBaBaBaBaBaBaBaBaCaCasabafafafaeaeafababaaaaaaaaaaaaaaaaaaaaaaaaaaaaaaaa",
"aaaaaaaaaaaaaaaaaaaaaaaaaaaaaaaaabanafaeaeaeafafabaraBaBaBaBaBaBaBaBaBaBaCaqasabafafaeaeaeafanabaaaaaaaaaaaaaaaaaaaaaaaaaaaaaaaa",
"aaaaaaaaaaaaaaaaaaaaaaaaaaaaaaaaabanafaeaeaeafafabaraBaBaBaBaBaBaBaBaBaBaBaqarabafafaeaeaeafanabaaaaaaaaaaaaaaaaaaaaaaaaaaaaaaaa",
"aaaaaaaaaaaaaaaaaaaaaaaaaaaaaaaaabanaeaeaeaeafafabararaBaBaBaBaBaBaBaBaBaBararabafafaeaeaeaeanabaaaaaaaaaaaaaaaaaaaaaaaaaaaaaaaa",
"aaaaaaaaaaaaaaaaaaaaaaaaaaaaaaaaabanaeaeaeaeaeafafabaraBaBaBaBaBaBaBaBaBararabanafaeaeaeaeaeanabaaaaaaaaaaaaaaaaaaaaaaaaaaaaaaaa",
"aaaaaaaaaaaaaaaaaaaaaaaaaaaaaaaaabanafaeaeaeaeafafacababaBaBaBaBaBaBaBarababaeafafaeaeaeaeaxanabaaaaaaaaaaaaaaaaaaaaaaaaaaaaaaaa",
"aaaaaaaaaaaaaaaaaaaaaaaaaaaaaaaaabanafaeaeaeaeafafadadadababababababababaeaeaeanafaeaeaeaeafanabaaaaaaaaaaaaaaaaaaaaaaaaaaaaaaaa",
"aaaaaaaaaaaaaaaaaaaaaaaaaaaaaaaaabanafababaeaeaeafadaeaeaeaeaeacacacacaeaeaeaeanacaeaeababafanabaaaaaaaaaaaaaaaaaaaaaaaaaaaaaaaa",
"aaaaaaaaaaaaaaaaaaaaaaaaaaaaaaaaabanafabaqabaeaeafaeaeaeaeaeaeaeaeaeaeaeaeaeaeanacaeabaqabafanabaaaaaaaaaaaaaaaaaaaaaaaaaaaaaaaa",
"aaaaaaaaaaaaaaaaaaaaaaaaaaaaaaaaabanafabaqaqababababaeaeaeaeaeaeaeaeaeaeaeaeababababaqaCabafanabaaaaaaaaaaaaaaaaaaaaaaaaaaaaaaaa",
"aaaaaaaaaaaaaaaaaaaaaaaaaaaaaaaaabanazabaqaqaqaCaCaCababababababababababababaCaCaCaCaqaCabananabaaaaaaaaaaaaaaaaaaaaaaaaaaaaaaaa",
"aaaaaaaaaaaaaaaaaaaaaaaaaaaaaaaaaaabazabasasaCaCaCaCaCaCaCaCaCaCaCaCaCaCaCaCaCaCaqaCasasabanabaaaaaaaaaaaaaaaaaaaaaaaaaaaaaaaaaa",
"aaaaaaaaaaaaaaaaaaaaaaaaaaaaaaaaaaabatabababasasasasaCaCaCaCaCaCaCaCaCaCaCaqasasasasabababanabaaaaaaaaaaaaaaaaaaaaaaaaaaaaaaaaaa",
"aaaaaaaaaaaaaaaaaaaaaaaaaaaaaaaaaaabatabatapababababasasasasasasasasasasasasababababapapabanabaaaaaaaaaaaaaaaaaaaaaaaaaaaaaaaaaa",
"aaaaaaaaaaaaaaaaaaaaaaaaaaaaaaaaaaaaabatatavavavamatababababababababababababamanaDagagamapabaaaaaaaaaaaaaaaaaaaaaaaaaaaaaaaaaaaa",
"aaaaaaaaaaaaaaaaaaaaaaaaaaaaaaaaaaaaabatatamamamamananananananananananapapananamamamamapapabaaaaaaaaaaaaaaaaaaaaaaaaaaaaaaaaaaaa",
"aaaaaaaaaaaaaaaaaaaaaaaaaaaaaaaaaaaaaaabatamanananananananaEaEaEaEaEaEapapananafafafapapabaaaaaaaaaaaaaaaaaaaaaaaaaaaaaaaaaaaaaa",
"aaaaaaaaaaaaaaaaaaaaaaaaaaaaaaaaaaaaaaaaababamatatatatatatatatatatatatapapamamamapapababaaaaaaaaaaaaaaaaaaaaaaaaaaaaaaaaaaaaaaaa",
"aaaaaaaaaaaaaaaaaaaaaaaaaaaaaaaaaaaaaaaaaaaaababababababababababababababababababababaaaaaaaaaaaaaaaaaaaaaaaaaaaaaaaaaaaaaaaaaaaa",
"aaaaaaaaaaaaaaaaaaaaaaaaaaaaaaaaaaaaaaaaaaaaaaaaaaaaaaaaaaaaaaaaaaaaaaaaababaaabaaaaaaaaaaaaaaaaaaaaaaaaaaaaaaaaaaaaaaaaaaaaaaaa",
"aaaaaaaaaaaaaaaaaaaaaaaaaaaaaaaaaaaaaaaaaaaaaaaaaaaaaaaaaaaaaaaaaaaaaaaaaaaaaaaaaaaaaaaaaaaaaaaaaaaaaaaaaaaaaaaaaaaaaaaaaaaaaaaa",
"aaaaaaaaaaaaaaaaaaaaaaaaaaaaaaaaaaaaaaaaaaaaaaaaaaaaaaaaaaaaaaaaaaaaaaaaaaaaaaaaaaaaaaaaaaaaaaaaaaaaaaaaaaaaaaaaaaaaaaaaaaaaaaaa"
};
