/* XPM */
static char *car3_p2_s2[] = {
"64 64 212 2",
"aa	c #ff00ff",
"ab	c #000100",
"ac	c #3a1e1a",
"ad	c #ad3030",
"ae	c #491d19",
"af	c #2a1a17",
"ag	c #a73d32",
"ah	c #902225",
"ai	c #ce383b",
"aj	c #b23030",
"ak	c #942a2b",
"al	c #8a2325",
"am	c #a83834",
"an	c #270f0e",
"ao	c #552d2b",
"ap	c #823634",
"aq	c #4b2520",
"ar	c #932d2e",
"as	c #82292b",
"at	c #873034",
"au	c #85463c",
"av	c #5e2021",
"aw	c #b08887",
"ax	c #a9817e",
"ay	c #763834",
"az	c #643b33",
"aA	c #4f191a",
"aB	c #a77877",
"aC	c #742729",
"aD	c #61302a",
"aE	c #842b2c",
"aF	c #9e2527",
"aG	c #d03130",
"aH	c #887675",
"aI	c #522222",
"aJ	c #a5352b",
"aK	c #8d2e2e",
"aL	c #711c20",
"aM	c #a33131",
"aN	c #351210",
"aO	c #4a0e12",
"aP	c #772121",
"aQ	c #be3335",
"aR	c #d9422a",
"aS	c #7a2325",
"aT	c #691417",
"aU	c #9d3131",
"aV	c #dc3e22",
"aW	c #bd2d26",
"aX	c #632326",
"aY	c #7f1f22",
"aZ	c #732b0b",
"a0	c #7d4609",
"a1	c #792d06",
"a2	c #191614",
"a3	c #692a2f",
"a4	c #b43837",
"a5	c #702f13",
"a6	c #171c22",
"a7	c #8a462d",
"a8	c #94612b",
"a9	c #904828",
"a!	c #303136",
"a#	c #541a0f",
"a$	c #1e1d1d",
"a%	c #5a2a2c",
"a&	c #63220b",
"a(	c #915139",
"a)	c #212225",
"a*	c #854331",
"a+	c #9f682e",
"a,	c #a09559",
"a-	c #9f7233",
"a.	c #9b4f2c",
"a/	c #763c35",
"a:	c #111314",
"a;	c #823134",
"a<	c #3c2528",
"a=	c #793825",
"a>	c #a09c66",
"a?	c #320b0f",
"a@	c #000000",
"a[	c #420f10",
"a]	c #9a6236",
"a^	c #a09d71",
"a_	c #944c31",
"a{	c #631417",
"a|	c #2e2c2e",
"a}	c #a0833c",
"a~	c #6e3d1f",
"ba	c #502728",
"bb	c #935c23",
"bc	c #926b34",
"bd	c #94915b",
"be	c #947731",
"bf	c #949165",
"bg	c #9f2f1b",
"bh	c #5c1719",
"bi	c #551b19",
"bj	c #662c24",
"bk	c #93803d",
"bl	c #863031",
"bm	c #7f3431",
"bn	c #3b2c2c",
"bo	c #936727",
"bp	c #15171a",
"bq	c #9f8b49",
"br	c #671e1f",
"bs	c #cc452d",
"bt	c #ce4b2e",
"bu	c #d74d33",
"bv	c #bd452c",
"bw	c #4d1719",
"bx	c #55111a",
"by	c #7f2b31",
"bz	c #883632",
"bA	c #4d1619",
"bB	c #c34e39",
"bC	c #511516",
"bD	c #6e272e",
"bE	c #b34229",
"bF	c #972920",
"bG	c #dc6c28",
"bH	c #5b1d20",
"bI	c #982d25",
"bJ	c #a73521",
"bK	c #7d510d",
"bL	c #1b1414",
"bM	c #a23028",
"bN	c #c16423",
"bO	c #7e6a23",
"bP	c #dd8f4f",
"bQ	c #7f7334",
"bR	c #e58743",
"bS	c #ca6b33",
"bT	c #7c551a",
"bU	c #7f7c59",
"bV	c #e69153",
"bW	c #782526",
"bX	c #e47339",
"bY	c #7e7343",
"bZ	c #822829",
"b0	c #5e1c1b",
"b1	c #64302e",
"b2	c #411111",
"b3	c #5d2d32",
"b4	c #aa2428",
"b5	c #982627",
"b6	c #cc3522",
"b7	c #e66424",
"b8	c #e25328",
"b9	c #9f2c2c",
"b!	c #e88e58",
"b#	c #412021",
"b$	c #8b1e23",
"b%	c #11100e",
"b&	c #d75036",
"b(	c #e47044",
"b)	c #a42428",
"b*	c #591a1d",
"b+	c #382122",
"b,	c #432c2f",
"b-	c #282b30",
"b.	c #1c1d21",
"b/	c #4d393e",
"b:	c #2d2c30",
"b;	c #373a3f",
"b<	c #2a2829",
"b=	c #353336",
"b>	c #512f32",
"b?	c #323134",
"b@	c #262628",
"b[	c #6d3138",
"b]	c #222223",
"b^	c #62272b",
"b_	c #5b2f2e",
"b{	c #462425",
"b|	c #9b2228",
"b}	c #ba282d",
"b~	c #873433",
"ca	c #83271f",
"cb	c #ad2d28",
"cc	c #912a22",
"cd	c #b4282d",
"ce	c #563436",
"cf	c #262b30",
"cg	c #773f47",
"ch	c #5b3c41",
"ci	c #4a282a",
"cj	c #6f474a",
"ck	c #662b30",
"cl	c #5f3333",
"cm	c #6c282a",
"cn	c #3c0e0f",
"co	c #873230",
"cp	c #671d20",
"cq	c #8f3834",
"cr	c #a03f3a",
"cs	c #732f2d",
"ct	c #7d3030",
"cu	c #8d3431",
"cv	c #9f483f",
"cw	c #a9413b",
"cx	c #852b29",
"cy	c #852a29",
"cz	c #5d1c1d",
"cA	c #711f20",
"cB	c #762b2a",
"cC	c #ab5d3f",
"cD	c #631c1d",
"cE	c #312b27",
"cF	c #474340",
"aaaaaaaaaaaaaaaaaaaaaaaaaaaaaaaaaaaaaaaaaaaaaaaaaaaaaaaaaaaaaaaaaaaaaaaaaaaaaaaaaaaaaaaaaaaaaaaaaaaaaaaaaaaaaaaaaaaaaaaaaaaaaaaa",
"aaaaaaaaaaaaaaaaaaaaaaaaaaaaaaaaaaaaaaaaaaaaaaaaaaaaaaaaaaaaaaaaaaaaaaaaaaaaaaaaaaaaaaaaaaaaaaaaaaaaaaaaaaaaaaaaaaaaaaaaaaaaaaaa",
"aaaaaaaaaaaaaaaaaaaaaaaaaaaaaaaaaaaaaaaaaaaaaaaaaaaaaaababababababababababaaaaaaaaaaaaaaaaaaaaaaaaaaaaaaaaaaaaaaaaaaaaaaaaaaaaaa",
"aaaaaaaaaaaaaaaaaaaaaaaaaaaaaaaaaaaaaaaaaaaaaaaaababacadadadadadadadadadadaeababaaaaaaaaaaaaaaaaaaaaaaaaaaaaaaaaaaaaaaaaaaaaaaaa",
"aaaaaaaaaaaaaaaaaaaaaaaaaaaaaaaaaaaaaaaaaaaaafafagahaiadajakakakakakakadadadalamafafaaaaaaaaaaaaaaaaaaaaaaaaaaaaaaaaaaaaaaaaaaaa",
"aaaaaaaaaaaaaaaaaaaaaaaaaaaaaaaaaaaaaaaaaaanaoapaqarajakakasajajatarajakakajahaeauauafaaaaaaaaaaaaaaaaaaaaaaaaaaaaaaaaaaaaaaaaaa",
"aaaaaaaaaaaaaaaaaaaaaaaaaaaaaaaaaaaaaaaaanavapawaqarakajasasajasasararajajakahaeaxayazanaaaaaaaaaaaaaaaaaaaaaaaaaaaaaaaaaaaaaaaa",
"aaaaaaaaaaaaaaaaaaaaaaaaaaaaaaaaaaaaaaanaAapaBaeahaCajasasasasasasarararajajakalaeaBazaDacaaaaaaaaaaaaaaaaaaaaaaaaaaaaaaaaaaaaaa",
"aaaaaaaaaaaaaaaaaaaaaaaaaaaaaaaaaaaaaaafaoaBaeadahaEaFasasasasasasasaGararajakahajaeaHaIacaaaaaaaaaaaaaaaaaaaaaaaaaaaaaaaaaaaaaa",
"aaaaaaaaaaaaaaaaaaaaaaaaaaaaaaaaaaaaanaJafaeaKajaLaMarasasasasasasasaGaGaraMajaLajadaeanaEafaaaaaaaaaaaaaaaaaaaaaaaaaaaaaaaaaaaa",
"aaaaaaaaaaaaaaaaaaaaaaaaaaaaaaaaaaaaaNaJaKadararaLaMasasasasasasasasasaGarasaMaLarajaKaOaCafaaaaaaaaaaaaaaaaaaaaaaaaaaaaaaaaaaaa",
"aaaaaaaaaaaaaaaaaaaaaaaaaaaaaaaaaaabaPadarajaQaCahaMasasasasasaRasasasaGaSasataSaCarataTaCaCabaaaaaaaaaaaaaaaaaaaaaaaaaaaaaaaaaa",
"aaaaaaaaaaaaaaaaaaaaaaaaaaaaaaaaaaabaPaUaFajajaLahaMasasaSasasaVaVasasasasasataSaCarataTaraCabaaaaaaaaaaaaaaaaaaaaaaaaaaaaaaaaaa",
"aaaaaaaaaaaaaaaaaaaaaaaaaaaaaaaaaaabaParaFajajaLasaMasasarararaVaVaWasasatatataSaCarataTaKaXabaaaaaaaaaaaaaaaaaaaaaaaaaaaaaaaaaa",
"aaaaaaaaaaaaaaaaaaaaaaaaaaaaaaaaaaabaYaFaFajakasahaMaVaCafafaZaZa0a1a2a2a3atataSaia3ataTaKaXabaaaaaaaaaaaaaaaaaaaaaaaaaaaaaaaaaa",
"aaaaaaaaaaaaaaaaaaaaaaaaaaaaaaaaaaabaYa4aFajakaTasaba5aba6a6a7a8a8a7a9a!a#a$a$asaMa%ataTaKaXabaaaaaaaaaaaaaaaaaaaaaaaaaaaaaaaaaa",
"aaaaaaaaaaaaaaaaaaaaaaaaaaaaaaaaaaabaYa4aFajaCahaba&a(a)a)a*a+a+a,a-a.a.a.a/a:aba;a%ataTaKaXabaaaaaaaaaaaaaaaaaaaaaaaaaaaaaaaaaa",
"aaaaaaaaaaaaaaaaaaaaaaaaaaaaaaaaaaabaYa4aFajaOaba<a=a+a*a*a*a+a>a>a-a-a-a.a/a)a/aba?aKaraKaXabaaaaaaaaaaaaaaaaaaaaaaaaaaaaaaaaaa",
"aaaaaaaaaaaaaaaaaaaaaaaaaaaaaaaaaaa@a[aFaFaTaba<a*a*a+a]a+a+a+a>a>a^a-a-a-a.a/a_a(aba{aKaKaOabaaaaaaaaaaaaaaaaaaaaaaaaaaaaaaaaaa",
"aaaaaaaaaaaaaaaaaaaaaaaaaaaaaaaaaaa@a[a[aFaTa2a|a=a+a+a]a+a+a}a>a^a^a}a-a-a.a.a}a_a&a{aKaOaOa~aaaaaaaaaaaaaaaaaaaaaaaaaaaaaaaaaa",
"aaaaaaaaaaaaaaaaaaaaaaaaaaaaaaaaaaaba[a[aFaTbaa2a=bbbcbdbebebebfbfa^a}a-a-a.a.a}aZbgaKaKaOaOaeaaaaaaaaaaaaaaaaaaaaaaaaaaaaaaaaaa",
"aaaaaaaaaaaaaaaaaaaaaaaaaaaaaaaaaaaaa2a[bharbia2bjbbbcbfbebkbfbfbfa^a^a-a-a.a}a}a&blaKa{aOa5aaaaaaaaaaaaaaaaaaaaaaaaaaaaaaaaaaaa",
"aaaaaaaaaaaaaaaaaaaaaaaaaaaaaaaaaaaaaba5bhanbmabbna=bobfbfbpbpbpbpa)a)a^a-bqa}bea&blafbra5a5aaaaaaaaaaaaaaaaaaaaaaaaaaaaaaaaaaaa",
"aaaaaaaaaaaaaaaaaaaaaaaaaaaaaaaaaaa@bhbsbtabanbmabbpbpababa2a$a$a2a2a2ababbpbpabbhafabbubvbwa@aaaaaaaaaaaaaaaaaaaaaaaaaaaaaaaaaa",
"aaaaaaaaaaaaaaaaaaaaaaaaaaaaaaaaa@bxbhbsbtabanbyafa2a2aTaSasararasarasaMaUacaqacbzafabbubvbwbAa@aaaaaaaaaaaaaaaaaaaaaaaaaaaaaaaa",
"aaaaaaaaaaaaaaaaaaaaaaaaaaaaaaaaa@bBaba#btbCabbyaCbDaTaSaSasasasasasasasaMaMaEaCbzaba5bubEabbAa@aaaaaaaaaaaaaaaaaaaaaaaaaaaaaaaa",
"aaaaaaaaaaaaaaaaaaaaaaaaaaaaaaaaa@a@abbFbGaZbpafaXaSaTaSaSaSasaMaMaMasaMaMararbHafbpa5bubIaba@a@aaaaaaaaaaaaaaaaaaaaaaaaaaaaaaaa",
"aaaaaaaaaaaaaaaaaaaaaaaaaaaaaaaaaaaaa#bJbGbKbLafaCaSaSasasasaraja4a4a4a4a4arasaOafbLa5bubMabaaaaaaaaaaaaaaaaaaaaaaaaaaaaaaaaaaaa",
"aaaaaaaaaaaaaaaaaaaaaaaaaaaaaaaaaaaaa&bNbGbKbLacaCaSaSasasarajajaja4a4a4a4arasaOa2bLbObubva5aaaaaaaaaaaaaaaaaaaaaaaaaaaaaaaaaaaa",
"aaaaaaaaaaaaaaaaaaaaaaaaaaaaaaaaaaaaa&bNbPbQbLacaEasasasarajajajajajaja4a4arasaOa2bLbObRbSbTaaaaaaaaaaaaaaaaaaaaaaaaaaaaaaaaaaaa",
"aaaaaaaaaaaaaaaaaaaaaaaaaaaaaaaaaaaaabbEbPbQbLacaEarararajajajajajajajajajarasaOa2bLbUbVbSbTaaaaaaaaaaaaaaaaaaaaaaaaaaaaaaaaaaaa",
"aaaaaaaaaaaaaaaaaaaaaaaaaaaaaaaaaaaaabbWbtbQbLafakarajajaRajajajajajajajajasasaOa2bLbUbXbSaNaaaaaaaaaaaaaaaaaaaaaaaaaaaaaaaaaaaa",
"aaaaaaaaaaaaaaaaaaaaaaaaaaaaaaaaaaaaabbWbtbQbLaeakajajajaRajajajajajajajajaMaMaXa2bpbYbXbZabaaaaaaaaaaaaaaaaaaaaaaaaaaaaaaaaaaaa",
"aaaaaaaaaaaaaaaaaaaaaaaaaaaaaaaaaaaaabbWb0abb1aeakajajaWaRaRajajajajajajajaFaFaXb2b3abbXbZabaaaaaaaaaaaaaaaaaaaaaaaaaaaaaaaaaaaa",
"aaaaaaaaaaaaaaaaaaaaaaaaaaaaaaaaaaaaabaYa{aNb1aeaYaFaFb4aWaRahahaRahahahahahahaXa2b3b2brbZabaaaaaaaaaaaaaaaaaaaaaaaaaaaaaaaaaaaa",
"aaaaaaaaaaaaaaaaaaaaaaaaaaaaaaaaaaaaabbWb5b2aeabaOaTaVaTb6b7b8aSaRaTaTaTaTaTaTaOa2b2b2b9bZabaaaaaaaaaaaaaaaaaaaaaaaaaaaaaaaaaaaa",
"aaaaaaaaaaaaaaaaaaaaaaaaaaaaaaaaaaaaabbWb4b2bLabbHaWaVb6b8b!b8b8aRatasasasasasaXabb#b2b9b$abaaaaaaaaaaaaaaaaaaaaaaaaaaaaaaaaaaaa",
"aaaaaaaaaaaaaaaaaaaaaaaaaaaaaaaaaaaaabbWb4anbLb%bHahb&b(b!b!b!b(aRaRasasasasasaXa2bLanb)bZabaaaaaaaaaaaaaaaaaaaaaaaaaaaaaaaaaaaa",
"aaaaaaaaaaaaaaaaaaaaaaaaaaaaaaaaaaa@a[aFahaLabaOaOaOaTaTaTaTaTaTaTaTaTaTaTaTaOaOaOabaLalahaOa@aaaaaaaaaaaaaaaaaaaaaaaaaaaaaaaaaa",
"aaaaaaaaaaaaaaaaaaaaaaaaaaaaaaaaaaa@aOa4ahaLanaLaLananananananananananananananaLaLanaLaha4aOa@aaaaaaaaaaaaaaaaaaaaaaaaaaaaaaaaaa",
"aaaaaaaaaaaaaaaaaaaaaaaaaaaaaaaaaaa@aOa4aTaOb*aLaLanb+b,b,b,b,b,b,b,b,b,b-b-b%bHaLanaLaTa4aOa@aaaaaaaaaaaaaaaaaaaaaaaaaaaaaaaaaa",
"aaaaaaaaaaaaaaaaaaaaaaaaaaaaaaaaaaa@aOa4aTaLaLaLanb+b.b,b,b,b,b,b,b,b,b,b/b/bpabaOaLaLaTa4aOa@aaaaaaaaaaaaaaaaaaaaaaaaaaaaaaaaaa",
"aaaaaaaaaaaaaaaaaaaaaaaaaaaaaaaaa@a@aOa4aTaOaOaOaba:b.b.b.b:b.b.b.b,b,b,b/b;bpabaOaOaOaTa4aOa@a@aaaaaaaaaaaaaaaaaaaaaaaaaaaaaaaa",
"aaaaaaaaaaaaaaaaaaaaaaaaaaaaaaaaa@a[aLa4aTaFaYaOb%b<b=b.b>b:b:b,b,b:b>b,b;b?b@abbHaYasaTa4aEa[a@aaaaaaaaaaaaaaaaaaaaaaaaaaaaaaaa",
"aaaaaaaaaaaaaaaaaaaaaaaaaaaaaaaaa@a[aLa4aTaFaYaOb%b<b=b>b[b=b=b[b,b:b>b=b:b?b]b%bHaYaSaTa4aEa[a@aaaaaaaaaaaaaaaaaaaaaaaaaaaaaaaa",
"aaaaaaaaaaaaaaaaaaaaaaaaaaaaaaaaa@a[aha4aTaFaYaOanb<b^b>b[b=b=b[b,b,b>b>b>b<b]b%bHaYaSaTa4aMa[a@aaaaaaaaaaaaaaaaaaaaaaaaaaaaaaaa",
"aaaaaaaaaaaaaaaaaaaaaaaaaaaaaaaaa@a[aha4aTaFaFbHaLa2b^b>b[b3b>b[b,b[b>b>b_b{aNaPaXaFaFaTa4aMa[a@aaaaaaaaaaaaaaaaaaaaaaaaaaaaaaaa",
"aaaaaaaaaaaaaaaaaaaaaaaaaaaaaaaaa@a[aLa4aTaFaFaLb|albCaNb[b>b>b[b>b[b>b{aeaNb}aYaXaFaFaTa4b~a[a@aaaaaaaaaaaaaaaaaaaaaaaaaaaaaaaa",
"aaaaaaaaaaaaaaaaaaaaaaaaaaaaaaaaa@a[aYa4aTaFaFaLb|cacbccbCaNaNbCaNbCaNaNajaFb}aPaXaFaFaTa4aEa[a@aaaaaaaaaaaaaaaaaaaaaaaaaaaaaaaa",
"aaaaaaaaaaaaaaaaaaaaaaaaaaaaaaaaa@a[aYaqabaFaFahb|cab}aFb}aFaFcdb5cdb5aFajaFb}aPalaFaFabaqaEa[a@aaaaaaaaaaaaaaaaaaaaaaaaaaaaaaaa",
"aaaaaaaaaaaaaaaaaaaaaaaaaaaaaaaaa@a[aYaqa)aNaFahb|ahb}aFb}aFaFb}aFb}aFaFajaFb}aPalaFaNa)aqaEa[a@aaaaaaaaaaaaaaaaaaaaaaaaaaaaaaaa",
"aaaaaaaaaaaaaaaaaaaaaaaaaaaaaaaaa@a[aYaqa)ceaNanbCanajaFb}aFaFajaFb}aFaFajaFbCaNaNaNcecfaqaYa[a@aaaaaaaaaaaaaaaaaaaaaaaaaaaaaaaa",
"aaaaaaaaaaaaaaaaaaaaaaaaaaaaaaaaa@a[bWaqa)ceceb/cgb/aeaNbCaNaNaeaNaeaNaNaeaNcgchchchcecfaqaPa[a@aaaaaaaaaaaaaaaaaaaaaaaaaaaaaaaa",
"aaaaaaaaaaaaaaaaaaaaaaaaaaaaaaaaaaabbWaqbpcichb/cgchcjchcgchchcjchcjchchcjchcgchcechcibpaqaPabaaaaaaaaaaaaaaaaaaaaaaaaaaaaaaaaaa",
"aaaaaaaaaaaaaaaaaaaaaaaaaaaaaaaaaaa@a?aNabaNcicicka<cjchchchchcjchcjchchcjceclciciciaNabaqa[a@aaaaaaaaaaaaaaaaaaaaaaaaaaaaaaaaaa",
"aaaaaaaaaaaaaaaaaaaaaaaaaaaaaaaaaaa@a?aNcmcnababababbpbpbpbpbpbpbpbpbpbpbpbpababababcncoaqa[a@aaaaaaaaaaaaaaaaaaaaaaaaaaaaaaaaaa",
"aaaaaaaaaaaaaaaaaaaaaaaaaaaaaaaaaaaaabcpcmcqcrcrcsctaqaqaqaqaqaqaqaqaqaqaqaqcscucvcwcxcscyabaaaaaaaaaaaaaaaaaaaaaaaaaaaaaaaaaaaa",
"aaaaaaaaaaaaaaaaaaaaaaaaaaaaaaaaaaaaabcmcmczczczczaPaPaPaPaPaPaPaPaPaPcAcAaPaPczczczaAcocBabaaaaaaaaaaaaaaaaaaaaaaaaaaaaaaaaaaaa",
"aaaaaaaaaaaaaaaaaaaaaaaaaaaaaaaaaaaaaaancpczaPaPaPaPaPaPaPcCcCcCcCcCcCcAcAaPaPaYaYaYcDcBabaaaaaaaaaaaaaaaaaaaaaaaaaaaaaaaaaaaaaa",
"aaaaaaaaaaaaaaaaaaaaaaaaaaaaaaaaaaaaaaaaananaAb*b*b*b*b*b*b*b*b*b*b*b*cncDaAaAaAcDcDanb%aaaaaaaaaaaaaaaaaaaaaaaaaaaaaaaaaaaaaaaa",
"aaaaaaaaaaaaaaaaaaaaaaaaaaaaaaaaaaaaaaaaaaaacEcEcEcEcEcEancFcFcFcFcFcFabcEcEcEcEcEcEaaaaaaaaaaaaaaaaaaaaaaaaaaaaaaaaaaaaaaaaaaaa",
"aaaaaaaaaaaaaaaaaaaaaaaaaaaaaaaaaaaaaaaaaaaaaaaaaaaaaaaaaaaaaaaaaaaaaaaaababaaabaaaaaaaaaaaaaaaaaaaaaaaaaaaaaaaaaaaaaaaaaaaaaaaa",
"aaaaaaaaaaaaaaaaaaaaaaaaaaaaaaaaaaaaaaaaaaaaaaaaaaaaaaaaaaaaaaaaaaaaaaaaaaaaaaaaaaaaaaaaaaaaaaaaaaaaaaaaaaaaaaaaaaaaaaaaaaaaaaaa",
"aaaaaaaaaaaaaaaaaaaaaaaaaaaaaaaaaaaaaaaaaaaaaaaaaaaaaaaaaaaaaaaaaaaaaaaaaaaaaaaaaaaaaaaaaaaaaaaaaaaaaaaaaaaaaaaaaaaaaaaaaaaaaaaa"
};
