/* XPM */
static char *car3_p2_s3[] = {
"64 64 38 2",
"aa	c #ff00ff",
"ab	c #000100",
"ac	c #743b35",
"ad	c #933933",
"ae	c #4e1e1c",
"af	c #54342f",
"ag	c #964a41",
"ah	c #cb4a49",
"ai	c #322c29",
"aj	c #3d3a3a",
"ak	c #6a2421",
"al	c #ce3b32",
"am	c #aa403c",
"an	c #e05e27",
"ao	c #221f1d",
"ap	c #e65517",
"aq	c #a9341f",
"ar	c #fb8c12",
"as	c #f35a0d",
"at	c #c74317",
"au	c #fee668",
"av	c #fba11b",
"aw	c #fef582",
"ax	c #f28022",
"ay	c #fef697",
"az	c #fdc22e",
"aA	c #dc793f",
"aB	c #f9aa34",
"aC	c #fcd347",
"aD	c #a2292d",
"aE	c #fef8b3",
"aF	c #fde687",
"aG	c #822122",
"aH	c #f7b95a",
"aI	c #8e8581",
"aJ	c #b6a9a4",
"aK	c #706560",
"aL	c #63564e",
"aaaaaaaaaaaaaaaaaaaaaaaaaaaaaaaaaaaaaaaaaaaaaaaaaaaaaaaaaaaaaaaaaaaaaaaaaaaaaaaaaaaaaaaaaaaaaaaaaaaaaaaaaaaaaaaaaaaaaaaaaaaaaaaa",
"aaaaaaaaaaaaaaaaaaaaaaaaaaaaaaaaaaaaaaaaaaaaaaaaaaaaaaaaaaaaaaaaaaaaaaaaaaaaaaaaaaaaaaaaaaaaaaaaaaaaaaaaaaaaaaaaaaaaaaaaaaaaaaaa",
"aaaaaaaaaaaaaaaaaaaaaaaaaaaaaaaaaaaaaaaaaaaaaaaaaaaaababababababababababababaaaaaaaaaaaaaaaaaaaaaaaaaaaaaaaaaaaaaaaaaaaaaaaaaaaa",
"aaaaaaaaaaaaaaaaaaaaaaaaaaaaaaaaaaaaaaaaaaabababababacadadadadadadadadadadadabababababaaaaaaaaaaaaaaaaaaaaaaaaaaaaaaaaaaaaaaaaaa",
"aaaaaaaaaaaaaaaaaaaaaaaaaaaaaaaaaaaaaaaaabaeafafagaeahadadadadadadadadadadadaeadafafafabaaaaaaaaaaaaaaaaaaaaaaaaaaaaaaaaaaaaaaaa",
"aaaaaaaaaaaaaaaaaaaaaaaaaaaaaaaaaaaaaaabaeaeafagagafadadadaiadadajafadadadadaeadagagafaeabaaaaaaaaaaaaaaaaaaaaaaaaaaaaaaaaaaaaaa",
"aaaaaaaaaaaaaaaaaaaaaaaaaaaaaaaaaaaaabaeaeaeagagagafadadaiaiadaiaiafafadadadaeadagagafaeacabaaaaaaaaaaaaaaaaaaaaaaaaaaaaaaaaaaaa",
"aaaaaaaaaaaaaaaaaaaaaaaaaaaaaaaaaaaaabaeaeagadadaeafadaiaiaiaiaiaiafafafadadadaeadadafaeacabaaaaaaaaaaaaaaaaaaaaaaaaaaaaaaaaaaaa",
"aaaaaaaaaaaaaaaaaaaaaaaaaaaaaaaaaaaaabafafadadadaeacakaiaiaiaiaiaiaialafafadadaeadadafaeacabaaaaaaaaaaaaaaaaaaaaaaaaaaaaaaaaaaaa",
"aaaaaaaaaaaaaaaaaaaaaaaaaaaaaaaaaaabaeadafadafadaeacafaiaiaiaiaiaiaialalafacadaeadadadaeacafabaaaaaaaaaaaaaaaaaaaaaaaaaaaaaaaaaa",
"aaaaaaaaaaaaaaaaaaaaaaaaaaaaaaaaaaabakadafadafafaeacaiaiaiaiaiaiaiaiaialafaiacaeafadafabafafabaaaaaaaaaaaaaaaaaaaaaaaaaaaaaaaaaa",
"aaaaaaaaaaaaaaaaaaaaaaaaaaaaaaaaaaabakadafadamafaeacaiaiaiaiaianaiaiaialaoaiajaoafafajabafafabaaaaaaaaaaaaaaaaaaaaaaaaaaaaaaaaaa",
"aaaaaaaaaaaaaaaaaaaaaaaaaaaaaaaaaaabakacakadadaeaeacaiaiaoaiaiapapaiaiaiaiaiajaoafafajabafafabaaaaaaaaaaaaaaaaaaaaaaaaaaaaaaaaaa",
"aaaaaaaaaaaaaaaaaaaaaaaaaaaaaaaaaaabakafakadadaeaiacaiaiafafafapapaqaiaiajajajaoafafajabafaiabaaaaaaaaaaaaaaaaaaaaaaaaaaaaaaaaaa",
"aaaaaaaaaaaaaaaaaaaaaaaaaaaaaaaaaaabakakakadadaiaeacapafafafapaparasaiaiajajajaoahajajabafaiabaaaaaaaaaaaaaaaaaaaaaaaaaaaaaaaaaa",
"aaaaaaaaaaaaaaaaaaaaaaaaaaaaaaaaaaabakagakadadabaiabanabababapararapasaiaqajajaiacajajabafaiabaaaaaaaaaaaaaaaaaaaaaaaaaaaaaaaaaa",
"aaaaaaaaaaaaaaaaaaaaaaaaaaaaaaaaaaabakagakadafaeabatanababatararauavasasasaqababajajajabafaiabaaaaaaaaaaaaaaaaaaaaaaaaaaaaaaaaaa",
"aaaaaaaaaaaaaaaaaaaaaaaaaaaaaaaaaaabakagakadababaeataratatatarawawavavavasaqabaqababafafafaiabaaaaaaaaaaaaaaaaaaaaaaaaaaaaaaaaaa",
"aaaaaaaaaaaaaaaaaaaaaaaaaaaaaaaaaaaaabakakababaeatataraxarararawawayavavavasaqapanababafafababaaaaaaaaaaaaaaaaaaaaaaaaaaaaaaaaaa",
"aaaaaaaaaaaaaaaaaaaaaaaaaaaaaaaaaaaaababakabaiaiatararaxararazawayayazavavasasazapatabafababaAaaaaaaaaaaaaaaaaaaaaaaaaaaaaaaaaaa",
"aaaaaaaaaaaaaaaaaaaaaaaaaaaaaaaaababababakabaiaiataraBawazazazayayayazavavasasazapatafafababadabaaaaaaaaaaaaaaaaaaaaaaaaaaaaaaaa",
"aaaaaaaaaaaaaaaaaaaaaaaaaaaaaaabaiaiaiababafabaiaqaraBayazaCayayayayayavavasazazatafafababanadadabaaaaaaaaaaaaaaaaaaaaaaaaaaaaaa",
"aaaaaaaaaaaaaaaaaaaaaaaaaaaaaaababababanabaeafabafatavayayababababababayavaCazazatafafabananabababaaaaaaaaaaaaaaaaaaaaaaaaaaaaaa",
"aaaaaaaaaaaaaaaaaaaaaaaaaaaaaaaaaaaaabananabaeafabababababaiajajaiaiaiababababababafabananabaaaaaaaaaaaaaaaaaaaaaaaaaaaaaaaaaaaa",
"aaaaaaaaaaaaaaaaaaaaaaaaaaaaaaaaaaaaabananabaeafafaiaiabaoaiafafaiafaiacacacagacafafabananabaaaaaaaaaaaaaaaaaaaaaaaaaaaaaaaaaaaa",
"aaaaaaaaaaaaaaaaaaaaaaaaaaaaaaaaaaaAabaqanaDabafafaiabaoaoaiaiaiaiaiaiaiacacacafafabanananabaaaaaaaaaaaaaaaaaaaaaaaaaaaaaaaaaaaa",
"aaaaaaaaaaaaaaaaaaaaaaaaaaaaaaaaaaaaabaqavapabafaiaoabaoaoaoaiacacacaiacacafafaoafabananaqabaaaaaaaaaaaaaaaaaaaaaaaaaaaaaaaaaaaa",
"aaaaaaaaaaaaaaaaaaaaaaaaaaaaaaaaaaaaaqatavavabafafaoaoaiaiaiafadagagagagagafaiabafabananaqabaaahaaaaaaaaaaaaaaaaaaaaaaaaaaaaaaaa",
"aaaaaaaaaaaaaaaaaaaaaaaaaaaaaaaaaaaaatavavavabacafaoaoaiaiafadadadagagagagafaiabaiabaCanananataaaaaaaaaaaaaaaaaaaaaaaaaaaaaaaaaa",
"aaaaaaaaaaaaaaaaaaaaaaaaaaaaaaaaaaaaatavauauabacacaiaiaiafadadadadadadagagafaiabaiabaCaCaBaBataaaaaaaaaaaaaaaaaaaaaaaaaaaaaaaaaa",
"aaaaaaaaaaaaaaaaaaaaaaaaaaaaaaaaaaaaabanauauabacacafafafadadadadadadadadadafaiabaiabaEauaBaBataaaaaaaaaaaaaaaaaaaaaaaaaaaaaaaaaa",
"aaaaaaaaaaaaaaaaaaaaaaaaaaaaaaaaaaaaabakanauabafadafadadanadadadadadadadadaiaiabaiabaEaBaBakaaaaaaaaaaaaaaaaaaaaaaaaaaaaaaaaaaaa",
"aaaaaaaaaaaaaaaaaaaaaaaaaaaaaaaaaaaaabakanauabadadadadadanadadadadadadadadacacaiaiabaFaBakabaaaaaaaaaaaaaaaaaaaaaaaaaaaaaaaaaaaa",
"aaaaaaaaaaaaaaaaaaaaaaaaaaaaaaaaaaaaabakababadadadadadaqananadadadadadadadakakaiaGaGabaBakabaaaaaaaaaaaaaaaaaaaaaaaaaaaaaaaaaaaa",
"aaaaaaaaaaaaaaaaaaaaaaaaaaaaaaaaaaaaabakabakadadakakakaGaqanaeaeanaeaeaeaeaeaeaiaiaGaGabakabaaaaaaaaaaaaaaaaaaaaaaaaaaaaaaaaaaaa",
"aaaaaaaaaaaaaaaaaaaaaaaaaaaaaaaaaaaaabakakaGadabababapabatavaxaoanabababababababaiaGaGaGakabaaaaaaaaaaaaaaaaaaaaaaaaaaaaaaaaaaaa",
"aaaaaaaaaaaaaaaaaaaaaaaaaaaaaaaaaaaaabakaGaGababaoaqapataxawaxaxanajaiaiaiaiaiaiabaiaGaGaGabaaaaaaaaaaaaaaaaaaaaaaaaaaaaaaaaaaaa",
"aaaaaaaaaaaaaaaaaaaaaaaaaaaaaaaaaaaaabakaGaeabaoaoaeaAaHawawawaHananaiaiaiaiaiaiaiabaeaGakabaaaaaaaaaaaaaaaaaaaaaaaaaaaaaaaaaaaa",
"aaaaaaaaaaaaaaaaaaaaaaaaaaaaaaaaaaaaabakaeaeababababababababababababababababababababaeaeaeabaaaaaaaaaaaaaaaaaaaaaaaaaaaaaaaaaaaa",
"aaaaaaaaaaaaaaaaaaaaaaaaaaaaaaaaaaaaabagaeaeaeaeaeaeaeaeaeaeaeaeaeaeaeaeaeaeaeaeaeaeaeaeagabaaaaaaaaaaaaaaaaaaaaaaaaaaaaaaaaaaaa",
"aaaaaaaaaaaaaaaaaaaaaaaaaaaaaaaaaaaaabagababaeaeaeaeaeaeaeaeaeaeaeaeaeaeaoaoaoaoaeaeaeabagabaaaaaaaaaaaaaaaaaaaaaaaaaaaaaaaaaaaa",
"aaaaaaaaaaaaaaaaaaaaaaaaaaaaaaaaaaaaabagabaeaeaeaeaeabaeaeaeaeaeaeaeaeaeaeaeabababaeaeabagabaaaaaaaaaaaaaaaaaaaaaaaaaaaaaaaaaaaa",
"aaaaaaaaaaaaaaaaaaaaaaaaaaaaaaaaaaaaabagabababababababababaoabababaeaeaeaeaoababababababagabaaaaaaaaaaaaaaaaaaaaaaaaaaaaaaaaaaaa",
"aaaaaaaaaaaaaaaaaaaaaaaaaaaaaaaaaaabaeagabakakabaoaiaiabakaoaoaeaeaoakaeaoaoaoabaoakaiabagacabaaaaaaaaaaaaaaaaaaaaaaaaaaaaaaaaaa",
"aaaaaaaaaaaaaaaaaaaaaaaaaaaaaaaaaaabaeagabakakabaoaiaiakaDaiaiaDaeaoakaiaoaoaoaoaoakaoabagacabaaaaaaaaaaaaaaaaaaaaaaaaaaaaaaaaaa",
"aaaaaaaaaaaaaaaaaaaaaaaaaaaaaaaaaaabaeagabakakabaeaiaDakaDaiaiaDaeaeakakakaiaoaoaoakaoabagacabaaaaaaaaaaaaaaaaaaaaaaaaaaaaaaaaaa",
"aaaaaaaaaaaaaaaaaaaaaaaaaaaaaaaaaaabaeagabakakaoaeaiaDakaDaGakaDaeaDakakadakakakaiakakabagacabaaaaaaaaaaaaaaaaaaaaaaaaaaaaaaaaaa",
"aaaaaaaaaaaaaaaaaaaaaaaaaaaaaaaaaaabaeagabakakaeaDaeaDakaDakakaDakaDakakadakaDakaiakakabagacabaaaaaaaaaaaaaaaaaaaaaaaaaaaaaaaaaa",
"aaaaaaaaaaaaaaaaaaaaaaaaaaaaaaaaaaabakagabakakaeaDaeaDakaDakakaDakaDakakadakaDakaiakakabagacabaaaaaaaaaaaaaaaaaaaaaaaaaaaaaaaaaa",
"aaaaaaaaaaaaaaaaaaaaaaaaaaaaaaaaaaabakagabakakaeaDaeaDakaDakakaDakaDakakadakaDakaeakakabagacabaaaaaaaaaaaaaaaaaaaaaaaaaaaaaaaaaa",
"aaaaaaaaaaaaaaaaaaaaaaaaaaaaaaaaaaabakagabakakaeaDaeaDakaDakakaDakaDakakadakaDakaeakakabagacabaaaaaaaaaaaaaaaaaaaaaaaaaaaaaaaaaa",
"aaaaaaaaaaaaaaaaaaaaaaaaaaaaaaaaaaabakagabakakaeaDaeadakaDakakadakaDakakadakaDakakakakabagakabaaaaaaaaaaaaaaaaaaaaaaaaaaaaaaaaaa",
"aaaaaaaaaaaaaaaaaaaaaaaaaaaaaaaaaaabakagabakakaeaDaeadakaDakakadakadakakadakaDakakakakabagakabaaaaaaaaaaaaaaaaaaaaaaaaaaaaaaaaaa",
"aaaaaaaaaaaaaaaaaaaaaaaaaaaaaaaaaaabakagabakakaeaDakadakaDakakadakadakakadakaDakakakakabagakabaaaaaaaaaaaaaaaaaaaaaaaaaaaaaaaaaa",
"aaaaaaaaaaaaaaaaaaaaaaaaaaaaaaaaaaaaabakabakakakaDaeadakakakakadakadakakadakadakakakakabagabaaaaaaaaaaaaaaaaaaaaaaaaaaaaaaaaaaaa",
"aaaaaaaaaaaaaaaaaaaaaaaaaaaaaaaaaaaaabakacababababababababababababababababababababababagagabaaaaaaaaaaaaaaaaaaaaaaaaaaaaaaaaaaaa",
"aaaaaaaaaaaaaaaaaaaaaaaaaaaaaaaaaaaaabakacacagagagagagagagagagagagagagagagagagagagagaeagadabaaaaaaaaaaaaaaaaaaaaaaaaaaaaaaaaaaaa",
"aaaaaaaaaaaaaaaaaaaaaaaaaaaaaaaaaaaaabacacakakakakakakakakakakakakakakakakakakakakakaeagacabaaaaaaaaaaaaaaaaaaaaaaaaaaaaaaaaaaaa",
"aaaaaaaaaaaaaaaaaaaaaaaaaaaaaaaaaaaaaiaeakakakakakakakakakakakakakakakakakakakakakakaeacabafaaaaaaaaaaaaaaaaaaaaaaaaaaaaaaaaaaaa",
"aaaaaaaaaaaaaaaaaaaaaaaaaaaaaaaaaaaaaiaIaeaeaeaeaeaeaeaeaeaeaeaeaeaeaeabaeaeaeaeaeaeaeaoaJajaaaaaaaaaaaaaaaaaaaaaaaaaaaaaaaaaaaa",
"aaaaaaaaaaaaaaaaaaaaaaaaaaaaaaaaaaaaabaKaLaLaLaLaLaLaLaLaeaIaIaIaIaIaIabaLaLaLaLaLaLaLafaIabaaaaaaaaaaaaaaaaaaaaaaaaaaaaaaaaaaaa",
"aaaaaaaaaaaaaaaaaaaaaaaaaaaaaaaaaaaaaaababababababababababababababababababababababababababaaaaaaaaaaaaaaaaaaaaaaaaaaaaaaaaaaaaaa",
"aaaaaaaaaaaaaaaaaaaaaaaaaaaaaaaaaaaaaaaaaaaaaaaaaaaaaaaaaaaaaaaaaaaaaaaaaaaaaaaaaaaaaaaaaaaaaaaaaaaaaaaaaaaaaaaaaaaaaaaaaaaaaaaa",
"aaaaaaaaaaaaaaaaaaaaaaaaaaaaaaaaaaaaaaaaaaaaaaaaaaaaaaaaaaaaaaaaaaaaaaaaaaaaaaaaaaaaaaaaaaaaaaaaaaaaaaaaaaaaaaaaaaaaaaaaaaaaaaaa"
};
