/* XPM */
static char *car3_p2_s4[] = {
"64 64 38 2",
"aa	c #ff00ff",
"ab	c #000000",
"ac	c #1d0e0d",
"ad	c #240e0c",
"ae	c #130707",
"af	c #150d0b",
"ag	c #251210",
"ah	c #321212",
"ai	c #0c0b0a",
"aj	c #0f0e0e",
"ak	c #1a0908",
"al	c #330e0c",
"am	c #2a100f",
"an	c #381709",
"ao	c #080707",
"ap	c #391505",
"aq	c #2a0d07",
"ar	c #3e2304",
"as	c #3c1603",
"at	c #311005",
"au	c #3f391a",
"av	c #3e2806",
"aw	c #3f3d20",
"ax	c #3c2008",
"ay	c #3f3d25",
"az	c #3f300b",
"aA	c #371e0f",
"aB	c #3e2a0d",
"aC	c #3f3411",
"aD	c #280a0b",
"aE	c #3f3e2c",
"aF	c #3f3921",
"aG	c #200808",
"aH	c #3d2e16",
"aI	c #232120",
"aJ	c #2d2a29",
"aK	c #1c1918",
"aL	c #181513",
"aaaaaaaaaaaaaaaaaaaaaaaaaaaaaaaaaaaaaaaaaaaaaaaaaaaaaaaaaaaaaaaaaaaaaaaaaaaaaaaaaaaaaaaaaaaaaaaaaaaaaaaaaaaaaaaaaaaaaaaaaaaaaaaa",
"aaaaaaaaaaaaaaaaaaaaaaaaaaaaaaaaaaaaaaaaaaaaaaaaaaaaaaaaaaaaaaaaaaaaaaaaaaaaaaaaaaaaaaaaaaaaaaaaaaaaaaaaaaaaaaaaaaaaaaaaaaaaaaaa",
"aaaaaaaaaaaaaaaaaaaaaaaaaaaaaaaaaaaaaaaaaaaaaaaaaaaaababababababababababababaaaaaaaaaaaaaaaaaaaaaaaaaaaaaaaaaaaaaaaaaaaaaaaaaaaa",
"aaaaaaaaaaaaaaaaaaaaaaaaaaaaaaaaaaaaaaaaaaabababababacadadadadadadadadadadadabababababaaaaaaaaaaaaaaaaaaaaaaaaaaaaaaaaaaaaaaaaaa",
"aaaaaaaaaaaaaaaaaaaaaaaaaaaaaaaaaaaaaaaaabaeafafagaeahadadadadadadadadadadadaeadafafafabaaaaaaaaaaaaaaaaaaaaaaaaaaaaaaaaaaaaaaaa",
"aaaaaaaaaaaaaaaaaaaaaaaaaaaaaaaaaaaaaaabaeaeafagagafadadadaiadadajafadadadadaeadagagafaeabaaaaaaaaaaaaaaaaaaaaaaaaaaaaaaaaaaaaaa",
"aaaaaaaaaaaaaaaaaaaaaaaaaaaaaaaaaaaaabaeaeaeagagagafadadaiaiadaiaiafafadadadaeadagagafaeacabaaaaaaaaaaaaaaaaaaaaaaaaaaaaaaaaaaaa",
"aaaaaaaaaaaaaaaaaaaaaaaaaaaaaaaaaaaaabaeaeagadadaeafadaiaiaiaiaiaiafafafadadadaeadadafaeacabaaaaaaaaaaaaaaaaaaaaaaaaaaaaaaaaaaaa",
"aaaaaaaaaaaaaaaaaaaaaaaaaaaaaaaaaaaaabafafadadadaeacakaiaiaiaiaiaiaialafafadadaeadadafaeacabaaaaaaaaaaaaaaaaaaaaaaaaaaaaaaaaaaaa",
"aaaaaaaaaaaaaaaaaaaaaaaaaaaaaaaaaaabaeadafadafadaeacafaiaiaiaiaiaiaialalafacadaeadadadaeacafabaaaaaaaaaaaaaaaaaaaaaaaaaaaaaaaaaa",
"aaaaaaaaaaaaaaaaaaaaaaaaaaaaaaaaaaabakadafadafafaeacaiaiaiaiaiaiaiaiaialafaiacaeafadafabafafabaaaaaaaaaaaaaaaaaaaaaaaaaaaaaaaaaa",
"aaaaaaaaaaaaaaaaaaaaaaaaaaaaaaaaaaabakadafadamafaeacaiaiaiaiaianaiaiaialaoaiajaoafafajabafafabaaaaaaaaaaaaaaaaaaaaaaaaaaaaaaaaaa",
"aaaaaaaaaaaaaaaaaaaaaaaaaaaaaaaaaaabakacakadadaeaeacaiaiaoaiaiapapaiaiaiaiaiajaoafafajabafafabaaaaaaaaaaaaaaaaaaaaaaaaaaaaaaaaaa",
"aaaaaaaaaaaaaaaaaaaaaaaaaaaaaaaaaaabakafakadadaeaiacaiaiafafafapapaqaiaiajajajaoafafajabafaiabaaaaaaaaaaaaaaaaaaaaaaaaaaaaaaaaaa",
"aaaaaaaaaaaaaaaaaaaaaaaaaaaaaaaaaaabakakakadadaiaeacapafafafapaparasaiaiajajajaoahajajabafaiabaaaaaaaaaaaaaaaaaaaaaaaaaaaaaaaaaa",
"aaaaaaaaaaaaaaaaaaaaaaaaaaaaaaaaaaabakagakadadabaiabanabababapararapasaiaqajajaiacajajabafaiabaaaaaaaaaaaaaaaaaaaaaaaaaaaaaaaaaa",
"aaaaaaaaaaaaaaaaaaaaaaaaaaaaaaaaaaabakagakadafaeabatanababatararauavasasasaqababajajajabafaiabaaaaaaaaaaaaaaaaaaaaaaaaaaaaaaaaaa",
"aaaaaaaaaaaaaaaaaaaaaaaaaaaaaaaaaaabakagakadababaeataratatatarawawavavavasaqabaqababafafafaiabaaaaaaaaaaaaaaaaaaaaaaaaaaaaaaaaaa",
"aaaaaaaaaaaaaaaaaaaaaaaaaaaaaaaaaaaaabakakababaeatataraxarararawawayavavavasaqapanababafafababaaaaaaaaaaaaaaaaaaaaaaaaaaaaaaaaaa",
"aaaaaaaaaaaaaaaaaaaaaaaaaaaaaaaaaaaaababakabaiaiatararaxararazawayayazavavasasazapatabafababaAaaaaaaaaaaaaaaaaaaaaaaaaaaaaaaaaaa",
"aaaaaaaaaaaaaaaaaaaaaaaaaaaaaaaaababababakabaiaiataraBawazazazayayayazavavasasazapatafafababadabaaaaaaaaaaaaaaaaaaaaaaaaaaaaaaaa",
"aaaaaaaaaaaaaaaaaaaaaaaaaaaaaaabaiaiaiababafabaiaqaraBayazaCayayayayayavavasazazatafafababanadadabaaaaaaaaaaaaaaaaaaaaaaaaaaaaaa",
"aaaaaaaaaaaaaaaaaaaaaaaaaaaaaaababababanabaeafabafatavayayababababababayavaCazazatafafabananabababaaaaaaaaaaaaaaaaaaaaaaaaaaaaaa",
"aaaaaaaaaaaaaaaaaaaaaaaaaaaaaaaaaaaaabananabaeafabababababaiajajaiaiaiababababababafabananabaaaaaaaaaaaaaaaaaaaaaaaaaaaaaaaaaaaa",
"aaaaaaaaaaaaaaaaaaaaaaaaaaaaaaaaaaaaabananabaeafafaiaiabaoaiafafaiafaiacacacagacafafabananabaaaaaaaaaaaaaaaaaaaaaaaaaaaaaaaaaaaa",
"aaaaaaaaaaaaaaaaaaaaaaaaaaaaaaaaaaaAabaqanaDabafafaiabaoaoaiaiaiaiaiaiaiacacacafafabanananabaaaaaaaaaaaaaaaaaaaaaaaaaaaaaaaaaaaa",
"aaaaaaaaaaaaaaaaaaaaaaaaaaaaaaaaaaaaabaqavapabafaiaoabaoaoaoaiacacacaiacacafafaoafabananaqabaaaaaaaaaaaaaaaaaaaaaaaaaaaaaaaaaaaa",
"aaaaaaaaaaaaaaaaaaaaaaaaaaaaaaaaaaaaaqatavavabafafaoaoaiaiaiafadagagagagagafaiabafabananaqabaaahaaaaaaaaaaaaaaaaaaaaaaaaaaaaaaaa",
"aaaaaaaaaaaaaaaaaaaaaaaaaaaaaaaaaaaaatavavavabacafaoaoaiaiafadadadagagagagafaiabaiabaCanananataaaaaaaaaaaaaaaaaaaaaaaaaaaaaaaaaa",
"aaaaaaaaaaaaaaaaaaaaaaaaaaaaaaaaaaaaatavauauabacacaiaiaiafadadadadadadagagafaiabaiabaCaCaBaBataaaaaaaaaaaaaaaaaaaaaaaaaaaaaaaaaa",
"aaaaaaaaaaaaaaaaaaaaaaaaaaaaaaaaaaaaabanauauabacacafafafadadadadadadadadadafaiabaiabaEauaBaBataaaaaaaaaaaaaaaaaaaaaaaaaaaaaaaaaa",
"aaaaaaaaaaaaaaaaaaaaaaaaaaaaaaaaaaaaabakanauabafadafadadanadadadadadadadadaiaiabaiabaEaBaBakaaaaaaaaaaaaaaaaaaaaaaaaaaaaaaaaaaaa",
"aaaaaaaaaaaaaaaaaaaaaaaaaaaaaaaaaaaaabakanauabadadadadadanadadadadadadadadacacaiaiabaFaBakabaaaaaaaaaaaaaaaaaaaaaaaaaaaaaaaaaaaa",
"aaaaaaaaaaaaaaaaaaaaaaaaaaaaaaaaaaaaabakababadadadadadaqananadadadadadadadakakaiaGaGabaBakabaaaaaaaaaaaaaaaaaaaaaaaaaaaaaaaaaaaa",
"aaaaaaaaaaaaaaaaaaaaaaaaaaaaaaaaaaaaabakabakadadakakakaGaqanaeaeanaeaeaeaeaeaeaiaiaGaGabakabaaaaaaaaaaaaaaaaaaaaaaaaaaaaaaaaaaaa",
"aaaaaaaaaaaaaaaaaaaaaaaaaaaaaaaaaaaaabakakaGadabababapabatavaxaoanabababababababaiaGaGaGakabaaaaaaaaaaaaaaaaaaaaaaaaaaaaaaaaaaaa",
"aaaaaaaaaaaaaaaaaaaaaaaaaaaaaaaaaaaaabakaGaGababaoaqapataxawaxaxanajaiaiaiaiaiaiabaiaGaGaGabaaaaaaaaaaaaaaaaaaaaaaaaaaaaaaaaaaaa",
"aaaaaaaaaaaaaaaaaaaaaaaaaaaaaaaaaaaaabakaGaeabaoaoaeaAaHawawawaHananaiaiaiaiaiaiaiabaeaGakabaaaaaaaaaaaaaaaaaaaaaaaaaaaaaaaaaaaa",
"aaaaaaaaaaaaaaaaaaaaaaaaaaaaaaaaaaaaabakaeaeababababababababababababababababababababaeaeaeabaaaaaaaaaaaaaaaaaaaaaaaaaaaaaaaaaaaa",
"aaaaaaaaaaaaaaaaaaaaaaaaaaaaaaaaaaaaabagaeaeaeaeaeaeaeaeaeaeaeaeaeaeaeaeaeaeaeaeaeaeaeaeagabaaaaaaaaaaaaaaaaaaaaaaaaaaaaaaaaaaaa",
"aaaaaaaaaaaaaaaaaaaaaaaaaaaaaaaaaaaaabagababaeaeaeaeaeaeaeaeaeaeaeaeaeaeaoaoaoaoaeaeaeabagabaaaaaaaaaaaaaaaaaaaaaaaaaaaaaaaaaaaa",
"aaaaaaaaaaaaaaaaaaaaaaaaaaaaaaaaaaaaabagabaeaeaeaeaeabaeaeaeaeaeaeaeaeaeaeaeabababaeaeabagabaaaaaaaaaaaaaaaaaaaaaaaaaaaaaaaaaaaa",
"aaaaaaaaaaaaaaaaaaaaaaaaaaaaaaaaaaaaabagabababababababababaoabababaeaeaeaeaoababababababagabaaaaaaaaaaaaaaaaaaaaaaaaaaaaaaaaaaaa",
"aaaaaaaaaaaaaaaaaaaaaaaaaaaaaaaaaaabaeagabakakabaoaiaiabakaoaoaeaeaoakaeaoaoaoabaoakaiabagacabaaaaaaaaaaaaaaaaaaaaaaaaaaaaaaaaaa",
"aaaaaaaaaaaaaaaaaaaaaaaaaaaaaaaaaaabaeagabakakabaoaiaiakaDaiaiaDaeaoakaiaoaoaoaoaoakaoabagacabaaaaaaaaaaaaaaaaaaaaaaaaaaaaaaaaaa",
"aaaaaaaaaaaaaaaaaaaaaaaaaaaaaaaaaaabaeagabakakabaeaiaDakaDaiaiaDaeaeakakakaiaoaoaoakaoabagacabaaaaaaaaaaaaaaaaaaaaaaaaaaaaaaaaaa",
"aaaaaaaaaaaaaaaaaaaaaaaaaaaaaaaaaaabaeagabakakaoaeaiaDakaDaGakaDaeaDakakadakakakaiakakabagacabaaaaaaaaaaaaaaaaaaaaaaaaaaaaaaaaaa",
"aaaaaaaaaaaaaaaaaaaaaaaaaaaaaaaaaaabaeagabakakaeaDaeaDakaDakakaDakaDakakadakaDakaiakakabagacabaaaaaaaaaaaaaaaaaaaaaaaaaaaaaaaaaa",
"aaaaaaaaaaaaaaaaaaaaaaaaaaaaaaaaaaabakagabakakaeaDaeaDakaDakakaDakaDakakadakaDakaiakakabagacabaaaaaaaaaaaaaaaaaaaaaaaaaaaaaaaaaa",
"aaaaaaaaaaaaaaaaaaaaaaaaaaaaaaaaaaabakagabakakaeaDaeaDakaDakakaDakaDakakadakaDakaeakakabagacabaaaaaaaaaaaaaaaaaaaaaaaaaaaaaaaaaa",
"aaaaaaaaaaaaaaaaaaaaaaaaaaaaaaaaaaabakagabakakaeaDaeaDakaDakakaDakaDakakadakaDakaeakakabagacabaaaaaaaaaaaaaaaaaaaaaaaaaaaaaaaaaa",
"aaaaaaaaaaaaaaaaaaaaaaaaaaaaaaaaaaabakagabakakaeaDaeadakaDakakadakaDakakadakaDakakakakabagakabaaaaaaaaaaaaaaaaaaaaaaaaaaaaaaaaaa",
"aaaaaaaaaaaaaaaaaaaaaaaaaaaaaaaaaaabakagabakakaeaDaeadakaDakakadakadakakadakaDakakakakabagakabaaaaaaaaaaaaaaaaaaaaaaaaaaaaaaaaaa",
"aaaaaaaaaaaaaaaaaaaaaaaaaaaaaaaaaaabakagabakakaeaDakadakaDakakadakadakakadakaDakakakakabagakabaaaaaaaaaaaaaaaaaaaaaaaaaaaaaaaaaa",
"aaaaaaaaaaaaaaaaaaaaaaaaaaaaaaaaaaaaabakabakakakaDaeadakakakakadakadakakadakadakakakakabagabaaaaaaaaaaaaaaaaaaaaaaaaaaaaaaaaaaaa",
"aaaaaaaaaaaaaaaaaaaaaaaaaaaaaaaaaaaaabakacababababababababababababababababababababababagagabaaaaaaaaaaaaaaaaaaaaaaaaaaaaaaaaaaaa",
"aaaaaaaaaaaaaaaaaaaaaaaaaaaaaaaaaaaaabakacacagagagagagagagagagagagagagagagagagagagagaeagadabaaaaaaaaaaaaaaaaaaaaaaaaaaaaaaaaaaaa",
"aaaaaaaaaaaaaaaaaaaaaaaaaaaaaaaaaaaaabacacakakakakakakakakakakakakakakakakakakakakakaeagacabaaaaaaaaaaaaaaaaaaaaaaaaaaaaaaaaaaaa",
"aaaaaaaaaaaaaaaaaaaaaaaaaaaaaaaaaaaaaiaeakakakakakakakakakakakakakakakakakakakakakakaeacabafaaaaaaaaaaaaaaaaaaaaaaaaaaaaaaaaaaaa",
"aaaaaaaaaaaaaaaaaaaaaaaaaaaaaaaaaaaaaiaIaeaeaeaeaeaeaeaeaeaeaeaeaeaeaeabaeaeaeaeaeaeaeaoaJajaaaaaaaaaaaaaaaaaaaaaaaaaaaaaaaaaaaa",
"aaaaaaaaaaaaaaaaaaaaaaaaaaaaaaaaaaaaabaKaLaLaLaLaLaLaLaLaeaIaIaIaIaIaIabaLaLaLaLaLaLaLafaIabaaaaaaaaaaaaaaaaaaaaaaaaaaaaaaaaaaaa",
"aaaaaaaaaaaaaaaaaaaaaaaaaaaaaaaaaaaaaaababababababababababababababababababababababababababaaaaaaaaaaaaaaaaaaaaaaaaaaaaaaaaaaaaaa",
"aaaaaaaaaaaaaaaaaaaaaaaaaaaaaaaaaaaaaaaaaaaaaaaaaaaaaaaaaaaaaaaaaaaaaaaaaaaaaaaaaaaaaaaaaaaaaaaaaaaaaaaaaaaaaaaaaaaaaaaaaaaaaaaa",
"aaaaaaaaaaaaaaaaaaaaaaaaaaaaaaaaaaaaaaaaaaaaaaaaaaaaaaaaaaaaaaaaaaaaaaaaaaaaaaaaaaaaaaaaaaaaaaaaaaaaaaaaaaaaaaaaaaaaaaaaaaaaaaaa"
};
