/* XPM */
static char *car_blue_04_s1[] = {
/* columns rows colors chars-per-pixel */
"64 64 25 1 ",
"  c None",
". c #010000",
"X c #252923",
"o c #2D342B",
"O c #282936",
"+ c #37442E",
"@ c #3A4338",
"# c #141A50",
"$ c #162065",
"% c #1B2078",
"& c #22286F",
"* c #423875",
"= c #444B43",
"- c #66696E",
"; c #1E2285",
": c #272D87",
"> c #2D339B",
", c #3433AB",
"< c #2D34B8",
"1 c #3736BD",
"2 c #453DA9",
"3 c #584582",
"4 c #5352D4",
"5 c #685ACC",
"6 c #A6A8AB",
/* pixels */
"                                                                ",
"                                                                ",
"                          ............                          ",
"                     .....111111111111.....                     ",
"                    .,111;111111111111;,111.                    ",
"                   .%1111;111111111111;1111;.                   ",
"                  .2%1111;111111111111;1111;,.                  ",
"                  .2%111;11111111111111;111:,.                  ",
"                  .2;111;11111111111111;111:,.                  ",
"                 .;2;111;11111111111111;111:,;.                 ",
"                 .;1;111;11111111111111;111:,;.                 ",
"                 .;2;111;11111111111111;111:2;.                 ",
"                 .;1;11;;11111111111111;;11:,;.                 ",
"                 .;1;11;,1,1111111111111;11:2;.                 ",
"                 .;1;11;,,............11;11:2%.                 ",
"                 .;1;1%...=========@@X...;1:2%.                 ",
"                 .%1;..==========@@@@@@@=..;2%.                 ",
"                 .%,:.@==========@@@@@@==@.;2&.                 ",
"                ....,2.==..............@@.;;....                ",
"               .322..,,..11111111111111..,,..*22.               ",
"               .......,111111111111111111,..$....               ",
"                  .2.@.111111111111111111.@.2.                  ",
"                  .2.@.111111111111111111.@.2.                  ",
"                  .2.@.111111111111111111.@.2.                  ",
"                  .2.@.111111111111111111.@.2.                  ",
"                  .2.=.111111111111111111.@.2.                  ",
"                  .2.=.111111111111111111.@.2.                  ",
"                  .2.=.111111111111111111.+.2.                  ",
"                  .2..,<11111<<<1<1111111:..2.                  ",
"                  .2.,,;;;%%%%%&%%%%%%%;;1:.2.                  ",
"                  .2%,;%................;::::.                  ",
"                  .%,%%.oooooooooooooooo.;:::.                  ",
"                  .%%%.oooooooooooooooooo.:::.                  ",
"                  .%%%....................:::.                  ",
"                  .%>%%%&&&&&&&&&%&&&&&&&%::#.                  ",
"                  .2########################>.                  ",
"                  .2.%;;;;;;;%%%%%%%%%%;;;#.>.                  ",
"                  .2.%;;;;;;;;;%%%%%%%%;;;;.2.                  ",
"                  .2.%$$$$$$$$$%%%%;%%%$$$$.2.                  ",
"                  .2.%,;,;1;<;;,%<;;1;1;>>$.2.                  ",
"                  .2.%>;,;<;<;;,%<;;1;1;>>$.2.                  ",
"                  .2.%>;,;<;<;;,%<;;1;,;>>$.2.                  ",
"                  .2.%#;,;<;<;;,%<;;1;,;>##.2.                  ",
"                 .&2.;;#,;<;<;;,%<;;1;,;#::.2:.                 ",
"                 .&2.;;#,;<;,;;,%<;;1;,;#::.2:.                 ",
"                 .&2.;;#>;<;,;;,%<;;1;,;#::.2:.                 ",
"                 .&2.;;#>;<;,;;,%<;;1;,;#::.2:.                 ",
"                 .&2.%;#>;,;,;;,%<;;1;,;#::.2:.                 ",
"                 .&2.%%#>;,;,;;,%,;;,;,;#::.2:.                 ",
"                 .&2.%%#>;,;,;%,%,;;,;,;#::.2:.                 ",
"                 .&2.%%#,;,;,%%,%,;;,%,;#::.2:.                 ",
"                 .&2.%$%,%,;,%%,%,;;,%,;%#:.2:.                 ",
"                 .&2.&2%,%,;,%%,%,;;,%,;>&&.2:.                 ",
"                 .&2.$>%>%,;,%%,%,;;,%,%>&&.2&.                 ",
"                  .2.$>$,%,%,%%,%,%%,%,%,&&.2.                  ",
"                  .2:......................22.                  ",
"                  .:::22222222222222222222$22.                  ",
"                  .55#;;;;;;;;OOO#%%%;;;;;$54.                  ",
"                  .#2#;;;;;;;;%%%%%%;;;;;;$5..                  ",
"                  .-########O######.######OO-.                  ",
"                  .---------O666666.---------.                  ",
"                   ..........................                   ",
"                                                                ",
"                                                                "
};
