/* XPM */
static char *car4_p2_s2[] = {
"64 64 231 2",
"aa	c #ff00ff",
"ab	c #000100",
"ac	c #000000",
"ad	c #655246",
"ae	c #a9655c",
"af	c #431416",
"ag	c #3c0d0f",
"ah	c #3c0e0f",
"ai	c #976261",
"aj	c #a15f56",
"ak	c #4d1619",
"al	c #4d1719",
"am	c #9a614f",
"an	c #671d20",
"ao	c #55121a",
"ap	c #7c2028",
"aq	c #8a232a",
"ar	c #7d1e20",
"as	c #654f3e",
"at	c #351210",
"au	c #a65f4f",
"av	c #831f26",
"aw	c #8b1e26",
"ax	c #a62630",
"ay	c #711f20",
"az	c #ae2531",
"aA	c #96222b",
"aB	c #c47070",
"aC	c #be6255",
"aD	c #411111",
"aE	c #320b0f",
"aF	c #bb363e",
"aG	c #ad2b30",
"aH	c #952126",
"aI	c #c96e62",
"aJ	c #a13234",
"aK	c #a62a30",
"aL	c #b52a30",
"aM	c #731b20",
"aN	c #962b2a",
"aO	c #bc2f33",
"aP	c #591417",
"aQ	c #811d23",
"aR	c #8e272a",
"aS	c #511516",
"aT	c #671e19",
"aU	c #371113",
"aV	c #652524",
"aW	c #56272b",
"aX	c #6e2a31",
"aY	c #662b30",
"aZ	c #7c3433",
"a0	c #702f39",
"a1	c #623236",
"a2	c #7a353c",
"a3	c #72363c",
"a4	c #883f3e",
"a5	c #582c33",
"a6	c #2b1314",
"a7	c #431316",
"a8	c #842427",
"a9	c #602524",
"a!	c #9c272d",
"a#	c #111314",
"a$	c #90242a",
"a%	c #9e2b2f",
"a&	c #bc3832",
"a(	c #a62f30",
"a)	c #1b1414",
"a*	c #a86b6b",
"a+	c #b0666c",
"a,	c #c34e39",
"a-	c #6a262b",
"a.	c #9f9795",
"a/	c #9d6161",
"a:	c #a55c62",
"a;	c #90271f",
"a<	c #a05f53",
"a=	c #5b5552",
"a>	c #c38175",
"a?	c #663232",
"a@	c #4f4b48",
"a[	c #191614",
"a]	c #11100e",
"a^	c #2a1a17",
"a_	c #3a1e1a",
"a{	c #702f13",
"a|	c #794011",
"a}	c #6f6865",
"a~	c #4c4543",
"ba	c #504c4d",
"bb	c #887e7d",
"bc	c #7a6665",
"bd	c #8a6968",
"be	c #c97954",
"bf	c #7c6262",
"bg	c #cf805a",
"bh	c #ce9365",
"bi	c #555354",
"bj	c #b9745f",
"bk	c #280a0c",
"bl	c #1c1d21",
"bm	c #792d06",
"bn	c #63220b",
"bo	c #491d19",
"bp	c #742f2d",
"bq	c #373334",
"br	c #442928",
"bs	c #a23a23",
"bt	c #5e3638",
"bu	c #5c2527",
"bv	c #6c282a",
"bw	c #a5351b",
"bx	c #b05118",
"by	c #ab4b20",
"bz	c #b16c26",
"bA	c #caa65a",
"bB	c #ac3816",
"bC	c #712e2e",
"bD	c #cc452d",
"bE	c #5c1719",
"bF	c #863031",
"bG	c #983034",
"bH	c #ce5a2a",
"bI	c #d3843d",
"bJ	c #b17e43",
"bK	c #7e6117",
"bL	c #bd452c",
"bM	c #872b2d",
"bN	c #9b4227",
"bO	c #852a29",
"bP	c #c6562a",
"bQ	c #b1865b",
"bR	c #cbb877",
"bS	c #55201e",
"bT	c #691a1d",
"bU	c #d5562a",
"bV	c #b54d20",
"bW	c #662727",
"bX	c #cbc08f",
"bY	c #7f7334",
"bZ	c #c7431f",
"b0	c #a45325",
"b1	c #db915a",
"b2	c #da803d",
"b3	c #a23028",
"b4	c #b68c5f",
"b5	c #7b5d2d",
"b6	c #712626",
"b7	c #a7682e",
"b8	c #b95e1d",
"b9	c #662c2d",
"b!	c #aa2b29",
"b#	c #b36d40",
"b$	c #c7a170",
"b%	c #541a0f",
"b&	c #86625e",
"b(	c #3c2222",
"b)	c #6d2628",
"b*	c #4d1d1e",
"b+	c #762b2a",
"b,	c #7f2b31",
"b-	c #8f2f34",
"b.	c #5e2021",
"b/	c #735451",
"b:	c #270f0e",
"b;	c #873433",
"b<	c #847773",
"b=	c #552d2b",
"b>	c #6e272e",
"b?	c #552324",
"b@	c #612b2b",
"b[	c #765f5b",
"b]	c #522325",
"b^	c #944949",
"b_	c #773030",
"b{	c #502625",
"b|	c #6c2325",
"b}	c #5d1c1d",
"b~	c #5c3e3b",
"ca	c #8d4140",
"cb	c #6d3836",
"cc	c #74403f",
"cd	c #8d444a",
"ce	c #6a3d3f",
"cf	c #873c41",
"cg	c #643636",
"ch	c #817774",
"ci	c #312b27",
"cj	c #782124",
"ck	c #5c2425",
"cl	c #835051",
"cm	c #a5585a",
"cn	c #74272b",
"co	c #803332",
"cp	c #90464b",
"cq	c #84262b",
"cr	c #ae2e30",
"cs	c #ad3635",
"ct	c #b72f32",
"cu	c #6c282b",
"cv	c #822829",
"cw	c #782526",
"cx	c #462425",
"cy	c #382122",
"cz	c #94282c",
"cA	c #80716b",
"cB	c #551a19",
"cC	c #551b19",
"cD	c #4f191a",
"cE	c #6c2324",
"cF	c #5a3830",
"cG	c #82413c",
"cH	c #91282a",
"cI	c #591a1d",
"cJ	c #7c2927",
"cK	c #8a2c2a",
"cL	c #631c1d",
"cM	c #977272",
"cN	c #97615c",
"cO	c #996a64",
"cP	c #835e5e",
"cQ	c #775554",
"cR	c #8d5f61",
"cS	c #866766",
"cT	c #7a5e5c",
"cU	c #493031",
"cV	c #51282c",
"cW	c #825657",
"cX	c #b08286",
"cY	c #6f5f56",
"aaaaaaaaaaaaaaaaaaaaaaaaaaaaaaaaaaaaaaaaaaaaaaaaaaaaaaaaaaaaaaaaaaaaaaaaaaaaaaaaaaaaaaaaaaaaaaaaaaaaaaaaaaaaaaaaaaaaaaaaaaaaaaaa",
"aaaaaaaaaaaaaaaaaaaaaaaaaaaaaaaaaaaaaaaaaaaaaaaaaaaaaaaaaaaaaaaaaaaaaaaaaaaaaaaaaaaaaaaaaaaaaaaaaaaaaaaaaaaaaaaaaaaaaaaaaaaaaaaa",
"aaaaaaaaaaaaaaaaaaaaaaaaaaaaaaaaaaaaaaaaaaaaaaababacacacacababababababababacacacacaaaaaaaaaaaaaaaaaaaaaaaaaaaaaaaaaaaaaaaaaaaaaa",
"aaaaaaaaaaaaaaaaaaaaaaaaaaaaaaaaaaaaaaaaaaabadaeaeafagagahaiajajajajajajajahakakaladadaaaaaaaaaaaaaaaaaaaaaaaaaaaaaaaaaaaaaaaaaa",
"aaaaaaaaaaaaaaaaaaaaaaaaaaaaaaaaaaaaaaacabamamamanahagaoapaqaqaqaqaqaqaqaqarahagasamamatataaaaaaaaaaaaaaaaaaaaaaaaaaaaaaaaaaaaaa",
"aaaaaaaaaaaaaaaaaaaaaaaaaaaaaaaaaaaaacacasauavawaxayaoaqazazazaAaBaBaxaxazazaraoayayaCaCaDabaaaaaaaaaaaaaaaaaaaaaaaaaaaaaaaaaaaa",
"aaaaaaaaaaaaaaaaaaaaaaaaaaaaaaaaaaaaacaEauaraFazaGayaqaqazazaAaAaAaAaAaAazaAaraAaAaAaHaIaraDaaaaaaaaaaaaaaaaaaaaaaaaaaaaaaaaaaaa",
"aaaaaaaaaaaaaaaaaaaaaaaaaaaaaaaaaaaaacaEarazaFazazayaqazazaAazazazazazazaAaAaHaAaAazaFawaHaDaaaaaaaaaaaaaaaaaaaaaaaaaaaaaaaaaaaa",
"aaaaaaaaaaaaaaaaaaaaaaaaaaaaaaaaaaacaEaoarazaFazazaraAazazaAazazazazazazazaAaHaAaAazazaJaKarabaaaaaaaaaaaaaaaaaaaaaaaaaaaaaaaaaa",
"aaaaaaaaaaaaaaaaaaaaaaaaaaaaaaaaaaacahaAarazaFaLaHaAazaAazazazazazazazazazazaAaHaAazazaJaKaMaDaaaaaaaaaaaaaaaaaaaaaaaaaaaaaaaaaa",
"aaaaaaaaaaaaaaaaaaaaaaaaaaaaaaaaaaacahaNarazaFaLaHaAazaAazazazazazazazazazazaAaHaAazazaJaKaMaDaaaaaaaaaaaaaaaaaaaaaaaaaaaaaaaaaa",
"aaaaaaaaaaaaaaaaaaaaaaaaaaaaaaaaaaacahaNaraFaFazaraAazaAazazazaAaAaAaAazazazaAaHaAaAazaJaKaMaDaaaaaaaaaaaaaaaaaaaaaaaaaaaaaaaaaa",
"aaaaaaaaaaaaaaaaaaaaaaaaaaaaaaaaaaacahaNarazaFazarazaAazazazaxaOazazazaAazazazarazaAazaJaKaMaDaaaaaaaaaaaaaaaaaaaaaaaaaaaaaaaaaa",
"aaaaaaaaaaaaaaaaaaaaaaaaaaaaaaaaaaacahaNarazaFazarazaAazazazaxaOazazazaAazazazarazaAazaJaKaMaDaaaaaaaaaaaaaaaaaaaaaaaaaaaaaaaaaa",
"aaaaaaaaaaaaaaaaaaaaaaaaaaaaaaaaaaacahaNarazaFazarazaAaPazazaxaOazazazaAaQazazarazaAazaJaKaMaDaaaaaaaaaaaaaaaaaaaaaaaaaaaaaaaaaa",
"aaaaaaaaaaaaaaaaaaaaaaaaaaaaaaaaaaacahaNarazaFaHaAazaAazazazaxaOazazazaAazazazaAaHaAazaJaKaMaDaaaaaaaaaaaaaaaaaaaaaaaaaaaaaaaaaa",
"aaaaaaaaaaaaaaaaaaaaaaaaaaaaaaaaaaacahaRarazaFaHaAazaDaPaPaPaSaTaPaPaPaDaPaPazaAaHaAazaJaKaMaDaaaaaaaaaaaaaaaaaaaaaaaaaaaaaaaaaa",
"aaaaaaaaaaaaaaaaaaaaaaaaaaaaaaaaaaacaUaRarazaVaPaDaPaWaXaXaXaYaZaXaXaXaWa0a0aPaDaPaDazaJaKaMataaaaaaaaaaaaaaaaaaaaaaaaaaaaaaaaaa",
"aaaaaaaaaaaaaaaaaaaaaaaaaaaaaaaaaaacaUalaraPaPaWaXaXa1a2a2a2a3a4a2a2a2a1aXaXa0a0a5aPaDawaKaMabaaaaaaaaaaaaaaaaaaaaaaaaaaaaaaaaaa",
"aaaaaaaaaaaaaaaaaaaaaaaaaaaaaaaaaaacacalaRaDaXa1a2a2a2a2a2a2a2a2a2a2a2a1a2a2a2a2a1a2aDaKaRaDabaaaaaaaaaaaaaaaaaaaaaaaaaaaaaaaaaa",
"aaaaaaaaaaaaaaaaaaaaaaaaaaaaaaaaacacacabaRaDaXaYaXaXaXaXaXaXa2a2a2a2a2a1a2a2a2a2a1a2aDaKaDaDabacaaaaaaaaaaaaaaaaaaaaaaaaaaaaaaaa",
"aaaaaaaaaaaaaaaaaaaaaaaaaaaaaaaca6a7a7abaDa8aPaYaXaXaXaXaWaWaWa1a1a1a1a1a1a3a4a2a2aPa8aPaDa9a6a6acaaaaaaaaaaaaaaaaaaaaaaaaaaaaaa",
"aaaaaaaaaaaaaaaaaaaaaaaaaaaaaaacacacacacaba8aPaYaYaPaPaPaPaPaPaPaPaPaDaDaDaSaTa2a2aPa!aPaDabacacacaaaaaaaaaaaaaaaaaaaaaaaaaaaaaa",
"aaaaaaaaaaaaaaaaaaaaaaaaaaaaaaaaaaaca6aca#aDa$aSaSa%aKaKalalalalalalalaoaoa&a(aPaPa!aPaPaDa6acaaaaaaaaaaaaaaaaaaaaaaaaaaaaaaaaaa",
"aaaaaaaaaaaaaaaaaaaaaaaaaaaaaaaaaaaca6aca)aDa$a%a%aoalala*a*a*a*a*a+a+a+a+a,axalala!aPa-aDa6acaaaaaaaaaaaaaaaaaaaaaaaaaaaaaaaaaa",
"aaaaaaaaaaaaaaaaaaaaaaaaaaaaaaaaaaaca6aca)aDa$a(aba.a/a:alahahaoalaEaEaoaoa;a<a=a>aUaPa?aDa6acaaaaaaaaaaaaaaaaaaaaaaaaaaaaaaaaaa",
"aaaaaaaaaaaaaaaaaaaaaaaaaaaaaaaaaaaca6aca)aDaSaba@ababa[a[a]a^a^a^a_a_a_a^a{a|ababa}aba?aDa6acaaaaaaaaaaaaaaaaaaaaaaaaaaaaaaaaaa",
"aaaaaaaaaaaaaaaaaaaaaaaaaaaaaaaaaaaca6aca)aDaSa~babbbababababcbcbcbdbdbebfbgbhbibjababa?aDbkacaaaaaaaaaaaaaaaaaaaaaaaaaaaaaaaaaa",
"aaaaaaaaaaaaaaaaaaaaaaaaaaaaaaaaaaaca6aca)aDaSaba[bla[a[a_a^ababababa_bma|a|a|bnbmababa?boa6acaaaaaaaaaaaaaaaaaaaaaaaaaaaaaaaaaa",
"aaaaaaaaaaaaaaaaaaaaaaaaaaaaaaaaaaaca6aca)aDbpa6a[bqbraEbsaEbtaUbubvbwbxbybzbAbmbBbCaba?bobkacaaaaaaaaaaaaaaaaaaaaaaaaaaaaaaaaaa",
"aaaaaaaaaaaaaaaaaaaaaaaaaaaaaaaaaaaca6aca)aDbpala[a~a6bDbDahaUbEbFbGbwbHbIbJbAbKbLbCaba?boa6acaaaaaaaaaaaaaaaaaaaaaaaaaaaaaaaaaa",
"aaaaaaaaaaaaaaaaaaaaaaaaaaaaaaaaaaaca6acabaDbMala_a~bNbDbDahbObEbFbubsbPbIbQbRbKbLbCabbSboa6acaaaaaaaaaaaaaaaaaaaaaaaaaaaaaaaaaa",
"aaaaaaaaaaaaaaaaaaaaaaaaaaaaaaaaaaaca6acbkbTbMala_a<bNbUbUbVbObEbFbWaEbPbIbQbXbYbZbCaEbMboa6acaaaaaaaaaaaaaaaaaaaaaaaaaaaaaaaaaa",
"aaaaaaaaaaaaaaaaaaaaaaaaaaaaaaaaaaaca6a)abaDbMala_a<b0b1b2bVbObEbFbWahb3bHb4bXb5albCabbSb6a6acaaaaaaaaaaaaaaaaaaaaaaaaaaaaaaaaaa",
"aaaaaaaaaaaaaaaaaaaaaaaaaaaaaaaaaaaca6aca)aDbMala_a~b7b1b2b8ahbEbFbWahb9b!b#b$b%albCaba?aDa6acaaaaaaaaaaaaaaaaaaaaaaaaaaaaaaaaaa",
"aaaaaaaaaaaaaaaaaaaaaaaaaaaaaaaaaaaca6aca)atbMala_b&b(b)b)b*b+bEb,bWahb-apb.b/b:b;bCaba?aDa6acaaaaaaaaaaaaaaaaaaaaaaaaaaaaaaaaaa",
"aaaaaaaaaaaaaaaaaaaaaaaaaaaaaaaaaaaca6aca)atbMalabb<b=bFbFb+b+aob>b?ahb-b,b@b[a_b;aUabb]aDa6acaaaaaaaaaaaaaaaaaaaaaaaaaaaaaaaaaa",
"aaaaaaaaaaaaaaaaaaaaaaaaaaaaaaaaaaaca6aca)atanala^a~b=b^bFb+ahb>b>b?b?aob-bCb&a_alb@abb]aDa6acaaaaaaaaaaaaaaaaaaaaaaaaaaaaaaaaaa",
"aaaaaaaaaaaaaaaaaaaaaaaaaaaaaaaaaaaca6aca)atanala^b[a6bEbEahb?b>b>b?b?b>aoaUa~abb_b@abb]aDa6acaaaaaaaaaaaaaaaaaaaaaaaaaaaaaaaaaa",
"aaaaaaaaaaaaaaaaaaaaaaaaaaaaaaaaaaaca6abb{atanaRabb[brbFbFbWbWb,b,bWbWb,b,b@b[a^b_aUaDb]aDb|abaaaaaaaaaaaaaaaaaaaaaaaaaaaaaaaaaa",
"aaaaaaaaaaaaaaaaaaaaaaaaaaaaaaaaaaaca6abatb}aMa%aSa~b~cacacbcccdcdcecccdcfcgchcialcjaPaDaDb|abaaaaaaaaaaaaaaaaaaaaaaaaaaaaaaaaaa",
"aaaaaaaaaaaaaaaaaaaaaaaaaaaaaaaaaaaca6abb}bTaDaDaSaPababababababababababababababaPaPckb|aDb|abaaaaaaaaaaaaaaaaaaaaaaaaaaaaaaaaaa",
"aaaaaaaaaaaaaaaaaaaaaaaaaaaaaaaaaaacaUb}ataPaDclcmcmcmcmcmcmcmcmcmcmcmcmcmcmcmcmcmaPaDaDb|b|aDaaaaaaaaaaaaaaaaaaaaaaaaaaaaaaaaaa",
"aaaaaaaaaaaaaaaaaaaaaaaaaaaaaaaaacbkaUataPaPaDaDaPcnaPaPaPaPaPaPaPaPaPaPaPaPaPaPaPaPaDaDaDcocjabaaaaaaaaaaaaaaaaaaaaaaaaaaaaaaaa",
"aaaaaaaaaaaaaaaaaaaaaaaaaaaaaaaaacbkaUatcnaPawcjaPcpcqcqa$aQaQa$a$awawa$aHcncpaPa$a$aDaWaSbMaMabaaaaaaaaaaaaaaaaaaaaaaaaaaaaaaaa",
"aaaaaaaaaaaaaaaaaaaaaaaaaaaaaaaaacbkaUatcnaPawaAaPcqcqazaFa$a$azazawawcrazaHckaPcsa$aDaWaPavaMabaaaaaaaaaaaaaaaaaaaaaaaaaaaaaaaa",
"aaaaaaaaaaaaaaaaaaaaaaaaaaaaaaaaacbkaUatcnaPawaAaPazazaAaAcjcjaAaAaMaMaAaAaraNaPcsaHaDaXaTavanabaaaaaaaaaaaaaaaaaaaaaaaaaaaaaaaa",
"aaaaaaaaaaaaaaaaaaaaaaaaaaaaaaaaacbkaEatcnaPawaAazazaAaAazazazazazazazazazcrcraNctaHaDaXaTavanabaaaaaaaaaaaaaaaaaaaaaaaaaaaaaaaa",
"aaaaaaaaaaaaaaaaaaaaaaaaaaaaaaaaacbkaEatcuaPawaAazazaAazazazazazazazazazazazazaAcraraDaZaTavanabaaaaaaaaaaaaaaaaaaaaaaaaaaaaaaaa",
"aaaaaaaaaaaaaaaaaaaaaaaaaaaaaaaaacbkaEatcuaPaKaHaraHaraHaHaHaHaHaHaHaHaHaHaHaHaraHaRaSaYaSavanabaaaaaaaaaaaaaaaaaaaaaaaaaaaaaaaa",
"aaaaaaaaaaaaaaaaaaaaaaaaaaaaaaaaacaEaEatcuaPaKaHaRaKcvaKaKaKaKaKaKaKaKaKaKaKaKaRaHaRaSaYaSavanabaaaaaaaaaaaaaaaaaaaaaaaaaaaaaaaa",
"aaaaaaaaaaaaaaaaaaaaaaaaaaaaaaaaacaEaEataDa!aKaPaDaPataPaPaPaPaPaPaPaPaPaPaPaDaDaPaRa%aSaSananabaaaaaaaaaaaaaaaaaaaaaaaaaaaaaaaa",
"aaaaaaaaaaaaaaaaaaaaaaaaaaaaaaaaacaEaEabatcwatcxcxcxcxcxa-a-a-a-a-a-a-a-a-a-b]b]b]aDa%aSatanaEacaaaaaaaaaaaaaaaaaaaaaaaaaaaaaaaa",
"aaaaaaaaaaaaaaaaaaaaaaaaaaaaaaaaacaEaEaEana8atcxcxcxcxcxcxa-a-a-a-a-a-a-a-b]b]b]cyaSczavananaEacaaaaaaaaaaaaaaaaaaaaaaaaaaaaaaaa",
"aaaaaaaaaaaaaaaaaaaaaaaaaaaaaaaaacaEaEaEanbTatcxcxcxcxcxcxcxcxcxcAcAa-cxb]b]b]b]cyatatb}b}anaEacaaaaaaaaaaaaaaaaaaaaaaaaaaaaaaaa",
"aaaaaaaaaaaaaaaaaaaaaaaaaaaaaaaaaaacbkcBcCcDcEcFatatatatatatatatatatatatataDaDb:atb}cGcHcHbkacaaaaaaaaaaaaaaaaaaaaaaaaaaaaaaaaaa",
"aaaaaaaaaaaaaaaaaaaaaaaaaaaaaaaaaaacbkcBcCb}cIalalcvcvcvcvcvcvcvcvcvcvcvcvaNaNcJcKarbkcHcHaEacaaaaaaaaaaaaaaaaaaaaaaaaaaaaaaaaaa",
"aaaaaaaaaaaaaaaaaaaaaaaaaaaaaaaaaaacbkbkcCbkb.b.cEcEanb}b}b}b}b}b}b}b}b}b}ayarahcLcLb}cHbkbkacaaaaaaaaaaaaaaaaaaaaaaaaaaaaaaaaaa",
"aaaaaaaaaaaaaaaaaaaaaaaaaaaaaaaaaaaaacbkbkcMaUaEaEaEaEaEancNcOcOcOcOcOb}anaMaEaEaEaEbkbkcPabaaaaaaaaaaaaaaaaaaaaaaaaaaaaaaaaaaaa",
"aaaaaaaaaaaaaaaaaaaaaaaaaaaaaaaaaaaaacbkbkbkcPcPcPbkcQbkbkbkbkbkbkbkbkbkbkbkbkcQbkcPcRcRbkacaaaaaaaaaaaaaaaaaaaaaaaaaaaaaaaaaaaa",
"aaaaaaaaaaaaaaaaaaaaaaaaaaaaaaaaaaaaaaacacbka6a6a6cSa6cTcUcRcRcRcRcRcRcRcRcVcWaEcXaEaEabacaaaaaaaaaaaaaaaaaaaaaaaaaaaaaaaaaaaaaa",
"aaaaaaaaaaaaaaaaaaaaaaaaaaaaaaaaaaaaaaaaaaacacacacabcYababababababababababababadabacacaaaaaaaaaaaaaaaaaaaaaaaaaaaaaaaaaaaaaaaaaa",
"aaaaaaaaaaaaaaaaaaaaaaaaaaaaaaaaaaaaaaaaaaaaaaaaaaaaaaaaaaaaaaaaaaaaaaaaaaaaaaaaaaaaaaaaaaaaaaaaaaaaaaaaaaaaaaaaaaaaaaaaaaaaaaaa",
"aaaaaaaaaaaaaaaaaaaaaaaaaaaaaaaaaaaaaaaaaaaaaaaaaaaaaaaaaaaaaaaaaaaaaaaaaaaaaaaaaaaaaaaaaaaaaaaaaaaaaaaaaaaaaaaaaaaaaaaaaaaaaaaa"
};
