/* XPM */
static char *car4_p2_s3[] = {
"64 64 42 2",
"aa	c #ff00ff",
"ab	c #000100",
"ac	c #cba48d",
"ad	c #b6a9a4",
"ae	c #6a2421",
"af	c #4e1e1c",
"ag	c #822122",
"ah	c #a2292d",
"ai	c #b2272e",
"aj	c #debdad",
"ak	c #cb4a49",
"al	c #ce3b32",
"am	c #dc793f",
"an	c #9f9690",
"ao	c #a9341f",
"ap	c #aa403c",
"aq	c #322c29",
"ar	c #221f1d",
"as	c #54342f",
"at	c #743b35",
"au	c #e05e27",
"av	c #f28022",
"aw	c #ded0cb",
"ax	c #706560",
"ay	c #f35a0d",
"az	c #c74317",
"aA	c #933933",
"aB	c #4d4a49",
"aC	c #e65517",
"aD	c #fb8c12",
"aE	c #fdc22e",
"aF	c #fcd347",
"aG	c #fee668",
"aH	c #fef697",
"aI	c #fef582",
"aJ	c #f7b95a",
"aK	c #f9aa34",
"aL	c #fba11b",
"aM	c #63564e",
"aN	c #b56f60",
"aO	c #3d3a3a",
"aP	c #fbefee",
"aaaaaaaaaaaaaaaaaaaaaaaaaaaaaaaaaaaaaaaaaaaaaaaaaaaaaaaaaaaaaaaaaaaaaaaaaaaaaaaaaaaaaaaaaaaaaaaaaaaaaaaaaaaaaaaaaaaaaaaaaaaaaaaa",
"aaaaaaaaaaaaaaaaaaaaaaaaaaaaaaaaaaaaaaaaaaaaaaaaaaaaaaaaaaaaaaaaaaaaaaaaaaaaaaaaaaaaaaaaaaaaaaaaaaaaaaaaaaaaaaaaaaaaaaaaaaaaaaaa",
"aaaaaaaaaaaaaaaaaaaaaaaaaaaaaaaaaaaaaaaaaaaaabababaaaaaaaaababababababababaaaaaaaaabababaaaaaaaaaaaaaaaaaaaaaaaaaaaaaaaaaaaaaaaa",
"aaaaaaaaaaaaaaaaaaaaaaaaaaaaaaaaaaaaaaaaaaabacacacabaaaaabadacacacacacacacabaaaaabacacacabaaaaaaaaaaaaaaaaaaaaaaaaaaaaaaaaaaaaaa",
"aaaaaaaaaaaaaaaaaaaaaaaaaaaaaaaaaaaaaaaaabaeaeaeaeabaaabafaeaeaeaeaeaeaeaeagabaaabaeaeaeaeabaaaaaaaaaaaaaaaaaaaaaaaaaaaaaaaaaaaa",
"aaaaaaaaaaaaaaaaaaaaaaaaaaaaaaaaaaaaaaaaabagahaiahaeabaeaiaiaiagajajahahaiaiagabaeaeaiaiagabaaaaaaaaaaaaaaaaaaaaaaaaaaaaaaaaaaaa",
"aaaaaaaaaaaaaaaaaaaaaaaaaaaaaaaaaaaaaaabagagakaiahaeaeaeaiaiagagagagagagaiagagagagagaiaiagagabaaaaaaaaaaaaaaaaaaaaaaaaaaaaaaaaaa",
"aaaaaaaaaaaaaaaaaaaaaaaaaaaaaaaaaaaaaaabagaiakaiaiaeaeaiaiagaiaiaiaiaiaiagagaiagagaiakaiaiagabaaaaaaaaaaaaaaaaaaaaaaaaaaaaaaaaaa",
"aaaaaaaaaaaaaaaaaaaaaaaaaaaaaaaaaaaaaaabagaiakaiaiagagaiaiagaiaiaiaiaiaiaiagaiagagaiaiakaiagabaaaaaaaaaaaaaaaaaaaaaaaaaaaaaaaaaa",
"aaaaaaaaaaaaaaaaaaaaaaaaaaaaaaaaaaaaabagagaiakaiaiagaiagaiaiaiaiaiaiaiaiaiaiagaiagaiaiakaiagagabaaaaaaaaaaaaaaaaaaaaaaaaaaaaaaaa",
"aaaaaaaaaaaaaaaaaaaaaaaaaaaaaaaaaaaaabagagaiakaiaiagaiagaiaiaiaiaiaiaiaiaiaiagaiagaiaiakaiagagabaaaaaaaaaaaaaaaaaaaaaaaaaaaaaaaa",
"aaaaaaaaaaaaaaaaaaaaaaaaaaaaaaaaaaaaabagagakakaiagagaiagaiaiaiagagagagaiaiaiagaiagagaiakaiagagabaaaaaaaaaaaaaaaaaaaaaaaaaaaaaaaa",
"aaaaaaaaaaaaaaaaaaaaaaaaaaaaaaaaaaaaabagagaiakaiagaiagaiaiaiahalaiaiaiagaiaiaiagaiagaiakaiagagabaaaaaaaaaaaaaaaaaaaaaaaaaaaaaaaa",
"aaaaaaaaaaaaaaaaaaaaaaaaaaaaaaaaaaaaabagagaiakaiagaiagaiaiaiahalaiaiaiagaiaiaiagaiagaiakaiagagabaaaaaaaaaaaaaaaaaaaaaaaaaaaaaaaa",
"aaaaaaaaaaaaaaaaaaaaaaaaaaaaaaaaaaaaabagagaiakaiagaiagaiaiaiahalaiaiaiagaiaiaiagaiagaiakaiagagabaaaaaaaaaaaaaaaaaaaaaaaaaaaaaaaa",
"aaaaaaaaaaaaaaaaaaaaaaaaaaaaaaaaaaaaabagagaiakaiagaiagaiaiaiahalaiaiaiagaiaiaiagaiagaiakaiagagabaaaaaaaaaaaaaaaaaaaaaaaaaaaaaaaa",
"aaaaaaaaaaaaaaaaaaaaaaaaaaaaaaaaaaaaabagagaiakaiagaiagaiaiaiahalaiaiaiagaiaiaiagaiagaiakaiagagabaaaaaaaaaaaaaaaaaaaaaaaaaaaaaaaa",
"aaaaaaaaaaaaaaaaaaaaaaaaaaaaaaaaaaaaabagagaiakaiagaiagaiaiaiahalaiaiaiagaiaiaiagaiagaiakaiagaeabaaaaaaaaaaaaaaaaaaaaaaaaaaaaaaaa",
"aaaaaaaaaaaaaaaaaaaaaaaaaaaaaaaaaaaaaaabagaiaiagaiaiagaiaiaiahalaiaiaiagaiaiaiaiagaiagaiaiagabaaaaaaaaaaaaaaaaaaaaaaaaaaaaaaaaaa",
"aaaaaaaaaaaaaaaaaaaaaaaaaaaaaaaaaaaaaaabagagaiagaiaiaiaiaiaiaiaiaiaiaiagaiaiaiaiagaiagaiagagabaaaaaaaaaaaaaaaaaaaaaaaaaaaaaaaaaa",
"aaaaaaaaaaaaaaaaaaaaaaaaaaaaaaaaaaaaaaabagagaiahaiaiaiaiaiaiaiaiaiaiaiagaiaiaiaiagaiagaiagagabaaaaaaaaaaaaaaaaaaaaaaaaaaaaaaaaaa",
"aaaaaaaaaaaaaaaaaaaaaaaaaaaaaaaaaaaaaaabagagaiahaiaiaiaiagagagagagagagagagahalaiaiaiagaiagaeabaaaaaaaaaaaaaaaaaaaaaaaaaaaaaaaaaa",
"aaaaaaaaaaaaaaaaaaaaaaaaaaaaaaaaaaaaaaaaabagaiahahaiaiaiaiaiaiaiaiaiagagagahalaiaiaiaiaiagabaaaaaaaaaaaaaaaaaaaaaaaaaaaaaaaaaaaa",
"aaaaaaaaaaaaaaaaaaaaaaaaaaaaaaaaaaaaaaaaabagaiahahahaiaiabababababababababalahaiaiaiaiaiagabaaaaaaaaaaaaaaaaaaaaaaaaaaaaaaaaaaaa",
"aaaaaaaaaaaaaaaaaaaaaaaaaaaaaaaaaaaaaaaaabagaiahahabababadadadadadadadadadamahababaiaiaiagabaaaaaaaaaaaaaaaaaaaaaaaaaaaaaaaaaaaa",
"aaaaaaaaaaaaaaaaaaaaaaaaaaaaaaaaaaaaaaaaabagaiahabanananabababababababababaoaoadajabaiapagabaaaaaaaaaaaaaaaaaaaaaaaaaaaaaaaaaaaa",
"aaaaaaaaaaaaaaaaaaaaaaaaaaaaaaaaaaaaaaaaabagahabanababaqaqarasasasatatatasauavababawabapagabaaaaaaaaaaaaaaaaaaaaaaaaaaaaaaaaaaaa",
"aaaaaaaaaaaaaaaaaaaaaaaaaaaaaaaaaaaaaaaaabagahababaxababababasasasatatayafayavabazababapagabaaaaaaaaaaaaaaaaaaaaaaaaaaaaaaaaaaaa",
"aaaaaaaaaaaaaaaaaaaaaaaaaaaaaaaaaaaaaaaaabagahabaqabaqaqatasababababatayavavavazayababapaAabaaaaaaaaaaaaaaaaaaaaaaaaaaaaaaaaaaaa",
"aaaaaaaaaaaaaaaaaaaaaaaaaaaaaaaaaaaaaaaaabagaAabaqabaqabauabaBabasataCaDavaEaEayayatabapaAabaaaaaaaaaaaaaaaaaaaaaaaaaaaaaaaaaaaa",
"aaaaaaaaaaaaaaaaaaaaaaaaaaaaaaaaaaaaaaaaabagaAabaqababauauabababasakaCavaFaGaEaEauatabapaAabaaaaaaaaaaaaaaaaaaaaaaaaaaaaaaaaaaaa",
"aaaaaaaaaaaaaaaaaaaaaaaaaaaaaaaaaaaaaaaaabagapabatabauauauabaAabasasauavaFaHaGaEauatabapaAabaaaaaaaaaaaaaaaaaaaaaaaaaaaaaaaaaaaa",
"aaaaaaaaaaaaaaaaaaaaaaaaaaaaaaaaaaaaaaaaabagapabataoauavavavaAabasasabavaFaHaHaGayatabapaAabaaaaaaaaaaaaaaaaaaaaaaaaaaaaaaaaaaaa",
"aaaaaaaaaaaaaaaaaaaaaaaaaaaaaaaaaaaaaaaaabagapabataoavaIaFavaAabasasabaoavaHaHaJabatabapaAabaaaaaaaaaaaaaaaaaaaaaaaaaaaaaaaaaaaa",
"aaaaaaaaaaaaaaaaaaaaaaaaaaaaaaaaaaaaaaaaabagapabatabaKaIaFaLababasasabaqaoaJaJaoabatabapagabaaaaaaaaaaaaaaaaaaaaaaaaaaaaaaaaaaaa",
"aaaaaaaaaaaaaaaaaaaaaaaaaaaaaaaaaaaaaaaaabaeapabatatararararatabasasabatafafafafatatabapagabaaaaaaaaaaaaaaaaaaaaaaaaaaaaaaaaaaaa",
"aaaaaaaaaaaaaaaaaaaaaaaaaaaaaaaaaaaaaaaaabaeapababaxasasasatatabaqaqabatasasasatatababagagabaaaaaaaaaaaaaaaaaaaaaaaaaaaaaaaaaaaa",
"aaaaaaaaaaaaaaaaaaaaaaaaaaaaaaaaaaaaaaaaabaeaeabasabasaxasatabaqaqaqaqabatatatatabasabagagabaaaaaaaaaaaaaaaaaaaaaaaaaaaaaaaaaaaa",
"aaaaaaaaaaaaaaaaaaaaaaaaaaaaaaaaaaaaaaaaabaeaeabasasababababaqaqaqaqaqaqababababasasabagagabaaaaaaaaaaaaaaaaaaaaaaaaaaaaaaaaaaaa",
"aaaaaaaaaaaaaaaaaaaaaaaaaaaaaaaaaaaaaaabaeaeaeagabasaqasasasasasasasasasasasasasasabagagagagabaaaaaaaaaaaaaaaaaaaaaaaaaaaaaaaaaa",
"aaaaaaaaaaaaaaaaaaaaaaaaaaaaaaaaaaaaaaabaeaeagahahabaMaMaMaMaxaxaxaxaxaxaMaMaMaMabagaiagagagabaaaaaaaaaaaaaaaaaaaaaaaaaaaaaaaaaa",
"aaaaaaaaaaaaaaaaaaaaaaaaaaaaaaaaaaaaaaabaeagagagahaiababababababababababababababaiaiagagagagabaaaaaaaaaaaaaaaaaaaaaaaaaaaaaaaaaa",
"aaaaaaaaaaaaaaaaaaaaaaaaaaaaaaaaaaaaabaeaeaiagagaiaiaiaiaiaiaiaiaiaiaiaiaiaiaiaiaiaiagagagagagabaaaaaaaaaaaaaaaaaaaaaaaaaaaaaaaa",
"aaaaaaaaaaaaaaaaaaaaaaaaaaaaaaaaaaaaabaeaiaiagagaiaiaiaiaiaiaiaiaiaiaiaiaiaiaiaiaiaiagagagapagabaaaaaaaaaaaaaaaaaaaaaaaaaaaaaaaa",
"aaaaaaaaaaaaaaaaaaaaaaaaaaaaaaaaaaaaabaeaiaiaiagaiaiaiaiaiaiaiaiaiaiaiaiaiaiaiaiaiaiagagahapagabaaaaaaaaaaaaaaaaaaaaaaaaaaaaaaaa",
"aaaaaaaaaaaaaaaaaaaaaaaaaaaaaaaaaaaaabaeaiaiaiagaiaiaiaiakaiaiaiaiaiaiaiaiaiagaiaiaiagagaiahagabaaaaaaaaaaaaaaaaaaaaaaaaaaaaaaaa",
"aaaaaaaaaaaaaaaaaaaaaaaaaaaaaaaaaaaaabaeaiaiaiagaiaiaiagagagagagagagagagagagagaiaiaiagaialahaeabaaaaaaaaaaaaaaaaaaaaaaaaaaaaaaaa",
"aaaaaaaaaaaaaaaaaaaaaaaaaaaaaaaaaaaaabaeaiaiaiagaiaiagagaiaiaiaiaiaiaiaiaiaiaiagaiaiagaialahaeabaaaaaaaaaaaaaaaaaaaaaaaaaaaaaaaa",
"aaaaaaaaaaaaaaaaaaaaaaaaaaaaaaaaaaaaabaeahaiaiagaiaiagaiaiaiaiaiaiaiaiaiaiaiaiagaiagagalalahaeabaaaaaaaaaaaaaaaaaaaaaaaaaaaaaaaa",
"aaaaaaaaaaaaaaaaaaaaaaaaaaaaaaaaaaaaabaeahaiaiaiagaiagaiaiaiaiaiaiaiaiaiaiaiaiagaiagahahahahaeabaaaaaaaaaaaaaaaaaaaaaaaaaaaaaaaa",
"aaaaaaaaaaaaaaaaaaaaaaaaaaaaaaaaaaaaabaeahaiaiaiagaiaeaiaiaiaiaiaiaiaiaiaiaiaiagaiagahahahahaeabaaaaaaaaaaaaaaaaaaaaaaaaaaaaaaaa",
"aaaaaaaaaaaaaaaaaaaaaaaaaaaaaaaaaaaaabaeagaiaiaiagaiaeaiaiaiaiaiaiaiaiaiaiaiagagaiagahahahaeaeabaaaaaaaaaaaaaaaaaaaaaaaaaaaaaaaa",
"aaaaaaaaaaaaaaaaaaaaaaaaaaaaaaaaaaaaaaabaeaeaeaeaeaeaeaeaiaiaiaiaiaiaiaiaiaiagagagagahahaeaeabaaaaaaaaaaaaaaaaaaaaaaaaaaaaaaaaaa",
"aaaaaaaaaaaaaaaaaaaaaaaaaaaaaaaaaaaaaaabaeagaeaeaeaeaeaeaeaiaiaiaiaiaiaiaiagagagafahahahaeaeabaaaaaaaaaaaaaaaaaaaaaaaaaaaaaaaaaa",
"aaaaaaaaaaaaaaaaaaaaaaaaaaaaaaaaaaaaaaabaeagaeaeaeaeaeaeaeaeaeaeajajaiaeagagagagafaeaeaeaeaeabaaaaaaaaaaaaaaaaaaaaaaaaaaaaaaaaaa",
"aaaaaaaaaaaaaaaaaaaaaaaaaaaaaaaaaaaaaaaaabafaeaNaeaeaeaeaeaeaeaeaeaeaeaeaeagagafaeaeaNaeaeabaaaaaaaaaaaaaaaaaaaaaaaaaaaaaaaaaaaa",
"aaaaaaaaaaaaaaaaaaaaaaaaaaaaaaaaaaaaaaaaabaeafababaeaeaeaeaeaeaeaeaeaeaeaeagagafaeagabaeaeabaaaaaaaaaaaaaaaaaaaaaaaaaaaaaaaaaaaa",
"aaaaaaaaaaaaaaaaaaaaaaaaaaaaaaaaaaaaaaaaababafafaeaeaeaeaeaeaeaeaeaeaeaeaeaeagabafafaeaeababaaaaaaaaaaaaaaaaaaaaaaaaaaaaaaaaaaaa",
"aaaaaaaaaaaaaaaaaaaaaaaaaaaaaaaaaaaaaaaaabawababababababaeaeaeaeaeaeaeaeaeagababababababadabaaaaaaaaaaaaaaaaaaaaaaaaaaaaaaaaaaaa",
"aaaaaaaaaaaaaaaaaaaaaaaaaaaaaaaaaaaaaaaaaaabadadadabanababababababababababababanabadadadabaaaaaaaaaaaaaaaaaaaaaaaaaaaaaaaaaaaaaa",
"aaaaaaaaaaaaaaaaaaaaaaaaaaaaaaaaaaaaaaaaaaaaabababadabanaOadadadadadadadadaOanabaPabababaaaaaaaaaaaaaaaaaaaaaaaaaaaaaaaaaaaaaaaa",
"aaaaaaaaaaaaaaaaaaaaaaaaaaaaaaaaaaaaaaaaaaaaaaaaaaabajababababababababababababacabaaaaaaaaaaaaaaaaaaaaaaaaaaaaaaaaaaaaaaaaaaaaaa",
"aaaaaaaaaaaaaaaaaaaaaaaaaaaaaaaaaaaaaaaaaaaaaaaaaaaaaaaaaaaaaaaaaaaaaaaaaaaaaaaaaaaaaaaaaaaaaaaaaaaaaaaaaaaaaaaaaaaaaaaaaaaaaaaa",
"aaaaaaaaaaaaaaaaaaaaaaaaaaaaaaaaaaaaaaaaaaaaaaaaaaaaaaaaaaaaaaaaaaaaaaaaaaaaaaaaaaaaaaaaaaaaaaaaaaaaaaaaaaaaaaaaaaaaaaaaaaaaaaaa"
};
