/* XPM */
static char *car4_p2_s4[] = {
"64 64 42 2",
"aa	c #ff00ff",
"ab	c #000000",
"ac	c #322923",
"ad	c #2d2a29",
"ae	c #1a0908",
"af	c #130707",
"ag	c #200808",
"ah	c #280a0b",
"ai	c #2c090b",
"aj	c #372f2b",
"ak	c #321212",
"al	c #330e0c",
"am	c #371e0f",
"an	c #272524",
"ao	c #2a0d07",
"ap	c #2a100f",
"aq	c #0c0b0a",
"ar	c #080707",
"as	c #150d0b",
"at	c #1d0e0d",
"au	c #381709",
"av	c #3c2008",
"aw	c #373432",
"ax	c #1c1918",
"ay	c #3c1603",
"az	c #311005",
"aA	c #240e0c",
"aB	c #131212",
"aC	c #391505",
"aD	c #3e2304",
"aE	c #3f300b",
"aF	c #3f3411",
"aG	c #3f391a",
"aH	c #3f3d25",
"aI	c #3f3d20",
"aJ	c #3d2e16",
"aK	c #3e2a0d",
"aL	c #3e2806",
"aM	c #181513",
"aN	c #2d1b18",
"aO	c #0f0e0e",
"aP	c #3e3b3b",
"aaaaaaaaaaaaaaaaaaaaaaaaaaaaaaaaaaaaaaaaaaaaaaaaaaaaaaaaaaaaaaaaaaaaaaaaaaaaaaaaaaaaaaaaaaaaaaaaaaaaaaaaaaaaaaaaaaaaaaaaaaaaaaaa",
"aaaaaaaaaaaaaaaaaaaaaaaaaaaaaaaaaaaaaaaaaaaaaaaaaaaaaaaaaaaaaaaaaaaaaaaaaaaaaaaaaaaaaaaaaaaaaaaaaaaaaaaaaaaaaaaaaaaaaaaaaaaaaaaa",
"aaaaaaaaaaaaaaaaaaaaaaaaaaaaaaaaaaaaaaaaaaaaabababaaaaaaaaababababababababaaaaaaaaabababaaaaaaaaaaaaaaaaaaaaaaaaaaaaaaaaaaaaaaaa",
"aaaaaaaaaaaaaaaaaaaaaaaaaaaaaaaaaaaaaaaaaaabacacacabaaaaabadacacacacacacacabaaaaabacacacabaaaaaaaaaaaaaaaaaaaaaaaaaaaaaaaaaaaaaa",
"aaaaaaaaaaaaaaaaaaaaaaaaaaaaaaaaaaaaaaaaabaeaeaeaeabaaabafaeaeaeaeaeaeaeaeagabaaabaeaeaeaeabaaaaaaaaaaaaaaaaaaaaaaaaaaaaaaaaaaaa",
"aaaaaaaaaaaaaaaaaaaaaaaaaaaaaaaaaaaaaaaaabagahaiahaeabaeaiaiaiagajajahahaiaiagabaeaeaiaiagabaaaaaaaaaaaaaaaaaaaaaaaaaaaaaaaaaaaa",
"aaaaaaaaaaaaaaaaaaaaaaaaaaaaaaaaaaaaaaabagagakaiahaeaeaeaiaiagagagagagagaiagagagagagaiaiagagabaaaaaaaaaaaaaaaaaaaaaaaaaaaaaaaaaa",
"aaaaaaaaaaaaaaaaaaaaaaaaaaaaaaaaaaaaaaabagaiakaiaiaeaeaiaiagaiaiaiaiaiaiagagaiagagaiakaiaiagabaaaaaaaaaaaaaaaaaaaaaaaaaaaaaaaaaa",
"aaaaaaaaaaaaaaaaaaaaaaaaaaaaaaaaaaaaaaabagaiakaiaiagagaiaiagaiaiaiaiaiaiaiagaiagagaiaiakaiagabaaaaaaaaaaaaaaaaaaaaaaaaaaaaaaaaaa",
"aaaaaaaaaaaaaaaaaaaaaaaaaaaaaaaaaaaaabagagaiakaiaiagaiagaiaiaiaiaiaiaiaiaiaiagaiagaiaiakaiagagabaaaaaaaaaaaaaaaaaaaaaaaaaaaaaaaa",
"aaaaaaaaaaaaaaaaaaaaaaaaaaaaaaaaaaaaabagagaiakaiaiagaiagaiaiaiaiaiaiaiaiaiaiagaiagaiaiakaiagagabaaaaaaaaaaaaaaaaaaaaaaaaaaaaaaaa",
"aaaaaaaaaaaaaaaaaaaaaaaaaaaaaaaaaaaaabagagakakaiagagaiagaiaiaiagagagagaiaiaiagaiagagaiakaiagagabaaaaaaaaaaaaaaaaaaaaaaaaaaaaaaaa",
"aaaaaaaaaaaaaaaaaaaaaaaaaaaaaaaaaaaaabagagaiakaiagaiagaiaiaiahalaiaiaiagaiaiaiagaiagaiakaiagagabaaaaaaaaaaaaaaaaaaaaaaaaaaaaaaaa",
"aaaaaaaaaaaaaaaaaaaaaaaaaaaaaaaaaaaaabagagaiakaiagaiagaiaiaiahalaiaiaiagaiaiaiagaiagaiakaiagagabaaaaaaaaaaaaaaaaaaaaaaaaaaaaaaaa",
"aaaaaaaaaaaaaaaaaaaaaaaaaaaaaaaaaaaaabagagaiakaiagaiagaiaiaiahalaiaiaiagaiaiaiagaiagaiakaiagagabaaaaaaaaaaaaaaaaaaaaaaaaaaaaaaaa",
"aaaaaaaaaaaaaaaaaaaaaaaaaaaaaaaaaaaaabagagaiakaiagaiagaiaiaiahalaiaiaiagaiaiaiagaiagaiakaiagagabaaaaaaaaaaaaaaaaaaaaaaaaaaaaaaaa",
"aaaaaaaaaaaaaaaaaaaaaaaaaaaaaaaaaaaaabagagaiakaiagaiagaiaiaiahalaiaiaiagaiaiaiagaiagaiakaiagagabaaaaaaaaaaaaaaaaaaaaaaaaaaaaaaaa",
"aaaaaaaaaaaaaaaaaaaaaaaaaaaaaaaaaaaaabagagaiakaiagaiagaiaiaiahalaiaiaiagaiaiaiagaiagaiakaiagaeabaaaaaaaaaaaaaaaaaaaaaaaaaaaaaaaa",
"aaaaaaaaaaaaaaaaaaaaaaaaaaaaaaaaaaaaaaabagaiaiagaiaiagaiaiaiahalaiaiaiagaiaiaiaiagaiagaiaiagabaaaaaaaaaaaaaaaaaaaaaaaaaaaaaaaaaa",
"aaaaaaaaaaaaaaaaaaaaaaaaaaaaaaaaaaaaaaabagagaiagaiaiaiaiaiaiaiaiaiaiaiagaiaiaiaiagaiagaiagagabaaaaaaaaaaaaaaaaaaaaaaaaaaaaaaaaaa",
"aaaaaaaaaaaaaaaaaaaaaaaaaaaaaaaaaaaaaaabagagaiahaiaiaiaiaiaiaiaiaiaiaiagaiaiaiaiagaiagaiagagabaaaaaaaaaaaaaaaaaaaaaaaaaaaaaaaaaa",
"aaaaaaaaaaaaaaaaaaaaaaaaaaaaaaaaaaaaaaabagagaiahaiaiaiaiagagagagagagagagagahalaiaiaiagaiagaeabaaaaaaaaaaaaaaaaaaaaaaaaaaaaaaaaaa",
"aaaaaaaaaaaaaaaaaaaaaaaaaaaaaaaaaaaaaaaaabagaiahahaiaiaiaiaiaiaiaiaiagagagahalaiaiaiaiaiagabaaaaaaaaaaaaaaaaaaaaaaaaaaaaaaaaaaaa",
"aaaaaaaaaaaaaaaaaaaaaaaaaaaaaaaaaaaaaaaaabagaiahahahaiaiabababababababababalahaiaiaiaiaiagabaaaaaaaaaaaaaaaaaaaaaaaaaaaaaaaaaaaa",
"aaaaaaaaaaaaaaaaaaaaaaaaaaaaaaaaaaaaaaaaabagaiahahabababadadadadadadadadadamahababaiaiaiagabaaaaaaaaaaaaaaaaaaaaaaaaaaaaaaaaaaaa",
"aaaaaaaaaaaaaaaaaaaaaaaaaaaaaaaaaaaaaaaaabagaiahabanananabababababababababaoaoadajabaiapagabaaaaaaaaaaaaaaaaaaaaaaaaaaaaaaaaaaaa",
"aaaaaaaaaaaaaaaaaaaaaaaaaaaaaaaaaaaaaaaaabagahabanababaqaqarasasasatatatasauavababawabapagabaaaaaaaaaaaaaaaaaaaaaaaaaaaaaaaaaaaa",
"aaaaaaaaaaaaaaaaaaaaaaaaaaaaaaaaaaaaaaaaabagahababaxababababasasasatatayafayavabazababapagabaaaaaaaaaaaaaaaaaaaaaaaaaaaaaaaaaaaa",
"aaaaaaaaaaaaaaaaaaaaaaaaaaaaaaaaaaaaaaaaabagahabaqabaqaqatasababababatayavavavazayababapaAabaaaaaaaaaaaaaaaaaaaaaaaaaaaaaaaaaaaa",
"aaaaaaaaaaaaaaaaaaaaaaaaaaaaaaaaaaaaaaaaabagaAabaqabaqabauabaBabasataCaDavaEaEayayatabapaAabaaaaaaaaaaaaaaaaaaaaaaaaaaaaaaaaaaaa",
"aaaaaaaaaaaaaaaaaaaaaaaaaaaaaaaaaaaaaaaaabagaAabaqababauauabababasakaCavaFaGaEaEauatabapaAabaaaaaaaaaaaaaaaaaaaaaaaaaaaaaaaaaaaa",
"aaaaaaaaaaaaaaaaaaaaaaaaaaaaaaaaaaaaaaaaabagapabatabauauauabaAabasasauavaFaHaGaEauatabapaAabaaaaaaaaaaaaaaaaaaaaaaaaaaaaaaaaaaaa",
"aaaaaaaaaaaaaaaaaaaaaaaaaaaaaaaaaaaaaaaaabagapabataoauavavavaAabasasabavaFaHaHaGayatabapaAabaaaaaaaaaaaaaaaaaaaaaaaaaaaaaaaaaaaa",
"aaaaaaaaaaaaaaaaaaaaaaaaaaaaaaaaaaaaaaaaabagapabataoavaIaFavaAabasasabaoavaHaHaJabatabapaAabaaaaaaaaaaaaaaaaaaaaaaaaaaaaaaaaaaaa",
"aaaaaaaaaaaaaaaaaaaaaaaaaaaaaaaaaaaaaaaaabagapabatabaKaIaFaLababasasabaqaoaJaJaoabatabapagabaaaaaaaaaaaaaaaaaaaaaaaaaaaaaaaaaaaa",
"aaaaaaaaaaaaaaaaaaaaaaaaaaaaaaaaaaaaaaaaabaeapabatatararararatabasasabatafafafafatatabapagabaaaaaaaaaaaaaaaaaaaaaaaaaaaaaaaaaaaa",
"aaaaaaaaaaaaaaaaaaaaaaaaaaaaaaaaaaaaaaaaabaeapababaxasasasatatabaqaqabatasasasatatababagagabaaaaaaaaaaaaaaaaaaaaaaaaaaaaaaaaaaaa",
"aaaaaaaaaaaaaaaaaaaaaaaaaaaaaaaaaaaaaaaaabaeaeabasabasaxasatabaqaqaqaqabatatatatabasabagagabaaaaaaaaaaaaaaaaaaaaaaaaaaaaaaaaaaaa",
"aaaaaaaaaaaaaaaaaaaaaaaaaaaaaaaaaaaaaaaaabaeaeabasasababababaqaqaqaqaqaqababababasasabagagabaaaaaaaaaaaaaaaaaaaaaaaaaaaaaaaaaaaa",
"aaaaaaaaaaaaaaaaaaaaaaaaaaaaaaaaaaaaaaabaeaeaeagabasaqasasasasasasasasasasasasasasabagagagagabaaaaaaaaaaaaaaaaaaaaaaaaaaaaaaaaaa",
"aaaaaaaaaaaaaaaaaaaaaaaaaaaaaaaaaaaaaaabaeaeagahahabaMaMaMaMaxaxaxaxaxaxaMaMaMaMabagaiagagagabaaaaaaaaaaaaaaaaaaaaaaaaaaaaaaaaaa",
"aaaaaaaaaaaaaaaaaaaaaaaaaaaaaaaaaaaaaaabaeagagagahaiababababababababababababababaiaiagagagagabaaaaaaaaaaaaaaaaaaaaaaaaaaaaaaaaaa",
"aaaaaaaaaaaaaaaaaaaaaaaaaaaaaaaaaaaaabaeaeaiagagaiaiaiaiaiaiaiaiaiaiaiaiaiaiaiaiaiaiagagagagagabaaaaaaaaaaaaaaaaaaaaaaaaaaaaaaaa",
"aaaaaaaaaaaaaaaaaaaaaaaaaaaaaaaaaaaaabaeaiaiagagaiaiaiaiaiaiaiaiaiaiaiaiaiaiaiaiaiaiagagagapagabaaaaaaaaaaaaaaaaaaaaaaaaaaaaaaaa",
"aaaaaaaaaaaaaaaaaaaaaaaaaaaaaaaaaaaaabaeaiaiaiagaiaiaiaiaiaiaiaiaiaiaiaiaiaiaiaiaiaiagagahapagabaaaaaaaaaaaaaaaaaaaaaaaaaaaaaaaa",
"aaaaaaaaaaaaaaaaaaaaaaaaaaaaaaaaaaaaabaeaiaiaiagaiaiaiaiakaiaiaiaiaiaiaiaiaiagaiaiaiagagaiahagabaaaaaaaaaaaaaaaaaaaaaaaaaaaaaaaa",
"aaaaaaaaaaaaaaaaaaaaaaaaaaaaaaaaaaaaabaeaiaiaiagaiaiaiagagagagagagagagagagagagaiaiaiagaialahaeabaaaaaaaaaaaaaaaaaaaaaaaaaaaaaaaa",
"aaaaaaaaaaaaaaaaaaaaaaaaaaaaaaaaaaaaabaeaiaiaiagaiaiagagaiaiaiaiaiaiaiaiaiaiaiagaiaiagaialahaeabaaaaaaaaaaaaaaaaaaaaaaaaaaaaaaaa",
"aaaaaaaaaaaaaaaaaaaaaaaaaaaaaaaaaaaaabaeahaiaiagaiaiagaiaiaiaiaiaiaiaiaiaiaiaiagaiagagalalahaeabaaaaaaaaaaaaaaaaaaaaaaaaaaaaaaaa",
"aaaaaaaaaaaaaaaaaaaaaaaaaaaaaaaaaaaaabaeahaiaiaiagaiagaiaiaiaiaiaiaiaiaiaiaiaiagaiagahahahahaeabaaaaaaaaaaaaaaaaaaaaaaaaaaaaaaaa",
"aaaaaaaaaaaaaaaaaaaaaaaaaaaaaaaaaaaaabaeahaiaiaiagaiaeaiaiaiaiaiaiaiaiaiaiaiaiagaiagahahahahaeabaaaaaaaaaaaaaaaaaaaaaaaaaaaaaaaa",
"aaaaaaaaaaaaaaaaaaaaaaaaaaaaaaaaaaaaabaeagaiaiaiagaiaeaiaiaiaiaiaiaiaiaiaiaiagagaiagahahahaeaeabaaaaaaaaaaaaaaaaaaaaaaaaaaaaaaaa",
"aaaaaaaaaaaaaaaaaaaaaaaaaaaaaaaaaaaaaaabaeaeaeaeaeaeaeaeaiaiaiaiaiaiaiaiaiaiagagagagahahaeaeabaaaaaaaaaaaaaaaaaaaaaaaaaaaaaaaaaa",
"aaaaaaaaaaaaaaaaaaaaaaaaaaaaaaaaaaaaaaabaeagaeaeaeaeaeaeaeaiaiaiaiaiaiaiaiagagagafahahahaeaeabaaaaaaaaaaaaaaaaaaaaaaaaaaaaaaaaaa",
"aaaaaaaaaaaaaaaaaaaaaaaaaaaaaaaaaaaaaaabaeagaeaeaeaeaeaeaeaeaeaeajajaiaeagagagagafaeaeaeaeaeabaaaaaaaaaaaaaaaaaaaaaaaaaaaaaaaaaa",
"aaaaaaaaaaaaaaaaaaaaaaaaaaaaaaaaaaaaaaaaabafaeaNaeaeaeaeaeaeaeaeaeaeaeaeaeagagafaeaeaNaeaeabaaaaaaaaaaaaaaaaaaaaaaaaaaaaaaaaaaaa",
"aaaaaaaaaaaaaaaaaaaaaaaaaaaaaaaaaaaaaaaaabaeafababaeaeaeaeaeaeaeaeaeaeaeaeagagafaeagabaeaeabaaaaaaaaaaaaaaaaaaaaaaaaaaaaaaaaaaaa",
"aaaaaaaaaaaaaaaaaaaaaaaaaaaaaaaaaaaaaaaaababafafaeaeaeaeaeaeaeaeaeaeaeaeaeaeagabafafaeaeababaaaaaaaaaaaaaaaaaaaaaaaaaaaaaaaaaaaa",
"aaaaaaaaaaaaaaaaaaaaaaaaaaaaaaaaaaaaaaaaabawababababababaeaeaeaeaeaeaeaeaeagababababababadabaaaaaaaaaaaaaaaaaaaaaaaaaaaaaaaaaaaa",
"aaaaaaaaaaaaaaaaaaaaaaaaaaaaaaaaaaaaaaaaaaabadadadabanababababababababababababanabadadadabaaaaaaaaaaaaaaaaaaaaaaaaaaaaaaaaaaaaaa",
"aaaaaaaaaaaaaaaaaaaaaaaaaaaaaaaaaaaaaaaaaaaaabababadabanaOadadadadadadadadaOanabaPabababaaaaaaaaaaaaaaaaaaaaaaaaaaaaaaaaaaaaaaaa",
"aaaaaaaaaaaaaaaaaaaaaaaaaaaaaaaaaaaaaaaaaaaaaaaaaaabajababababababababababababacabaaaaaaaaaaaaaaaaaaaaaaaaaaaaaaaaaaaaaaaaaaaaaa",
"aaaaaaaaaaaaaaaaaaaaaaaaaaaaaaaaaaaaaaaaaaaaaaaaaaaaaaaaaaaaaaaaaaaaaaaaaaaaaaaaaaaaaaaaaaaaaaaaaaaaaaaaaaaaaaaaaaaaaaaaaaaaaaaa",
"aaaaaaaaaaaaaaaaaaaaaaaaaaaaaaaaaaaaaaaaaaaaaaaaaaaaaaaaaaaaaaaaaaaaaaaaaaaaaaaaaaaaaaaaaaaaaaaaaaaaaaaaaaaaaaaaaaaaaaaaaaaaaaaa"
};
