/* XPM */
static char *tile_road_sand_desert_xpm[] = {
"64 64 10 2",
"aa c #000000",
"aj c #383838",
"al c #555555",
"bb c #8B7355",
"bu c #222222",
"ck c #6E2018",
"et c #885522",
"hm c #999966",
"io c #CC9966",
"jv c None",
/* pixels */
"jvjvjvjvjvjvjvjvjvjvjvjvjvjvjvjvjvjvjvjvjvjvjvjvjvjvjvjvjvjvjvjvjvjvjvjvjvjvjvjvjvjvjvjvjvjvjvjvjvjvjvjvjvjvjvjvjvjvjvjvjvjvjvjv",
"jvjvjvjvjvjvjvjvjvjvjvjvjvjvjvjvjvjvjvjvjvjvjvjvjvjvjvjvjvjvjvjvjvjvjvjvjvjvjvjvjvjvjvjvjvjvjvjvjvjvjvjvjvjvjvjvjvjvjvjvjvjvjvjv",
"jvjvjvjvjvjvjvjvjvjvjvjvjvjvjvjvjvjvjvjvjvjvjvjvjvjvjvjvjvjvjvjvjvjvjvjvjvjvjvjvjvjvjvjvjvjvjvjvjvjvjvjvjvjvjvjvjvjvjvjvjvjvjvjv",
"jvjvjvjvjvjvjvjvjvjvjvjvjvjvjvjvjvjvjvjvjvjvjvjvjvjvjvjvjvjvjvjvjvjvjvjvjvjvjvjvjvjvjvjvjvjvjvjvjvjvaaaaaaaaaaaajvjvjvjvjvjvjvjv",
"jvjvjvjvjvjvjvjvjvjvjvjvjvjvjvjvjvjvjvjvjvjvjvjvjvjvjvjvjvjvjvjvjvjvjvjvjvjvjvjvjvjvjvjvjvjvjvjvjvaaajajbbbbajajaajvjvjvjvjvjvjv",
"jvjvjvjvjvjvjvjvjvjvjvjvjvjvjvjvjvjvjvjvjvjvjvjvjvjvjvjvjvjvjvjvjvjvjvjvjvjvjvjvjvjvckaaaaaaaaetjvaaaaalbbbbbbajaajvjvjvjvjvjvjv",
"jvjvjvjvjvjvjvjvjvjvjvjvjvjvjvjvjvjvjvjvjvjvjvjvjvjvjvjvjvjvjvjvjvjvjvjvjvjvjvjvjvaacketetetetetaaaaalaaaaaaaaalaajvjvjvjvjvjvjv",
"jvjvjvjvjvjvjvjvjvjvjvjvjvjvjvjvjvjvjvjvjvjvjvjvjvjvjvjvjvjvjvjvjvjvjvjvjvjvjvjvjvaaaaetetetaaaaaaaaalalalalalalaajvjvjvjvjvjvjv",
"jvjvjvjvjvjvjvjvjvjvjvjvjvjvjvjvjvjvjvjvjvjvjvjvjvjvjvjvjvjvjvjvjvjvjvjvjvjvjvjvjvaaetaaaaaaaaajaaaaaaalalalalaaaajvjvjvjvjvjvjv",
"jvjvjvjvjvjvjvjvjvjvjvjvjvjvjvjvjvjvjvjvjvjvjvjvjvjvjvjvjvjvjvjvjvjvjvjvjvjvjvjvjvaaetbbbbbbbbalaaaaalaaaaaaaaalaajvjvjvjvjvjvjv",
"jvjvjvjvjvjvjvjvjvjvjvjvjvjvjvjvjvjvjvjvjvjvjvjvjvjvjvjvjvjvjvjvjvjvjvjvjvjvjvjvjvaaaabbbbbbbbajaaaaalalalalalalaajvjvjvjvjvjvjv",
"jvjvjvjvjvjvjvjvjvjvjvjvjvjvjvjvjvjvjvjvjvjvjvjvjvjvjvjvjvjvjvjvjvjvaaaaaaaajvjvjvaabbaaaaaaajalaaaaaaalalaaaaaackaaaajvjvjvjvjv",
"jvjvjvjvjvjvjvjvjvjvjvjvjvjvjvjvjvjvjvjvjvjvjvjvjvjvjvjvjvjvjvjvjvaaalalalalaajvjvaaalbbbbbbalalaaaaalaaaaalalbbbbalalaajvjvjvjv",
"jvjvjvjvjvjvjvjvjvjvjvjvjvjvjvjvjvjvjvjvjvjvjvjvjvjvjvjvjvjvjvjvaaalalalalalalaajvaaaabbbbbbalalaaaaalalaaaabbbbbbbbaaaajvjvjvjv",
"jvjvjvjvjvjvjvjvjvjvjvjvjvjvjvjvjvjvjvjvjvjvjvjvjvjvjvjvjvjvjvjvjvaaalalalalaajvjvaabbaaaaaaaabbaaaaaaalaaalaaaaaaaaalaajvjvjvjv",
"ckckckckckckckckckckckckckckckckckckckckckckckckjvjvjvjvjvjvjvjvjvjvaaaaaaaajvjvjvaaetetetetckbbaajvjvaaaaalalalalalalaajvjvjvjv",
"hmhmhmckhmhmckckbbhmhmhmhmhmhmckhmhmhmckhmhmhmhmckckckckckckjvjvjvjvjvjvjvjvjvjvjvjvaaetetetckaajvjvjvjvaaaaalalalalajaajvjvjvjv",
"ioioioioiohmckiockioioioiockhmioioiockioioioiohmhmhmhmckhmhmckckckjvjvjvjvjvjvjvjvjvjvaaaaaaaajvjvjvjvjvaaalaabubuaaalaajvjvjvjv",
"etetetetetioioioioioioioiockioioioetioiockioioioioiockckioiohmhmhmckckckjvjvjvjvjvjvjvjvjvaaaaaaaajvjvjvaaalalalalalalaajvjvjvjv",
"ioioioioetioioioioetioiockioioioioetioioiockioioioiockioioioioioiohmhmetckckjvjvjvjvjvjvaaalalalalaajvjvaaaaalalalalajaajvjvjvjv",
"ioioioiohmetioioioiockckioioiohmckioioioiockioioioiockioioioioioioioioiohmhmckckjvjvjvaaalalaaalalalaajvaaalajajajalalaajvjvjvjv",
"ckioioioioethmioiockioioiockiockioioioioioiockckckckioioioioioioioioiockioiohmetckjvjvjvaaalalalalaajvjvaaajalalalalalaajvjvjvjv",
"iockckckckioethmckioioioioiockioioioioioioioioioioiockioioioioioioiockioioioiohmetckjvjvjvaaaaaaaajvjvjvjvaaaaaaaaaaaajvjvjvjvjv",
"ioioetioioioiockioioioioioioiockioioioioiockioioioiockioioioiobbckckioioioioioiohmbbckjvjvjvjvjvjvjvjvjvjvjvjvjvjvjvjvjvjvjvjvjv",
"ioioetioioiohmioioioioioioioiockhmckckckckioioioioiockckckckckckioioioioioioioioetioetckjvjvjvjvjvjvjvjvjvjvjvjvjvjvjvjvjvjvjvjv",
"ioioioioioetetetetetioioioioiockioioioioetioioioiockioioioiockioioioioioioioiockioioioetckjvjvjvjvjvjvjvjvjvjvjvjvjvjvjvjvjvjvjv",
"ioioiohmckioioioioioethmhmckckioioioioioetioioioiockioioioiockioioioioioiockckioioioiohmbbckjvjvjvjvjvjvaaaaaaaajvjvjvjvjvjvjvjv",
"ioiockckioioioioioioetetetioetioioioioioetioioioioioioioiockiockioioiockckioioioioioioiohmbbckjvjvjvjvaaetetbbetaajvjvjvjvjvjvjv",
"iockioioioioioioioetioioioioetioioioioiockckckckckioioiockioioiockckckioioioioioioioioioiobbckjvjvjvaabbetaaetetbbaajvjvjvjvjvjv",
"ckhmioioioioioioioetioioioioetioioiockckioioioioiockiockioioioioioioiockioioioioioioioiockioetckjvjvjvaabbetbbbbaajvjvjvjvjvjvjv",
"ioioetioioioioioetioioioioioioetioetioioioioioioiockckioioioioioioioiockioioioioiockckckioioiockjvjvjvjvaaaaaaaajvjvjvjvjvjvjvjv",
"ioioiobbbbckioetioioioioiockioioetetioioioioioiockioiockckioioioioioioiockioioiockioioiockioioetckjvjvjvjvjvjvjvjvjvjvjvjvjvjvjv",
"ioioioioioioioioioioioiobbioioiohmioioioioioiockioioioioiockioioioioioioiockckckioioioioiockcketckjvjvjvjvjvjvjvjvjvjvjvjvjvjvjv",
"hmhmhmhmhmaaaaaaaaaaaaiockhmhmhmetioioioioiockioioioioioioiockioioioioiocketioioioioioioioioioetckjvjvjvjvjvjvjvjvjvjvjvjvjvjvjv",
"ckckckckaaalalalbbbbbbaackckckckckckioioiockioioioioioioiockckckckckckckioioioetioioioioioetioioetckjvjvjvjvjvjvjvjvjvjvjvjvjvjv",
"jvjvjvjvaaaaalalbbalaaaajvjvjvjvjvjvckckckioioioioioioiockioiockioiockioioioioioetioiohmckioioiohmckjvjvjvjvjvjvjvjvjvjvjvjvjvjv",
"jvjvjvjvaaalaaaaaaaaalaajvjvjvjvjvjvjvjvajetioioioioiockioioiockioioiockioioioioiockiockioioioiohmckjvjvjvjvjvjvjvjvjvjvjvjvjvjv",
"jvjvjvjvaaalalalalalalaajvjvjvjvjvjvjvjvjvbuhmioiohmckiockioioioioioioiockioioioioiockiockckioioiockjvjvjvjvjvjvjvjvjvjvjvjvjvjv",
"jvjvjvjvaaaaalalalalaaaajvjvjvjvjvaajvjvjvjvckhmiockioioiockioioioioioioiobbckioioetioioioiobbioiockjvjvjvjvjvjvjvjvjvjvjvjvjvjv",
"jvjvjvjvaaalaaaaaaaaaaaaaaaaaaaaaabbckjvjvjvckckckioioioiockioiockckckioioiockckckioioioioioiockckckjvjvjvjvjvjvjvjvjvjvjvjvjvjv",
"jvjvjvjvaaaaaaaaaaaaaaaackckbbbbaackaajvjvjvckhmckioioioioiockckioioioioiockioioioioioioioiockiohmckjvjvjvjvjvjvjvjvjvjvjvjvjvjv",
"jvjvjvjvaaaacketetetaaajckbbbbaaetckckjvjvjvckhmiockioioioiockioioioiockckckioioioioioiockckioiohmckjvjvjvjvjvjvjvjvjvjvjvjvjvjv",
"jvjvjvjvaacketetetetetaackbbbbaahmalalaljvjvckhmioiockioiockckioioiockioioiockioiockckckioioioiohmckjvjvjvjvjvjvjvjvjvjvjvjvjvjv",
"jvjvjvjvaacketetetetaaaackbbbbaahmalalaljvjvckhmioioiockckioiockiockioioioioiobbckioiockioioioiohmckjvjvjvjvjvjvjvjvjvjvjvjvjvjv",
"jvjvjvjvaaetaaaaaaaabbaacketbbaahmalalaajvjvckhmioioiockioioioiockioioioioioiockioioioiockioioiohmckjvjvjvjvjvjvjvjvjvjvjvjvjvjv",
"jvjvjvjvaabbbbbbbbbbbbaaetckckckaaalaajvjvjvckhmioiockioioioioiobbioioioioiockioioioioioiockioiohmckjvjvjvjvjvjvjvjvjvjvjvjvjvjv",
"jvjvjvjvaaajbbbbbbbbaaaaaaaaaaaaaaaajvjvjvckbbhmioiockioioioioioiockioioioiockioioioioioioiockiohmckjvjvjvjvjvjvjvjvjvjvjvjvjvjv",
"jvjvjvjvaabbbubububualaajvjvjvjvjvjvjvjvjvckhmiockckckckioioiohmckckckioiockioioioioioioioioiockckckjvjvjvjvjvjvjvjvjvjvjvjvjvjv",
"jvjvjvjvaabbalalbbbbalaajvjvjvjvjvjvjvjvjvckhmckioioioiockioiockioiockckiockioioioioioioiockckiockckjvjvjvjvjvjvjvjvjvjvjvjvjvjv",
"jvjvjvjvaaaaalalbbbbajaajvjvjvjvjvjvjvjvckhmiockioioioioiockckioioioioiockioioioioioiockckbbioiohmckjvjvjvjvjvjvjvjvjvjvjvjvjvjv",
"jvjvjvjvaabbajajajajbbaajvjvjvjvjvjvjvjvckhmioioioioioiockioiockioioioioioiockioioiockioioiobbiohmckjvjvjvjvjvjvjvjvjvjvjvjvjvjv",
"jvjvjvjvjvaabbbbbbbbaaaajvjvjvjvjvjvjvjvckhmioioioioiockioioiockioioioioioioiockckckioioioioioethmckjvjvjvjvjvjvjvjvjvjvjvjvjvjv",
"jvjvjvjvjvaaaaaaaaaaaajvjvjvjvjvjvjvjvckhmhmioioioiockioioioioiockioioioioiockioioiockioioioioiockckjvjvjvjvjvjvjvjvjvjvjvjvjvjv",
"jvjvjvjvjvjvjvjvjvjvjvjvjvjvjvjvjvjvjvcketioioioiockckioioioioioiockioioiockioioioiockioioioiockhmckjvjvjvjvjvjvjvjvjvjvjvjvjvjv",
"jvjvjvjvjvjvjvjvjvjvjvjvjvjvjvjvjvjvjvckioetbbckckioiockioioioioiockckckiockioioioioiockiockckiohmckjvjvjvjvjvjvjvjvjvjvjvjvjvjv",
"jvjvjvjvjvjvjvjvjvjvjvjvjvjvjvjvjvjvckhmioioiockckioioiockckioiockioioiockioioioioioioiockioioiohmckjvjvjvjvjvjvjvjvjvjvjvjvjvjv",
"jvjvjvjvjvjvjvjvjvjvjvjvjvjvjvjvjvjvckhmioiockioioioioioioiockckioioioiockioioioioioioiockioioiohmckjvjvjvjvjvjvjvjvjvjvjvjvjvjv",
"jvjvjvjvjvjvjvjvjvjvjvjvjvjvjvjvjvjvckhmioiockioioioioioioiockioioioioioiockioioioioioiockioioiohmckjvjvjvjvjvjvjvjvjvjvjvjvjvjv",
"jvjvjvjvjvjvjvjvjvjvjvjvjvjvjvjvjvckckhmiockioioioioioioiockckioioioioioioiockioioiockckiockioiohmckjvjvjvjvjvjvjvjvjvjvjvjvjvjv",
"jvjvjvjvjvjvjvjvjvjvjvjvjvjvjvjvjvckhmckckioioioioioioiockioiockckckioioioiockckckckioioioiockiohmckjvjvjvjvjvjvjvjvjvjvjvjvjvjv",
"jvjvjvjvjvjvjvjvjvjvjvjvjvjvjvjvjvckhmiockioioioioioiockioioioioioiockckiockioioiohmioioioioiockhmckjvjvjvjvjvjvjvjvjvjvjvjvjvjv",
"jvjvjvjvjvjvjvjvjvjvjvjvjvjvjvjvjvckhmckckioioioioiockioioioioioioioioiockioioioioiobbioioioioiohmckjvjvjvjvjvjvjvjvjvjvjvjvjvjv",
"jvjvjvjvjvjvjvjvjvjvjvjvjvjvjvjvcketetioiockckioiockiockioioioioioioioiohmioioioioioioioioioetiohmckjvjvjvjvjvjvjvjvjvjvjvjvjvjv",
"jvjvjvjvjvjvjvjvjvjvjvjvjvjvjvjvckhmioiohmhmhmbubuioioioajioioioioioioioiobuioioioioiobbiockioiobbajjvjvjvjvjvjvjvjvjvjvjvjvjvjv"
};
