/* XPM */
static char *tile_road_center_left_xpm[] = {
"64 64 25 2",
"aa c #000000",
"ac c #CCCCCC",
"ad c #999999",
"ae c #666666",
"ah c #FFFACD",
"aj c #383838",
"al c #555555",
"ar c #EEEEEE",
"at c #1B1B1B",
"bb c #8B7355",
"bf c #5D4037",
"bi c #7A7A7A",
"bt c #F9E79F",
"cd c #303030",
"ck c #6E2018",
"cm c #686868",
"cn c #484848",
"cw c #CCAA00",
"ef c #FFCC00",
"gc c #AAAAAA",
"hm c #999966",
"it c #CCCC66",
"iu c #CCCC99",
"jr c #FFCC33",
"jv c None",
/* pixels */
"ahacacacacacacacacacacacacacacacacacacahahahahacacacacacahacacahacacacacacacacacacacacacacacacacacacacacacacacacacacahahacacacac",
"acacacacaaacadacacacacacacacacacacacacahahacaeacacacacacacacahacacacacacacacacacacacacacacaaacacacacaaacacacacacacahahahaaacacac",
"acacaaaackacadacaaacacacaciucmgcbbaciuajahalbbacacacacalhmaccnacalacacaaaaacaaacajajacacacaaacatacaaaaaaaaacacacajachmajaaacacac",
"acacaaahaaacadaaahhmacacacaaahaaacachmajaraabfacacacachmaaalaraaaaahaaacacaaahaaaaacacacacaaacahaaahhmacacacacahaahmacacaaacacac",
"acacaaahaaacadaaacacacacacaaahaaacacaaajaraabfacacacachmacalarahaaahaaacacaaahahaaacacacahaahmacahahhmaciuacacahadaaacacaaacacac",
"acacadaaaaacadajaaacacacacaaahaaaaahaaajaraabfacacahahaaaaahaaaaaaahaaacaaahaaadaaacacacahaaacaaaaahhmahaaacacacahaaacahaaacacac",
"acacacacacacacacacacjvjviuacahacahahahahahahacacjvjvahahahahahahahahacacacahacacbtacalalalahahahahahahiuiualalalahbtacacacacacac",
"jvjvjvjvjvjvjvjvjvjvjvjvjvjvjvjvjvjvjvjvjvjvjvjvjvjvjvjvjvjvjvjvjvaaacacachmitititaccdalalhmgciuiuiuiuiuiuiuiuiuiuiuiuiuiuacacac",
"jvjvjvjvjvjvjvjvjvjvjvjvjvjvjvjvjvjvjvjvjvjvjvjvjvjvjvjvjvjvjvjvjvaaacacachmjrjrjrbtaaalalhmgciuiuiuiuiuiuiuiuiuiuiuiuiuiuiuiuiu",
"jvjvjvjvjvjvjvjvjvjvjvjvjvjvjvjvjvjvjvjvjvjvjvjvjvjvjvjvjvjvjvjvjvaaacacachmefjrjracaaalalcwefefefefefefefefefefefefefefefjrjrjr",
"jvjvjvjvjvjvjvjvjvjvjvjvjvjvjvjvjvjvjvjvjvjvjvjvjvjvjvjvjvjvjvjvjvaaacacachmefjrjrbtaaalalcwefefefefefefefefefefefefefefefefefef",
"jvjvjvjvjvjvjvjvjvjvjvjvjvjvjvjvjvjvjvjvjvjvjvjvjvjvjvjvjvjvjvjvjvaaacacachmefjrjrbtaaalalcwefefefefefefefefefefefefefefefefefef",
"jvjvjvjvjvjvjvjvjvjvjvjvjvjvjvjvjvjvjvjvjvjvjvjvjvjvjvjvjvjvjvjvjvaaacacachmefjrjrbtaaalalcwefefefefefefefefefefefefefefefefefef",
"jvjvjvjvjvjvjvjvjvjvjvjvjvjvjvjvjvjvjvjvjvjvjvjvjvjvjvjvjvjvjvjvjvaaacacachmefjrjrbtaaalalcwefefefefefefefefefefefefefefefefefef",
"jvjvjvjvjvjvjvjvjvjvjvjvjvjvjvjvjvjvjvjvjvjvjvjvjvjvjvjvjvjvjvjvjvaaacacachmefjrjrbtaaalalcwefefefefefefefefefefefefefefefefefef",
"jvjvjvjvjvjvjvjvjvjvjvjvjvjvjvjvjvjvjvjvjvjvjvjvjvjvjvjvjvjvjvjvjvaaacacachmefjrjrbtaaalalcwefefefefefefefefefefefefefefefefefef",
"jvjvjvjvjvjvjvjvjvjvjvjvjvjvjvjvjvjvjvjvjvjvjvjvjvjvjvjvjvjvjvjvjvaaacacachmefjrjrbtaaalalcwefefefefefefefefefefefefefefefefefef",
"jvjvjvjvjvjvjvjvjvjvjvjvjvjvjvjvjvjvjvjvjvjvjvjvjvjvjvjvjvjvjvjvjvaaacacachmefjrjrbtaaalalcwefefefefefefefefefefefefefefefefefef",
"jvjvjvjvjvjvjvjvjvjvjvjvjvjvjvjvjvjvjvjvjvjvjvjvjvjvjvjvjvjvjvjvjvaaacacachmefjrjracaaalalhmadititititititititititititititititiu",
"jvjvjvjvjvjvjvjvjvjvjvjvjvjvjvjvjvjvjvjvjvjvjvjvjvjvjvjvjvjvjvjvjvaaacacachmefjrjracaaalalbigcgcgcgcgcgcgcgcgcgcgcgcgcgcgcgcgcgc",
"jvjvjvjvjvjvjvjvjvjvjvjvjvjvjvjvjvjvjvjvjvjvjvjvjvjvjvjvjvjvjvjvjvaaacacachmadadadacaaalalbigcgcgcgcgcgcgcgcgcgcgcgcgcgcgcgcgcgc",
"jvjvjvjvjvjvjvjvjvjvjvjvjvjvjvjvjvjvjvjvjvjvjvjvjvjvjvjvjvjvjvjvjvaaacacachmadadadbtaaalalbigcgcgcgcgcgcgcgcgcgcgcgcgcgcgcgcgcgc",
"jvjvjvjvjvjvjvjvjvjvjvjvjvjvjvjvjvjvjvjvjvjvjvjvjvjvjvjvjvjvjvjvjvaaacacachmjrjrjrbtaaalalbigcgcgcgcgcgcgcgcgcgcgcgcgcgcgcgcgcgc",
"jvjvjvjvjvjvjvjvjvjvjvjvjvjvjvjvjvjvjvjvjvjvjvjvjvjvjvjvjvjvjvjvjvatacacachmefjrjrbtaaalalbigcgcgcgcgcgcgcgcgcgcgcgcgcgcgcgcgcgc",
"jvjvjvjvjvjvjvjvjvjvjvjvjvjvjvjvjvjvjvjvjvjvjvjvjvjvjvjvjvjvjvjvjvatacacadhmefefjrbtaaalalbigcgcgcgcgcgcgcgcgcgcgcgcgcgcgcgcgcgc",
"jvjvjvjvjvjvjvjvjvjvjvjvjvjvjvjvjvjvjvjvjvjvjvjvjvjvjvjvjvjvjvjvjvatacadachmefjrjrbtaaalalbigcgcgcgcgcgcgcgcgcgcgcgcgcgcgcgcgcgc",
"jvjvjvjvjvjvjvjvjvjvjvjvjvjvjvjvjvjvjvjvjvjvjvjvjvjvjvjvjvjvjvjvjvatadacachmefjrjrbtaaalalbigcgcgcgcgcgcgcgcgcgcgcgcgcgcgcgcgcgc",
"jvjvjvjvjvjvjvjvjvjvjvjvjvjvjvjvjvjvjvjvjvjvjvjvjvjvjvjvjvjvjvjvjvatacacachmefjrjrbtaaalalbigcgcgcgcgcgcgcgcgcgcgcadadadadadadad",
"jvjvjvjvjvjvjvjvjvjvjvjvjvjvjvjvjvjvjvjvjvjvjvjvjvjvjvjvjvjvjvjvjvatacacachmefjrjrbtaaalalcwefefefefefefefefefefefefefefefjrjrjr",
"jvjvjvjvjvjvjvjvjvjvjvjvjvjvjvjvjvjvjvjvjvjvjvjvjvjvjvjvjvjvjvjvjvaaacacachmefjrjrbtaaalalcwefefefefefefefefefefefefefefefefefef",
"jvjvjvjvjvjvjvjvjvjvjvjvjvjvjvjvjvjvjvjvjvjvjvjvjvjvjvjvjvjvjvjvjvaaacacachmefjrjrbtaaalalcwefefefefefefefefefefefefefefefefefef",
"jvjvjvjvjvjvjvjvjvjvjvjvjvjvjvjvjvjvjvjvjvjvjvjvjvjvjvjvjvjvjvjvjvatacacachmefjrjrbtaaalalcwefefefefefefefefefefefefefefefefefef",
"jvjvjvjvjvjvjvjvjvjvjvjvjvjvjvjvjvjvjvjvjvjvjvjvjvjvjvjvjvjvjvjvjvatacacachmefjrjrbtaaalalcwefefefefefefefefefefefefefefefefefef",
"jvjvjvjvjvjvjvjvjvjvjvjvjvjvjvjvjvjvjvjvjvjvjvjvjvjvjvjvjvjvjvjvjvatacacachmefjrjrbtaaalalcwefefefefefefefefefefefefefefefefefef",
"jvjvjvjvjvjvjvjvjvjvjvjvjvjvjvjvjvjvjvjvjvjvjvjvjvjvjvjvjvjvjvjvjvatacacachmefjrjrbtaaalalcwefefefefefefefefefefefefefefefefefef",
"jvjvjvjvjvjvjvjvjvjvjvjvjvjvjvjvjvjvjvjvjvjvjvjvjvjvjvjvjvjvjvjvjvatacacachmefjrjrbtaaalalcwefefefefefefefefefefefefefefefefjref",
"jvjvjvjvjvjvjvjvjvjvjvjvjvjvjvjvjvjvjvjvjvjvjvjvjvjvjvjvjvjvjvjvjvatacacachmefjrjrbtaaalalcwefefefefefefefefefefefefefefefjrjrjr",
"jvjvjvjvjvjvjvjvjvjvjvjvjvjvjvjvjvjvjvjvjvjvjvjvjvjvjvjvjvjvjvjvjvatacacachmefjrjracaaalalhmgcgcgciuiuiuiuiuiuiuiuiuiuiugciugciu",
"jvjvjvjvjvjvjvjvjvjvjvjvjvjvjvjvjvjvjvjvjvjvjvjvjvjvjvjvjvjvjvjvjvatacacachmadadiuacaaalalhmgcgcgcgcgcgcgcgcgcgcgcgcgcgcgcgcgcgc",
"jvjvjvjvjvjvjvjvjvjvjvjvjvjvjvjvjvjvjvjvjvjvjvjvjvjvjvjvjvjvjvjvjvatacacachmadadiuacaaalalhmgcgcgcgcgcgcgcgcgcgcgcgcgcgcgcgcgcgc",
"jvjvjvjvjvjvjvjvjvjvjvjvjvjvjvjvjvjvjvjvjvjvjvjvjvjvjvjvjvjvjvjvjvatacacachmjrjrjracaaalalhmgcgcgcgcgcgcgcgcgcgcgcgcgcgcgcgcgcgc",
"jvjvjvjvjvjvjvjvjvjvjvjvjvjvjvjvjvjvjvjvjvjvjvjvjvjvjvjvjvjvjvjvjvatacadadhmjrjrjracaaalalhmgcgcgcgcgcgcgcgcgcgcgcgcgcgcgcgcgcgc",
"jvjvjvjvjvjvjvjvjvjvjvjvjvjvjvjvjvjvjvjvjvjvjvjvjvjvjvjvjvjvjvjvjvatadadachmjrjrjracaaalalhmgcgcgcgcgcgcgcgcgcgcgcgcgcgcgcgcgcgc",
"jvjvjvjvjvjvjvjvjvjvjvjvjvjvjvjvjvjvjvjvjvjvjvjvjvjvjvjvjvjvjvjvjvatacacachmjrjrjracaaalalhmgcgcgcgcgcgcgcgcgcgcgcgcgcgcgcgcgcgc",
"jvjvjvjvjvjvjvjvjvjvjvjvjvjvjvjvjvjvjvjvjvjvjvjvjvjvjvjvjvjvjvjvjvatacacachmjrjrjracaaalalhmgcgcgcgcgcgcgcgcgcgcgcgcgcgcgcgcgcgc",
"jvjvjvjvjvjvjvjvjvjvjvjvjvjvjvjvjvjvjvjvjvjvjvjvjvjvjvjvjvjvjvjvjvaaacacachmefjrjrbtaaalalhmgcgcgcgcgcgcgcgcgcgcgcgcgcgcgcgcgcgc",
"jvjvjvjvjvjvjvjvjvjvjvjvjvjvjvjvjvjvjvjvjvjvjvjvjvjvjvjvjvjvjvjvjvaaacacachmefjrjrbtaaalalhmadadadadadadadadadadadadadadadadadad",
"jvjvjvjvjvjvjvjvjvjvjvjvjvjvjvjvjvjvjvjvjvjvjvjvjvjvjvjvjvjvjvjvjvaaacacachmjrjrjrbtaaalalcwefefefefefefefefefefefefefefefefefjr",
"jvjvjvjvjvjvjvjvjvjvjvjvjvjvjvjvjvjvjvjvjvjvjvjvjvjvjvjvjvjvjvjvjvaaacacachmjrjrjrbtaaalalcwefefefefefefefefefefefefefefefefefef",
"jvjvjvjvjvjvjvjvjvjvjvjvjvjvjvjvjvjvjvjvjvjvjvjvjvjvjvjvjvjvjvjvjvaaacacachmjrjrjrbtaaalalcwefefefefefefefefefefefefefefefefefef",
"jvjvjvjvjvjvjvjvjvjvjvjvjvjvjvjvjvjvjvjvjvjvjvjvjvjvjvjvjvjvjvjvjvaaacacachmjrjrjrbtaaalalcwefefefefefefefefefefefefefefefefefef",
"jvjvjvjvjvjvjvjvjvjvjvjvjvjvjvjvjvjvjvjvjvjvjvjvjvjvjvjvjvjvjvjvjvaaacacachmefjrjrbtaaalalcwefefefefefefefefefefefefefefefefefef",
"jvjvjvjvjvjvjvjvjvjvjvjvjvjvjvjvjvjvjvjvjvjvjvjvjvjvjvjvjvjvjvjvjvaaacacachmefjrjrbtaaalalcwefefefefefefefefefefefefefefefefefef",
"jvjvjvjvjvjvjvjvjvjvjvjvjvjvjvjvjvjvjvjvjvjvjvjvjvjvjvjvjvjvjvjvjvaaacacachmefjrjrbtaaalalcwefefefefefefefefefefefefefefefefefef",
"jvjvjvjvjvjvjvjvjvjvjvjvjvjvjvjvjvjvjvjvjvjvjvjvjvjvjvjvjvjvjvjvjvaaacacachmefjrjrbtaaalalcwefefefefefefefefefefefefefefefefjrjr",
"jvjvjvjvjvjvjvjvjvjvjvjvjvjvjvjvjvjvjvjvjvjvjvjvjvjvjvjvjvjvjvjvjvaaacacachmefjrjrbtaaalalcwefefefefefefefjrjrjrjrjrjrjrjrjrjrjr",
"jvjvjvjvjvjvjvjvjvjvjvjvjvjvjvjvjvjvjvjvjvjvjvjvjvjvjvjvjvjvjvjvjvaaacacachmjrjrjrbtaaalalhmgcgcgcgcgcgcgcgcgcgcgcgcgcgcgcgcgcgc",
"jvjvjvjvjvjvjvjvjvjvjvjvjvjvjvjvjvjvjvjvjvjvjvjvjvjvjvjvjvjvjvjvjvaaacacachmjrjrjracaaalalhmgcgcgcgcgcgcgcgcgcgcgcgcgcgcgcgcgcgc",
"jvjvjvjvjvjvjvjvjvjvjvjvjvjvjvjvjvjvjvjvjvjvjvjvjvjvjvjvjvjvjvjvjvaaacacachmhmhmhmacaaalalhmgcgcgcgcgcgcgcgcgcgcgcgcgcgcgcgcgcgc",
"jvjvjvjvjvjvjvjvjvjvjvjvjvjvjvjvjvjvjvjvjvjvjvjvjvjvjvjvjvjvjvjvjvaaacachmhmhmhmhmacaaalalhmgcgcgcgcgcgcgcgcgcgcgcgcgcgcgcgcgcgc",
"jvjvjvjvjvjvjvjvjvjvjvjvjvjvjvjvjvjvjvjvjvjvjvjvjvjvjvjvjvjvjvjvjvaaacachmhmhmhmhmacaaalalhmgcgcgcgcgcgcgcgcgcgcgcgcgcgcgcgcgcgc",
"jvjvjvjvjvjvjvjvjvjvjvjvjvjvjvjvjvjvjvjvjvjvjvjvjvjvjvjvjvjvjvjvjvatachmhmhmhmhmhmhmaaalalhmgcgcgcgcgcgcgcgcgcgcgcgcgcgcgcgcgcgc",
"jvjvjvjvjvjvjvjvjvjvjvjvjvjvjvjvjvjvjvjvjvjvjvjvjvjvjvjvjvjvjvjvjvatachmhmhmhmhmhmhmaaalalhmgcgcgcgcgcgcgcgcgcgcgcgcgcgcgcgcgcgc",
"jvjvjvjvjvjvjvjvjvjvjvjvjvjvjvjvjvjvjvjvjvjvjvjvjvjvjvjvjvjvjvjvjvataaaaaaaaaaaaaaaaaaalalhmgcgcgcgcgcgcgcgcgcgcgcgcgcgcgcgcgcgc"
};
