/* XPM */
static char *tile_road_curve_left_desert_xpm[] = {
"64 64 10 2",
"aa c #000000",
"aj c #383838",
"ay c #3A7D44",
"bu c #222222",
"fw c #FDE68A",
"ge c #669933",
"hm c #999966",
"io c #CC9966",
"it c #CCCC66",
"jv c None",
/* pixels */
"jvjvjvjvjvjvjvjvjvjvjvjvjvjvjvjvjvjvjvjvjvjvjvjvjvjvjvjvjvjvjvjvjvjvjvjvjvjvjvjvjvjvjvjvjvjvjvjvjvjvjvjvjvjvjvjvjvjvjvjvjvjvjvjv",
"jvjvjvjvjvjvjvjvjvjvjvjvjvjvjvjvjvjvjvjvjvjvjvjvjvjvjvjvjvjvjvjvjvjvjvjvjvjvjvjvjvjvjvjvjvjvjvjvjvjvjvjvjvjvjvjvjvjvjvjvjvjvjvjv",
"jvjvjvjvjvjvjvjvjvjvjvjvjvjvjvjvjvjvjvjvjvjvjvjvjvjvjvjvjvjvjvjvjvjvjvjvjvjvjvjvjvjvjvjvjvjvjvjvjvjvjvjvjvjvjvjvjvjvjvjvjvjvjvjv",
"jvjvjvjvjvjvjvjvjvjvjvjvjvjvjvjvjvjvjvjvjvjvjvjvjvjvjvjvjvjvjvjvjvjvjvjvjvaaaaaaaaaaaajvjvjvjvjvjvjvjvjvjvjvjvjvjvjvjvjvjvjvjvjv",
"jvjvjvjvjvjvjvjvjvjvjvjvjvjvjvjvjvjvjvjvjvjvjvjvjvjvjvjvjvjvjvjvjvjvjvjvaagegegegegegeaajvjvjvjvjvjvjvjvjvjvjvjvjvjvjvjvjvjvjvjv",
"jvjvjvjvjvjvjvjvjvjvjvjvjvjvjvjvjvjvjvjvjvjvjvjvjvjvjvjvjvjvaaaaaaaaaajvaaaygegegegebuaajvjvjvjvjvjvjvjvjvjvjvjvjvjvjvjvjvjvjvjv",
"jvjvjvjvjvjvjvjvjvjvjvjvjvjvjvjvjvjvjvjvjvjvjvjvjvjvjvjvjvaagegegegegeayaageaaaabubuayaajvjvjvjvjvjvjvjvjvjvjvjvjvjvjvjvjvjvjvjv",
"jvjvjvjvjvjvjvjvjvjvjvjvjvjvjvjvjvjvjvjvjvjvjvjvjvjvjvjvjvaaajgegegegeayaagegegegeayayaajvjvjvjvjvjvjvjvjvjvjvjvjvjvjvjvjvjvjvjv",
"jvjvjvjvjvjvjvjvjvjvjvjvjvjvjvjvjvjvjvjvjvjvjvjvjvjvjvjvjvaaayaaaaaaaaayaaaagegegeayaaaajvjvjvjvjvjvjvjvjvjvjvjvjvjvjvjvjvjvjvjv",
"jvjvjvjvjvjvjvjvjvjvjvjvjvjvjvjvjvjvjvjvjvjvjvjvaaaaaaaaaaaaaygegegeaygeaageaaaaaaaaayaajvjvjvjvjvjvjvjvjvjvjvjvjvjvjvjvjvjvjvjv",
"jvjvjvjvjvjvjvjvjvjvjvjvjvjvjvjvjvjvjvjvjvjvjvaagegegegegegeaagegegeayaaaagegegegeayayaajvjvjvjvjvjvjvjvjvjvjvjvjvjvjvjvjvjvjvjv",
"jvjvjvjvjvjvjvjvjvjvjvjvjvjvjvjvjvjvjvjvjvjvjvaaaagegegegeaaaaaaaaaaaaayaaajgegegeayaaaajvjvjvjvjvjvjvjvjvjvjvjvjvjvjvjvjvjvjvjv",
"jvjvjvjvjvjvjvjvjvjvjvjvjvjvjvjvjvjvjvjvjvjvjvaageaaaaaaaaayaagegegeayayaagebubububuayaajvjvjvjvjvjvjvjvjvjvjvjvjvjvjvjvjvjvjvjv",
"jvjvjvjvjvjvjvjvjvjvjvjvjvjvjvjvjvjvaaaaaaaaaaaagegegegeayayaagegegeayaaaagegegegeayayaajvjvjvjvjvjvjvjvjvjvjvjvjvjvjvjvjvjvjvjv",
"jvjvjvjvjvjvjvjvjvjvjvjvjvjvjvjvjvaagegegegeajgeaagegegeayaaaaaaaaaaaaayaaaagegegeayaajvjvjvjvjvjvjvjvjvjvjvjvjvjvjvjvjvjvjvjvjv",
"jvjvjvjvjvjvjvjvjvjvjvaaaaaaaaaaajaaajgegegegeaaaaaaaaaaaaayaagegegeayayaajvaaaaaaaajvjvjvjvjvjvjvjvjvjvhmhmhmhmhmhmhmhmhmhmhmhm",
"jvjvjvjvjvjvjvjvjvjvaaajaygegeaygeaageajaaaaaaayaagegegeayayaagegegeayaaaajvjvjvjvjvjvjvjvhmhmhmhmhmhmhmitititititititititititit",
"jvjvjvjvjvjvjvjvjvjvaagegegegegeayaagegegegeayayaagegegeayaaaaaaaaaaaajvjvjvjvjvjvjvhmhmhmititititititititititititititititititit",
"jvjvjvjvjvjvjvjvjvjvaaayaaaaaaaaayaaaagegegeayaaaaaaaaaaaaayaajvjvjvjvjvjvjvjviohmhmitititititititititititititititititititititit",
"jvjvjvjvjvjvjvjvjvjvaagegegegeayayaageaaaaaabuayaagegegeayayaajvjvjvjvjvjvhmhmhmitititititititititititititititititititititititit",
"jvjvjvjvjvjvjvjvjvjvaaajgegegeayaaaagegegegeayayaagegegeayaajvjvjvjvhmhmhmititititititititititititititititititititititititititit",
"jvjvjvjvjvjvjvjvjvjvaagebububuaaayaabugegegeaybuaaaaaaaaaajvjvjvjvhmitititititititititititititititititititititititititititititit",
"jvjvjvjvjvjvjvjvjvjvaagegegegeayayaagebubububuayaajvjvjvjvjvjvhmhmititititititititititititititititititititititititititititititit",
"jvjvjvjvjvjvjvjvjvjvaaaagegegeaybuaagegegegeayayaajvjvjvjvjvhmititititititititititititititititititititititititititititititititit",
"jvjvjvjvjvjvjvjvjvjvaageaaaaaaaaayaaaagegegeayaajvjvjvjvhmhmitititititititititititititititititititititititititititititititititit",
"jvjvjvjvjvjvjvjvjvjvaagegegegeayayaajvaaaaaaaajvjvjvjvhmitititititititititititititititititititititititititititititititititititit",
"jvjvjvjvjvjvjvjvjvjvaaaagegegeayaaaajvjvjvjvjvjvjvjvhmititititititititititititititititititititititititititititititititititititit",
"jvjvjvjvjvjvjvjvjvjvjvjvaaaaaaaajvjvjvjvjvjvjvjvjvhmitititititititititititititititititititititititititititititititititititititit",
"jvjvjvjvjvjvjvjvjvjvjvjvjvjvjvjvjvjvjvjvjvjvjvjvhmititititititititititititititititititititititititititititititititititititititit",
"jvjvjvjvjvjvjvjvjvjvjvjvjvjvjvjvjvjvjvjvjvjvjvhmitititititititititititititititititititititititititititititititititititititititit",
"jvjvjvjvjvjvjvjvjvjvjvjvjvjvjvjvjvjvjvjvjvjvjvhmitititititititititititititititititititititititititititititititititititititititit",
"jvjvjvjvjvjvjvjvjvjvjvjvjvjvjvjvjvjvjvjvjvjvhmitititititititititititititititititititititititititititititititititfwfwfwfwfwfwfwit",
"jvjvjvjvjvjvjvjvjvjvjvjvjvjvjvjvjvjvjvjvjvhmitititititititititititititititititititititititititititititititititithmhmhmhmhmhmhmhm",
"jvjvjvjvjvjvjvjvjvjvjvjvjvjvjvjvjvjvjvjvjvhmititititititititititititititititititititititititititititithmhmhmhmhmjvjvjvjvjvjvjvjv",
"jvjvjvjvjvjvjvjvjvjvjvjvjvjvjvjvjvjvjvjvhmitititititititititititititititititititititititititititithmhmjvjvjvjvjvjvjvjvjvjvjvjvjv",
"jvjvjvjvjvjvjvjvjvjvjvjvjvjvjvjvjvjvjvjvhmitititititititititititititititititititititititititithmhmjvjvjvjvjvjvjvjvjvjvjvjvjvjvjv",
"jvjvjvjvjvjvjvjvjvjvjvjvjvjvjvjvjvjvjvjvhmititititititititititititititititititititititititithmjvjvjvjvjvjvjvjvjvjvjvjvjvjvjvjvjv",
"jvjvjvjvjvjvjvjvjvjvjvjvjvjvjvjvjvjvjvhmititititititititititititititititititititititititithmjvjvjvjvjvjvjvjvjvjvjvjvjvjvjvjvjvjv",
"jvjvjvjvaaaaaajvjvjvjvjvaaaaaajvjvjvjvhmitititititititititititititititititititititititithmjvjvjvjvjvjvjvjvjvjvjvjvjvjvjvjvjvjvjv",
"jvjvjvaahmgegeaajvjvjvaahmayhmaajvjvjvhmitititititititititititititititititititititititithmjvjvjvjvjvjvaaaajvjvjvjvjvjvjvjvjvjvjv",
"jvjvjvaahmgegeaajvjvjvaahmayhmaajvjvhmitititititititititititititititititititititititithmjvjvjvjvjvjvaahmhmaajvjvjvjvjvjvjvjvjvjv",
"jvjvjvaaajgegeaajvjvjvaaaahmhmaajvjvhmitititititititititititititititititititititititithmjvjvjvjvjvaahmayhmaajvjvjvjvaaaajvjvjvjv",
"jvjvjvjvajaaaajvjvjvjvjvjvaaaaaajvjvhmitititititititititititititititititititititititithmjvjvjvjvjvaahmhmayaajvjvjvaahmayaajvjvjv",
"jvjvjvjvaahmhmaajvjvjvjvaahmhmhmaajvhmitititititititititititititititititititititititithmjvjvjvjvjvaahmayaajvjvjvaahmayhmaajvjvjv",
"jvjvjvaahmhmayhmaajvjvaahmhmayhmaajvhmitititititititititititititititititititititititithmjvjvjvjvaahmaaaajvjvjvjvaaaaayayaajvjvjv",
"jvjvjvaahmayhmhmaajvjvaaayhmhmhmaajvhmitititititititititititititititititititititititithmjvjvjvaahmayhmhmaajvjvjvjvjvaaaajvjvjvjv",
"jvjvjvaahmhmayhmaajvjvaahmayhmaajvjvhmitititititititititititititititititititititititithmjvjvjvaaayhmayhmhmaajvjvjvaaaygeaajvjvjv",
"jvjvjvjvaahmaygeayaaaaaaayayaajvjvjvhmitititititititititititititititititititititititithmjvjvjvaaayhmhmhmhmaajvjvaahmayaygeaajvjv",
"jvjvjvjvjvaaayaaayhmhmayayaajvjvjvjvhmitititititititititititititititititititititititithmhmjvjvjvaaayhmhmhmaajvjvaahmayhmgeaajvjv",
"jvjvjvjvjvjvaagehmhmaygeayjvjvjvjvjvhmititititititititititititititititititititititititithmjvjvjvjvaaayayayaaaaaaaahmayayaajvjvjv",
"jvjvjvjvjvjvaahmgehmhmgeayaajvjvjvjvhmititititititititititititititititititititititititithmjvjvjvjvjvaaayajhmhmgegeaaayaajvjvjvjv",
"jvjvjvjvjvjvaahmgegegeayayaajvjvjvjvhmititititititititititititititititititititititititithmjvjvjvjvjvjvaagegeaygegegeaajvjvjvjvjv",
"jvjvjvjvjvjvaagegegegegeayaajvjvjvjvhmititititititititititititititititititititititititithmjvjvjvjvjvjvaahmajgegegegeaajvjvjvjvjv",
"jvjvjvjvjvjvjvaagegeaygeayaajvjvjvjvhmititititititititititititititititititititititititithmjvjvjvjvjvjvaahmgegeaygeayaajvjvjvjvjv",
"jvjvjvjvjvjvjvaaayaygeayaajvjvjvjvjvhmitititititititititititititititititititititititititithmjvjvjvjvjvaahmaygegegeayaajvjvjvjvjv",
"jvjvjvjvjvjvjvjvaaayayayaajvjvjvjvjvjvhmititititititititititititititititititititititititithmjvjvjvjvjvjvaaayaygeayaajvjvjvjvjvjv",
"jvjvjvjvjvjvjvjvjvaaaaaajvjvjvjvjvjvjvhmitititititititititititititititititititititititititiohmjvjvjvjvjvaaayaygeayaajvjvjvjvjvjv",
"jvjvjvjvjvjvjvjvjvjvjvjvjvjvjvjvjvjvjvhmitititititititititititititititititititititititititithmjvjvjvjvjvjvaaayayaajvjvjvjvjvjvjv",
"jvjvjvjvjvjvjvjvjvjvjvjvjvjvjvjvjvjvjvhmitititititititititititititititititititititititititithmjvjvjvjvjvjvjvaaaajvjvjvjvjvjvjvjv",
"jvjvjvjvjvjvjvjvjvjvjvjvjvjvjvjvjvjvjvhmititititititititititititititititititititititititititithmjvjvjvjvjvjvjvjvjvjvjvjvjvjvjvjv",
"jvjvjvjvjvjvjvjvjvjvjvjvjvjvjvjvjvjvjvhmititititititititititititititititititititititititititithmjvjvjvjvjvjvjvjvjvjvjvjvjvjvjvjv",
"jvjvjvjvjvjvjvjvjvjvjvjvjvjvjvjvjvjvjvjvhmitititititititititititititititititititititititititithmjvjvjvjvjvjvjvjvjvjvjvjvjvjvjvjv",
"jvjvjvjvjvjvjvjvjvjvjvjvjvjvjvjvjvjvjvjvhmitititititititititititititititititititititititititititiojvjvjvjvjvjvjvjvjvjvjvjvjvjvjv",
"jvjvjvjvjvjvjvjvjvjvjvjvjvjvjvjvjvjvjvjvhmititititititititititititititititititititititititititithmjvjvjvjvjvjvjvjvjvjvjvjvjvjvjv"
};
