/* XPM */
static char *tile_road_crossroads_desert_xpm[] = {
"64 64 16 2",
"aa c #000000",
"aj c #383838",
"al c #555555",
"ay c #3A7D44",
"bb c #8B7355",
"bo c #1A5276",
"bu c #222222",
"bx c #2C7FB0",
"cg c #A93226",
"ck c #6E2018",
"et c #885522",
"fw c #FDE68A",
"ge c #669933",
"hm c #999966",
"io c #CC9966",
"jv c None",
/* pixels */
"jvjvjvjvjvjvjvjvjvjvjvjvjvjvjvjvjvjvjvjvjvjvjvjvjvjvhmfwbbhmhmbbhmhmhmhmhmhmhmhmhmhmbbhmbbhmfwhmjvjvaaaajvjvjvjvjvjvjvjvjvjvjvjv",
"jvjvjvjvjvjvjvjvjvjvjvjvjvjvjvjvjvjvjvjvjvjvjvjvjvjvhmfwbbhmhmbbhmhmhmhmhmhmhmhmhmhmbbhmbbhmfwhmjvajayaybujvjvjvjvjvjvjvjvjvjvjv",
"jvjvjvjvjvjvjvjvjvjvjvjvjvjvjvjvjvjvjvjvjvjvjvjvjvjvhmfwbbhmhmbbhmhmhmhmhmhmhmhmhmhmbbhmbbhmfwhmaaajgegegeaajvjvjvjvjvjvjvjvjvjv",
"jvjvjvjvjvjvjvjvjvjvjvjvjvjvjvjvjvjvjvjvjvjvjvjvjvjvhmfwbbhmhmbbhmhmhmhmhmhmhmhmhmhmbbhmbbhmfwhmaaajaaaaaaaajvjvjvjvjvjvjvjvjvjv",
"jvjvjvjvjvjvjvjvjvjvjvjvjvjvjvjvjvjvjvjvjvjvjvjvjvjvhmfwbbhmhmbbhmhmhmhmhmhmhmhmhmhmbbhmbbhmfwhmaagegegegeaajvjvjvjvjvjvjvjvjvjv",
"jvjvjvjvjvjvjvjvjvjvjvjvjvjvjvjvjvjvjvjvjvjvjvjvjvjvhmfwbbhmhmbbhmhmhmhmhmhmhmhmhmhmbbhmbbhmfwhmaaajajajajaajvjvjvjvjvjvjvjvjvjv",
"jvjvjvjvjvjvjvjvjvjvjvjvjvjvjvjvjvjvjvjvjvjvjvjvjvjvhmfwhmbbhmbbhmhmhmhmhmhmhmhmhmhmbbhmbbhmfwhmaagegeaaaaaaaajvjvjvjvjvjvjvjvjv",
"jvjvjvjvjvjvjvjvjvjvjvjvjvjvjvjvjvjvjvjvjvjvjvjvjvjvhmfwhmbbhmbbhmhmhmhmhmhmhmhmhmhmbbhmbbhmfwhmaabuaaetetetetaajvjvjvjvjvjvjvjv",
"jvjvjvjvjvjvjvjvjvjvjvjvjvjvjvjvjvjvjvjvjvaaaaaajvjvhmfwhmbbhmbbhmhmhmhmhmhmhmhmhmhmbbhmbbhmfwhmaaalaaetetetetaajvjvjvjvjvjvjvjv",
"jvjvjvjvjvjvjvjvjvjvjvjvjvjvjvjvjvjvjvjvaackcgckckaahmfwhmbbhmbbhmhmhmhmhmhmhmhmhmhmbbhmbbhmfwhmjvaaaaaaaaaackaajvjvjvjvjvjvjvjv",
"jvjvjvjvjvjvjvjvjvjvjvjvjvjvjvjvjvjvjvjvaackcgckcgaahmfwhmbbhmbbbbhmhmhmhmhmhmhmhmbbbbhmbbhmfwhmjvjvaackckckckaajvjvjvjvjvjvjvjv",
"jvjvjvjvjvjvjvjvjvjvjvjvjvjvjvjvjvjvjvjvaaaaaaaackaahmfwhmbbhmbbbbhmhmhmhmhmhmhmhmbbbbhmbbhmfwhmjvjvaaaackckckaajvjvjvaaaaaaaajv",
"jvjvjvjvjvjvjvjvjvjvjvjvjvjvjvjvjvaaaaaaaacketetcgaahmfwhmbbhmbbbbhmhmhmhmhmhmhmhmbbhmhmbbhmfwhmjvjvaackckckckaajvjvaaajboboaaaa",
"jvjvjvjvjvjvjvjvjvjvjvjvjvjvjvjvaabxbxbxboaaaaaackaahmfwhmbbhmbbbbhmhmhmhmhmhmhmhmbbhmhmbbhmfwhmjvjvaackckckaaaaaajvaabxbxbxbxaa",
"jvjvjvjvjvjvjvjvjvjvjvjvjvjvjvaabobxbxbxboaabbckcgaahmfwhmbbhmhmbbhmhmhmhmhmhmhmhmbbhmhmbbhmfwhmjvjvaackckaaajajgeaaaabubububuaa",
"jvjvjvjvjvjvjvjvjvjvjvaaaaaaaaaaboboboboboaaaaaackaahmfwhmbbbbhmbbhmhmhmhmhmhmhmhmbbhmhmbbhmfwhmjvjvaackckaaajgegegeaaboboboboaa",
"jvjvjvjvjvjvjvjvjvjvaackcketaaaaboboboboboaaetetetaahmfwhmhmbbhmbbbbhmhmhmhmhmhmhmbbhmhmbbhmfwhmjvjvjvaaaaaaajajajajaabobububoaa",
"jvjvjvjvjvjvjvjvjvjvaaetetetckaaajboboboboaaaaaaaajvhmfwhmhmbbhmbbbbhmhmhmhmhmhmhmbbhmhmbbhmfwhmhmjvjvjvjvaagegegegeaabubxbxboaa",
"jvjvjvjvjvjvjvjvjvjvaaaaaaaaaaaaboboboboboaajvjvjvjvhmfwhmhmbbhmhmbbhmhmhmhmhmhmhmbbhmhmbbhmhmfwiojvjvjvjvaaaybuajajaabobububuaa",
"jvjvjvjvjvjvjvjvjvjvaackethmckaaaabobxbxckaajvjvjvjvhmfwhmhmbbbbhmbbbbhmhmhmhmhmhmbbhmbbbbhmhmhmfwhmjvjvjvaaaygegegeaabuboboboaa",
"jvjvjvjvjvjvjvjvjvjvaackckbubuaaboboboboboaajvjvjvjvhmfwhmhmhmbbhmhmbbhmhmhmhmhmhmhmhmbbbbhmhmhmfwhmjvjvjvaaajajajajaaaaaaaaaajv",
"jvjvjvjvjvjvjvjvjvjvaackcgcgckaaboboboboboaajvjvjvjvhmfwhmhmhmbbhmhmbbbbhmhmhmhmhmhmhmbbhmhmhmhmfwhmjvjvjvaaaygegegeaajvjvjvjvjv",
"jvjvjvjvjvjvjvjvjvjvaaaaaaaaaaaaaaaaaaaaaajvjvjvjvhmfwhmhmhmhmhmbbhmbbbbbbhmhmhmhmhmbbbbhmhmhmhmhmfwhmhmjvjvaaaaaaaajvjvjvjvjvjv",
"jvjvjvjvjvjvjvjvjvjvaacketetetaajvjvjvjvjvjvhmhmhmhmhmhmhmhmhmhmbbbbhmbbbbbbhmhmhmhmbbhmhmhmhmhmhmhmfwhmioiohmhmjvjvjvjvjvjvjvjv",
"hmhmhmhmhmhmhmhmhmhmhmaaaaaaaahmhmhmhmhmhmhmfwfwhmfwhmhmhmhmhmhmhmbbhmhmbbbbbbhmhmbbbbhmhmhmhmhmhmhmhmfwfwfwfwhmioioioioioioioio",
"fwfwfwfwfwfwfwfwfwfwfwfwfwfwfwfwfwfwfwfwfwfwhmhmhmhmhmhmhmhmhmhmhmhmbbhmhmbbbbhmhmbbhmhmhmhmhmhmhmhmhmhmhmhmhmfwfwfwfwfwfwfwfwfw",
"hmhmhmhmhmhmhmhmhmhmhmhmhmhmhmhmhmhmhmhmhmhmhmhmhmhmhmhmhmhmhmhmhmhmbbbbhmhmhmbbbbhmhmhmhmhmhmhmhmhmhmhmhmhmhmhmhmhmhmhmhmhmhmhm",
"hmhmhmhmhmhmhmhmhmhmhmhmhmhmhmhmhmhmhmhmhmhmhmhmhmhmhmhmhmhmhmhmhmhmhmhmbbhmbbbbbbbbhmhmhmhmhmhmhmhmhmhmhmhmbbbbbbbbbbbbbbbbbbbb",
"hmhmhmhmhmhmhmhmhmhmhmhmhmhmhmhmhmhmhmhmhmhmhmhmhmhmhmhmhmhmhmhmhmhmhmhmhmbbbbhmhmhmbbbbhmhmhmhmhmhmbbbbbbbbbbbbbbhmhmhmhmhmhmhm",
"hmhmhmhmhmhmhmhmhmhmhmhmhmhmhmhmhmhmhmhmhmhmhmhmhmhmhmhmhmhmhmhmhmhmbbbbbbbbhmbbbbhmhmbbbbbbbbbbbbbbbbbbhmhmhmhmhmhmhmhmhmhmhmhm",
"hmhmhmhmhmhmhmhmhmhmhmhmhmhmhmhmhmhmhmhmhmhmhmhmhmhmhmhmhmbbbbbbbbbbbbbbhmhmhmhmbbbbhmhmhmbbbbbbbbbbhmhmhmhmhmhmhmhmhmhmhmhmhmhm",
"bbbbbbbbbbbbbbbbbbbbbbbbbbbbbbbbbbbbbbbbbbbbbbbbbbbbbbbbbbbbbbbbbbhmhmhmhmhmhmhmhmbbbbbbbbbbhmhmhmhmbbbbbbbbbbbbbbbbbbbbbbbbbbbb",
"hmhmhmhmhmhmhmhmhmhmhmhmhmhmhmhmhmbbbbbbbbbbbbbbbbbbbbbbbbhmhmhmhmhmhmhmhmhmhmhmhmbbhmbbhmbbbbbbbbbbhmhmhmhmhmhmbbbbbbbbbbbbbbbb",
"bbbbbbbbbbbbbbbbbbbbbbbbbbbbbbbbhmhmhmhmhmhmhmhmhmhmhmhmhmhmhmhmhmhmhmhmhmhmhmhmbbbbbbhmhmhmhmhmhmbbbbbbbbbbbbbbhmhmhmhmhmhmhmhm",
"hmhmhmhmhmhmhmhmhmhmhmhmhmhmhmhmhmhmhmhmhmhmhmhmhmhmhmhmhmhmhmhmhmhmhmhmhmhmhmbbbbbbhmhmhmhmbbbbbbbbhmhmhmhmhmhmhmhmhmhmhmhmhmhm",
"hmhmhmhmhmhmhmhmhmhmhmhmhmhmhmhmhmhmhmhmhmhmhmhmhmhmhmhmhmhmhmhmhmhmhmhmhmhmbbbbhmhmhmhmbbbbbbhmhmhmhmhmhmhmhmhmhmhmhmhmhmhmhmhm",
"hmhmhmhmhmhmhmhmhmaaaaaaaahmhmhmhmhmhmhmhmhmhmhmhmhmhmhmhmhmhmhmhmhmhmhmhmbbbbhmhmhmbbbbbbhmhmhmhmhmaaaaaaaahmhmhmhmhmhmhmhmhmhm",
"hmhmhmhmhmhmhmhmaabxbxbxajaaaaaaaahmhmhmhmhmhmhmhmhmhmhmhmhmhmhmhmhmhmhmbbbbhmhmhmbbbbhmhmhmhmhmhmaagegegegeaahmhmhmhmhmhmhmhmhm",
"fwfwfwfwfwfwfwfwaabxbxbxaagegegegeaahmhmhmhmhmhmhmhmhmhmhmhmhmhmhmhmhmbbbbhmhmhmbbbbhmhmhmfwfwfwfwaagegegegeaafwfwfwfwfwfwfwfwfw",
"hmhmhmhmhmhmhmhmaackaaaaaaajgegegeaahmhmhmhmhmhmhmhmhmhmhmhmhmhmhmhmbbbbhmhmhmbbbbhmhmhmhmhmaaaaaaaaajbuajajaahmhmhmhmhmhmhmhmhm",
"jvjvjvjvjvjvjvjvaabxboboaaajaaaaaaaahmfwfwhmhmhmhmhmhmhmhmhmhmhmhmhmbbbbhmhmbbbbhmhmhmfwhmaabxbxbxajaagegegeaajvjvjvjvjvjvjvjvjv",
"jvjvjvjvjvjvjvjvaabobubuaaaygegeaaaaaaaahmhmhmhmhmhmhmhmhmhmhmhmhmbbbbhmhmbbbbhmhmhmfwhmjvaabuajajajaaajajajaajvjvjvjvjvjvjvjvjv",
"jvjvjvjvjvjvjvjvaabxboboaabubuaackcgetetaafwhmhmhmhmhmhmhmhmhmhmhmbbbbhmhmbbhmhmhmfwhmjvjvaaboboboboaagegegeaajvjvjvjvjvjvjvjvjv",
"jvjvjvjvjvjvjvjvaabobubuaaajhmaaetetcgetaahmfwhmhmhmhmhmhmhmhmhmbbbbhmhmbbbbhmhmfwhmjvaaaaaaaaboajajaaajajajaajvjvjvjvjvjvjvjvjv",
"jvjvjvjvjvjvjvjvaaboboboaabubuaackaaaackaahmfwhmhmhmhmhmhmhmhmhmbbhmhmhmbbhmhmhmfwhmaaajbbbbaaaaboboaagegegeaajvjvjvjvjvjvjvjvjv",
"jvjvjvjvjvjvjvjvjvaaaaaaaaayayaaetetetetaahmfwhmhmhmhmhmhmhmhmbbbbhmhmbbbbhmhmhmfwhmaaajbbalckaaajajaaaaaaaajvjvjvjvjvjvjvjvjvjv",
"jvjvjvjvjvjvjvjvjvjvjvjvjvaaaaaackckckckaajvhmfwhmhmhmhmhmhmbbbbhmhmbbbbhmhmhmhmfwhmaabbajajajaaboboaajvjvjvjvjvjvjvjvjvjvjvjvjv",
"jvjvjvjvjvjvjvjvjvjvjvjvjvjvjvaackcgetetaajvhmfwhmhmhmhmhmhmbbbbhmhmbbbbhmhmhmhmfwhmaaajbbbbalaaaaaajvjvjvjvjvjvjvjvjvjvjvjvjvjv",
"jvjvjvjvjvjvjvjvjvjvjvjvjvjvjvaackckckckaajvhmfwhmhmhmhmhmhmbbbbhmhmbbhmhmhmhmhmfwhmaaajajalalaajvjvjvjvjvjvjvjvjvjvjvjvjvjvjvjv",
"jvjvjvjvjvjvjvjvjvjvjvjvjvjvjvaaetetetetaajvhmfwhmhmhmhmhmhmbbbbhmbbbbhmhmhmhmhmfwhmaaajbbbbbbaajvjvjvjvjvjvjvjvjvjvjvjvjvjvjvjv",
"jvjvjvjvjvjvjvjvjvjvjvjvjvjvjvjvaaaaaaaajvjvhmfwhmhmhmhmhmbbbbhmhmbbhmhmhmhmhmhmfwhmaaajajajbbaajvjvjvjvjvjvjvjvjvjvjvjvjvjvjvjv",
"jvjvjvjvjvjvjvjvjvjvjvjvjvjvjvjvjvjvjvjvjvjvhmfwhmhmhmhmhmbbbbhmhmbbhmhmhmhmhmhmfwhmaaajajajbujvjvjvjvjvjvjvjvjvjvjvjvjvjvjvjvjv",
"jvjvjvjvjvjvjvjvjvjvjvjvjvjvjvjvjvjvjvjvjvjvhmfwhmhmhmhmhmbbbbhmbbbbhmhmhmhmhmhmfwhmjvaaajbubujvjvjvjvjvjvjvjvjvjvjvjvjvjvjvjvjv",
"jvjvjvjvjvjvjvjvjvjvjvjvjvjvjvjvjvjvjvjvjvjvhmfwhmhmhmhmhmbbhmhmbbbbhmhmhmhmhmhmfwhmjvjvjvjvjvjvjvjvjvjvjvjvjvjvjvjvjvjvjvjvjvjv",
"jvjvjvjvjvjvjvjvjvjvjvjvjvjvjvjvjvjvjvjvjvjvhmfwhmhmhmhmbbbbhmhmbbhmhmhmhmhmhmhmfwhmjvjvjvjvjvjvjvjvjvjvjvjvjvjvjvjvjvjvjvjvjvjv",
"jvjvjvjvjvjvjvjvjvjvjvjvjvjvjvjvjvjvjvjvjvjvhmfwhmhmhmhmbbbbhmhmbbhmhmhmhmhmhmhmfwhmjvjvjvjvjvjvjvjvjvjvjvjvjvjvjvjvjvjvjvjvjvjv",
"jvjvjvjvjvjvjvjvjvjvjvjvjvjvjvjvjvjvjvjvjvjvhmfwhmhmhmhmbbbbhmbbbbhmhmhmhmhmhmhmfwhmjvjvjvjvjvjvjvjvjvjvjvjvjvjvjvjvjvjvjvjvjvjv",
"jvjvjvjvjvjvjvjvjvjvjvjvjvjvjvjvjvjvjvjvjvjvhmfwhmhmhmhmbbbbhmbbbbhmhmhmhmhmhmhmfwhmjvjvjvjvjvjvjvjvjvjvjvjvjvjvjvjvjvjvjvjvjvjv",
"jvjvjvjvjvjvjvjvjvjvjvjvjvjvjvjvjvjvjvjvjvjvhmfwhmhmhmbbbbhmhmbbhmhmhmhmhmhmhmhmfwhmjvjvjvjvjvjvjvjvjvjvjvjvjvjvjvjvjvjvjvjvjvjv",
"jvjvjvjvjvjvjvjvjvjvjvjvjvjvjvjvjvjvjvjvjvjvhmfwhmhmhmbbbbhmhmbbhmhmhmhmhmhmhmhmfwhmjvjvjvjvjvjvjvjvjvjvjvjvjvjvjvjvjvjvjvjvjvjv",
"jvjvjvjvjvjvjvjvjvjvjvjvjvjvjvjvjvjvjvjvjvjvhmfwhmhmhmbbbbhmhmbbhmhmhmhmhmhmhmhmfwhmjvjvjvjvjvjvjvjvjvjvjvjvjvjvjvjvjvjvjvjvjvjv",
"jvjvjvjvjvjvjvjvjvjvjvjvjvjvjvjvjvjvjvjvjvjvhmfwhmhmhmbbbbhmhmbbhmhmhmhmhmhmhmhmfwhmjvjvjvjvjvjvjvjvjvjvjvjvjvjvjvjvjvjvjvjvjvjv",
"jvjvjvjvjvjvjvjvjvjvjvjvjvjvjvjvjvjvjvjvjvjvhmfwhmhmhmbbbbhmhmbbhmhmhmhmhmhmhmhmfwhmjvjvjvjvjvjvjvjvjvjvjvjvjvjvjvjvjvjvjvjvjvjv",
"jvjvjvjvjvjvjvjvjvjvjvjvjvjvjvjvjvjvjvjvjvjvhmfwhmhmhmbbbbhmhmbbhmhmhmhmhmhmhmhmfwhmjvjvjvjvjvjvjvjvjvjvjvjvjvjvjvjvjvjvjvjvjvjv"
};
