/* XPM */
static char *tile_road_winding_desert_xpm[] = {
"64 64 13 2",
"aa c #000000",
"aj c #383838",
"al c #555555",
"ay c #3A7D44",
"bo c #1A5276",
"bu c #222222",
"bx c #2C7FB0",
"ck c #6E2018",
"ge c #669933",
"hm c #999966",
"io c #CC9966",
"it c #CCCC66",
"jv c None",
/* pixels */
"jvjvjvjvjvjvjvjvjvjvjvjvjvjvjvjvjvjvjvjvjvjvjvjvjvjvjvjvjvjvjvjvjvjvjvhmioioioioioioioioioioioioioioioiohmjvjvjvjvjvjvjvjvjvjvjv",
"jvjvjvjvjvjvjvjvjvjvjvjvjvjvjvjvjvjvjvjvjvjvjvjvjvjvjvjvjvjvaaaaaahmjvhmioioioioioioioioioioioioioioioiohmjvjvjvjvjvjvjvjvjvjvjv",
"jvjvjvjvjvjvjvjvjvjvjvjvjvjvjvjvjvjvjvjvjvjvjvjvjvjvjvjvjvaabxbxbxalhmhmioioioioioioioioioioioioioioioiohmjvjvjvjvjvjvjvjvjvjvjv",
"jvjvjvjvjvjvjvjvjvjvjvjvjvjvjvjvjvjvjvjvjvjvjvjvjvjvjvjvjvaabubobubuhmhmioioioioioioioioioioioioioioioiohmjvjvjvbujvjvjvjvjvjvjv",
"jvjvjvjvjvjvjvjvjvjvjvjvjvjvjvjvjvjvjvjvjvjvjvjvjvjvjvjvjvaabxbxbxbohmhmioioioioioioioioioioioioioioioiohmjvjvajgebujvjvjvjvjvjv",
"jvjvjvjvjvjvjvjvjvjvjvjvjvjvjvjvjvjvjvjvjvjvjvjvjvjvjvjvjvaabubububuhmhmioioioioioioioioioioioioioioioiohmjvjvajgebujvjvjvjvjvjv",
"jvjvjvjvjvjvjvjvjvjvjvjvjvjvjvjvjvjvjvjvjvjvjvjvjvjvjvjvjvaabxbxbxbxhmhmioioioioioioioioioioioioioioioiohmaajvajgebujvjvjvjvjvjv",
"jvjvjvjvjvjvjvjvjvjvjvjvjvjvjvjvjvjvjvjvjvjvjvjvjvjvjvjvjvaabubububuhmhmioioioioioioioioioioioioioioioioaahmaagegeaajvjvaajvjvjv",
"jvjvjvjvjvjvjvjvjvjvjvjvjvjvjvjvjvjvjvjvjvaajvjvjvjvjvjvjvaabxbxbxbuhmhmioioioioioioioioioioioioioioioioaahmaagegeaajvaageaajvjv",
"jvjvjvjvjvjvjvjvjvjvjvjvjvjvjvjvjvjvjvjvaageaajvjvjvjvjvjvjvaaaaaackjvhmioioioioioioioioioioioioioioioioaahmaaaygeaajvaageaajvjv",
"jvjvjvjvjvjvjvjvjvjvjvjvjvjvjvjvjvjvjvjvaagebujvjvjvjvjvjvjvjvjvjvjvjvhmioioioioioioioioioioioioioioioioaahmaaaygeaajvaageaajvjv",
"jvjvjvjvjvjvjvjvjvjvjvjvjvjvjvjvjvjvjvjvaagebujvjvjvjvjvjvjvjvjvjvjvjvhmioioioioioioioioioioioioioioioioaahmaaaygeaajvaageaajvjv",
"jvjvjvjvjvjvjvjvjvjvjvjvjvjvjvjvjvaajvjvaagebujvjvaajvjvjvjvjvjvjvjvjvhmioioioioioioioioioioioioioioioioaaayayaaayayaaaageaajvjv",
"jvjvjvjvjvjvjvjvjvjvjvjvjvjvjvjvjvayaajvaagebujvaageaajvjvjvjvjvjvjvjvhmioioioioioioioioioioioioioioioioioaaayaygeaybugegeaajvjv",
"jvjvjvjvjvjvjvjvjvjvjvjvjvjvjvjvjvayaajvaageajjvaageaajvhmhmhmjvjvjvjvhmioioioioioioioioioioioioioioioiohmjvaaaygeayayaaaajvjvjv",
"jvjvjvjvjvjvjvjvjvjvjvjvjvjvjvjvjvayaajvaageajjvaageaabobxbxbujvjvjvjvhmioioioioioioioioioioioioioioioiohmjvjvajgeayaajvjvjvjvjv",
"jvjvjvjvjvjvjvjvjvjvjvjvjvjvjvjvjvayaajvaageajjvaageaabxbxbxboaajvjvjvhmioioioioioioioioioioioioioioioiohmjvjvajgeayaajvjvjvjvjv",
"jvjvjvjvjvjvjvjvjvjvjvjvjvjvjvjvjvayayaaaageajaahmayaabubububoaajvjvjvhmioioioioioioioioioioioioioioioiohmjvjvajgeayaajvjvjvjvjv",
"jvjvjvjvjvjvjvjvjvjvjvjvjvjvjvjvjvaaayayaygeayayayaaaabobxbxbxaajvjvjvhmioioioioioioioioioioioioioioioiohmjvjvajgeayaajvjvjvjvjv",
"jvjvjvjvjvjvjvjvjvjvjvjvjvjvjvjvjvjvaaaaaygeayaaaajvaabubububoaajvjvjvhmioioioioioioioioioioioioioioioiohmjvjvajayaybujvjvjvjvjv",
"jvjvjvjvjvjvjvjvjvjvjvjvjvjvjvjvjvjvjvjvaageajjvjvjvaabubxbxbxaajvjvhmioioioioioioioioioioioioioioioioiohmjvjvjvajajjvjvjvjvjvjv",
"jvjvjvjvjvjvjvjvjvjvjvjvjvjvjvjvjvjvjvjvaageajjvjvjvaabububobuaajvjvhmioioioioioioioioioioioioioioioioiohmjvjvjvjvjvjvjvjvjvjvjv",
"jvjvjvjvjvjvjvjvjvjvjvjvjvjvjvjvjvjvjvjvaageajjvjvjvaabobxbxbxaajvjvhmioioioioioioioioioioioioioioioioiohmjvjvjvjvjvjvjvjvjvjvjv",
"jvjvjvjvjvjvjvjvjvjvjvjvjvjvjvjvjvjvjvjvaageajjvjvjvjvaaaaaaaajvjvhmioioioioioioioioioioioioioioioioioiohmjvjvjvjvjvjvjvjvjvjvjv",
"jvjvjvjvjvjvjvjvjvjvjvjvjvjvjvjvjvjvjvjvaageajjvjvjvjvjvjvjvjvjvhmioioioioioioioioioioioioioioioioioioiohmjvjvjvjvjvjvjvjvjvjvjv",
"jvjvjvjvjvjvjvjvjvjvjvjvjvjvjvjvjvjvjvjvjvajjvjvjvjvjvjvjvjvhmhmioioioioioioioioioioioioioioioioioioioiohmjvjvjvjvjvjvjvjvjvjvjv",
"jvjvjvjvjvjvjvjvjvjvjvjvjvjvjvjvjvjvjvjvjvjvjvjvjvjvhmhmhmhmioioioioioioioioioioioaaioioioioioioioioioiohmjvjvjvjvjvjvjvjvjvjvjv",
"jvjvjvjvjvjvjvjvjvjvjvjvjvjvjvjvjvjvjvjvjvjvjvhmhmhmioioioioioioioioioioioioioioaageaaioioioioioioioioiohmjvjvjvjvjvjvjvjvjvjvjv",
"jvjvjvjvjvjvjvjvjvjvjvjvjvjvjvjvjvjvjvjvjvhmhmhmioioioioioioioioioioioioioioioitaageaaioioioioioioioiohmjvjvjvjvjvjvjvjvjvjvjvjv",
"jvjvjvjvjvjvjvjvjvjvjvjvjvjvjvjvjvjvjvhmhmioioioioioioioioioioioioioioioioioititaageaaioioioioioioioiohmjvjvjvjvjvjvjvjvjvjvjvjv",
"jvjvjvjvjvjvjvjvjvjvjvjvjvjvjvjvjvjvhmioioioioioioioioioioioioioioioioioioaaititaageaaitioaaioioioiohmjvjvjvjvjvjvjvjvjvjvjvjvjv",
"jvjvjvjvjvjvjvjvjvjvjvjvjvjvjvjvjvhmioioioioioioioioioioioioioioioioioioaahmaaitaageaaitaahmaaioioiohmjvjvjvjvjvjvjvjvjvjvjvjvjv",
"jvjvjvjvjvjvjvjvjvjvjvjvjvjvjvjvhmhmioioioioioioioioioioioioioioioioioioaahmaaitaageaaitaahmaaioiohmjvjvjvjvjvjvjvjvjvjvjvjvjvjv",
"jvjvjvjvjvjvjvjvjvjvjvjvjvjvjvhmhmioioioioioioioioioioioioioioioioioioioaahmaaitaageaaitaahmaaiohmjvjvjvjvjvjvjvjvjvjvjvjvjvjvjv",
"jvjvjvjvjvjvjvjvjvjvjvjvjvjvjvhmioioioioioioioioioioioioioioioioioioioioaahmaaitaageaaitaahmaahmjvjvjvjvjvjvjvjvjvjvjvjvjvjvjvjv",
"jvjvjvjvjvjvjvjvjvjvjvjvjvjvhmioioioioioioioioioioioioioioioioiobubububuaaayayaaajgeaaaaaygeaajvjvjvjvjvjvjvjvjvjvjvjvjvjvjvjvjv",
"jvjvjvjvjvjvjvjvjvjvjvjvjvjvhmioioioioioioioioioioioioioioioioaabobxbxbxboaaaygeaygeayaygeaajvjvjvjvjvjvjvjvjvjvjvjvjvjvjvjvjvjv",
"jvjvjvjvjvjvjvaaaajvjvjvjvhmioioioioioioioioioioioioioioioioioaabububububuaaaaaaajgeayaaaajvjvjvjvjvjvjvjvjvjvjvjvjvjvjvjvjvjvjv",
"jvjvjvjvjvjvaagegeaajvjvjvhmioioioioioioioioioioioioioioioioioaabxbxbxbxbxaaioioaageaajvjvjvjvjvjvjvjvjvjvjvjvjvjvjvjvjvjvjvjvjv",
"jvjvjvjvjvjvaagegeaajvjvjvhmioioioioioioioioioioioioioioioioioaabobxbxbxboaajvjvaagebujvjvjvjvjvjvjvjvjvjvjvjvjvjvjvjvjvjvjvjvjv",
"jvjvjvjvjvjvaagegeaajvjvhmioioioioioioioioioioioioioioioioioioaabxboboboboaajvjvaageajjvjvjvjvjvjvjvjvjvjvjvjvjvjvjvjvjvjvjvjvjv",
"jvjvjvaajvjvaagegeaajvjvhmioioioioioioioioioioioioioioioioioioaabobxbxbxboaajvjvaageajjvjvjvjvjvjvjvjvjvjvjvjvjvjvjvjvjvjvjvjvjv",
"jvjvaahmaajvaagegeaajvjvhmioioioioioioioioioioioioioioioioioioaaboboboboajaajvjvaageajjvjvjvjvjvjvjvjvjvjvjvjvjvjvjvjvjvjvjvjvjv",
"jvjvaahmaajvaagegeaajvjvhmioioioioioioioioioioioioioioioioiohmaabobxbxboaahmaajvjvajjvjvjvjvjvjvjvjvjvjvjvjvjvjvjvjvjvjvjvjvjvjv",
"jvjvaahmaajvaagegeaajvaahmioioioioioioioioioioioioioioioioiohmjvaaaaaaaahmhmhmjvjvjvjvjvjvjvjvjvjvjvjvjvjvjvjvjvjvjvjvjvjvjvjvjv",
"jvjvaaayaajvaagegeaaaageaaioioioioioioioioioioioioioioioioiohmjvjvjvaahmayhmhmaaaajvjvjvjvjvjvjvjvjvjvjvjvjvjvjvjvjvjvjvjvjvjvjv",
"jvjvaaayayaaaygegeaaaageaaioioioioioioioioioioioioioioioioiohmjvjvjvaaayhmayhmaahmaajvjvjvjvjvjvjvjvjvjvjvjvjvjvjvjvjvjvjvjvjvjv",
"jvjvjvaaayayajgegeaaaageaaioioioioioioioioioioioioioioioioiohmjvjvjvaahmhmayhmaahmaajvjvjvjvjvjvjvjvjvjvjvjvjvjvjvjvjvjvjvjvjvjv",
"jvjvjvjvaaaagegegeaagegeaaioioioioioioioioioioioioioioioioiohmjvjvjvaahmhmhmhmaahmaajvjvjvjvjvjvjvjvjvjvjvjvjvjvjvjvjvjvjvjvjvjv",
"jvjvjvjvjvjvaagegegegeaahmioioioioioioioioioioioioioioioioiohmjvjvjvaahmhmhmhmaahmaajvjvjvjvjvjvjvjvjvjvjvjvjvjvjvjvjvjvjvjvjvjv",
"jvjvjvjvjvjvaagegeaaaajvhmioioioioioioioioioioioioioioioioiohmjvjvjvaahmhmhmaahmgeaajvjvjvjvjvjvjvjvjvjvjvjvjvjvjvjvjvjvjvjvjvjv",
"jvjvjvjvjvjvaagegeaajvjvhmioioioioioioioioioioioioioioioioiohmjvjvjvjvaaayaygehmaajvjvjvjvjvjvjvjvjvjvjvjvjvjvjvjvjvjvjvjvjvjvjv",
"jvjvjvjvjvjvaagegeaajvjvhmioioioioioioioioioioioioioioioioiohmjvjvjvaaaagegeayaajvjvjvjvjvjvjvjvjvjvjvjvjvjvjvjvjvjvjvjvjvjvjvjv",
"jvjvjvjvjvjvaagegeaajvjvhmioioioioioioioioioioioioioioioioiohmjvjvjvaagegeaygeaajvjvjvjvjvjvjvjvjvjvjvjvjvjvjvjvjvjvjvjvjvjvjvjv",
"jvjvjvjvjvjvaagegeaajvjvhmioioioioioioioioioioioioioioioioiohmjvjvaaaageaygegeaajvjvjvjvjvjvjvjvjvjvjvjvjvjvjvjvjvjvjvjvjvjvjvjv",
"jvjvjvjvjvjvjvajajjvjvjvhmioioioioioioioioioioioioioioioioioiohmaahmgegegegegeaajvjvjvjvjvjvjvjvjvjvjvjvjvjvjvjvjvjvjvjvjvjvjvjv",
"jvjvjvjvjvjvjvjvjvjvjvjvhmioioioioioioioioioioioioioioioioioiohmaagegeaagegegeaajvjvjvjvjvjvjvjvjvjvjvjvjvjvjvjvjvjvjvjvjvjvjvjv",
"jvjvjvjvjvjvjvjvjvjvjvjvhmioioioioioioioioioioioioioioioioioiohmaagegeaagegegeaajvjvjvjvjvjvjvjvjvjvjvjvjvjvjvjvjvjvjvjvjvjvjvjv",
"jvjvjvjvjvjvjvjvjvjvjvjvhmioioioioioioioioioioioioioioioioioiohmjvaageaagegeayaajvjvjvjvjvjvjvjvjvjvjvjvjvjvjvjvjvjvjvjvjvjvjvjv",
"jvjvjvjvjvjvjvjvjvjvjvjvhmioioioioioioioioioioioioioioioioioiohmjvjvhmhmaaaaaajvjvjvjvjvjvjvjvjvjvjvjvjvjvjvjvjvjvjvjvjvjvjvjvjv",
"jvjvjvjvjvjvjvjvjvjvjvjvhmioioioioioioioioioioioioioioioioioiohmjvjvjvjvjvjvjvjvjvjvjvjvjvjvjvjvjvjvjvjvjvjvjvjvjvjvjvjvjvjvjvjv",
"jvjvjvjvjvjvjvjvjvjvjvjvhmioioioioioioioioioioioioioioioioioiohmjvjvjvjvjvjvjvjvjvjvjvjvjvjvjvjvjvjvjvjvjvjvjvjvjvjvjvjvjvjvjvjv",
"jvjvjvjvjvjvjvjvjvjvjvjvhmioioioioioioioioioioioioioioioioioiohmjvjvjvjvjvjvjvjvjvjvjvjvjvjvjvjvjvjvjvjvjvjvjvjvjvjvjvjvjvjvjvjv",
"jvjvjvjvjvjvjvjvjvjvjvjvhmioioioioioioioioioioioioioioioioioiohmjvjvjvjvjvjvjvjvjvjvjvjvjvjvjvjvjvjvjvjvjvjvjvjvjvjvjvjvjvjvjvjv"
};
