/* XPM */
static char *tile_sand_pebbles_xpm[] = {
"64 64 20 2",
"ac c #CCCCCC",
"ad c #999999",
"ae c #666666",
"af c #333333",
"ai c #2A2A2A",
"aj c #383838",
"ak c #444444",
"al c #555555",
"bb c #8B7355",
"bf c #5D4037",
"bj c #4A4A4A",
"cc c #505050",
"cn c #484848",
"et c #885522",
"gc c #AAAAAA",
"hg c #996633",
"hm c #999966",
"io c #CC9966",
"iu c #CCCC99",
"jv c None",
/* pixels */
"jvjvjvjvjvjvjvjvjvjvjvjvjvjvjvjvjvjvjvjvjvjvjvjvjvjvjvjvjvjvjvjvjvjvjvjvjvjvjvjvjvjvjvjvjvjvjvjvjvjvjvjvjvjvjvjvjvjvjvjvjvjvjvjv",
"jvjvjvjvjvjvjvjvjvjvjvjvjvjvjvjvjvjvjvjvjvjvjvjvjvjvjvjvjvjvjvjvjvjvjvjvjvjvjvjvjvjvjvjvjvjvjvjvjvjvjvjvjvjvjvjvjvjvjvjvjvjvjvjv",
"jvjvjvjvjvjvjvjvjvjvjvjvjvjvjvjvjvjvjvjvjvjvjvjvjvjvjvjvjvjvjvjvjvjvjvjvhgjvjvjvjvjvjvjvjvjvjvjvjvjvjvjvjvjvjvjvjvjvjvjvjvjvjvjv",
"jvjvjvjvjvjvjvjvjvjvjvjvjvjvjvjvjvjvjvjvjvjvjvjvjvjvjvjvaljvjvjvjvjvjvjvhmhmjvjvjvjvjvjvjvjvjvjvjvjvjvjvjvjvjvjvjvjvjvccjvjvjvjv",
"jvjvjvjvjvjvjvjvjvjvjvjvjvjvjvjvjvjvjvjvjvjvjvjvjvjvjvjvhmbbjvjvjvjvjvjvjvjvjvjvjvjvjvjvjvjvjvjvjvjvjvjvjvjvjvjvjvjvjvjvbfjvjvjv",
"jvjvjvjvjvjvjvjvjvjvjvaladbbjvjvjvjvjvjvjvjvjvjvjvjvjvjvjvjvjvjvjvjvjvjvjvjvjvjvjvjvjvjvjvjvjvjvjvjvjvjvjvjvjvjvjvjvjvioiojvjvjv",
"jvjvjvjvjvjvjvjvjvjvjvadadadaejvjvjvjvjvjvjvjvjvjvjvjvjvjvjvjvjvjvjvjvjvjvjvjvjvjvjvjvjvjvjvetjvjvjvjvjvjvjvjvjvjvjvjvjvjvjvjvjv",
"jvjvjvjvjvjvjvjvjvjvjvaealalaljvjvioiojvjvjvjvjvjvjvjvjvjvjvjvjvjvjvjvjvjvjvjvjvjvjvjvjvjvioiojvjvjvjvjvjvjvjvjvjvjvjvjvjvjvjvjv",
"jvjvjvjvjvjvjvjvjvjvjvjvjvjvjvjvjvioiojvjvjvjvjvjvjvjvjvjvjvjvjvjvjvjvjvjvjvjvjvjvjvjvjvjvjvjvjvjvjvjvjvjvjvjvjvjvjvjvjvjvjvjvjv",
"jvjvjvjvjvjvjvjvjvjvjvjvjvjvjvjvjvioiojvjvjvjvjvjvjvjvjvjvjvjvjvjvjvjvjvjvjvjvjvjvjvjvjvjvjvjvjvjvjvjvjvjvjvjvjvjvjvjvjvjvjvjvjv",
"jvjvjvjvjvjvjvhmhmjvjvjvjvjvjvjvjvjvjvjvjvjvjvjvjvjvjvjvjvjvjvjvjvjvjvjvjvjvjvjvjvjvjvjvjvjvjvjvjvjvjvjvjvadgcgcjvjvjvjvjvjvjvjv",
"jvjvjvjvjvhmhmhmhmadjvjvjvjvjvjvjvjvjvjvjvjvjvjvjvjvjvjvjvjvjvjvjvjvjvjvjvjvjvjvjvjvjvjvjvhmjvjvjvjvjvjvjvadgcadcnjvjvjvjvjvjvjv",
"jvjvjvjvjvjvalalaljvjvjvjvjvjvjvjvjvjvjvjvjvjvjvjvjvjvjvjvjvjvjvjvjvjvjvjvjvjvjvjvjvjvbbjvetjvjvjvjvjvjvjvccadbjcnjvjvjvjvjvjvjv",
"jvjvjvjvjvjvjvjvjvjvjvjvjvjvjvjvjvjvjvjvjvjvjvjvjvjvjvjvjvjvjvjvjvjvjvjvjvjvjvjvjvjvjvjvioiojvjvjvjvjvjvjvjvjvjvjvjvjvjvjvjvjvjv",
"jvjvjvjvjvjvjvjvjvjvjvjvjvjvjvjvjvjvjvjvjvjvjvjvjvjvjvjvjvjvjvjvjvjvjvjvjvjvjvjvjvjvjvjvjvjvjvjvjvjvjvjvjvjvjvjvjvjvjvjvjvjvjvjv",
"jvjvjvjvjvjvjvjvjvjvjvjvjvjvjvjvjvjvjvjvjvjvjvjvjvjvjvjvjvjvjvjvjvjvjvjvjvjvjvjvjvjvjvjvjvjvjvjvjvjvjvjvjvjvjvjvjvjvjvjvjvjvjvjv",
"jvjvjvjvjvjvjvjvjvjvjvjvjvjvjvjvjvjvjvjvjvjvjvjvjvjvjvjvjvjvjvjvjvjvbbhmajjvjvjvjvjvjvjvjvjvjvjvjvjvjvjvjvjvjvjvjvjvjvjvjvjvjvjv",
"jvjvjvjvjvjvjvjvjvjvjvjvjvjvjvjvjvjvjvjvjvhmjvjvjvjvjvjvjvjvjvjvjvjvalhmajjvjvjvjvjvjvjvjvjvjvjvjvjvjvjvjvjvjvbbjvjvjvjvjvjvjvjv",
"jvjvjvjvjvjvjvjvjvjvjvjvjvjvjvjvjvjvjvjvbfhmaijvjvjvjvjvjvjvjvjvjvjvjvhmjvjvjvjvjvjvjviojvjvjvjvjvjvjvjvjvjvbfjvjvjvjvjvjvjvjvjv",
"jvjvjvjvjvjvjvjvjvjvjvjvjvjvjvjvjvjvjvjvjvjvjvjvjvjvjvjvjvjvjvjvjvjvjvjvjvjvjvjvjvjvjvjviojvjvjvjvjvjvjvjvjvjvbfjvjvjvjvjvjvjvjv",
"jvjvjvjvjvjvjvjvjvjvioajjvjvjvjvjvjvjvjvjvjvjvjvjvjvjvjvjvjvjvjvjvjvjviojvjvjvjvjvjvjvjvjvjvjvjvjvjvjvjvjvjvjvjvjvjvjvjvjvjvjvjv",
"jvjvjvjvjvjvjvjvjvjviohgjvjvjvjvjvjvjvjvjvjvjvjvjvjvjvjvjvjvjvjvjvjviojvjvjvjvjvjvjvjvjvjvjvjvjvjvjvjvjvjvjvjvjvjvjvjvjvjvjvjvjv",
"jvjvjvjvjvjvjvjvjvjvjvjvjvjvjvjvjvjvjvjvjvjvjvjvjvjvjvjvjvjvjvjvjvjvjvhmjvjvjvjvjvjvjvjvjvjvjvjvjvjvjvjvjvjvjvjvjvjvjvjvjvjvjvjv",
"jvjvjvjvjvjvjvjvjvjvjvjvjvjvjvjvjvjvjvjvjvjvjvjvjvjvjvjvjvjvjvjvjvjvjvjvjvjvcciojvjvjvjvjvjvjvjvjvjvjvjvjvjvjvjvjvjvjvjvjvjvjvjv",
"jvjvjvjvjvjvjvjvjvjvjvjvjvjvjvjvjvjvjvjvjvjvjvjvjvjvjvjvjvjvjvjvjvjvjvjvjvioioaljvjvjvjvjvjvjvjvjvjvjvjvccjvjvjvjvjvjvjvjvjvjvjv",
"jvjvjvjvjvjvhgjvjvjvjvjvjvjvjvjvjvjvjvjvjvjvjvjvjvjvjvjvjvjvjvjvjvjvjvjvjvjvhmhmjvjvjvjvjvjvjvjvjvjvjvjvjvjvjvjvjvjvjvjvjvjvjvjv",
"jvjvjvjvjvjvjvjvjvjvjvjvjvjvjvjvjvjvjvjvjvjvjvjvjvjvjvjvjvjvjvjvjvjvjvjvjvjvjvjvjvjvjviojvjvjvjvjvjvjvjvjvjvjvioiojvjvjvjvjvjvjv",
"jvjvjvjvjvjvjvjvjvjvjvjvjvjvjvjvjvjvjvjvjvjvjvjviojvjvjvjvjvjvjvjvjvjvjvjvjvjvjvjvjvjvioioiojvjvjvjvjvjvjvjvbbioccjvjvjviubbjvjv",
"jvjvjvjvjvjvjvjvjvjvjvjvjvadjvjvjvjvjvjvjvjvjvjvbfjvjvjvjvjvjvjvjvjvjvjvjvjvjvjvjvjvjvjvafiojvjvjvjvjvjvjvjvbbhmiojvjvjvjvjvjvjv",
"jvjvjvjvjvjvjvjvjvjvjvjvjvakjvjvjvjvjvjvjvjvhmhmjvjvjvjvjvjvjvjvjvjvjvjvjvjvjvjvjvjvjvjvjvjvjvjvjvjvjvjvjvjvjvjvjvjvjvjvjvjvjvjv",
"jvjvjvjvjvjvjvjvjvjvjvjvjvjvjvjvjvjvjvjvjvjvjvjvjvjvjvjvjvjvjvjvjvjvjvjvjvjvjvjvjvjvjvjvjvjvjvjvjvjvjvjvjvjvjvjvjvjvjvjvjvjvjvjv",
"jvjvjvjvjvjvjvjvjvjvjvjvjvjvjvjvjvjvjvjvjvjvjvjvjvjvjvjvjvjvjvjvjvjvjvjvjvjvjvjvjvjvjvjvjvjvjvjvjvjvjvjvjvjvjvjvjvjvjvjvjvjvjvjv",
"jvjvjvjvjvjvjvjvjvjvjvjvjvjvjvjvjvjvjvjvjvjvjvjvjvjvjvjvjvjvjvjvjvjvjvjvjvioiojvjvjvjvjvjvjvjvjvjvjvjvjvjvjvjvjvjvjvjvjvjvjvjvjv",
"jvjvjvccioiojvjvjvjvjvjvjvjvjvjvjvjvjvjvjvjvjvjvjvjvjvjvjvjvjvjvjvjvjvjvjvjvajjvjvjvjvjvjvjvjvjvjvjvjvjvjvjvjvjvjvjvjvjvjvjvjvjv",
"jvjvjvaljvioiojvjvjvjvjvjvjvjvjvjvjvjvjvjvjvjvjvjvjvjvjvjvjvjvjvjvjvjvjvjvjvjvjvjvjvjvjvjvjvjvjvjvjvjvjvjvjviojvjvjvjvjvjvjvjvjv",
"jvjvjvjvaliojvjvjvjvjvjvjvjvjvjvjvjvjvjvjvjvjvjvjvjvjvjvafjvjvjvjvjvjvjvjvjvjvjvjvjvjvjvjvjvjvjvjvjvjvjvjvioiojvjvjvjvjvjvjvjvjv",
"jvjvjvjvjvjvjvjvjvjvjvjvjvjvjvjvjvjvjvjvjvjvjvjvjvjvjvhmhmjvjvjvjvjvjvjvjvjvjvjvjvjvjvakjvjvjvjvjvjvjvjvjvjvjvjvjvjvjvjvjvjvjvjv",
"jvjvjvjvjvjvjvjvjvjvjvjvjvjvjvjvjvjvjvjvjvjvjvjvjvjvjvjvjvjvjvjvjvjvjvjvjvjvjvjvjvjvioacakjvjvjvjvjvjvjvjvjvjvjvjvjvjvjvjvjvjvjv",
"jvjvjvjvjvjvjvjvjvjvjvjvjvjvjvjvjvjvjvjvjvjvjvjvjvjvjvjvjvjvjvjvjvjvhmhmjvjvjvjvjvjvjvhmjvjvjvjvjvjvjvjvjvjvjvjvjvjvjvjvjvjvjvjv",
"jvjvjvjvjvjvjvjvjvjvjvjvjvjvjvjviojvjvjvjvjvjvjvjvjvjvjvjvjvjvjvjvaijvhmjvjvjvjvjvjvjvjvjvjvjvjvjvjvjvjvjvjvjvjvjvjvjvjvjvjvjvjv",
"jvjvjvjvjvjvjvjvjvjvjvjvjvjvjvjvjvaijvjvjvjvjvjvjvjvjvjvjvjvjvjvjvhmhmhmjvjvjvjvjvjvjvjvjvjvjvjvjvjvjvjvjvjvjvjvjvjvjvjvjvjvjvjv",
"jvjvjvjvjvjvjvjvjvjvjvjvjvjvjvjvhmjvjvjvjvjvjvjvjvjvjvjvjvjvjvjvjvjvhmhmjvjvjvjvjvjvjvjvjvjvjvjvjvjvjvjvjvjvjvjvjvjvjvjvjvjvjvjv",
"jvjvjvjvjvjvjvjvjvbbjvjvjvjvjvjvjvjvjvjvjvjvjvjvjvjvjvjvjvjvjvjvjvjvjvjvjvjvjvjvjvjvjvjvjvjvjvjvjvjvjvjvjvjvjvjvjvjvjvjvjvjvjvjv",
"jvjvjvjvjvjvjvjvjvafjvbbbbjvjvjvjvjvjvjvjvjvjvjvjvjvjvjvjvjvjvjvjvjvjvjvjvjvjvjvjvjvjvjvjvjvjvjvjvjvjvjvjvjvjviojvjvjvjvjvjvjvjv",
"jvjvjvjvjvjvjvjvjvjvbbbbbbjvjvjvjvjvjvjvjvjvjvjvjvjvjvjvjvjvjvjvjvjvjvjvjvjvjvjvjvjvjvjvjvjvjvjvjvhmjvhmjvjvioiojvjvjvjvjvjvjvjv",
"jvjvjvjvjvjvjvjvjvjvjvjvjvjvjvjvjvjvjvjvjvjvjvjvjvjvjvjvjvjvjvjvjvjvjvjvjvjvjvjvjvjvjvjvjvjvjvjvjvhmhmhmjvjvjvjvjvjvjvjvjvjvjvjv",
"jvjvjvjvjvjvjvbbjvjvjvjvjvjvjvjvjvjvjvjvjvjvjvjvjvjvjvjvjvjvjvjvjvjvjvjvjvjvjvjvjvjvjvjvjvjvjvjvjvjvhmhmjvjvjvjvjvjvjvjvjvjvjvjv",
"jvjvjvjvjvjvbbjvjvjvjvjvjvjvjvjvjvjvjvjvjvjvjvjvjvjvjvjvjvjvjvjvjvjvjvjvjvjvjvjvjvjvjvjvhgjvjvjvjvjvjvjvjvjvjvjvjvjvjvjvjvjvjvjv",
"jvjvjvjvjvjvjvjvjvjvjvjvjvjvjvjvjvjvjvjvjvjvjvjvjvjvjvjvjvjvjvjvjvjvjvjvjvjvjvjvjvjvjvetjvbbjvjvjvjvjvjvjvjvjvjvjvjvjvjvjvjvjvjv",
"jvjvjvjvjvjvjvjvjvjvjvjvjvjvjvjvjvjvjvjvjvjvjvjvjvjvjvjvjvjvjvjvjvjvjvjvjvjvjvjvjvjvjvjvioiojvjvjvjvjvjvjvjvjvjvjvjvjvjvjvjvjvjv",
"jvjvjvjvjvjvjvjvjvjvjvjvjvjvjvjvjvjvjvjvjvjvjvjvjvjvjvjvjvjvjvjvjvjvjvjvjvjvjvjvjvjviojvjvjvjvjvjvjvjvjvjvjvjvjvjvjvjvjvjvjvjvjv",
"jvjvjvjvjvjvjvjvjvjvjvjvjvjvjvjvjvjvjvjvjvjvjvjvjvjvjvjvjvjvjvjvjvjvjviojvjvjvjvjvbbioafjvjvjvjvjvjvjvjvjvjvjvjvjvjvjvjvjvjvjvjv",
"jvjvjvjvjvjvjvjvjvjvjvjvjvjvjvjvjvjvjvjvjvjvjvjvjvjvjvjvjvjvjvjvjvjvbfiojvjvjvjvjvjvaiiojvjvjvjvjvjviojvjvjvjvjvjvjvjvjvjvjvjvjv",
"jvjvjvjvjvjvjvjvjvjvjvjvjvjvjvjvhgjvjvjvjvjvjvjvjvjvjvjvjvjvjvjvjvjvjviojvjvjvjvjvjvjvjvjvjvjvjvjvjviojvjvjvjvjvjvjvjvjvjvjvjvjv",
"jvjvjvjvjvjvjvbfjvjvjvjvjvjvjvhghghgjvjvjvjvjvjvjvjvjviojvjvjvjvjvjvjvjvjvjvioiojvjvjvjvjvjvjvjvjvjvjvjvjvjvjvjvjvjvjvjvjvjvjvjv",
"jvjvjvjvjvjvbfbbbfjvjvjvjvjvjvjvhgjvjvjvjvjvjvjvjvjvjvjvjvjvjvjvjvjvjvjvjvjvjvbbjvjvjvjvjvjvjvjvjvjvjvjviojvjvjvjvjvjvjvjvjvjvjv",
"jvjvjvjvjvjvjvbfhmjvjvjvjvjvjvjvjvjvjvjvjvjvjvjvjvjvjvjvjvjvjvjvjvjvjvjvjvjvbbbbjvjvjvjvjvjvjvjvjvjvjvjvjvjvjvjvjvjvjvjvjvjvjvjv",
"jvjvjvjvjvjvjvjvjvjvjvjvjvjvjvjvjvjvjvjvjvjvjvajajjvjvjvjvjvjvjvjvjvjvjvjvjvjvjvjvjvjvjvjvjvjvjvjvjvjvjvjvjvjvjvjvjvjvbbbbjvjvjv",
"jvjvjvjvjvjvjvjvjvjvjvjvbbjvjvjvjvjvjvjvjvjvgcgcgcbfjvjvjvjvjvjvjvjvjvjvjvjvjvjvjvjvjvjvjvjvjvjvjvjvjvjvjvjvjvjvjvjvjvbbjvjvjvjv",
"jvjvjvjvjvjvjvjvjvjvjvjvhgetjvjvjvjvjvjvjvhmhmhmhmbfjvjvjvjvjvjvjvjvjvjvjvjvjvjvjvjvjvjvjvjvjvjvjvjvjvjvjvjvhmhmjvjvjvjvjvjvjvjv",
"jvjvjvjvjvjvjvjvjvjvjvjvjvjvjvjvjvjvjvjvjvjvalalaljvjvjvjvjvjvjvjvjvjvjvjvjvjvjvjvjvjvjvjvjvjvjvjvjvjvjvjvjvjvhmjvjvjvjvjvjvjvjv",
"jvjvjvjvjvjvjvjvjvjvjvjvjvjvjvjvjvjvjvjvjvjvjvjvjvjvjvjvjvjvjvjvjvjvjvjvjvjvjvjvjvjvjvjvjvjvjvjvjvjvjvjvjvjvjvjvjvjvjvjvjvjvjvjv",
"jvjvjvjvjvjvjvjvjvjvjvjvjvjvjvjvjvjvjvjvjvjvjvjvjvjvjvjvjvjvjvjvjvjvjvjvjvjvjvjvjvjvjvjvjvjvjvjvjvjvjvjvjvjvjvjvjvjvjvjvjvjvjvjv",
"jvjvjvjvjvjvjvjvjvjvjvjvjvjvjvjvjvjvjvjvjvjvjvjvjvjvjvjvjvjvjvjvjvjvjvjvjvjvjvjvjvjvjvjvjvjvjvjvjvjvjvjvjvjvjvjvjvjvjvjvjvjvjvjv"
};
