/* XPM */
static char *tile_road_center_right_xpm[] = {
"64 64 26 2",
"aa c #000000",
"ac c #CCCCCC",
"ad c #999999",
"ae c #666666",
"ah c #FFFACD",
"aj c #383838",
"al c #555555",
"ar c #EEEEEE",
"at c #1B1B1B",
"bb c #8B7355",
"bf c #5D4037",
"bi c #7A7A7A",
"bt c #F9E79F",
"cd c #303030",
"cm c #686868",
"cn c #484848",
"ef c #FFCC00",
"fv c #E8C547",
"gc c #AAAAAA",
"hl c #999933",
"hm c #999966",
"in c #CC9933",
"it c #CCCC66",
"iu c #CCCC99",
"jr c #FFCC33",
"jv c None",
/* pixels */
"acacacacacacacacacacacacacacacacacacacacacacacacacacacacacacacacacacacacacacacacacacacacacacacacacacacacacacacacacacacacacacacbt",
"acacacacaaacacacacacacacacacacacacacacacacaaacacacacacacacacacacacacacacacacacacacacacacacacbbacacacaaacacacacacacacacacacacbbbt",
"ajaaacacaaacaaacacacacajaaacajacacajacachmaaacacacacajaciualacadcdacaaaccngcacacacacacacacacacacbbbbaaalacaaajacacacadiuacacbbbt",
"aratacacaabfaraaacacacaaacaaacaabbahaaaaaraaacacacaaacacaabbaccdaaahaaahiuaaacajacacacadacacacaaaraeaaacalaaacacacacaaaaacacbbbt",
"aratacacaabfaracacacacaabtaaahaaaaahaaaaaraaacacacaaacacaaacacajaaahaaahgcacacadacacacadacacacaaarbbaaacalaaacacacacaaaaacacbbbt",
"ahaaacacaaahaaaaacacahaaacbtaabtbfaaaabfaaaaacahahaaaaahaaaaahaaaaahaaahaaaaacadacacaccmacacacaaaaaeaaacalalaaacacachmhmacacajbt",
"ahahahahahahahacalalalbtacbtbtbtacacacbtbtbtajajajahacacahacacacahahahahacahacacadjvjvacacacacaaaaacacacacacacjvjvhmacacacacbtbt",
"iuiuiuiuiuiuiuiuiuiuiuiuiuiuiuiuiuiuhmalalajbtiuiuiuadgcacacaajvjvjvjvjvjvjvjvjvjvjvjvjvjvjvjvjvjvjvjvjvjvjvjvjvjvjvjvjvjvjvjvjv",
"iuiuiuiuiuiuiuiuiuiuiuiuiuiuiuiuiuiuhmalalaabtjrjrjrhmgcacacaajvjvjvjvjvjvjvjvjvjvjvjvjvjvjvjvjvjvjvjvjvjvjvjvjvjvjvjvjvjvjvjvjv",
"jrjrjrefefefefefjrjrjrjrjrjrjrjrjrjrhmalalaabtjrjrjrhmacacacaajvjvjvjvjvjvjvjvjvjvjvjvjvjvjvjvjvjvjvjvjvjvjvjvjvjvjvjvjvjvjvjvjv",
"efefefefefefefefefefefefefefefefjrjrinalalaabtjrjrjrhmacacacaajvjvjvjvjvjvjvjvjvjvjvjvjvjvjvjvjvjvjvjvjvjvjvjvjvjvjvjvjvjvjvjvjv",
"efefefefefefefefefefefefefefefefefefhlalalaabtjrjrjrhmacacacatjvjvjvjvjvjvjvjvjvjvjvjvjvjvjvjvjvjvjvjvjvjvjvjvjvjvjvjvjvjvjvjvjv",
"efefefefefefefefefefefefefefefefefefhlalalaabtjrjrjrhmacacacatjvjvjvjvjvjvjvjvjvjvjvjvjvjvjvjvjvjvjvjvjvjvjvjvjvjvjvjvjvjvjvjvjv",
"efefefefefefefefefefefefefefefefefefhlalalaabtjrjrjrhmacacacatjvjvjvjvjvjvjvjvjvjvjvjvjvjvjvjvjvjvjvjvjvjvjvjvjvjvjvjvjvjvjvjvjv",
"efefefefefefefefefefefefefefefefefefhlalalaabtjrjrjrhmacacacatjvjvjvjvjvjvjvjvjvjvjvjvjvjvjvjvjvjvjvjvjvjvjvjvjvjvjvjvjvjvjvjvjv",
"efefefefefefefefefefefefefefefefefefhmalalaabtjrjrjrhmacacacatjvjvjvjvjvjvjvjvjvjvjvjvjvjvjvjvjvjvjvjvjvjvjvjvjvjvjvjvjvjvjvjvjv",
"efefefefefefefefefefefefefefefefefefhmalalaabtjrjrjrhmacacacatjvjvjvjvjvjvjvjvjvjvjvjvjvjvjvjvjvjvjvjvjvjvjvjvjvjvjvjvjvjvjvjvjv",
"efefefefefefefefefefefefefefefefefefhmalalaabtjrjrjrhmgcacacatjvjvjvjvjvjvjvjvjvjvjvjvjvjvjvjvjvjvjvjvjvjvjvjvjvjvjvjvjvjvjvjvjv",
"itititititititititititititititititithmalalaabtjrjrjrhmgcacacatjvjvjvjvjvjvjvjvjvjvjvjvjvjvjvjvjvjvjvjvjvjvjvjvjvjvjvjvjvjvjvjvjv",
"gcgcgcgcgcgcgcgcgcgcgcgcgcgcgcgcgcgchmalalaabtjrjrjrhmgcacacatjvjvjvjvjvjvjvjvjvjvjvjvjvjvjvjvjvjvjvjvjvjvjvjvjvjvjvjvjvjvjvjvjv",
"gcgcgcgcgcgcgcgcgcgcgcgcgcgcgcgcgcgchmalalaabtadiuiuhmacacacatjvjvjvjvjvjvjvjvjvjvjvjvjvjvjvjvjvjvjvjvjvjvjvjvjvjvjvjvjvjvjvjvjv",
"gcgcgcgcgcgcgcgcgcgcgcgcgcgcgcgcgcgchmalalaabtiuiuiuhmacacacatjvjvjvjvjvjvjvjvjvjvjvjvjvjvjvjvjvjvjvjvjvjvjvjvjvjvjvjvjvjvjvjvjv",
"gcgcgcgcgcgcgcgcgcgcgcgcgcgcgcgcgcgchmalalaabtjrjrjrhmacacacatjvjvjvjvjvjvjvjvjvjvjvjvjvjvjvjvjvjvjvjvjvjvjvjvjvjvjvjvjvjvjvjvjv",
"gcgcgcgcgcgcgcgcgcgcgcgcgcgcgcgcgcgchmalalaabtjrjrjrhmacacacatjvjvjvjvjvjvjvjvjvjvjvjvjvjvjvjvjvjvjvjvjvjvjvjvjvjvjvjvjvjvjvjvjv",
"gcgcgcgcgcgcgcgcgcgcgcgcgcgcgcgcgcgcbialalaabtjrjrjrhmhmacacatjvjvjvjvjvjvjvjvjvjvjvjvjvjvjvjvjvjvjvjvjvjvjvjvjvjvjvjvjvjvjvjvjv",
"gcgcgcgcgcgcgcgcgcgcgcgcgcgcgcgcgcgcbialalaabtjrjrjrhmachmacatjvjvjvjvjvjvjvjvjvjvjvjvjvjvjvjvjvjvjvjvjvjvjvjvjvjvjvjvjvjvjvjvjv",
"gcgcgcgcgcgcgcgcgcgcgcgcgcgcgcgcgcgcbialalaabtjrjrjrhmacacacatjvjvjvjvjvjvjvjvjvjvjvjvjvjvjvjvjvjvjvjvjvjvjvjvjvjvjvjvjvjvjvjvjv",
"iugcgcgcgcgcgcgcgcgcgcgcgcgcgcgcgcgcbialalaabtjrjrjrhmacacacatjvjvjvjvjvjvjvjvjvjvjvjvjvjvjvjvjvjvjvjvjvjvjvjvjvjvjvjvjvjvjvjvjv",
"efefefefefefefefefefefefefefefjrjrjrinalalaabtjrjrjrhmacacacatjvjvjvjvjvjvjvjvjvjvjvjvjvjvjvjvjvjvjvjvjvjvjvjvjvjvjvjvjvjvjvjvjv",
"efefefefefefefefefefefefefefefefefefinalalaabtjrjrjrhmacacacatjvjvjvjvjvjvjvjvjvjvjvjvjvjvjvjvjvjvjvjvjvjvjvjvjvjvjvjvjvjvjvjvjv",
"efefefefefefefefefefefefefefefefefefinalalaabtjrjrjrhmacacacatjvjvjvjvjvjvjvjvjvjvjvjvjvjvjvjvjvjvjvjvjvjvjvjvjvjvjvjvjvjvjvjvjv",
"efefefefefefefefefefefefefefefefefefinalalaabtjrjrjrhmacacacatjvjvjvjvjvjvjvjvjvjvjvjvjvjvjvjvjvjvjvjvjvjvjvjvjvjvjvjvjvjvjvjvjv",
"efefefefefefefefefefefefefefefefefefinalalaabtjrjrjrhmacacacatjvjvjvjvjvjvjvjvjvjvjvjvjvjvjvjvjvjvjvjvjvjvjvjvjvjvjvjvjvjvjvjvjv",
"efefefefefefefefefefefefefefefefefefinalalaabtjrjrjrhmacacacatjvjvjvjvjvjvjvjvjvjvjvjvjvjvjvjvjvjvjvjvjvjvjvjvjvjvjvjvjvjvjvjvjv",
"efefefefefefefefefefefefefefefefefefhlalalaabtjrjrjrhmacacacatjvjvjvjvjvjvjvjvjvjvjvjvjvjvjvjvjvjvjvjvjvjvjvjvjvjvjvjvjvjvjvjvjv",
"efefefefefefefefefefefefefefefefefjrhlalalaabtjrjrjrhmacacacatjvjvjvjvjvjvjvjvjvjvjvjvjvjvjvjvjvjvjvjvjvjvjvjvjvjvjvjvjvjvjvjvjv",
"efefefefefefefefefefefefefjrjrefjrjrhlalalaabtjrjrjrhmacacacatjvjvjvjvjvjvjvjvjvjvjvjvjvjvjvjvjvjvjvjvjvjvjvjvjvjvjvjvjvjvjvjvjv",
"gcgcgcgcgcgciugciuiuiuiugcgciuiuiuiuhmalalaabtjrjrjrhmacacacatjvjvjvjvjvjvjvjvjvjvjvjvjvjvjvjvjvjvjvjvjvjvjvjvjvjvjvjvjvjvjvjvjv",
"gcgcgcgcgcgcgcgcgcgcgcgcgcgcgcgcgcgcbialalaabtiuiuiuhmacacacatjvjvjvjvjvjvjvjvjvjvjvjvjvjvjvjvjvjvjvjvjvjvjvjvjvjvjvjvjvjvjvjvjv",
"gcgcgcgcgcgcgcgcgcgcgcgcgcgcgcgcgcgchmalalaabtiuiuiuhmacacacatjvjvjvjvjvjvjvjvjvjvjvjvjvjvjvjvjvjvjvjvjvjvjvjvjvjvjvjvjvjvjvjvjv",
"gcgcgcgcgcgcgcgcgcgcgcgcgcgcgcgcgcgcbialalaabtjrjrjrhmacacacatjvjvjvjvjvjvjvjvjvjvjvjvjvjvjvjvjvjvjvjvjvjvjvjvjvjvjvjvjvjvjvjvjv",
"gcgcgcgcgcgcgcgcgcgcgcgcgcgcgcgcgcgcbialalaabtjrjrjrhmhmhmacatjvjvjvjvjvjvjvjvjvjvjvjvjvjvjvjvjvjvjvjvjvjvjvjvjvjvjvjvjvjvjvjvjv",
"gcgcgcgcgcgcgcgcgcgcgcgcgcgcgcgcgcgcbialalaabtjrjrjrhmgcacacatjvjvjvjvjvjvjvjvjvjvjvjvjvjvjvjvjvjvjvjvjvjvjvjvjvjvjvjvjvjvjvjvjv",
"gcgcgcgcgcgcgcgcgcgcgcgcgcgcgcgcgcgcbialalaabtjrjrjrhmgcacacatjvjvjvjvjvjvjvjvjvjvjvjvjvjvjvjvjvjvjvjvjvjvjvjvjvjvjvjvjvjvjvjvjv",
"gcgcgcgcgcgcgcgcgcgcgcgcgcgcgcgcgcgcbialalaabtjrjrjrhmacacacatjvjvjvjvjvjvjvjvjvjvjvjvjvjvjvjvjvjvjvjvjvjvjvjvjvjvjvjvjvjvjvjvjv",
"gcgcgcgcgcgcgcgcgcgcgcgcgcgcgcgcgcgcbialalaabtjrjrjrhmacacacatjvjvjvjvjvjvjvjvjvjvjvjvjvjvjvjvjvjvjvjvjvjvjvjvjvjvjvjvjvjvjvjvjv",
"fvadadadadadadadadadadadadadadadiuiubialalaabtjrjrjrhmacacacatjvjvjvjvjvjvjvjvjvjvjvjvjvjvjvjvjvjvjvjvjvjvjvjvjvjvjvjvjvjvjvjvjv",
"efefefefefefefefefefefefefefefefefjrinalalaabtjrjrjrhmacacacatjvjvjvjvjvjvjvjvjvjvjvjvjvjvjvjvjvjvjvjvjvjvjvjvjvjvjvjvjvjvjvjvjv",
"efefefefefefefefefefefefefefefefefefinalalaabtjrjrjrhmacacacatjvjvjvjvjvjvjvjvjvjvjvjvjvjvjvjvjvjvjvjvjvjvjvjvjvjvjvjvjvjvjvjvjv",
"efefefefefefefefefefefefefefefefefefinalalaabtjrjrjrhmacacacatjvjvjvjvjvjvjvjvjvjvjvjvjvjvjvjvjvjvjvjvjvjvjvjvjvjvjvjvjvjvjvjvjv",
"efefefefefefefefefefefefefefefefefefhlalalaabtjrjrjrhmacacacatjvjvjvjvjvjvjvjvjvjvjvjvjvjvjvjvjvjvjvjvjvjvjvjvjvjvjvjvjvjvjvjvjv",
"efefefefefefefefefefefefefefefefefefhlalalaabtjrjrjrhmacacacatjvjvjvjvjvjvjvjvjvjvjvjvjvjvjvjvjvjvjvjvjvjvjvjvjvjvjvjvjvjvjvjvjv",
"efefefefefefefefefefefefefefefefefefhmalalaabtjrjrjrhmacacacatjvjvjvjvjvjvjvjvjvjvjvjvjvjvjvjvjvjvjvjvjvjvjvjvjvjvjvjvjvjvjvjvjv",
"efefefefefefefefefefefefefefefefefefhmalalaabtjrjrjrhmacacacatjvjvjvjvjvjvjvjvjvjvjvjvjvjvjvjvjvjvjvjvjvjvjvjvjvjvjvjvjvjvjvjvjv",
"efefefefefefefefefefefefefefefefefefhmalalaabtjrjrjrhmacacacatjvjvjvjvjvjvjvjvjvjvjvjvjvjvjvjvjvjvjvjvjvjvjvjvjvjvjvjvjvjvjvjvjv",
"efjrjrjrjrjrjrjrefefjrefefefefefjrefhmalalaabtjrjrjrhmacacacatjvjvjvjvjvjvjvjvjvjvjvjvjvjvjvjvjvjvjvjvjvjvjvjvjvjvjvjvjvjvjvjvjv",
"gcgcgcgcgcgcgcgcgcgcgcgcgcgcgcgcgcgchmalalaabtjrjrjrhmacacacatjvjvjvjvjvjvjvjvjvjvjvjvjvjvjvjvjvjvjvjvjvjvjvjvjvjvjvjvjvjvjvjvjv",
"gcgcgcgcgcgcgcgcgcgcgcgcgcgcgcgcgcgchmalalaabtjrjrjrhmacacacatjvjvjvjvjvjvjvjvjvjvjvjvjvjvjvjvjvjvjvjvjvjvjvjvjvjvjvjvjvjvjvjvjv",
"gcgcgcgcgcgcgcgcgcgcgcgcgcgcgcgcgcgchmalalaabthmhmhmhmacacacatjvjvjvjvjvjvjvjvjvjvjvjvjvjvjvjvjvjvjvjvjvjvjvjvjvjvjvjvjvjvjvjvjv",
"gcgcgcgcgcgcgcgcgcgcgcgcgcgcgcgcgcgchmalalaabthmhmhmhmhmacacatjvjvjvjvjvjvjvjvjvjvjvjvjvjvjvjvjvjvjvjvjvjvjvjvjvjvjvjvjvjvjvjvjv",
"gcgcgcgcgcgcgcgcgcgcgcgcgcgcgcgcgcgchmalalaabthmhmhmhmhmacacatjvjvjvjvjvjvjvjvjvjvjvjvjvjvjvjvjvjvjvjvjvjvjvjvjvjvjvjvjvjvjvjvjv",
"gcgcgcgcgcgcgcgcgcgcgcgcgcgcgcgcgcgchmalalaahmhmhmhmhmhmhmacatjvjvjvjvjvjvjvjvjvjvjvjvjvjvjvjvjvjvjvjvjvjvjvjvjvjvjvjvjvjvjvjvjv",
"gcgcgcgcgcgcgcgcgcgcgcgcgcgcgcgcgcgchmalalaahmhmhmhmhmhmhmacatjvjvjvjvjvjvjvjvjvjvjvjvjvjvjvjvjvjvjvjvjvjvjvjvjvjvjvjvjvjvjvjvjv",
"gcgcgcgcgcgcgcgcgcgcgcgcgcgcgcgcgcgchmalalaaaaaaaaaaaaaaaaaaatjvjvjvjvjvjvjvjvjvjvjvjvjvjvjvjvjvjvjvjvjvjvjvjvjvjvjvjvjvjvjvjvjv"
};
