/* XPM */
static char *tile_road_intersection_desert_xpm[] = {
"64 64 17 2",
"aa c #000000",
"aj c #383838",
"al c #555555",
"ay c #3A7D44",
"bb c #8B7355",
"bo c #1A5276",
"bu c #222222",
"bv c #FEF9E7",
"cg c #A93226",
"ck c #6E2018",
"et c #885522",
"fw c #FDE68A",
"ge c #669933",
"hm c #999966",
"io c #CC9966",
"it c #CCCC66",
"jv c None",
/* pixels */
"jvjvjvjvjvjvjvjvjvjvjvjvjvjvjvjvjvjvhmbvhmhmhmhmhmhmhmhmhmhmhmhmhmhmhmhmhmhmhmhmhmhmhmhmbvhmjvjvjvjvjvjvjvjvjvjvjvjvjvjvjvjvjvjv",
"jvjvjvjvjvjvjvjvjvjvjvjvjvjvjvjvjvjvhmbvhmhmhmhmhmhmhmhmhmhmhmhmhmhmhmhmhmhmhmhmhmhmhmhmbvhmjvjvjvjvjvjvjvjvjvjvjvjvjvjvjvjvjvjv",
"jvjvjvjvjvjvjvjvjvjvjvjvjvjvjvjvjvjvhmbvhmhmhmhmhmhmhmhmhmhmhmhmhmhmhmhmhmhmhmhmhmhmhmhmbvhmjvjvjvjvjvjvjvjvjvjvjvjvjvjvjvjvjvjv",
"jvjvjvjvjvjvjvjvjvjvjvjvjvjvjvjvjvjvhmbvhmhmhmhmhmhmhmhmhmhmhmhmhmhmhmhmhmhmhmhmhmhmhmhmbvhmjvjvjvjvjvjvjvjvjvjvjvjvjvjvjvjvjvjv",
"jvjvjvjvjvjvjvjvjvjvjvjvjvjvjvjvjvjvhmbvhmhmhmhmhmhmhmhmhmhmhmhmhmhmhmhmhmhmhmhmhmhmhmhmbvhmjvjvjvjvjvjvjvjvjvjvjvjvjvjvjvjvjvjv",
"jvjvjvjvjvjvjvjvjvjvjvjvjvjvjvjvjvjvhmbvhmhmhmhmhmhmhmhmhmhmhmhmhmhmhmhmhmhmhmhmhmhmhmhmbvhmjvjvjvjvjvjvjvjvjvjvjvjvjvjvjvjvjvjv",
"jvjvjvjvjvjvjvjvjvjvjvjvjvjvjvjvjvjvhmbvhmhmhmhmhmhmhmhmhmhmhmhmhmhmhmhmhmhmhmhmhmhmhmhmbvhmjvjvjvjvjvjvjvjvjvjvjvjvjvjvjvjvjvjv",
"jvjvjvjvjvjvjvjvjvjvjvjvjvjvjvjvjvjvhmbvhmhmhmhmhmhmhmhmhmhmhmhmhmhmhmhmhmhmhmhmhmhmhmhmbvhmjvjvjvjvjvjvjvjvjvjvjvjvjvjvjvjvjvjv",
"jvjvjvjvjvjvjvjvjvjvjvjvjvjvjvjvjvjvhmbvhmhmhmhmhmhmhmhmhmhmhmhmhmhmhmhmhmhmhmhmhmhmhmhmbvhmjvjvjvjvjvjvjvjvjvjvjvjvjvjvjvjvjvjv",
"jvjvjvjvjvjvjvjvjvjvjvjvjvjvjvjvjvjvhmbvhmhmhmhmhmhmhmhmhmhmhmhmhmhmhmhmhmhmhmhmhmhmhmhmbvhmjvjvjvjvjvjvjvjvjvjvjvjvjvjvjvjvjvjv",
"jvjvjvjvjvjvjvjvjvjvjvjvjvjvjvjvjvjvhmbvhmhmhmhmhmhmhmhmhmhmhmhmhmhmhmhmhmhmhmhmhmhmhmhmbvhmjvjvjvjvjvjvjvjvjvjvjvjvjvjvjvjvjvjv",
"jvjvjvjvjvjvjvjvjvjvjvjvjvjvjvjvjvjvhmbvhmhmhmhmhmhmhmhmhmhmhmhmhmhmhmhmhmhmhmhmhmhmhmhmbvhmjvjvjvjvjvjvjvjvjvjvjvjvjvjvjvjvjvjv",
"jvjvjvaaaaaaaaaajvjvjvaaaaaaaaaajvjvhmbvhmhmhmhmhmhmhmhmhmhmhmhmhmhmhmhmhmhmhmhmhmhmhmhmbvhmjvjvaaaaaaaaaajvjvjvaaaaaaaaaajvjvjv",
"jvjvaaajbbbbbbbbaajvaacketcgcgaaaajvhmbvhmhmhmhmhmhmhmhmhmhmhmhmhmhmhmhmhmhmhmhmhmhmhmhmbvhmjvaabucgcgetckaajvaaaaalalalalaajvjv",
"jvjvaaajbbbbbbajaajvaaaacgcgcgaaaajvhmbvhmhmhmhmhmhmhmhmhmhmhmhmhmhmhmhmhmhmhmhmhmhmhmhmbvhmjvaabucgcgetaaaajvaaalalalalajaajvjv",
"jvjvaabbaaaaaaalaajvaackckckckckaajvhmbvhmhmhmhmhmhmhmhmhmhmhmhmhmhmhmhmhmhmhmhmhmhmhmhmbvhmjvaackbububuckaajvaaalaaaaaaalaajvjv",
"jvjvaaalalalalalaajvaacketcgcgckaajvhmbvhmhmhmhmhmhmhmhmhmhmhmhmhmhmhmhmhmhmhmhmhmhmhmhmbvhmjvaackhmhmetckaajvaaalalalalalaajvjv",
"jvjvaaajajajajaaaajvaaaabubububuaajvhmbvhmhmhmhmhmhmhmhmhmhmhmhmhmhmhmhmhmhmhmhmhmhmhmhmbvhmjvaaaabububuckaajvaaalalalalaaaajvjv",
"jvjvaaajajajajbbaajvaackcgcgckckaajvhmbvhmhmhmhmhmhmhmhmhmhmhmhmhmhmhmhmhmhmhmhmhmhmhmhmbvhmjvaacketcgckckaajvaaalalbububoaajvjv",
"jvjvaabualalalajaajvaackcgcgcgckaajvhmbvhmhmhmhmhmhmhmhmhmhmhmhmhmhmhmhmhmhmhmhmhmhmhmhmbvhmjvaacketetetaaaajvaaajalbobobuaajvjv",
"jvjvaaalbubuajalaajvaacgckckckcgaajvhmbvhmhmhmhmhmhmhmhmhmhmhmhmhmhmhmhmhmhmhmhmhmhmhmhmbvhmjvaaetckaaaackaajvaaajbububualaajvjv",
"jvjvaaajalalalbuaajvaacketetetckaajvhmbvhmhmhmhmhmhmhmhmhmhmhmhmhmhmhmhmhmhmhmhmhmhmhmhmbvhmjvaacketetetckaajvaaajalalalajaajvjv",
"jvjvjvaaaaaaaaaajvjvjvaaaaaaaaaajvjvhmhmhmhmhmhmhmhmhmhmhmhmhmaahmhmhmhmhmhmhmhmhmhmhmhmhmhmjvjvaaaaaaaaaajvjvjvaaaaaaaaaajvjvjv",
"jvjvjvjvjvjvjvjvjvjvjvjvjvjvjvjvjvjvhmhmhmhmhmhmhmhmhmhmhmhmaahmaahmhmhmhmhmhmhmhmhmhmhmhmhmjvjvjvjvjvjvjvjvjvjvjvjvjvjvjvjvjvjv",
"jvjvjvbvbvbvbvbvbvbvbvbvbvbvbvbvbvhmhmhmhmhmhmhmhmhmhmhmhmhmaahmayaahmhmhmhmhmhmhmhmhmhmhmhmhmfwfwfwbvbvbvbvbvbvbvbvbvbvbvbvbvbv",
"hmhmhmhmhmhmhmhmhmhmhmhmhmhmhmhmhmhmhmhmhmhmhmhmhmhmhmhmhmhmaahmayaahmgehmhmhmhmhmhmhmhmhmhmhmhmhmhmhmhmhmhmhmhmhmhmhmhmhmhmhmhm",
"hmhmhmhmhmhmhmhmhmhmhmhmhmhmhmhmhmhmhmhmhmhmhmhmhmhmhmhmhmhmaahmayaaaagegehmhmhmhmhmhmhmhmhmhmhmhmhmhmhmhmhmhmhmhmhmhmhmhmhmhmhm",
"hmhmhmhmhmhmhmhmhmhmhmhmhmhmhmhmhmhmhmhmhmhmhmhmhmhmhmhmaahmaahmayaaayaagehmhmhmhmhmhmhmhmhmhmhmhmhmhmhmhmhmhmhmhmhmhmhmhmhmhmhm",
"hmhmhmhmhmhmhmhmhmhmhmhmhmhmhmhmhmhmhmhmhmhmhmhmhmhmhmaahmaaaahmayaaayaagehmhmhmhmhmhmhmhmhmhmhmhmhmhmhmhmhmhmhmhmhmhmhmhmhmhmhm",
"hmhmhmhmhmhmhmhmhmhmhmhmhmhmhmhmhmhmhmhmhmhmhmhmhmhmhmaahmaaaahmayayayaahmhmhmhmhmhmhmhmhmhmhmhmhmhmhmhmhmhmhmhmhmhmhmhmhmhmhmhm",
"hmhmhmhmhmhmhmhmhmhmhmhmhmhmhmhmhmhmhmhmhmhmhmhmhmhmhmaahmaaaahmayayaahmhmhmhmhmhmhmhmhmhmhmhmhmhmhmhmhmhmhmhmhmhmhmhmhmhmhmhmhm",
"hmhmhmhmhmhmhmhmhmhmhmhmhmhmhmhmhmhmhmhmhmhmhmhmhmhmhmaaayayaahmayaahmhmhmhmhmhmhmhmhmhmhmhmhmhmhmhmhmhmhmhmhmhmhmhmhmhmhmhmhmhm",
"hmhmhmhmhmhmhmhmhmhmhmhmhmhmhmhmhmhmhmhmhmhmhmhmhmhmhmhmaaayayayayaahmhmhmhmhmhmhmhmhmhmhmhmhmhmhmhmhmhmhmhmhmhmhmhmhmhmhmhmhmhm",
"hmhmhmhmhmhmhmhmhmhmhmhmhmhmhmhmhmhmhmhmhmhmhmhmhmhmhmhmhmaaaaayayaaitithmhmhmhmhmhmhmhmhmhmhmhmhmhmhmhmhmhmhmhmhmhmhmhmhmhmhmhm",
"hmhmhmhmhmhmhmhmhmhmhmhmhmhmhmhmhmhmhmhmhmhmhmhmhmhmhmhmhmfwaaayayaaitithmhmhmhmhmhmhmhmhmhmhmhmhmhmhmhmhmhmhmhmhmhmhmhmhmhmhmhm",
"hmhmhmhmhmhmhmhmhmhmhmhmhmhmhmhmhmhmhmhmhmhmhmhmhmhmhmhmfwfwaaayayioioitithmhmhmhmhmhmhmhmhmhmhmhmhmhmhmhmhmhmhmhmhmhmhmhmhmhmhm",
"hmhmhmhmhmhmhmhmhmhmhmhmhmhmhmhmhmhmhmhmhmhmhmhmhmhmhmhmfwfwioioioioioitithmhmhmhmhmhmhmhmhmhmhmhmhmhmhmhmhmhmhmhmhmhmhmhmhmhmhm",
"hmhmhmhmhmhmhmhmhmhmhmhmhmhmhmhmhmhmhmhmhmhmhmhmhmhmhmhmhmfwfwititititithmhmhmhmhmhmhmhmhmhmhmhmhmhmhmhmhmhmhmhmhmhmhmhmhmhmhmhm",
"hmhmhmhmhmhmhmhmhmhmhmhmhmhmhmhmhmhmhmhmhmhmhmhmhmhmhmhmhmhmhmhmhmhmhmhmhmhmhmhmhmhmhmhmhmhmhmhmhmhmhmhmhmhmhmhmhmhmhmhmhmhmhmhm",
"hmhmhmhmhmhmhmhmhmhmhmhmhmhmhmhmhmhmhmhmhmhmhmhmhmhmhmhmhmhmhmhmhmhmhmhmhmhmhmhmhmhmhmhmhmhmhmhmhmhmhmhmhmhmhmhmhmhmhmhmhmhmhmhm",
"bvbvbvfwfwfwfwfwfwfwfwfwfwfwfwfwfwhmhmhmhmhmhmhmhmhmhmhmhmhmhmhmhmhmhmhmhmhmhmhmhmhmhmhmhmhmhmhmfwfwfwfwfwfwfwbvfwfwfwfwfwfwfwfw",
"hmhmhmaaaaaaaaaahmhmhmaaaaaaaaajgehmhmhmhmhmhmhmhmhmhmhmhmhmhmhmhmhmhmhmhmhmhmhmhmhmhmhmhmhmhmhmhmaaaaaaaahmhmhmaaaaaaaaaahmhmhm",
"hmhmaabubbbbbbajaajvaacketetetajaahmhmhmhmhmhmhmhmhmhmhmhmhmhmhmhmhmhmhmhmhmhmhmhmhmhmhmhmhmhmaaaaetetetbuaahmaaajbbbbbbalaahmhm",
"jvjvaabbbbbbbbbuaajvaaaaetetetajaajvhmbvhmhmhmhmhmhmhmhmhmhmhmhmhmhmhmhmhmhmhmhmhmhmhmhmhmhmjvaabuetcgcgbuaajvaaalbbbbbbalaajvjv",
"jvjvaaajaaaaaaalaajvaackaabubuckaajvhmbvhmhmhmhmhmhmhmhmhmhmhmhmhmhmhmhmhmhmhmhmhmhmhmhmbvhmjvaaetbububuckaajvaaalaaaaaaalaajvjv",
"jvjvaabbbbbbalalaajvaacketetetckaajvhmbvhmhmhmhmhmhmhmhmhmhmhmhmhmhmhmhmhmhmhmhmhmhmhmhmbvhmjvaaetetetetckaajvaaalalalalalaajvjv",
"jvjvaaaaaabububuaajvaackckckckckaajvhmbvhmhmhmhmhmhmhmhmhmhmhmhmhmhmhmhmhmhmhmhmhmhmhmhmbvhmjvaackckckckaaaajvaaajajalalaaaajvjv",
"jvjvaaetetetbubbaajvaaetetetckckaajvhmbvhmhmhmhmhmhmhmhmhmhmhmhmhmhmhmhmhmhmhmhmhmhmhmhmbvhmjvaacketetckckaajvaaalalajajalaajvjv",
"jvjvaabuetetetaaaajvaacketetetckaajvhmbvhmhmhmhmhmhmhmhmhmhmhmhmhmhmhmhmhmhmhmhmhmhmhmhmbvhmjvaacketetetckaajvaaajalalalajaajvjv",
"jvjvaaajbububualaajvaackbuckckckaajvhmbvhmhmhmhmhmhmhmhmhmhmhmhmhmhmhmhmhmhmhmhmhmhmhmhmbvhmjvaackckckckckaajvaaajaaaaaaalaajvjv",
"jvjvaaajbbbbalbuaajvaacketetetbuaajvhmbvhmhmhmhmhmhmhmhmhmhmhmhmhmhmhmhmhmhmhmhmhmhmhmhmbvhmjvaackcgcgckckaajvaaajalalalajaajvjv",
"jvjvjvaaaaaaaaaajvjvjvaaaaaaaaaajvjvhmbvhmhmhmhmhmhmhmhmhmhmhmhmhmhmhmhmhmhmhmhmhmhmhmhmbvhmjvjvaaaaaaaaaajvjvjvaaaaaaaaaajvjvjv",
"jvjvjvjvjvjvjvjvjvjvjvjvjvjvjvjvjvjvhmbvhmhmhmhmhmhmhmhmhmhmhmhmhmhmhmhmhmhmhmhmhmhmhmhmbvhmjvjvjvjvjvjvjvjvjvjvjvjvjvjvjvjvjvjv",
"jvjvjvjvjvjvjvjvjvjvjvjvjvjvjvjvjvjvhmbvhmhmhmhmhmhmhmhmhmhmhmhmhmhmhmhmhmhmhmhmhmhmhmhmbvhmjvjvjvjvjvjvjvjvjvjvjvjvjvjvjvjvjvjv",
"jvjvjvjvjvjvjvjvjvjvjvjvjvjvjvjvjvjvhmbvhmhmhmhmhmhmhmhmhmhmhmhmhmhmhmhmhmhmhmhmhmhmhmhmbvhmjvjvjvjvjvjvjvjvjvjvjvjvjvjvjvjvjvjv",
"jvjvjvjvjvjvjvjvjvjvjvjvjvjvjvjvjvjvhmbvhmhmhmhmhmhmhmhmhmhmhmhmhmhmhmhmhmhmhmhmhmhmhmhmbvhmjvjvjvjvjvjvjvjvjvjvjvjvjvjvjvjvjvjv",
"jvjvjvjvjvjvjvjvjvjvjvjvjvjvjvjvjvjvhmbvhmhmhmhmhmhmhmhmhmhmhmhmhmhmhmhmhmhmhmhmhmhmhmhmbvhmjvjvjvjvjvjvjvjvjvjvjvjvjvjvjvjvjvjv",
"jvjvjvjvjvjvjvjvjvjvjvjvjvjvjvjvjvjvhmbvhmhmhmhmhmhmhmhmhmhmhmhmhmhmhmhmhmhmhmhmhmhmhmhmbvhmjvjvjvjvjvjvjvjvjvjvjvjvjvjvjvjvjvjv",
"jvjvjvjvjvjvjvjvjvjvjvjvjvjvjvjvjvjvhmbvhmhmhmhmhmhmhmhmhmhmhmhmhmhmhmhmhmhmhmhmhmhmhmhmbvhmjvjvjvjvjvjvjvjvjvjvjvjvjvjvjvjvjvjv",
"jvjvjvjvjvjvjvjvjvjvjvjvjvjvjvjvjvjvhmbvhmhmhmhmhmhmhmhmhmhmhmhmhmhmhmhmhmhmhmhmhmhmhmhmbvhmjvjvjvjvjvjvjvjvjvjvjvjvjvjvjvjvjvjv",
"jvjvjvjvjvjvjvjvjvjvjvjvjvjvjvjvjvjvhmbvhmhmhmhmhmhmhmhmhmhmhmhmhmhmhmhmhmhmhmhmhmhmhmhmbvhmjvjvjvjvjvjvjvjvjvjvjvjvjvjvjvjvjvjv",
"jvjvjvjvjvjvjvjvjvjvjvjvjvjvjvjvjvjvhmbvhmhmhmhmhmhmhmhmhmhmhmhmhmhmhmhmhmhmhmhmhmhmhmhmbvhmjvjvjvjvjvjvjvjvjvjvjvjvjvjvjvjvjvjv",
"jvjvjvjvjvjvjvjvjvjvjvjvjvjvjvjvjvjvhmbvhmhmhmhmhmhmhmhmhmhmhmhmhmhmhmhmhmhmhmhmhmhmhmhmbvhmjvjvjvjvjvjvjvjvjvjvjvjvjvjvjvjvjvjv",
"jvjvjvjvjvjvjvjvjvjvjvjvjvjvjvjvjvjvhmbvhmhmhmhmhmhmhmhmhmhmhmhmhmhmhmhmhmhmhmhmhmhmhmhmbvhmjvjvjvjvjvjvjvjvjvjvjvjvjvjvjvjvjvjv"
};
