/* XPM */
static char *tile_sand_oil_xpm[] = {
"64 64 22 2",
"ae c #666666",
"af c #333333",
"ai c #2A2A2A",
"aj c #383838",
"ak c #444444",
"as c #191919",
"bb c #8B7355",
"bf c #5D4037",
"bi c #7A7A7A",
"bj c #4A4A4A",
"bs c #1A1A1A",
"bu c #222222",
"cd c #303030",
"dz c #336666",
"fz c #111111",
"gc c #AAAAAA",
"hg c #996633",
"hm c #999966",
"io c #CC9966",
"it c #CCCC66",
"iu c #CCCC99",
"jv c None",
/* pixels */
"jvjvjvjvjvjvjvjvjvjvjvjvjvjvjvjvjvjvjvjvjvjvjvjvjvjvjvjvjvjvjvjvjvjvjvjvjvjvjvjvjvjvjvjvjvjvjvjvjvjvjvjvjvjvjvjvjvjvjvjvjvjvjvjv",
"jvititititititititititititititititititititititititititititititititititititititiuiuiuiuiuiuititititititititititititititititititit",
"jvititititititititititititititititititititititititititititititititititititititititiuiuitititiuititititititititititititititititit",
"jvitititititititititititititititititititititititititititititititititititititititiuiuiuiuitititititititititititititititititititit",
"jvititititititititititititititioititititititititititioioitititititititititititititititititititititititititititititititititititit",
"jvitititititititititititititititititititititititititafioititititititititititititititiuitititititititafafafafitititititititititit",
"jvititititititititititititititititititititititititititiuitititititititititititbuaebufziuitititbsafafafajajajajbsitititititititit",
"jvitititititititititititititititititititititititititititititititititititititbububububsitititbsafajajajajajajajajbsititititititit",
"jvitititititititititititititititititititititititititititititititititititititbubububuiuititbsafajajafajajajajajajajbsitititititit",
"jvitititititititititititititititititititititititititititititititititititititithmhmitititbuafajajafafafajajajajajajajfzititititit",
"jvititititititititititititititititititititititititititititititititititititititititititbuafajajajafafafafajajajajajajfzititititit",
"jvititititititioioioioitititititititititititititititititititititititititititititbsaiaiafafafafafafafafafajajajajajajbsititititit",
"jvitititititioioioioitititititititititititititititititititititititititititititbsaiakakafafafafafafafafafafajajajajajbsioitititit",
"jvititititititititititititititbibiititititititititititbfioitititititititititbsafakakakafafafafafafafafafafajajajajajbuioitititit",
"jvititititititititititititititbibiitititititititititbfhmitititititititititbsafafakakafafafafafafafafafafafajajajajajbuioitititit",
"jvitititititititititititititititititititititititititbfhmhmitititititititbsafafafafafafafafafafafafafafafafafajajajajbuioitititit",
"jvitititititititititititititititititititititititititithmhmitititititititbsafafafafafafafafafafafafafafafafafajajajajbuititititit",
"jvitititititititititititititititititititititititititititititititititititbsafafafafafafafafafafafafafafafafafajajajbubsititititit",
"jvitititititititititititititititititititititititititititititititititititbsafafafafafafafafafafafafafafafafafajbubuioitititititit",
"jvitititititititititititititititititititititbjbiitititititititititititititbsafafafafafafafafafafafafafafafasashgioiuiuititititit",
"jvitititititititioioititititititititititititbibiititititititititititititititbsafafafafafafafafafafafafafbshmitiuiuititititititit",
"jvititititititbbgcgcajitititititititititititititititititititititititititititbsafdzafafafafafafafafafcdbuhmititititiuitititititit",
"jvititititititbbgcgcgcioititititititititititititititititititititititititititbsafdzafafafafafafafafafafbuitititajajititititititit",
"jvititititititbbgcgchmioitititititititititititititititititititititititititititaiafafafafafafafafafafaibbititajajajajitititititit",
"jvitititititititaiaibuititititititititititititititititititititititititititititaiafafafafafafafafafafbuiuitioajajajajitititititit",
"jvitititititititititititititititititititititititititititititititititititititititbsbsbsafafafafafafbsioititiuajajajititititititit",
"jvititititititititititititititititititititititititititititititititititititititititititasasasasasasioiuiuiuititititititititititit",
"jvititititititititititititititititititititititititititititititititititititititititititithmioioioiuiuiuiuiuiuitiuiuititititititit",
"jvitititititititititititititititititititititititititititititititititititititititiuiuiuiuiuitiuiuiuiuiuiuiuiuitititititititititit",
"jvitititititititititititititititititititititititititititititititititititititititiuiuiuiuiuiuiuiuiuiuiuiuiuiuiuiuitititititititit",
"jvititititititititititititititititititititititititititititititititiuititititititiuitiuiuiuiuiuiuiuiuiuiuiuiuiuitiuititititititit",
"jviuititititititititititititititititititititititititititititititititititititititititiuiuiuiuiuiuiuiuiuiuiuiuitiuitititititititit",
"jviuiuiuitititiuitititiuitiuiuiuiuiuiuititiuiuiuiuiuiuiuiuiuiuiujvjvjvjvjvjvjvjvjvjvjvjvjvjvjvjvjvjvjvjvjvjvjvjvjvjvjvjvjvjvjvjv",
"jvitiuiuiuiuiuiuiuiuiuiuiuiuiuiuiuiuiuiuiuiuiuiuiuiuiuiuiuiuiuiujvjvjvjvjvjvjvjvjvjvjvjvjvjvjvjvjvjvjvjvjvjvjvjvjvjvjvjvjvjvjvjv",
"jviuiuiuiuiuiuiuiuiuiuiuiuiuiuiuiuiuiuiuiuiuiuiuiuiuiuiuiuiuiuiujvjvjvjvjvjvjvjvjvjvjvjvjvjvjvjvjvjvjvjvjvjvjvjvjvjvjvjvjvjvjvjv",
"jviuiuiuiuiuiuiuiuiuiuiuiuiuiuiuiuiuiuiuiuiuiuiuiuiuiuiuiuiuiuiujvjvjvjvjvjvjvjvjvjvjvjvjvjvjvjvjvjvjvjvjvjvjvjvjvjvjvjvjvjvjvjv",
"jviuiuiuiuiuiuiuiuiuiuiuiuiuiuiuiuiuiuiuiuiuiuiuiuiuiuiuiuiuiuiujvjvjvjvjvjvjvjvjvjvjvjvjvjvjvjvjvjvjvjvjvjvjvjvjvjvjvjvjvjvjvjv",
"jviuiuiuiuiuiuiuiuiuiuiuiuiuiuiuiuiuiuiuiuiuiuiuiuiuiuiuiuiuiuiujvjvjvjvjvjvjvjvjvjvjvjvjvjvjvjvjvjvjvjvjvjvjvjvjvjvjvjvjvjvjvjv",
"jviuiuiuiuiuiuiuiuiuiuiuiuiuiuiuiuiuiuiuiuiuiuiuiuiuiuiuiuiuiuiujvjvjvjvjvjvjvjvjvjvjvjvjvjvjvjvjvjvjvjvjvjvjvjvjvjvjvjvjvjvjvjv",
"jviuiuiuiuiuiuiuiuiuiuiuiuiuiuiuiuiuiuiuiuiuiuiuiuiuiuiuiuiuiuiujvjvjvjvjvjvjvjvjvjvjvjvjvjvjvjvjvjvjvjvjvjvjvjvjvjvjvjvjvjvjvjv",
"jviuiuiuiuiuiuiuiuiuiuiuiuiuiuiuiuiuiuiuiuiuiuititititititiuiuiujvjvjvjvjvjvjvjvjvjvjvjvjvjvjvjvjvjvjvjvjvjvjvjvjvjvjvjvjvjvjvjv",
"jviuiuiuiuiuiuiuiuiuiuiuiuiuiuiuiuiuiuiuiuiuitititititititititiujvjvjvjvjvjvjvjvjvjvjvjvjvjvjvjvjvjvjvjvjvjvjvjvjvjvjvjvjvjvjvjv",
"jviuiuitititiuiuiuiuiuiuiuiuiuiuiuiuiuiuiuiuiuitititititititiuiujvjvjvjvjvjvjvjvjvjvjvjvjvjvjvjvjvjvjvjvjvjvjvjvjvjvjvjvjvjvjvjv",
"jviuiuiuititiuiuiuiuiuiuiuiuiuiuiuiuiuiuiuiuiuiuititititititiuiujvjvjvjvjvjvjvjvjvjvjvjvjvjvjvjvjvjvjvjvjvjvjvjvjvjvjvjvjvjvjvjv",
"jviuiuiuititiuiuiuiuiuiuiuiuiuiuiuiuiuiuiuiuiuiuiuitititiuiuiuiujvjvjvjvjvjvjvjvjvjvjvjvjvjvjvjvjvjvjvjvjvjvjvjvjvjvjvjvjvjvjvjv",
"jviuiuiuititiuiuiuiuiuiuiuiuiuiuiuiuiuiuiuiuiuiuiuiuiuitiuiuiuiujvjvjvjvjvjvjvjvjvjvjvjvjvjvjvjvjvjvjvjvjvjvjvjvjvjvjvjvjvjvjvjv",
"jviuiuiuiuiuiuiuiuiuiuiuiuiuiuiuiuiuiuiuiuiuiuiuiuiuitiuiuiuiuiujvjvjvjvjvjvjvjvjvjvjvjvjvjvjvjvjvjvjvjvjvjvjvjvjvjvjvjvjvjvjvjv",
"jviuiuiuiuiuiuiuiuiuiuiuiuiuiuiuiuiuiuiuiuiuiuiuiuiuiuiuiuiuiuiujvjvjvjvjvjvjvjvjvjvjvjvjvjvjvjvjvjvjvjvjvjvjvjvjvjvjvjvjvjvjvjv",
"jviuiuiuiuiuiuiuiuiuiuiuiuiuiuiuiuiuiuiuiuiuiuiuiuiuiuiuiuiuiuiujvjvjvjvjvjvjvjvjvjvjvjvjvjvjvjvjvjvjvjvjvjvjvjvjvjvjvjvjvjvjvjv",
"jviuiuiuiuiuiuiuiuiuiuiuiuiuiuiuiuiuiuiuiuiuiuiuiuiuiuiuiuiuiuiujvjvjvjvjvjvjvjvjvjvjvjvjvjvjvjvjvjvjvjvjvjvjvjvjvjvjvjvjvjvjvjv",
"jviuiuiuiuiuiuiuiuiuiuiuiuiuiuiuiuiuiuiuiuiuiuiuiuiuiuiuiuiuiuiujvjvjvjvjvjvjvjvjvjvjvjvjvjvjvjvjvjvjvjvjvjvjvjvjvjvjvjvjvjvjvjv",
"jviuiuiuiuiuiuiuiuiuiuiuiuiuiuiuiuiuiuiuiuiuiuiuiuiuiuiuiuiuiuiujvjvjvjvjvjvjvjvjvjvjvjvjvjvjvjvjvjvjvjvjvjvjvjvjvjvjvjvjvjvjvjv",
"jviuiuiuiuiuiuiuiuiuiuiuiuiuiuiuiuiuiuiuiuiuiuiuiuiuiuiuiuiuiuiujvjvjvjvjvjvjvjvjvjvjvjvjvjvjvjvjvjvjvjvjvjvjvjvjvjvjvjvjvjvjvjv",
"jviuiuiuiuiuiuiuiuiuiuiuiuiuiuiuiuiuiuiuiuiuiuiuiuiuiuiuiuiuiuiujvjvjvjvjvjvjvjvjvjvjvjvjvjvjvjvjvjvjvjvjvjvjvjvjvjvjvjvjvjvjvjv",
"jviuiuiuiuiuiuiuiuiuiuiuiuiuiuiuiuiuiuiuiuiuiuiuiuiuiuiuiuiuiuiujvjvjvjvjvjvjvjvjvjvjvjvjvjvjvjvjvjvjvjvjvjvjvjvjvjvjvjvjvjvjvjv",
"jviuiuiuiuiuiuiuiuiuiuiuiuiuiuiuiuiuiuiuiuiuiuiuiuiuiuiuiuiuiuiujvjvjvjvjvjvjvjvjvjvjvjvjvjvjvjvjvjvjvjvjvjvjvjvjvjvjvjvjvjvjvjv",
"jviuiuiuiuiuiuiuiuiuiuiuiuiuiuiuiuiuiuiuiuiuiuiuiuiuiuiuiuiuiuiujvjvjvjvjvjvjvjvjvjvjvjvjvjvjvjvjvjvjvjvjvjvjvjvjvjvjvjvjvjvjvjv",
"jviuiuiuiuiuiuiuiuiuiuiuiuiuiuiuiuiuiuiuiuiuiuiuiuiuiuiuiuiuiuiujvjvjvjvjvjvjvjvjvjvjvjvjvjvjvjvjvjvjvjvjvjvjvjvjvjvjvjvjvjvjvjv",
"jviuiuiuiuiuiuiuiuiuiuiuiuiuiuiuiuiuiuiuiuiuiuiuiuiuiuiuiuiuiuiujvjvjvjvjvjvjvjvjvjvjvjvjvjvjvjvjvjvjvjvjvjvjvjvjvjvjvjvjvjvjvjv",
"jviuiuiuiuiuiuiuiuiuiuiuiuiuiuiuiuiuiuiuiuiuiuiuiuiuiuiuiuiuiuiujvjvjvjvjvjvjvjvjvjvjvjvjvjvjvjvjvjvjvjvjvjvjvjvjvjvjvjvjvjvjvjv",
"jviuiuiuiuiuiuiuiuiuiuiuiuiuiuiuiuiuiuiuiuiuiuiuiuiuiuiuiuiuiuiujvjvjvjvjvjvjvjvjvjvjvjvjvjvjvjvjvjvjvjvjvjvjvjvjvjvjvjvjvjvjvjv",
"jviuiuiuiuiuiuiuiuiuiuiuiuiuiuiuiuiuiuiuiuiuiuiuiuiuiuiuiuiuiuiujvjvjvjvjvjvjvjvjvjvjvjvjvjvjvjvjvjvjvjvjvjvjvjvjvjvjvjvjvjvjvjv",
"jviuiuiuiuiuiuiuiuiuiuiuiuiuiuiuiuiuiuiuiuiuiuiuiuiuiuiuiuiuiuiujvjvjvjvjvjvjvjvjvjvjvjvjvjvjvjvjvjvjvjvjvjvjvjvjvjvjvjvjvjvjvjv",
"jviuiuiuiuiuiuiuiuiuiuiuiuiuiuiuiuiuiuiuiuiuiuiuiuiuiuiuiuiuiuiujvjvjvjvjvjvjvjvjvjvjvjvjvjvjvjvjvjvjvjvjvjvjvjvjvjvjvjvjvjvjvjv"
};
