/* XPM */
static char *tile_road_edge_left_xpm[] = {
"64 64 22 2",
"aa c #000000",
"ac c #CCCCCC",
"ad c #999999",
"ah c #FFFACD",
"aj c #383838",
"al c #555555",
"ar c #EEEEEE",
"bb c #8B7355",
"bf c #5D4037",
"bi c #7A7A7A",
"bt c #F9E79F",
"bw c #D6EAF8",
"cm c #686868",
"cn c #484848",
"gc c #AAAAAA",
"hg c #996633",
"hl c #999933",
"hm c #999966",
"io c #CC9966",
"it c #CCCC66",
"iu c #CCCC99",
"jv c None",
/* pixels */
"jvjvjvjvjvjvjvjvjvjvjvjvjvjvjvjvjvjvjvjvjvjvjvjvjvjvjvjvjvjvjvjvjvjvjvjvjvjvjvjvjvjvjvjvjvjvjvjvjvjvjvjvjvjvjvjvjvjvjvjvjvjvjvjv",
"jvjvjvjvaajvaaaajvjvjvjvjvjvjvjvjvjvjvjvjvjvjvjvaajvjvjvjvjvjvjvjvaajvjvjvjvjvjvjvjvjvaajvjvjvjvaajvaajvjvjvjvjvjvaaaaaajvjvjvjv",
"jvjvjvjvaajvaaaajvaaaajvjvjvadaajvaaaajvaaaajvaaaajvjvjvjvaaaajvaaaajvaaaajvaaaajvjvjvaajvaaaahmaaaaaajvjvjvaajvaaadjvaajvjvjvjv",
"jvjvjvjvaajvaaaajvaaaajvjvjvadjvaljvaajvbbaabbjvaajvjvjvaaaaaaaajvaaaaaraahmaaaajvjvjvaajvaaaajvaajvaajvjvjvadjvaljvaajvjvjvjvjv",
"jvjvjvjvaajvaaaajvaljvjvjvjviujvadjvaajvjvaaadjvaajvjvjvaaaradaajvaabbaraaadacacjvjvjvaajvajjvjvaajvaajvjvjvjvaajvbbjvjvjvjvjvjv",
"jvjvjvjviujvadadjviuhmiuiuiujvjvjvadjvjvhmhmjvalbbjvjvjvjvhmjvjvbbbbjvbfaajvbbjviugciuhmjviuadjviujvbfadadadjvhmjvadadadjvjvjvjv",
"jvjvjvjvjvjvjvjvjvjvjvjvjvjvjvjvjvjvjvjvjvjvjvjvjvarahahahahjvjvjvacjvaaadjvjvjvjvjvjvjvjvjvjvjvjvjvjvjvjvjvjvjvjvjvjvjvjvjvjvjv",
"ititititititititititititititititititititithlhlaladadahargccncncnalacalalalalalalalalalalalalalalalalalalalalalalalalalalalalalal",
"ititititititititititititititititititititithlhlalacadahargcarcncnalacalalalalalalalalalalalalalalalalalalalalalalalalalalalalalal",
"ititititititititititititititititititititithlalacacadarargcararaaalacalalalalalalalalalalalalalalalalalalalalalalalalalalalalalal",
"ititititititititititititititititititititithlalacacadarargcararaaalacalalalalalalgcalalalalalalalalalalalalalalalalalalalalalalal",
"ititititititithlitititititititititititbtithlalacacadarargcararaaalacalalalalalalalalalalalalalalalalalalalalalalalalalalalalalal",
"itititititithlithlititititititititititioithlalacacadadargcararaaalacalalalalalalalalalalalalalalalalalalalalalalalalalalalalalal",
"ititititititititititititititititititititithlalacacadadbwgcararaaalacalalalalalalalalalalalalalalalalalalalalalalalalalalalalalal",
"ititititititititititititititititititititithlalacacadaradgcararaaalacalalalbialalalalalalalalalalalalalalalalalalalalalalalalalal",
"ititititititititititititititithlititititithlalacacadaradadararaaalacalalalalalalalalalalalalalalalalalalalalalalalalalalalalalal",
"ititititititititititititititititititititithlalacacadarargcararaaalacalalalalalalalalalalalalalalalalalalalalalalalalalalalalalal",
"itititititititititajititititititititititithlalacacadarargcararaaalacalalalalalalalalalalalalalalalalalalalalalalalalalalalalalal",
"ititititititititajitititititititititititithlalacacadarargcararaaalacalalalalalalalalalalalalalalalalalalalalalalalalalalalalalal",
"ititititititititajhghgititititititithlitithlalacacadarargcararaaalacalalalalalalalalalalalalalalalalalalalalalalalalalalalalalal",
"ititititititititithgioitititititititititithlalacacadarargcararaaalacalalalalalalalalalalalalalalalalalalalalalalalalalalalalalal",
"ititititititititititititititititititititithlalacacadarargcararaaalacalalalalalalalalalalalalalalalalalalalalalalalalalalalalalal",
"ititititititititititititititititititititithlalacacadarargcararaaalacalalalalalalalalalalalalalalalalalalalalalalalalalalalalalal",
"ititititititititititititititititititititithlalacacadarargcararaaalacalalalalalalalalalalalalalalalalalalalalalalalalalalalalalal",
"ititititititititititititititititititititithlalacacadarargcararaaalacalalalalalalalalalalalalalalalalalalalalalalalalalalalalalal",
"itititititititititititititititalalitititithlalacacadarbigcararaaalacalalalalalalalalalalalalalalalalalalalalalalalalalalalalalal",
"ititititititititititititititaladadalititithlalacacadararcmgcaraaalacalalalalalalalalalalalalalalalalalalalalalalalalalalalalalal",
"ititititititititititititititaladadadbfitithlalacacadarargcgcaraaalacalalalalalalalalalalalalalalalalalalalalalalalalalalalalalal",
"itititititititititititititithlalalbfhlitithlalacacadarargcacaraaalacalalalalalalalalalalalalalalalalalalalalalalalalalalalalalal",
"ititititititititititititititithlhlhlititithlalacacadarargcadaraaalacalalalalalalalalalalalalalalalalalalalalalalalalalalalalalal",
"ititititititititititititititititititititithlalacacadarargcaracaaalacalalalalalalalalalalalalalalalalalalalalalalalalalalalalalal",
"ititititititititititititititititititititithlalacacadarargcararaaalacalalalalalalalalalalalalalalalalalalalalalalalalalalalalalal",
"ititititititititititititititititititititithlalacacadarargcararaaalgcalalalalalalalalalalalalalalalalalalalalalalalalalalalalalal",
"itititititititititititititititititajititithlalacacadarargcararaaalacalalalalalalalalalalalalalalalalalalalalalalalalalalalalalal",
"itititititithlitititititititititititititithlalacacadarargcararaaalacalalalalalalalalalalalalalalalalalalalalalalalalalalalalalal",
"ititititititititititititititititititititithlalacacadarargcararaaalacalalalalalalalalalalalalalalalalalalalalalalalalalalalalalal",
"ititititititititititititititititititititithlalacacadarargcararaaalacalalalalalalalalalalalalalalalalalalalalalalalalalalalalalal",
"ititititititititititititititititititititithlalacacadarargcararaaalacalalalaladalalalalalalalalalalalalalalalalalalalalalalalalal",
"ititititititititititititititititititititithlalacacadarargcararaaalacalalalaladalalalalalalalalalalalalalalalalalalalalalalalalal",
"ititititititititititititititititititititithlalacacadarargcararaaalacalalalaladalalalalalalalalalalalalalalalalalalalalalalalalal",
"ititititititititititititititititititititithlalacacadarargcararaaalgcalalaladadalalalalalalalalalalalalalalalalalalalalalalalalal",
"ititititititititititititititititititititithlalacacadarargcararaaalalalalaladadalalalalalalalalalalalalalalalalalalalalalalalalal",
"ititititititititititititititithmititititithlalacacadadargcararaaalacalalaladalalalalalalalalalalalalalalalalalalalalalalalalalal",
"itititititititititititititithmiualitititithlalacacadargcgcararaaalacalalaladalalalalalalalalalalalalalalalalalalalalalalalalalal",
"itititititititititititititithmadadalititithlalacacadargcgcararaaalacalalalalalalalalalalalalalalalalalalalalalalalalalalalalalal",
"ititititititititititititititalhmadalititithlalacacadadargcararaaalacalalalalalalalalalalalalalalalalalalalalalalalalalalalalalal",
"ititititititititititititititalalalitititithlalacacadadargcararaaalacalalalalalalalalalalalalalalalalalalalalalalalalalalalalalal",
"itititalititititititititititititititititithlalacacadarargcararaaalacalalalalalalalalalalalalalalalalalalalalalalalalalalalalalal",
"itititalalitititititititititititititititithlalacacadarargcararaaalacalalalalalalalalalalalalalalalalalalalalalalalalalalalalalal",
"ititititititititititititititititititititithlalacacadaradgcadaraaalacalalalalalalalalalalalalalalalalalalalalalalalalalalalalalal",
"ititititititititititititititititititititithlalacacadaradadararaaalacalalalalgcalalalalalalalalalalalalalalalalalalalalalalalalal",
"ititititititititititititititititititititithlalacacadararadadaraaalacalalalalgcalalalalalalalalalalalalalalalalalalalalalalalalal",
"itititititititititithlhlititititititititithlalacacadarargchmaraaalacalalalalalalalalalalalalalalalalalalalalalalalalalalalalalal",
"ititititititititititititititititititititithlalacacadarargcararaaalacalalalalalalalalalalalalalalalalalalalalalalalalalalalalalal",
"ititititititititititititititititititititithlalacacadarargcararaaalacalalalalalalalalalalalalalalalalalalalalalalalalalalalalalal",
"ititititititititititititititititititititithlalacacadarargcararaaalacalalalalalalalalalalalalalalalalalalalalalalalalalalalalalal",
"ititititititititititititititititititititithlalacacadarargcararaaalacalalalalalalalalalalalalalalalalalalalalalalalalalalalalalal",
"itititioioitititititititititititititititithlalacacadarargcararaaalacalalalalalalalalalalalalalalalalalalalalalalalalalalalalalal",
"itititioioioititititititititititititititithlalacacadadadgcararaaalacalalalalalalalalalalalalalalalalalalalalalalalalalalalalalal",
"ititititititititititititititititititititithlalacacadadadgcararaaalacalalalalacalalalalalalalalalalalalalalalalalalalalalalalalal",
"ititititititititititititititititititititithlalacacadadadgcararaaalacalalalalalalalalalalalalalalalalalalalalalalalalalalalalalal",
"ititititititititititititititititititititithlalacadadadadgcgcaraaalacalalalalalalalalalalalalalalalalalalalalalalalalalalalalalal",
"ititititititititititititititititititititithlaladadadadadgcgcgcaaalacalalalalalalalalalalalalalalalalalalalalalalalalalalalalalal",
"ititititititititititititititititititititithlhgaaaaaaaaaaaaaaaaaaalaccncncnalcnalalalalalalalalalalalalalalalalalalalalalalalalal"
};
