/* XPM */
static char *tile_finish_desert_xpm[] = {
"64 64 9 2",
"aj c #383838",
"al c #555555",
"bb c #8B7355",
"bu c #222222",
"bv c #FEF9E7",
"ck c #6E2018",
"fw c #FDE68A",
"hm c #999966",
"jv c None",
/* pixels */
"jvjvjvjvjvjvjvjvjvjvbvjvjvjvjvjvjvjvjvjvjvalhmhmbubbhmbuhmjvbujvjvalhmhmalalhmajhmckbbjvjvjvjvjvjvjvjvjvjvbvjvjvjvjvjvjvjvjvjvjv",
"jvjvjvjvjvjvjvjvjvbvbvjvjvjvjvjvjvjvjvjvjvjvalhmbuhmbbbuhmhmjvjvjvalalalhmckhmajhmbbhmbujvjvjvjvjvjvjvjvjvbvbvjvjvjvjvjvjvjvjvjv",
"jvjvjvjvjvjvjvjvjvbvjvjvjvjvjvjvjvjvjvjvjvbubbhmbuhmbuhmhmbubujvjvjvjvalhmajhmhmajbbhmhmbujvjvjvjvjvjvjvjvjvbvjvjvjvjvjvjvjvjvjv",
"jvjvjvjvjvjvjvjvjvbvjvjvjvjvjvjvjvjvjvjvjvjvhmhmbuhmbuhmbujvjvjvjvjvalalhmhmajhmajhmbbbbbbjvjvjvjvjvjvjvjvjvbvjvjvjvjvjvjvjvjvjv",
"jvjvjvjvjvjvjvjvjvbvjvjvjvjvjvjvjvjvjvjvbubuhmbubbhmbuhmajbubujvjvjvalhmbuhmajhmajhmbbhmhmjvjvjvjvjvjvjvjvjvbvjvjvjvjvjvjvjvjvjv",
"jvjvjvjvjvjvjvjvjvbvjvjvjvjvjvjvjvjvjvjvjvjvhmbuhmbbbuhmbujvjvjvjvjvjvbubuhmhmajhmbuhmbbbbbujvjvjvjvjvjvjvjvbvjvjvjvjvjvjvjvjvjv",
"jvjvjvjvjvjvjvjvjvbvjvjvjvjvjvjvjvjvjvbububuhmbuhmbuhmbualbujvjvjvjvjvjvjvbuhmajhmalhmalhmjvjvjvjvjvjvjvjvjvbvjvjvjvjvjvjvjvjvjv",
"jvjvjvjvjvjvjvjvjvbvjvjvjvjvjvjvjvjvjvjvbuhmhmbuhmbuhmalhmaljvjvjvjvjvbububuhmajhmalalhmbbbubujvjvjvjvjvjvjvbvjvjvjvjvjvjvjvjvjv",
"jvjvjvjvjvjvjvjvbvbvjvjvjvjvjvjvjvjvjvbuhmhmhmalhmbuhmbububujvjvjvjvjvjvjvjvajhmbuhmalhmaljvjvjvjvjvjvjvjvjvbvbvjvjvjvjvjvjvjvjv",
"jvjvjvjvjvjvjvjvbvjvjvjvjvjvjvjvjvjvjvjvbuhmbuhmhmbuhmhmhmbbjvjvjvjvjvjvbubuajhmbuhmalalhmbubujvjvjvjvjvjvjvjvbvjvjvjvjvjvjvjvjv",
"jvjvjvjvjvjvjvjvbvjvjvjvjvjvjvjvjvjvbububbhmbuhmalhmhmbububujvjvjvjvjvjvjvjvjvbuhmbuhmalhmhmbbjvjvjvjvjvjvjvjvbvjvjvjvjvjvjvjvjv",
"jvjvjvjvjvjvjvjvbvjvjvjvjvjvjvjvjvjvjvjvhmbubuhmbuhmbujvjvjvjvjvjvjvjvjvjvbububbhmbububuhmbubbbujvjvjvjvjvjvjvbvjvjvjvjvjvjvjvjv",
"jvjvjvjvjvjvjvjvbvjvjvjvjvjvjvjvjvjvbubuhmbubbhmbuhmbububujvjvjvjvjvjvjvjvjvhmhmbbbuhmbubbbbhmjvjvjvjvjvjvjvjvbvjvjvjvjvjvjvjvjv",
"jvjvjvjvjvjvjvbvbvjvjvjvjvjvjvjvjvjvjvjvhmbuhmbbbuhmalhmbujvjvjvjvjvjvjvjvbualbuhmbbbuhmbubbajbujvjvjvjvjvjvjvbvbvjvjvjvjvjvjvjv",
"jvjvjvjvjvjvjvbvjvjvjvjvjvjvjvjvjvjvbubuhmbuhmbubbhmbubujvjvjvjvjvjvjvjvjvjvjvjvbuhmbubbbuhmbujvjvjvjvjvjvjvjvjvbvjvjvjvjvjvjvjv",
"jvjvjvjvjvjvjvbvjvjvjvjvjvjvjvjvjvbubuhmhmbuhmbuhmbubububujvjvjvjvjvjvjvjvjvbubualhmbubbbubuhmbubujvjvjvjvjvjvjvbvjvjvjvjvjvjvjv",
"jvjvjvjvjvjvjvbvjvjvjvjvjvjvjvjvjvjvjvhmbuhmalbuhmhmhmjvjvjvjvjvjvjvjvjvjvjvjvbuhmbualbuhmbubbjvjvjvjvjvjvjvjvjvbvjvjvjvjvjvjvjv",
"jvjvjvjvjvjvjvbvjvjvjvjvjvjvjvjvjvbubuhmbuhmbubuhmbububujvjvjvjvjvjvjvjvjvjvbubububualbuhmbuhmbububujvjvjvjvjvjvbvjvjvjvjvjvjvjv",
"jvjvjvjvjvjvjvbvjvjvjvjvjvjvjvjvjvjvhmbbbuhmbubuhmhmhmbbjvjvjvjvjvjvjvjvjvjvhmbbhmajhmbuhmbuhmhmbbjvjvjvjvjvjvjvbvjvjvjvjvjvjvjv",
"jvjvjvjvjvjvjvbvjvjvjvjvjvjvjvjvbubuhmbubbhmbubuhmbubujvjvjvjvjvjvjvjvjvjvbuhmbuajajbuhmbuhmbuhmbubujvjvjvjvjvjvbvjvjvjvjvjvjvjv",
"jvjvjvjvjvjvbvbvjvjvjvjvjvjvjvjvjvjvhmbuhmbubuhmhmjvjvjvjvjvjvjvjvjvjvjvbubbhmbuhmajhmhmbuhmbuhmbbjvjvjvjvjvjvjvbvbvjvjvjvjvjvjv",
"jvjvjvjvjvjvbvjvjvjvjvjvjvjvjvjvbubuhmbuhmbubuhmbububujvjvjvjvjvjvjvjvbubuhmbububububuhmbuhmbuhmbububujvjvjvjvjvjvbvjvjvjvjvjvjv",
"jvjvjvjvjvjvbvjvjvjvjvjvjvjvjvjvjvhmbubbhmbubuhmhmhmajjvjvjvjvjvjvjvbbbbhmajbbhmbubbajhmhmbuhmalhmhmbujvjvjvjvjvjvbvjvjvjvjvjvjv",
"jvjvjvjvjvjvbvjvjvjvjvjvjvjvjvbubuhmbuhmbbbualhmbubujvjvjvjvjvjvjvjvbuhmajajhmbbbualbbbuhmbuhmbuhmbububujvjvjvjvjvbvjvjvjvjvjvjv",
"jvjvjvjvjvbvbvjvjvjvjvjvjvjvjvjvjvhmbuhmbubuhmhmhmaljvjvjvjvjvjvjvbuhmhmajhmhmbualbubbbuhmbuhmbuhmbuhmjvjvjvjvjvjvbvbvjvjvjvjvjv",
"jvjvjvjvjvbvbvjvjvjvjvjvjvjvbububuhmbuhmbubuhmbububujvjvjvjvjvjvbubuhmbuhmhmbubuhmbububuhmbuhmbuhmbbalbujvjvjvjvjvbvbvjvjvjvjvjv",
"jvjvjvjvjvbvjvjvjvjvjvjvjvjvjvalhmbuhmalalbuhmhmhmhmjvjvjvjvjvbubbhmbubuhmbubuhmhmbubuhmbbhmbuhmbuhmbuhmbujvjvjvjvjvbvjvjvjvjvjv",
"jvjvjvjvjvbvjvjvjvjvjvjvjvjvbubuhmbuhmalalbuhmbububujvjvjvjvbububbbubuhmbubuhmhmbubualalbuhmbuhmbuhmhmbubujvjvjvjvjvbvjvjvjvjvjv",
"jvjvjvjvjvbvjvjvjvjvjvjvjvjvjvhmhmbuhmbubuhmhmhmbujvjvjvjvbuhmhmhmbuhmbububuhmbubujvalhmhmhmbuhmbuhmbujvjvjvjvjvjvjvbvjvjvjvjvjv",
"jvjvjvjvbvbvjvjvjvjvjvjvjvbubuhmhmbuhmbubuhmbububujvjvjvbuhmbububuhmhmbubuhmbububujvbububuhmhmbuhmbuhmbububujvjvjvjvbvbvjvjvjvjv",
"jvjvjvjvbvjvjvjvjvjvjvjvjvjvjvhmbuhmhmajbuhmhmjvjvjvjvbuhmbuhmbuhmhmbubuhmbububujvjvjvjvjvbuhmbuhmbuhmhmhmjvjvjvjvjvjvbvjvjvjvjv",
"jvjvjvjvbvjvjvjvjvjvjvjvjvbubuhmbuhmalbuhmbbbubujvjvalbubuhmbuhmhmbubuhmhmbujvjvjvjvjvbububuhmbuhmbuhmbububujvjvjvjvjvbvjvjvjvjv",
"jvjvjvjvbvjvjvjvjvjvjvjvjvjvhmhmbuhmbubuhmhmhmhmbububuhmbubuhmhmbubualhmbububujvjvjvjvjvjvhmhmbubuhmbuhmhmhmjvjvjvjvjvbvjvjvjvjv",
"jvjvjvjvbvjvjvjvjvjvjvjvbubuhmhmbuhmbubuhmbubbbuhmbbhmbubuhmhmbububuhmbualbujvjvjvjvjvbububuhmhmbuhmbuhmbububujvjvjvjvbvjvjvjvjv",
"jvjvjvbvbvjvjvjvjvjvjvjvjvhmhmbuhmbbbubuhmhmhmbubuhmbubuhmhmbububuhmbububujvjvjvjvjvjvjvjvhmbuhmbuhmbuhmbbbujvjvjvjvjvbvbvjvjvjv",
"jvjvjvbvbvjvjvjvjvjvjvbububuhmbuhmbubuhmbubububuhmbubuhmhmbubuhmhmbububujvjvjvjvjvjvjvjvbuhmbuhmbubuhmajhmjvbubujvjvjvbvbvjvjvjv",
"jvjvjvbvjvjvjvjvjvjvjvbuhmhmbbbuhmhmbububualalhmbubuhmbubuhmhmbuhmjvjvjvjvjvjvjvjvjvjvjvjvbbalhmhmbuhmbuhmbuhmbujvjvjvjvbvjvjvjv",
"jvjvjvbvjvjvjvjvjvjvjvbubuhmbuhmhmbubuhmbuhmbubuhmhmalbuhmbbbuhmbubujvjvjvjvjvjvjvjvjvjvjvjvjvbuhmbuhmbuhmhmhmjvjvjvjvjvbvjvjvjv",
"jvjvjvbvjvjvjvjvjvjvjvjvjvhmbuhmhmhmbubuhmbubuhmhmbubuhmhmbuhmbubujvjvjvjvjvjvjvjvjvjvjvjvbububuhmbuhmbubuhmbububujvjvjvbvjvjvjv",
"jvjvjvbvjvjvjvjvjvjvbububuhmbuhmbubuhmbububuhmhmbubuhmbuhmhmbubujvjvjvjvjvjvjvjvjvjvjvjvjvjvjvjvhmbubuhmbuhmhmjvjvjvjvjvbvjvjvjv",
"jvjvbvbvjvjvjvjvjvjvjvhmhmbubububuhmbubuhmbububuhmhmbuhmbububujvjvjvjvjvjvjvjvjvjvjvjvjvjvjvbububuhmbuhmbuhmbububujvjvjvbvbvjvjv",
"jvjvbvjvjvjvjvjvjvbububuhmbubuhmbbbubuhmbububuhmbubuhmhmbujvjvjvjvjvjvjvjvjvjvjvjvjvjvjvjvjvjvjvbuhmbuhmbuhmhmjvjvjvjvjvjvbvjvjv",
"jvjvbvjvjvjvjvjvjvjvjvbububuhmbualbuhmbububuhmhmhmhmbubujvjvjvjvjvjvjvjvjvjvjvjvjvjvjvjvjvjvbubuhmhmbubuhmbuhmbububujvjvjvbvjvjv",
"jvjvbvjvjvjvjvjvbububuhmhmbububuhmbububuhmhmbubububujvjvjvjvjvjvjvjvjvjvjvjvjvjvjvjvjvjvjvjvjvjvjvbbhmbuhmbuhmhmhmjvjvjvjvbvjvjv",
"jvbvbvjvjvjvjvjvjvbbbbbubububbbubualhmhmbubububujvjvjvjvjvjvjvjvjvjvjvjvjvjvjvjvjvjvjvjvjvjvjvbujvbuhmbuhmalbbhmbububujvjvbvbvjv",
"jvbvjvjvjvjvjvbububvhmbubuhmbubububuhmbubububujvjvjvjvjvjvjvjvjvjvjvjvjvjvjvjvjvjvjvjvjvjvjvjvjvalalhmjvbuhmbuhmbujvjvjvjvbvbvjv",
"jvbvbvbvbvbvbubvbvbvbubvbubvbububvbvbububvbvbvbvbvbvbvbvbvbvbvbvbvbvbvbvbvbvbvbvbvbvbvbvbvbvbvbvbvbvbvbvbvbvbubvbvbvbububvbvbvjv",
"jvbvbvbvbvbubvbvbvbvbvbubvbububvbubvbvbvbvbvbvbvbvbvbvbvbvbvbvbvbvbvbvbvbvbvbvbvbvbvbvbvbvbvbvbvbvbvbvbvajbvbvbvbvbvbvbvbvbvbvjv",
"bvbvjvjvjvjvjvjvjvjvjvjvjvjvjvjvjvjvjvjvjvjvjvjvjvjvjvjvjvjvjvjvjvjvjvjvjvjvjvjvjvjvjvjvjvjvjvjvjvjvjvjvjvjvjvjvjvjvjvjvjvjvbvbv",
"bvbvjvjvjvjvjvjvjvjvjvjvjvjvjvjvjvjvjvjvjvjvjvjvjvjvjvjvjvjvjvjvjvjvjvjvjvjvjvjvjvjvjvjvjvjvjvjvjvjvjvjvjvjvjvjvjvjvjvjvjvjvfwbv",
"bvjvjvjvjvjvjvjvbvbvbvbvbvbvbvbvjvjvbvbvbvbvjvjvbvbvjvjvjvjvbvbvjvjvbvbvbvbvjvjvjvbvbvbvbvbvjvjvbvbvjvjvjvjvbvbvjvjvjvjvjvjvjvbv",
"bvjvjvjvjvjvjvjvbvbvjvjvjvjvbvbvjvjvjvbvbvjvjvjvbvbvbvjvjvjvbvbvjvjvjvbvbvjvjvjvbvbvjvjvbvbvbvjvbvbvjvjvjvjvbvbvjvjvjvjvjvjvjvbv",
"bvjvjvjvjvjvjvjvbvbvjvjvjvjvjvjvjvjvjvbvbvjvjvjvbvbvbvbvjvjvbvbvjvjvjvbvbvjvjvjvbvbvjvjvjvjvjvjvbvbvjvjvjvjvbvbvjvjvjvjvjvjvjvbv",
"bvjvjvjvjvjvjvjvbvbvbvbvbvbvjvjvjvjvjvbvbvjvjvjvbvbvbvbvjvjvbvbvjvjvjvbvbvjvjvjvbvbvjvjvjvjvjvjvbvbvjvjvjvjvbvbvjvjvjvjvjvjvjvbv",
"jvjvjvjvjvjvjvjvbvbvbvbvbvbvjvjvjvjvjvbvbvjvjvjvbvbvjvbvbvjvbvbvjvjvjvbvbvjvjvjvjvbvbvbvbvbvjvjvbvbvbvbvbvbvbvbvjvjvjvjvjvjvjvjv",
"jvjvjvjvjvjvjvjvbvbvjvjvjvjvjvjvjvjvjvbvbvjvjvjvbvbvjvjvbvbvbvbvjvjvjvbvbvjvjvjvjvjvjvjvjvbvbvjvbvbvjvjvjvjvbvbvjvjvjvjvjvjvjvjv",
"jvjvjvjvjvjvjvjvbvbvjvjvjvjvjvjvjvjvjvbvbvjvjvjvbvbvjvjvbvbvbvbvjvjvjvbvbvjvjvjvjvjvjvjvjvbvbvjvbvbvjvjvjvjvbvbvjvjvjvjvjvjvjvjv",
"jvjvjvjvjvjvjvjvbvbvjvjvjvjvjvjvjvjvbvbvbvbvjvjvbvbvjvjvjvbvbvbvjvjvbvbvbvbvjvjvbvbvjvjvjvbvbvjvbvbvjvjvjvjvbvbvjvjvjvjvjvjvjvjv",
"jvjvjvjvjvjvjvjvbvbvjvjvjvjvjvjvjvjvbvbvbvbvjvjvbvbvjvjvjvjvbvbvjvjvbvbvbvbvjvjvjvbvbvbvbvbvjvjvbvbvjvjvjvjvbvbvjvjvjvjvjvjvjvjv",
"jvjvjvjvjvjvjvjvjvjvjvjvjvjvjvjvjvjvjvjvjvjvjvjvjvjvjvjvjvjvjvjvjvjvjvjvjvjvjvjvjvjvjvjvjvjvjvjvjvjvjvjvjvjvjvjvjvjvjvjvjvjvjvjv",
"jvjvjvjvjvjvjvjvjvjvjvjvjvjvjvjvjvjvjvjvjvjvjvjvjvjvjvjvjvjvjvjvjvjvjvjvjvjvjvjvjvjvjvjvjvjvjvjvjvjvjvjvjvjvjvjvjvjvjvjvjvjvjvjv",
"jvjvjvjvjvjvjvjvjvjvjvjvjvjvjvjvjvjvjvjvjvjvjvjvjvjvjvjvjvjvjvjvjvjvjvjvjvjvjvjvjvjvjvjvjvjvjvjvjvjvjvjvjvjvjvjvjvjvjvjvjvjvjvjv",
"jvjvjvjvjvjvjvjvjvjvjvjvjvjvjvjvjvjvjvjvjvjvjvjvjvjvjvjvjvjvjvjvjvjvjvjvjvjvjvjvjvjvjvjvjvjvjvjvjvjvjvjvjvjvjvjvjvjvjvjvjvjvjvjv",
"jvjvjvjvjvjvjvjvjvjvjvjvjvjvjvjvjvjvjvjvjvjvjvjvjvjvjvjvjvjvjvjvjvjvjvjvjvjvjvjvjvjvjvjvjvjvjvjvjvjvjvjvjvjvjvjvjvjvjvjvjvjvjvjv"
};
