/* XPM */
static char *tile_divider_xpm[] = {
"64 64 5 2",
"ad c #999999",
"ae c #666666",
"af c #333333",
"ag c #F0F0F0",
"ap c #FF2222",
/* pixels */
"afaeaeafaeaeafaeaeafaeaeafaeaeafadadadadadadadadadadadadadadadadadadadadadadadadadadadadadadadadafaeaeafaeaeafaeaeafaeaeafaeaeaf",
"aeaeafaeaeafaeaeafaeaeafaeaeafaeadadadadadadadadadadadadadadadadadadadadadadadadadadadadadadadadaeaeafaeaeafaeaeafaeaeafaeaeafae",
"aeafaeaeafaeaeafaeaeafaeaeafaeaeadadadadadadadadadadadadadadadadadadadadadadadadadadadadadadadadaeafaeaeafaeaeafaeaeafaeaeafaeae",
"afaeaeafaeaeafaeaeafaeaeafaeaeafapapapapapagagagagagagagagapapapapapapapapagagagagagagagagapapapafaeaeafaeaeafaeaeafaeaeafaeaeaf",
"aeaeafaeaeafaeaeafaeaeafaeaeafaeapapapapagagagagagagagagapapapapapapapapagagagagagagagagapapapapaeaeafaeaeafaeaeafaeaeafaeaeafae",
"aeafaeaeafaeaeafaeaeafaeaeafaeaeapapapagagagagagagagagapapapapapapapapagagagagagagagagapapapapapaeafaeaeafaeaeafaeaeafaeaeafaeae",
"afaeaeafaeaeafaeaeafaeaeafaeaeafapapagagagagagagagagapapapapapapapapagagagagagagagagapapapapapapafaeaeafaeaeafaeaeafaeaeafaeaeaf",
"aeaeafaeaeafaeaeafaeaeafaeaeafaeapagagagagagagagagapapapapapapapapagagagagagagagagapapapapapapapaeaeafaeaeafaeaeafaeaeafaeaeafae",
"aeafaeaeafaeaeafaeaeafaeaeafaeaeagagagagagagagagapapapapapapapapagagagagagagagagapapapapapapapapaeafaeaeafaeaeafaeaeafaeaeafaeae",
"afaeaeafaeaeafaeaeafaeaeafaeaeafagagagagagagagapapapapapapapapagagagagagagagagapapapapapapapapagafaeaeafaeaeafaeaeafaeaeafaeaeaf",
"aeaeafaeaeafaeaeafaeaeafaeaeafaeagagagagagagapapapapapapapapagagagagagagagagapapapapapapapapagagaeaeafaeaeafaeaeafaeaeafaeaeafae",
"aeafaeaeafaeaeafaeaeafaeaeafaeaeagagagagagapapapapapapapapagagagagagagagagapapapapapapapapagagagaeafaeaeafaeaeafaeaeafaeaeafaeae",
"afaeaeafaeaeafaeaeafaeaeafaeaeafagagagagapapapapapapapapagagagagagagagagapapapapapapapapagagagagafaeaeafaeaeafaeaeafaeaeafaeaeaf",
"aeaeafaeaeafaeaeafaeaeafaeaeafaeagagagapapapapapapapapagagagagagagagagapapapapapapapapagagagagagaeaeafaeaeafaeaeafaeaeafaeaeafae",
"aeafaeaeafaeaeafaeaeafaeaeafaeaeagagapapapapapapapapagagagagagagagagapapapapapapapapagagagagagagaeafaeaeafaeaeafaeaeafaeaeafaeae",
"afaeaeafaeaeafaeaeafaeaeafaeaeafagapapapapapapapapagagagagagagagagapapapapapapapapagagagagagagagafaeaeafaeaeafaeaeafaeaeafaeaeaf",
"aeaeafaeaeafaeaeafaeaeafaeaeafaeapapapapapapapapagagagagagagagagapapapapapapapapagagagagagagagagaeaeafaeaeafaeaeafaeaeafaeaeafae",
"aeafaeaeafaeaeafaeaeafaeaeafaeaeapapapapapapapagagagagagagagagapapapapapapapapagagagagagagagagapaeafaeaeafaeaeafaeaeafaeaeafaeae",
"afaeaeafaeaeafaeaeafaeaeafaeaeafapapapapapapagagagagagagagagapapapapapapapapagagagagagagagagapapafaeaeafaeaeafaeaeafaeaeafaeaeaf",
"aeaeafaeaeafaeaeafaeaeafaeaeafaeapapapapapagagagagagagagagapapapapapapapapagagagagagagagagapapapaeaeafaeaeafaeaeafaeaeafaeaeafae",
"aeafaeaeafaeaeafaeaeafaeaeafaeaeapapapapagagagagagagagagapapapapapapapapagagagagagagagagapapapapaeafaeaeafaeaeafaeaeafaeaeafaeae",
"afaeaeafaeaeafaeaeafaeaeafaeaeafapapapagagagagagagagagapapapapapapapapagagagagagagagagapapapapapafaeaeafaeaeafaeaeafaeaeafaeaeaf",
"aeaeafaeaeafaeaeafaeaeafaeaeafaeapapagagagagagagagagapapapapapapapapagagagagagagagagapapapapapapaeaeafaeaeafaeaeafaeaeafaeaeafae",
"aeafaeaeafaeaeafaeaeafaeaeafaeaeapagagagagagagagagapapapapapapapapagagagagagagagagapapapapapapapaeafaeaeafaeaeafaeaeafaeaeafaeae",
"afaeaeafaeaeafaeaeafaeaeafaeaeafagagagagagagagagapapapapapapapapagagagagagagagagapapapapapapapapafaeaeafaeaeafaeaeafaeaeafaeaeaf",
"aeaeafaeaeafaeaeafaeaeafaeaeafaeagagagagagagagapapapapapapapapagagagagagagagagapapapapapapapapagaeaeafaeaeafaeaeafaeaeafaeaeafae",
"aeafaeaeafaeaeafaeaeafaeaeafaeaeagagagagagagapapapapapapapapagagagagagagagagapapapapapapapapagagaeafaeaeafaeaeafaeaeafaeaeafaeae",
"afaeaeafaeaeafaeaeafaeaeafaeaeafagagagagagapapapapapapapapagagagagagagagagapapapapapapapapagagagafaeaeafaeaeafaeaeafaeaeafaeaeaf",
"aeaeafaeaeafaeaeafaeaeafaeaeafaeagagagagapapapapapapapapagagagagagagagagapapapapapapapapagagagagaeaeafaeaeafaeaeafaeaeafaeaeafae",
"aeafaeaeafaeaeafaeaeafaeaeafaeaeagagagapapapapapapapapagagagagagagagagapapapapapapapapagagagagagaeafaeaeafaeaeafaeaeafaeaeafaeae",
"afaeaeafaeaeafaeaeafaeaeafaeaeafagagapapapapapapapapagagagagagagagagapapapapapapapapagagagagagagafaeaeafaeaeafaeaeafaeaeafaeaeaf",
"aeaeafaeaeafaeaeafaeaeafaeaeafaeagapapapapapapapapagagagagagagagagapapapapapapapapagagagagagagagaeaeafaeaeafaeaeafaeaeafaeaeafae",
"aeafaeaeafaeaeafaeaeafaeaeafaeaeapapapapapapapapagagagagagagagagapapapapapapapapagagagagagagagagaeafaeaeafaeaeafaeaeafaeaeafaeae",
"afaeaeafaeaeafaeaeafaeaeafaeaeafapapapapapapapagagagagagagagagapapapapapapapapagagagagagagagagapafaeaeafaeaeafaeaeafaeaeafaeaeaf",
"aeaeafaeaeafaeaeafaeaeafaeaeafaeapapapapapapagagagagagagagagapapapapapapapapagagagagagagagagapapaeaeafaeaeafaeaeafaeaeafaeaeafae",
"aeafaeaeafaeaeafaeaeafaeaeafaeaeapapapapapagagagagagagagagapapapapapapapapagagagagagagagagapapapaeafaeaeafaeaeafaeaeafaeaeafaeae",
"afaeaeafaeaeafaeaeafaeaeafaeaeafapapapapagagagagagagagagapapapapapapapapagagagagagagagagapapapapafaeaeafaeaeafaeaeafaeaeafaeaeaf",
"aeaeafaeaeafaeaeafaeaeafaeaeafaeapapapagagagagagagagagapapapapapapapapagagagagagagagagapapapapapaeaeafaeaeafaeaeafaeaeafaeaeafae",
"aeafaeaeafaeaeafaeaeafaeaeafaeaeapapagagagagagagagagapapapapapapapapagagagagagagagagapapapapapapaeafaeaeafaeaeafaeaeafaeaeafaeae",
"afaeaeafaeaeafaeaeafaeaeafaeaeafapagagagagagagagagapapapapapapapapagagagagagagagagapapapapapapapafaeaeafaeaeafaeaeafaeaeafaeaeaf",
"aeaeafaeaeafaeaeafaeaeafaeaeafaeagagagagagagagagapapapapapapapapagagagagagagagagapapapapapapapapaeaeafaeaeafaeaeafaeaeafaeaeafae",
"aeafaeaeafaeaeafaeaeafaeaeafaeaeagagagagagagagapapapapapapapapagagagagagagagagapapapapapapapapagaeafaeaeafaeaeafaeaeafaeaeafaeae",
"afaeaeafaeaeafaeaeafaeaeafaeaeafagagagagagagapapapapapapapapagagagagagagagagapapapapapapapapagagafaeaeafaeaeafaeaeafaeaeafaeaeaf",
"aeaeafaeaeafaeaeafaeaeafaeaeafaeagagagagagapapapapapapapapagagagagagagagagapapapapapapapapagagagaeaeafaeaeafaeaeafaeaeafaeaeafae",
"aeafaeaeafaeaeafaeaeafaeaeafaeaeagagagagapapapapapapapapagagagagagagagagapapapapapapapapagagagagaeafaeaeafaeaeafaeaeafaeaeafaeae",
"afaeaeafaeaeafaeaeafaeaeafaeaeafagagagapapapapapapapapagagagagagagagagapapapapapapapapagagagagagafaeaeafaeaeafaeaeafaeaeafaeaeaf",
"aeaeafaeaeafaeaeafaeaeafaeaeafaeagagapapapapapapapapagagagagagagagagapapapapapapapapagagagagagagaeaeafaeaeafaeaeafaeaeafaeaeafae",
"aeafaeaeafaeaeafaeaeafaeaeafaeaeagapapapapapapapapagagagagagagagagapapapapapapapapagagagagagagagaeafaeaeafaeaeafaeaeafaeaeafaeae",
"afaeaeafaeaeafaeaeafaeaeafaeaeafapapapapapapapapagagagagagagagagapapapapapapapapagagagagagagagagafaeaeafaeaeafaeaeafaeaeafaeaeaf",
"aeaeafaeaeafaeaeafaeaeafaeaeafaeapapapapapapapagagagagagagagagapapapapapapapapagagagagagagagagapaeaeafaeaeafaeaeafaeaeafaeaeafae",
"aeafaeaeafaeaeafaeaeafaeaeafaeaeapapapapapapagagagagagagagagapapapapapapapapagagagagagagagagapapaeafaeaeafaeaeafaeaeafaeaeafaeae",
"afaeaeafaeaeafaeaeafaeaeafaeaeafapapapapapagagagagagagagagapapapapapapapapagagagagagagagagapapapafaeaeafaeaeafaeaeafaeaeafaeaeaf",
"aeaeafaeaeafaeaeafaeaeafaeaeafaeapapapapagagagagagagagagapapapapapapapapagagagagagagagagapapapapaeaeafaeaeafaeaeafaeaeafaeaeafae",
"aeafaeaeafaeaeafaeaeafaeaeafaeaeapapapagagagagagagagagapapapapapapapapagagagagagagagagapapapapapaeafaeaeafaeaeafaeaeafaeaeafaeae",
"afaeaeafaeaeafaeaeafaeaeafaeaeafapapagagagagagagagagapapapapapapapapagagagagagagagagapapapapapapafaeaeafaeaeafaeaeafaeaeafaeaeaf",
"aeaeafaeaeafaeaeafaeaeafaeaeafaeapagagagagagagagagapapapapapapapapagagagagagagagagapapapapapapapaeaeafaeaeafaeaeafaeaeafaeaeafae",
"aeafaeaeafaeaeafaeaeafaeaeafaeaeagagagagagagagagapapapapapapapapagagagagagagagagapapapapapapapapaeafaeaeafaeaeafaeaeafaeaeafaeae",
"afaeaeafaeaeafaeaeafaeaeafaeaeafagagagagagagagapapapapapapapapagagagagagagagagapapapapapapapapagafaeaeafaeaeafaeaeafaeaeafaeaeaf",
"aeaeafaeaeafaeaeafaeaeafaeaeafaeagagagagagagapapapapapapapapagagagagagagagagapapapapapapapapagagaeaeafaeaeafaeaeafaeaeafaeaeafae",
"aeafaeaeafaeaeafaeaeafaeaeafaeaeagagagagagapapapapapapapapagagagagagagagagapapapapapapapapagagagaeafaeaeafaeaeafaeaeafaeaeafaeae",
"afaeaeafaeaeafaeaeafaeaeafaeaeafagagagagapapapapapapapapagagagagagagagagapapapapapapapapagagagagafaeaeafaeaeafaeaeafaeaeafaeaeaf",
"aeaeafaeaeafaeaeafaeaeafaeaeafaeagagagapapapapapapapapagagagagagagagagapapapapapapapapagagagagagaeaeafaeaeafaeaeafaeaeafaeaeafae",
"afafafafafafafafafafafafafafafafafafafafafafafafafafafafafafafafafafafafafafafafafafafafafafafafafafafafafafafafafafafafafafafaf",
"afafafafafafafafafafafafafafafafafafafafafafafafafafafafafafafafafafafafafafafafafafafafafafafafafafafafafafafafafafafafafafafaf"
};
