/* XPM */
static char *tile_road_asphalt_xpm[] = {
"64 64 9 2",
"ad c #999999",
"ae c #666666",
"al c #555555",
"bi c #7A7A7A",
"cb c #777777",
"cc c #505050",
"cm c #686868",
"gc c #AAAAAA",
"jv c None",
/* pixels */
"jvjvjvjvjvjvjvjvjvjvjvjvjvjvjvjvjvjvjvjvjvjvjvjvjvjvjvjvjvjvjvjvjvjvjvjvjvjvjvjvjvjvjvjvjvjvjvjvjvjvjvjvjvjvjvjvjvjvjvjvjvjvjvjv",
"jvaeaeaeaeadaeaeaeaeaecmcmcmcmalalaeaeaeaeaeaeaeaeaeaeaealalaealalalalalalalalalalalalaeaeaeaeaeaeaeaeaeaealalalalbiadaeaeaeaejv",
"jvaeaeaeaeaeaeaeaeaeaecmcmcmcmalalaeaeaeaeaeaeaeaeaealalalalalalalalalalalalalalalalaeaeaeaeaeaeaeaeaealalalalalalbiaeaeaeaeaejv",
"jvaeaeaegcaeaeaeaeaeaecmcmcmcmaeaeaeaeaeaeaeaeaeaealaeaealalalalalalaeaeaeaeaealalaeaeaeaeaeaeaeaeaeaeaeaealalalaebijvaeaeaeaejv",
"jvaeaeaegcadaeaeaeaecmcmcbcmcmalalalaeaeaeaeaeaealalalalalalalalalalalalalalalalalcbaeaeaeaeaeaeaeaeaeaealalalalalbibiaeaeaeaejv",
"jvaeaeaeadjvaeaeaeaecmcbcbcbcmaeaeaeaeaeaealcmcmalalalalalalalalalalalalaealalalcbcbaeaeaeaeaeaeaeaecbcmaealalalalbijvaeaeaeaejv",
"jvaeaeaeaeaeaeaeaeaecmcbcbcbcmaeaeaeaeaeaecmcmcmalalalalalalalalalalalalaeaealaecbcbaeaealaeaeaeaeaecbaeaealalalaebibiaeaeaeaejv",
"jvaeaeaejvjvaeaeaeaecmcbcbcbcbaeaealalaeaecmcmcmalalalalalalaealalalalalalalalaecbcbaealalaeaeaeaeaecbaeaealalalaebijvaeaeaeaejv",
"jvaealaecbjvaeaealaecmcbcbcbcbaeaeaeaeaealcmcmcmcmalalalalalaeaealalalalalalaeaecbcbaealalalaeaeaeaecbaeaealalalaeadaeaeaeaeaejv",
"jvaealaljvjvaealalaecbcbcbcbcbaeaeaeaeaeaecmcmcmcmaealalalaealalaealalalalaeaeaecbcbaealalalaeaeaeaecbaeaealalalaeadjvaeaeaeaejv",
"jvaealalaejvaealalaeaecbcbcbcbaeaeaeaeaeaeaecmcmcmaealalalalalalaealalalaeaeaeaecbcbalalalalaeaeaeaecbaeaealalaeaeadjvaeaeaeaejv",
"jvaealaljvadaealaeaeaecbcbcbcbaeaeaeaeaeaeaecmcmcmaealalalalalalalalalalaeaeaeaecbaealalaeaeaeaeaecmcbaealalalaeaeadjvaeaeaeaejv",
"jvaealaljvjvalaeaeaeaecbcbcbcbaeaeaeaeaeaeaeaeaeaeaealalalalalalalalalalaeaeaeaecbaealalaeaeaeaeaecmcmalalalalaeaeadjvaeaeaeaejv",
"jvalalaljvjvaeaeaeaeaeaecbcbcbaeaeaeaeaeaeaeaeaeaeaealalalalalalalalalaeaeaeaeaecbaealalaealaeaeaecmcmalalalalaeaeadjvaeaeaeaejv",
"jvalalaejvjvaeaeaeaeaecbcbcbcbaeaeaeaeaeaeaeaeaeaeaealalalaealalalalalalaeaeaeaecbaealalalaeaeaealcmcmalalalalaeaeadaeaeaeaeaejv",
"jvalalaejvjvaeaeaeaeaecmcbcbcbaeaeaeaeaeaeaeaeaeaeaealalalalalaealaealalaeaeaeaecbaealalalaeaeaecmcmcmcmalalalalaladjvaeaeaeaejv",
"jvalalaejvjvaeaeaeaeaecmcbcbcbaeaeaeaeaeaeaecmaeaeaeaeaealalalalalalalalalaeaeaecbaealaealaeaeaecmcmcmcmalalalalaladjvaeaeaeaejv",
"jvalalaljvjvaeaeaeaeaecmbibicbaeaeaeaeaeaeaecmaeaeaeaealalalalalalalalalalaeaeaecbaealalaeaeaeaecmcmcmcmalalalalaladjvaeaeaeaejv",
"jvalalaljvjvaeaeaeaeaeaebibicbaeaeaeaeaeaeaecmaeaeaeaeaeaeaealalalalalalalaeaeaecbaeaeaeaeaeaeaecmbibicmalalalalaladjvaeaeaeaejv",
"jvalalaljvjvaeaeaeaeaeaecbbicbaeaeaeaeaeaeaecmaeaeaeaeaealalalalalalalalalaeaeaecbaeaeaeaeaeaeaeaebibiaeaealalalaladjvaeaeaeaejv",
"jvcmalaljvjvaeaeaeaeaeaecbbicbaeaeaeaeaeaeaecmaeaeaealalaealalalalalalalalaeaeaecbaeaeaeaeaeaeaeaebibiaeaeaealalaladjvaeaeaeaejv",
"jvcmcmaljvjvaeaeaeaeaeaecbbicbaeaeaeaeaeaeaecmaeaeaealalalalalalalalalalalaeaeaecbaeaeaeaeaeaeaeaebibiaeaeaealalaladjvaeaeaeaejv",
"jvcmcmaljvjvaeaeaeaeaeaecbcbbiaeaeaeaeaeaeaecmaeaealalalalalalalalalalalalaeaeaecbaeaeaeaeaeaeaeaebibiaeaeaealalaladjvaeaecmcmjv",
"jvcmcmaljvjvaeaeaeaeaeaecbbibiaeaeaeaeaeaeaecmcmcmalalalalalalalalalalalalaeaeaecbaeaeaeaeaeaeaeaebibiaealalalalaladjvaeaecmcbjv",
"jvcmcmccjvjvaeaeaeaeaeaecbbibiaeaeaeaeaeaeaecmcmcmalalalalalalalalalalalalaeaealcmaeaealaeaeaeaeaebibicmalalalalaladjvaeaealcbjv",
"jvcmcmccjvjvaeaeaeaeaeaecbbibiaeaeaeaeaeaeaecmcmcmalalalalalalalalalalalalaeaealcmaeaealalaeaeaeaebibicmalalalalaladjvaeaecbcbjv",
"jvcmcmccjvjvaealaeaeaeaecbbibiaeaeaeaeaeaealcmcmcmalalalalalalalalalalalalalaealcmcmaealalaeaeaeaebibicmalalalalaladjvaeaecbcbjv",
"jvcmcmccjvjvalaeaeaeaeaecbbibiaeaealalalalalcmcmcmalalalalalalalalalalalalalaeaecmcmaealaeaeaeaeaebibicmalalalalaladjvaeaecbcbjv",
"jvcmcmccjvjvalalaeaeaeaecbbibiaealalalalalalcmcmcmalalalalalalalalalalalalalalalcmcmaealaeaeaeaeaebibibialalalalaladjvaeaecbcbjv",
"jvcmcmccjvjvaealalalaeaebibibicmalalalalalalcmcmcmalalalalalalalalalalalalalaeaecmcmaealaeaeaeaeaebibibialalalalaladjvaeaecbcbjv",
"jvcmcmccjvjvaealalaeaeaebibibicmalalalalalalcmcmcmcmalalalalalalalalalalalaeaeaecmcmaeaeaeaeaeaeaebibicbalalalalaladjvaeaebibijv",
"jvcmcmccjvjvaealalalaeaebibibicmalalalalalalcmcmcmcmalalalalalalalalalalalalaeaecmcmaeaeaeaeaeaeaecbbicbalalalalaladjvaeaealbijv",
"jvcmcmccjvjvaealalaeaeaebibibicmalalalalalalcmcmcmcmalalalalalalalalalalalaealaecmcmaeaeaeaeaeaeaecbbicmalalalalaladjvaealalbijv",
"jvcmcmccjvjvaealaeaeaeaebibibicmalalalalalalcmcmcmcmalalalalalalalalalaeaeaeaeaecmcmaeaeaeaeaeaeaecbbicmalalalalaladjvaeaebicbjv",
"jvcmcmccjvjvalalalaeaeaebibibicmalalalalalalaecmcmcmalalalalalalalalalalaeaeaealcmcmaeaeaeaeaeaeaecbbicmcmalalalaladjvaeaebicbjv",
"jvcmcmccjvjvaealalaeaeaebibibicmalalalalalalaecmcmalalalalalalalalalalalaeaeaealcmcmaeaeaeaeaeaeaebibicmcmalalalaladjvaeaecbcbjv",
"jvcmcmccjvjvalalalaeaeaebibibiaealalalalalalaeaecmalalalalalalalalalalalalaeaeaecbcmaealaeaeaeaeaebibicmcmalalalaladjvaeaecbcmjv",
"jvcmcmccjvjvalalalaeaeaebibibiaealalalalalalaeaeaealalalalalalalalalalalalaeaealcbcmaeaeaeaeaeaeaebibicmcmalalalaladjvaeaeaecmjv",
"jvcmcmccjvjvalaealaeaeaebibibiaealalalalalalaeaeaeaealalalalalaealalalalalalaeaebicmalaeaeaeaeaeaebibicmcmalalalaladjvaeaeaecmjv",
"jvcmcmccjvjvaealalaeaeaebibibiaealalalalalalaeaeaeaeaealalalaeaealalalalalalaeaebicmalaeaeaeaeaeaebibicmcmalalalaladjvaeaeaecmjv",
"jvcmcmccjvjvaealalalaeaebibibiaealalalalalalaeaeaeaeaealalalaeaealalalalalaeaeaebicmalaeaeaeaeaeaebibibicmalalalaladjvaeaeaeaejv",
"jvcmcmccjvjvalalalalaeaebibibiaealalalalalalaeaeaeaeaealalalalalalalalalalalaealbicmalalaeaeaeaeaebibibicmalalalaladjvaeaeaecmjv",
"jvcmcmccjvjvalalalalaealbibibiaealalalalalalalaeaeaealalalalalalalalalalalalaealbicmalalaeaeaeaeaebibibicmalalalaladjvaeaeaecbjv",
"jvcmcmccjvjvalalalalaealcbbibialalalalalalalalaeaeaealalalalalalalalalalalalalalbicmalalalaeaeaeaebibibiaealalalaladjvaeaecbcbjv",
"jvcmaeccjvjvalalalalalalcbbicmalalalalalalalalaeaeaealalalalalalalalalalalalalalbicmalalalalaeaeaebibibiaealalalaladjvaeaecbcmjv",
"jvaeaeccjvjvalalalalalalcbbicmalalalalalalalalaeaeaeaealalalalalalalalalalalalalcmcmalalalaeaeaeaebibibiaealalalaladjvaeaeaecmjv",
"jvaeaealjvjvalalalalalalcbbicmalalalalalalalalaeaeaeaealalalalalalalalalalalalalalcmcmalaeaeaeaeaebibibiaeaealalaladjvaeaeaecmjv",
"jvaeaealjvjvalalalalalalcmbicmalalalalalalalalalaealalalalalalalalalalalalalalalalcmcmalalaeaeaeaebibibiaeaealalaladjvaeaeaecmjv",
"jvaeaealjvjvalalalalalalcmbicmalalalalalalalalalalaealalalalalalalalalalalalalalcmcmalalalaeaeaeaecbbibiaeaealalaladbiaeaeaecmjv",
"jvaealaljvjvalalalalalalcmbicmalalalalalalalalalalaealalalalalalalalalalalalalalcmcmalalalaeaeaeaecbbicbaeaealalaladjvaeaeaecmjv",
"jvaealaljvjvalalalalalalcmbicmalalalalalalalalalalaealalalalalalalalalalalalalalcmcmalalalaeaeaeaecbbicbalalalalaeaejvaeaeaecmjv",
"jvaealaljvjvalalalalalalcmbibialalalalalalalcmalalalalalalalalalalalalalalalalalcmcmalalalaeaeaeaecbbicbalalalaeaejvaeaeaeaecmjv",
"jvcmalaljvjvalalalalalalcmbibialalalalalalalcmcmalalalalalalalalalalalalalalalaecmalalalalaeaeaeaecbbicbalalalaeaejvaeaeaeaecmjv",
"jvcmalaljvjvalalalalalalcmbibialalalalalalalcmcmalalalalalalalalalalalalalalalaecmalalalalaeaeaeaebibicbalalalaeaeadjvaeaeaecmjv",
"jvcmalaljvjvalalalalalalcmbibibiaealalalalalcmcmcmalalalalalalalalalalalalalalaecmalalalalalaeaeaecbbicbalalalaeaeadjvaeaeaecmjv",
"jvcmalalaladalalalalalalcmbibibiaealalalalalcmcmcmalalalalalalalalalalalalalalaecmcmalalalalaeaeaecbcbcbalalaeaeaeadadaeaecmcmjv",
"jvcmalaljvjvalalalalalalcmbibibiaeaealalalalcmcmcmalalalalalalalalalalalalalalcmcmcmalalalalaeaeaecbcbcbalalaeaeaealjvaeaecmcmjv",
"jvcmalalaljvalalalalalalcmbibibiaeaealalalalcmcmcmalalalalalalalalalalalalalalcmcmcmalalalalaeaeaecbcbcbalalaeaeaejvjvaecmcmcmjv",
"jvcmalaladjvalalalalalalcmbibibiaeaealalalcmcmcmcmalalalalalalalalalalalalalalcmcmcmcmalalalalalaecmcbcbalalaeaeaeaejvaeaecmcmjv",
"jvaealaladjvalalalalalalcmbibibiaeaealalalcmcmcmcmalalalalalalalalalalalalalalcmcmcmcmalalalalalaecmcbcbalalaeaeaebijvaeaecmcmjv",
"jvaealaljvjvalalalalalalcmbibibiaeaealalalcmcmcmcmalalalalalalalalalalalalalalcmcmcmcmalalalalalalcmcbcbalalalaeaeaeaeaeaecmaejv",
"jvaealaljvjvalalalalalalcmbibibiaeaealalalaecmcmcmalalalalalalalalalalalalalalcmcmcmcmalalalalalalaecbaealalalaeaeaeaeaeaeaecmjv",
"jvaealalcbcbalalalalalalcmbibibiaeaealalalaecmcmcmalalalalalalalalalalalalalalcmcmcmcmalalalalaealaeaeaeaeaeaeaeaeaeaeaecmcmcmjv",
"jvaealaljvjvalalalalalalaebibiaeaeaealalalaecmcmcmalalalalalalalalalalalalalalcmaecmaealalalalalalaeaealalalalaeaeaeadaeaecmcmjv"
};
