/* XPM */
static char *tile_road_edge_right_xpm[] = {
"64 64 21 2",
"aa c #000000",
"ac c #CCCCCC",
"ad c #999999",
"ae c #666666",
"ah c #FFFACD",
"aj c #383838",
"al c #555555",
"ar c #EEEEEE",
"at c #1B1B1B",
"bb c #8B7355",
"bf c #5D4037",
"bw c #D6EAF8",
"ck c #6E2018",
"cn c #484848",
"gc c #AAAAAA",
"hg c #996633",
"hl c #999933",
"hm c #999966",
"it c #CCCC66",
"iu c #CCCC99",
"jv c None",
/* pixels */
"jvjvjvjvjvjvjvjvjvjvjvjvjvjvjvjvjvjvjvjvjvjvjvjvjvjvjvjvjvjvjvjvjvjvjvjvjvjvjvjvjvjvjvjvjvjvjvjvjvjvjvjvjvjvjvjvjvjvjvjvjvjvjvjv",
"jvjvbbjvaajvhmjvjvjvjvjvjvjvjvjvjvjvjvjvjvjvjvjvjvjvjvjvjvjvjvaajvjvjvjvjvjvjvjvjvjvjvjvaajvjvjvaajvjvhmjvjvjvjvjvjvjvacaajvjvjv",
"jvjvaaaaaajvhmjvaajvjvjvjvbfaaaaaajvajaajvaaaajvjvjvjvaaaajvaaaajvaaaajvajaajvjvjvjvhmjvaljvaaaaaaaajvaaaajvjvjvaajvjvjvaajvjvjv",
"jvjvaajvaajvhmaajvcnjvjvjvaajvaajvadarajjvaaadjvjvjvjvajajjvbbaajvaahmjvaaadjvjvjvjvhmjvalaajvaaaajvaackjvjvjvjvaaaajvjvaajvjvjv",
"jvjvaajvaajvhmaajvjvjvjvjvaajvaajvadaaadjvaajviujvjvjvaajvjvbbaajvaahmjvaajvjvjvjvjvhmjvalaajvaaaajvaackjvjvjvjvaaaajvjvaajvjvjv",
"jvjvjvaaaajvhmjvaajvjvjvjvaajvalaajvaajvjvaajviujvjvjvataajvaabbjvajajjvhmaajvjvjvjvhmjvaljvajaaaajvaajvaajvjvjvjvbbjvjvaajvjvjv",
"jvjvjvjvjvjvjvjvjvjvjvjvjvjvjvjvjvjvjvjvjvjvjvjvjvjvjvjvjvjvjvjvjvaaaajvjvjvjvjvjvjvjvjvjvaaaajvjvjvjvjvjvjvjvjvjvjvjvjvjvjvjvjv",
"alalalalalalalalalalalalalalalalalalalalalalalalalalalalalalacalalalalgcahbwadachlhlhlititititititititititititititititititititit",
"alalalalalalalalalalalalalalalalalalalalalalalalalalalalalalaccnalcnargcbwbwadacaehlhlititititititititititititititititititititit",
"alalalalalalalalalalalalalalalalalalalalalalalalalalalalalalaccnaaarargcbwaradacacalhlititititititititititititititititititititit",
"alalalalalalalalalalalalalalalalalalalalalalalalalalalalalalaccnaaarargcbwaradacacalhlititititititititititititititititititititit",
"alalalalalalalalalalalalalalalalalalalalalalalalalalalalalalaccnaaarargcararadacacalhlititititititititititititititititititititit",
"alalalalalalalalalalalalalalalalalalalalalalalalalalalalalalaccnaaarargcararadacacalhlititititititititititititititititititititit",
"alalalalalalalalalalalalalalalalalalalalalalalalalalalalalalaccnaaarargcararadacacalhlititititititititititititititititititititit",
"alalalalalalalalalalalalalalalalalalalalalalalalalalalalalalaccnaaarargcararadacacalhlititititititititititititititititititititit",
"alalalalalalalalalalalalalalalalalalalalalalalalalalalalalalaccnaaarargcararadacacalhlititititititititititititititititititititit",
"alalalalalalalalalalalalalalalalalalalalalalalalalalalalalalaccnaaarargcararadacacalhlititititititititititititititititititititit",
"alalalalalalalalalalalalalalalalalalalalalalalalalalalalalalaccnaaarargcararadacacalhlititititititititititititititititititititit",
"alalalalalalalalalalalalalalalalalalalalalalalalalalalalalalaccnaaarargcararadacacalhlititititititititititititititititititititit",
"alalalalalalalalalalalalalalalalalalalalalalalalalalalalalalaccnaaarargcararadacacalhlititititititititititititititititititititit",
"alalalalalalalalalalalalalalalalalalalalalalalalalalalalalalaccnaaarargcararadacacalhlititititititititititititititititititititit",
"alalalalalalalalalalalalalalalalalalalalalalalalalalalalalalaccnaaarargcararadacacalhlititititititititititititititititititititit",
"alalalalalalalalalalalalalalalalalalalalalalalalalalalalalalaccnaaararacararadacacalhlititititititititititititititititititititit",
"alalalalalalalalalalalalalalalalalalalalalalalalalalalalalalaccnaaararacararadacacalhlititititititititititititititititititititit",
"alalalalalalalalalalalalalalalalalalalalalalalalalalalalalalaccnaaararacararadacacalhlititititititititititititititititititititit",
"alalalalalalalalalalalalalalalalalalalalalalalalalalalalalalaccnaaararacararadacacalhlititititititititititititititititititititit",
"alalalalalalalalalalalalalalalalalalalalalalalalalalalalalalaccnaaararacararadacacalhlititititititititititititititititititititit",
"alalalalalalalalalalalalalalalalalalalalalalalalalalalalalalaccnaaararacararadacacalhlititititititititititititititititititititit",
"alalalalalalalalalalalalalalalalalalalalalalalalalalalalalalaccnaaararacararadacacalhlititititititititititititititititititititit",
"alalalalalalalalalalalalalalalalalalalalalalalalalalalalalalaccnaaararacararadacacalhlititititititititititititititititititititit",
"alalalalalalalalalalalalalalalalalalalalalalalalalalalalalalaccnaaararacararadacacalhlititititititititititititititititititititit",
"alalalalalalalalalalalalalalalalalalalalalalalalalalalalalalaccnaaararacararadacacalhlititititititititititititititititititititit",
"alalalalalalalalalalalalalalalalalalalalalalalalalalalalalalaccnaaararacararadacacalhlititititititititititititititititititititit",
"alalalalalalalalalalalalalalalalalalalalalalalalalalalalalalaccnaaararacararadacacalhlititititititititititititititititititititit",
"alalalalalalalalalalalalalalalalalalalalalalalalalalalalalalaccnaaararacararadacacalhlititititititititititititititititititititit",
"alalalalalalalalalalalalalalalalalalalalalalalalalalalalalalaccnaaararacararadacacalhlititititititititititititititititititititit",
"alalalalalalalalalalalalalalalalalalalalalalalalalalalalalalaccnaaararacararadacacalhlititititititititititititititititititititit",
"alalalalalalalalalalalalalalalalalalalalalalalalalalalalalalaccnaaararacararadacacalhlititititititititititititititititititititit",
"alalalalalalalalalalalalalalalalalalalalalalalalalalalalalalaccnaaararacararadacacalhlititititititititititititititititititititit",
"alalalalalalalalalalalalalalalalalalalalalalalalalalalalalalaccnaaararacararadacacalhlititititititititititititititititititititit",
"alalalalalalalalalalalalalalalalalalalalalalalalalalalalalalaccnaaararacararadacacalhlititititititititititititititititititititit",
"alalalalalalalalalalalalalalalalalalalalalalalalalalalalalalaccnaaararacararadacacalhlititititititititititititititititititititit",
"alalalalalalalalalalalalalalalalalalalalalalalalalalalalalalaccnaaararacararadacacalhlititititititititititititititititititititit",
"alalalalalalalalalalalalalalalalalalalalalalalalalalalalalalaccnaaararacararadacacalhlititititititititititititititititititititit",
"alalalalalalalalalalalalalalalalalalalalalalalalalalalalalalaccnaaararacararadacacalhlititititititititititititititititititititit",
"alalalalalalalalalalalalalalalalalalalalalalalalalalalalalalaccnaaararacararadacacalhlititititititititititititititititititititit",
"alalalalalalalalalalalalalalalalalalalalalalalalalalalalalalaccnaaararacararadacacalhlititititititititititititititititititititit",
"alalalalalalalalalalalalalalalalalalalalalalalalalalalalalalaccnaaararacararadacacalhlititititititititititititititititititititit",
"alalalalalalalalalalalalalalalalalalalalalalalalalalalalalalaccnaaararacararadacacalhlititititititititititititititititititititit",
"alalalalalalalalalalalalalalalalalalalalalalalalalalalalalalaccnatararacararadacacalhlititititititititititititititititititititit",
"alalalalalalalalalalalalalalalalalalalalalalalalalalalalalalaccnatararacararadacacalhlititititititititititititititititititititit",
"alalalalalalalalalalalalalalalalalalalalalalalalalalalalalalaccnaaararacararadacacalhlititititititititititititititititititititit",
"alalalalalalalalalalalalalalalalalalalalalalalalalalalalalalaccnaaararacararadacacalhlititititititititititititititititititititit",
"alalalalalalalalalalalalalalalalalalalalalalalalalalalalalalaccnaaararacararadacacalhlititititititititititititititititititititit",
"alalalalalalalalalalalalalalalalalalalalalalalalalalalalalalaccnaaararacararadacacalhlititititititititititititititititititititit",
"alalalalalalalalalalalalalalalalalalalalalalalalalalalalalalaccnaaararacararadacacalhlititititititititititititititititititititit",
"alalalalalalalalalalalalalalalalalalalalalalalalalalalalalalaccnaaararacararadacacalhlititititititititititititititititititititit",
"alalalalalalalalalalalalalalalalalalalalalalalalalalalalalalaccnaaararacararadacacalhlititititititititititititititititititititit",
"alalalalalalalalalalalalalalalalalalalalalalalalalalalalalalaccnaaarargcadadadacacalhlititititititititititititititititititititit",
"alalalalalalalalalalalalalalalalalalalalalalalalalalalalalalaccnaaarargcadadadacacalhlititititititititititititititititititititit",
"alalalalalalalalalalalalalalalalalalalalalalalalalalalalalalaccnaabwbwadadadadadacalhlititititititititititititititititititititit",
"alalalalalalalalalalalalalalalalalalalalalalalalalalalalalalaccnaabwadadadadadadacalhlititititititititititititititititititititit",
"alalalalalalalalalalalalalalalalalalalalalalalalalalalalalalaccnaaadadadadadadadadbfhlititititititititititititititititititititit",
"cnalalalalalalalalalalalalalalalalalalalalalalalalalalalalalaccnaaaaaaaaaaaaaaaaaahghlititititititititititititititititititititit"
};
