/* XPM */
static char *tile_sand_xpm[] = {
"64 64 4 2",
"bb c #8B7355",
"in c #CC9933",
"io c #CC9966",
"it c #CCCC66",
/* pixels */
"initioinioioiniobbioininioioitinioioioioioinioinititinioitioioioioinininioioinioioinioioinioioioioinioitioioitiobbioioioioinioio",
"ioioioioioioinioioioioinioiobbioititinioitinioioinioioioioioinioioioioititininioioinbbioioioioioioioioinioioioioioioitioinininit",
"ininbbititiobbioioitininioitioioioioinitininioitbbioioitiobbioioioioinioitioioioininioioioioioioinioiobbbbininioioioioioioioinin",
"itinioioioioioioinioioioioioitioinioioioioioioitititioioitioioioioioitbbioioioioioioioininininioinioitioioioioioioioioioiobbioit",
"bbioitioioioinioioioitioininioioioioioioioioioioioioioioioioioinioioioititioinininioioioitioioitioioinioioioioioitioioinitiniobb",
"ioiobbinioioinioioioitinbbioinitioioioinitioioioininioioinioioioinioinioioinioioinitioinititininininioinioitinbbinbbioioitioioit",
"ioioioioioioioioinioioioioininitinioinitinioioioinininioitioinioioioinioiniobbioioioiniobbininioinbbininioioioioioioioinioitioio",
"inioioioioioitioioioioioioioioioinbbitioitioioioioioiobbioioioioioinioinininioinioioioioioioioioioinitinioiniobbininioioioinioio",
"ioitioitioiobbioioioioininioinioitioioitioioioioinioiobbbbioioinitininiobbioioitioioioinioioioioioioininitioinioininioitioioioio",
"ioioioioioinioioioioininioitioininioioinioinioioititinioioinioioioititinininininioioioioioioioinininioitioioioinininioioioioiobb",
"bbioioioiobbioioioioioinititioioioioioioioiobbioinioioinitinioioitinioioioiniobbinioioioioioininioioinbbioioioinioioinbbinioioit",
"ioioioinioinioininioinioioitinioioioitioinioitininioioioioioioinitioiobbioioioinitbbinioioitioinioioioioinioioioitioiobbioioioin",
"bbinioinioioininioioinioininbbioioioiobbinioioioioinioioioitioioioioioininioioinitioininbbioinioioioinininioioioinioioioioioioit",
"ioinioioioitininitioioinioioioinioioioitioioioioininititioioioioioioinioioitioioinioitininioioinbbinioitininioioinitioioioinitio",
"ioininioinioioioioioioitioinbbioioioioioioitbbioioioinioioioitinioioitioioioititioioioinioioioioioitioinioioioitinioioioitinioio",
"inioiobbioitioioioinioioioioioiobbioioinioioioitioititioinioioinioinioioioinioioioitioioioioitioioioioitioioinioioitioinioitioio",
"ininioinbbititioioioitioitioioioioioioioitioioioioinioioioioioitioinioinioioioioinbbbbitioioioioitiniobbbbioitioinioioinioioitio",
"initinioioioioinbbioioioioioioioinioinioioininiobbioioititioioioioitinininioioiobbioioioioioinitinbbinioioioioinioioioioinioioin",
"iobbininioioioinioininioioioioioioioioioioioioininioinioitbbitioinitbbinioioioioinioioioioioinioioioitinitbbioioioioioinininioin",
"iniobbininioioinioioioiobbioioioinioioinioinioitbbinioiobbioioioitioinioinioininioioitioinioioioioioioioioiniobbininioioioioinio",
"ioioioioininitioioioitioioioitioioinitinioioititininioitinitioioitioitioioioioioitioitiniobbioioioioioioitioioioioioioioioinioio",
"ioioioioioioinioinioioioioinioioioioioioitioioioioiobbioitioioioitioioioioioioioioioinioioioitioioininiobbioioioioininioioioinio",
"ioinitioioioioioinioioioioioioinioitioioioinioinioitbbioinininioioioioioioioinioioioitioiobbbbioioinititinioinitioioitioioioioio",
"ioioitioioioioioioininitioinioitioioioiobbioioioioioioioioinioiobbioioioinioioioiobbioioinioioioioioinioioioioinioioioinioioioio",
"inininioioioinioioioininbbitioioioioioioioioioioioinioioioititbbioioioioioioioininioinioioioiniobbitioioioiobbioioioioioioitioin",
"itbbbbioitioinioitbbioinioitinioioioioinioioioioinioiobbbbioioininioitioioinioioioioitioioioioioioioioioioininioioioinioioioioin",
"ioioioioioioioinbbinioioioioinioioioioinioioioioininioioinioioinioioioininioioioinioioinioioioioioioitititioioioioioitinioioitio",
"ioitioiniobbbbioioioioinioioioioioioinbbinitininioioioioioinioioitioinioioioioioioitioioinbbinioioioioinioioioioinitioioioinioio",
"itininitioitinitiobbioitbbioinioioioitioinioioioioinioioioitininioioitioinioitinioinitioinioitioinioioinioinininioioioioininioin",
"ioiniobbioinitbbioioitioioinioititioioitininioioininioioioioininioioioinioinioioiobbioioioinitioioitioiobbioioioitioioioinioioio",
"inioioioioioiobbioinititiniobbinioitbbioioioioitioioinitioioinitioitioioitioioitioioioioioioioioioinininioioioioioioinioioioinio",
"ioioioinioiobbitioioioioioioiobbioinioinioioioinioioioininioitioioioinioioitititinioinininioioioioioinioioioioioinininioioiobbio",
"ioinioioinioinioitinioioinioioioitinioioitinioioioioioioioioioioioioioitiobbioioioioioioioioioioioioioinioioioinioioioioitinitio",
"ioinioinioioioinioiobbinioioioioioioioioioioioioioioioioinioioioioioioioioioioinioioitinioioioitioioioioioioitinioioititioioioio",
"ioinioioiniobbinioioioitioioinioioioioioititioitititioioioioinbbioinioioitininioioinioioinioioioioioininioioinioioinioioioioinio",
"ioininioioioinitioitioinioitioioioinitioioinitininbbioinitioininioitioioioitioioioioinioioinioitioinioioioinioinioitioioinioioio",
"ioinioinitioinioitioioioininininitioinioioioioioitinbbioioioioioioinioioioititioioioinbbititiniobbinioitioioioinioioinbbioioinin",
"ioioininitioinioioinioioioioininioioioioioioioioinioioioioitioinioioinioioioioininioioininitioioininioioioioinioitioinioioioitio",
"ioioioioitinioinininitioioitinioioitinbbioioinioioioitioioitiobbioioioioioininitbbioioinitioioioitioioioinitioinioioioioininioio",
"ioioioioioioitinioinioitioioinbbioitiobbioioioioinioioioinioioioioitinioioinitininioioioioioioioioinioioinioioioioininiobbitioio",
"inioioioioioioioititioioitioininioinioioinioitioioinioinioioioioioitioioitioioitioioioitioininiobbioininioioioioioioioioitioinio",
"ioioitioioioioinioinioioitioioinitioioioitbbitioitioinioioitioioioioiobbinitioioiobbitioioioioitioioioioinininioioinitioioioioio",
"bbioinbbioioinitioininioinioioioiobbioioioioioioioinioioioioinioioioioioioioinininioioioinininitbbioioioioinitinininioioioinioio",
"initioioioioioioinioioininbbitinioinioinioioioitioioioinioioinititioioioioininioioioioininioinioinioioiniobbioioioinioioininitit",
"ioinioioioioioioioinioinioioioinioioioinioioitbbioioioioioinioinbbitinioioitioioititioioitbbioinioioioinioioinioitioinioioioinio",
"ioioioioinininioininioioinioinioitioioinioioininioioitioioioioioinioioioioitioioinbbitiobbioitioinitioininioioioiobbinioiobbioin",
"ioitbbioinioitioitioitioitioioitioioioininioioioinitinininioioioiobbioioioioioioioioioinioioioioioitiobbioioinioioinititioioioin",
"ioinioioiniobbioioioioioinioioioioioioioioinioioinioinioioioioioinitioioioioioinitioioioioioioinioioioititinitioioioioinioioioio",
"ioioioitioioioinioiniobbinioinitioinininioinioioinioioioioinioioioinioioioioioioioitioioioioininioioioioioiobbioioioioioioioioio",
"ioioioioioinioioioioitininioitinioioinioioioinioioioioioioitiniobbioininininioioioioininioioioinininioioioioioioioinioioininioio",
"ioininioinioioioioioioioinioioinioinioitioioioioioioininioitioinitinioioioioinioioitinioinioininioinioitioinioitioioiobbioioinio",
"inioioioioitioitioioioioininioioioinioioioioinitinioioiniobbioioinioioininioinioitioininioinioioioiobbioinioitioioioioititioinio",
"ioioitinioitioioitioitioioioitioinitinioioiobbioioioioioinioitinbbioioinioinioinioioioininioioinioioioinioioiobbioioioininioioit",
"inititininioioioioioioioioioitioioioinioinitioioioitioioioioioioioioioioioinioioioitioioinioinitioinioioioioioioioioioioioinioio",
"inioioiobbiobbitioioioioininioioioinininioioioioitioinioitinioioinioioioioioioioioitioitiobbitioioioinioitioioioioioioioinioioio",
"ioioioioioioioioioioinioioioioioioioiobbinitioioitioioinioioioinioinioioioioioioioioioioinitioioioinitioioitioitinininioioioitin",
"ioitinioitinioioioininioioioioioinitioioioioioinioioioinioinioinioioioioinininioioioioioitinioioioioioioioioinioioinitioioioioio",
"itininioioioioioioioinioioioitioioioioioioioioioitioioioininioioininininioioioioioinioinbbioitininioioiobbioitinioininioinioinio",
"ioiobbiobbioioinioioioioioioinioioioioinioinioitioioioioinitioinitioioioitioitinioioioioioioioioininbbioioioinioitioioininitioio",
"ioioitititioioioioioioioititioioininbbioioioioioioioioioitbbinioiobbioioioinioioininioioioioininioioitioititioioioioioinioinioio",
"ioioinioioioitioioininioinioioioioiobbinioiobbininioinioioioioinitbbioitioioitioitioitioioiobbioioioioioioioininioiniobbiobbioio",
"ioitioinioitioioioinioioioitioinioitioioiobbinitioioioioioioioioioioioioiobbioioioioitioioioinininininioioioioioioioioininiobbin",
"ioioinioioioioioitioinioioioioitioioioioioioioioinininiobbinioioitioioioioioininbbioininioioioioioioinininbbioititioioioinioitit",
"inioioioioinioiniobbioinioioioinbbitioitioioioititinioioioioininbbioitioioioitioinioioitinioinioioinitinioioioioioinioioinbbioit"
};
