/* XPM */
static char *tile_road_roundabout_desert_xpm[] = {
"64 64 13 2",
"aa c #000000",
"aj c #383838",
"al c #555555",
"ay c #3A7D44",
"bb c #8B7355",
"bu c #222222",
"bx c #2C7FB0",
"ck c #6E2018",
"et c #885522",
"ge c #669933",
"hm c #999966",
"io c #CC9966",
"jv c None",
/* pixels */
"jvjvjvjvjvjvjvjvjvjvjvjvjvjvjvjvjvjvjvjvjvjvjvjvjvjvjvjvjvjvjvjvjvjvjvjvjvjvjvjvjvjvjvjvjvjvjvjvjvjvjvjvjvjvjvjvjvjvjvjvjvjvjvjv",
"jvjvjvjvjvjvjvjvjvjvjvjvjvjvjvjvjvjvjvjvjvjvjvjvjvjvjvjvjvjvjvjvjvjvjvjvjvjvjvjvjvjvjvjvjvjvjvjvjvjvjvjvjvjvjvjvjvjvjvjvjvjvjvjv",
"jvjvjvjvjvjvjvjvjvjvjvjvjvjvjvjvjvjvjvjvjvjvjvjvjvjvjvjvjvjvjvjvjvjvjvjvjvjvjvjvjvjvjvjvjvjvjvjvjvjvjvjvjvjvjvjvjvjvjvjvjvjvjvjv",
"jvjvjvjvjvjvjvjvjvjvjvjvjvjvjvjvjvjvjvjvjvjvjvjvjvjvjvjvjvjvjvjvjvjvjvjvjvjvjvjvjvjvjvjvjvjvjvjvjvjvjvjvjvjvjvjvjvjvjvjvjvjvjvjv",
"jvjvjvjvjvjvjvjvjvjvjvjvjvjvjvjvjvjvjvjvjvjvjvjvjvjvjvjvjvjvjvjvjvjvjvjvjvjvjvjvjvjvjvjvjvjvjvjvjvjvjvjvjvjvjvjvjvjvjvjvjvjvjvjv",
"jvjvjvjvjvjvjvjvjvjvjvjvjvjvjvjvjvjvjvjvjvjvjvjvjvjvjvjvjvjvjvjvjvjvjvjvjvjvjvjvjvjvjvjvjvjvjvjvjvjvjvjvjvjvjvjvjvjvjvjvjvjvjvjv",
"jvjvjvjvjvaahmjvjvjvjvjvjvjvjvjvjvjvjvjvjvjvjvjvjvjvjvjvjvjvjvjvjvjvjvjvjvjvjvjvjvjvjvjvjvjvjvjvjvjvjvjvjvjvjvjvjvayajhmjvjvjvjv",
"jvjvjvjvgeayajjvjvjvjvjvjvjvjvjvjvjvjvjvjvjvjvjvjvjvjvjvjvjvjvjvjvjvjvjvjvjvjvjvjvjvjvjvjvjvjvjvjvjvjvjvjvjvjvjvjvaageaajvjvjvjv",
"jvjvjvjvgeayayjvjvjvjvjvjvjvjvjvjvjvbbbbbbbbbbbbbbbbbbbbbbbbbbbbbbbbbbbbbbbbbbbbbbbbbbbbbbbbjvjvjvjvjvjvjvjvjvjvjvaageaajvjvjvjv",
"jvjvjvaagegeayjvayjvjvjvjvjvjvbbbbbbhmhmhmhmhmhmhmhmhmhmhmhmhmhmhmhmhmhmhmhmhmhmhmhmhmhmhmhmbbbbbbjvjvjvjvjvjvaaaaaageaaaajvjvjv",
"jvjvaaayaageayayayhmjvjvjvjvbbhmhmhmhmhmhmhmhmhmhmhmhmhmhmhmhmhmhmhmhmhmhmhmhmhmhmhmhmhmhmhmhmhmhmbbbbjvjvjvjvaaaaaageaaaaaajvjv",
"jvjvaaayaaayayaaayhmjvjviobbhmhmhmhmhmhmhmhmhmhmhmhmhmhmhmhmhmhmhmhmhmhmhmhmhmhmhmhmhmhmhmhmhmhmhmhmhmbbjvjvjvaaaaaaayaaaaaajvjv",
"jvjvaaayayayayaaayhmjvjvbbhmhmhmhmhmhmhmhmhmhmhmhmhmhmhmhmhmhmhmhmhmhmhmhmhmhmhmhmhmhmhmhmhmhmhmhmhmhmhmbbjvjvaaayayayaygeaajvjv",
"jvjvjvaaaaayayayaajvjvbbhmhmhmhmhmhmhmhmhmbbaaaahmhmhmhmhmhmhmhmhmhmhmhmaaaahmhmhmhmhmhmhmhmhmhmhmhmhmhmhmbbjvjvaaaaayaaaajvjvjv",
"jvjvjvjvgeajbuaajvjvbbhmhmhmhmhmhmhmbbbbbbaaetetaabbbbbbbbbbbbbbbbbbbbaabbetaaaaaaaaaabbbbbbhmhmhmhmhmhmhmbbjvjvjvaaayaajvjvjvjv",
"jvjvjvjvgeajajjvjvjvbbhmhmhmhmhmhmbbaaaaaaaaetetaajvjvjvjvjvjvjvjvjvjvaaaaaaaaaaetetaaaaaaaahmbbhmhmhmhmhmhmbbjvjvaaayaajvjvjvjv",
"jvjvjvjvgeajajjvjvbbhmhmhmhmhmhmbbaaetetetaaetetaajvjvjvjvjvjvjvjvjvjvaaalalaaaaajajaaethmetaabbhmhmhmhmhmhmbbjvjvaaayaajvjvjvjv",
"jvjvjvjvjvgegejvjvbbhmhmhmhmhmbbjvaaaaaackaacketaajvjvjvjvjvjvjvjvjvjvaaalalaaaaajetaackaaaaaajvbbhmhmhmhmhmbbjvjvhmhmhmjvjvjvjv",
"jvjvjvjvjvjvjvjvjvbbhmhmhmhmhmbbjvaaetetetaaetetaajvjvjvjvjvjvjvjvjvjvjvaaaajvaaetetaaetetetaajvjvbbhmhmhmhmhmbbjvjvjvjvjvjvjvjv",
"jvjvjvjvjvjvjvjvbbhmhmhmhmhmhmbbjvaackckckaaaaaajvjvjvjvjvjvjvjvjvjvjvjvjvjvjvjvaaaaaaajajajaajvjvbbhmhmhmhmhmbbjvjvjvjvjvjvjvjv",
"jvjvjvjvjvjvjvjvbbhmhmhmhmhmhmbbjvaackcketaajvjvjvjvjvjvjvjvjvjvjvjvjvjvjvjvjvjvjvjvaaetetetaajvjvbbhmhmhmhmhmbbjvjvjvjvjvjvjvjv",
"jvjvjvjvjvjvjvjvbbhmhmhmhmhmhmbbjvjvaaaaaajvjvjvjvjvjvjvjvjvjvjvjvjvjvjvjvjvjvjvjvjvjvaaaaaajvjvjvbbhmhmhmhmhmbbjvjvjvjvjvjvjvjv",
"jvjvjvjvjvjvjvjvbbhmhmhmhmhmhmbbjvjvjvjvjvjvjvjvjvjvjvjvjvjvjvjvjvjvjvjvjvjvjvjvjvjvjvjvjvjvjvjvjvbbhmhmhmhmhmbbjvjvjvjvjvjvjvjv",
"jvjvjvjvjvjvjvjvbbhmhmhmhmhmhmbbjvjvjvjvjvjvjvjvjvjvjvjvjvjvjvjvjvjvjvjvjvjvjvjvjvjvjvjvjvjvjvjvjvbbhmhmhmhmhmbbjvjvjvjvjvjvjvjv",
"jvjvjvjvjvjvjvjvbbhmhmhmhmhmhmbbjvjvjvjvjvjvjvjvjvjvjvaajvjvjvjvjvjvjvjvjvjvjvjvjvjvjvjvjvjvjvjvbbhmhmhmhmhmhmbbjvjvjvjvjvjvjvjv",
"jvjvjvjvjvjvjvjvbbhmhmhmhmhmhmbbjvjvjvjvjvjvjvjvjvjvaageaajvjvjvjvjvjvjvjvjvjvjvjvjvjvjvjvjvjvjvbbhmhmhmhmhmhmbbjvjvjvjvjvjvjvjv",
"jvjvjvjvjvjvjvjvbbhmhmhmhmhmhmbbjvbbajajjvjvjvjvjvjvaaayaajvjvjvjvjvjvjvjvjvjvjvjvjvjvaaaajvjvjvbbhmhmhmhmhmbbjvjvjvaaaajvjvjvjv",
"jvjvjvjvjvjvjvjvbbhmhmhmhmhmhmhmjvajalalajjvjvjvalaaaaayaaaaaajvjvjvjvjvjvjvjvjvjvjvaabbbbaajvbbhmhmhmhmhmhmbbjvhmajetetaajvjvjv",
"jvjvjvjvjvjvjvjvbbhmhmhmhmhmhmhmhmajalalajjvjvjvbuaaaaayaaaaaajvjvjvjvjvjvjvjvjvjvjvaaajbbaabbbbhmhmhmhmhmbbjvjvjvaackajaajvjvjv",
"jvjvjvjvjvjvjvjvbbhmhmhmhmhmhmhmajalalalajjvjvjvaaaaaaayaaaaaajvjvjvjvjvjvjvjvjvjvjvaabbajaabbhmhmhmhmhmhmbbjvjvbbetetetaajvjvjv",
"jvjvjvjvjvjvjvjvbbhmhmhmhmhmhmhmaaalalalajjvjvjvayaybuayayayaajvjvjvjvjvjvjvjvjvjvjvaabbajaabbhmhmhmhmhmbbjvjvjvbbaaetetaajvjvjv",
"jvjvjvjvjvjvjvjvbbhmhmhmhmhmhmbbjvajalalajjvjvjvayaaayayaaaajvjvjvjvjvjvjvjvjvjvjvjvaaajbxaabbhmhmhmhmhmbbjvjvjvjvhmaaaajvjvjvjv",
"jvjvjvjvjvjvjvjvbbhmhmhmhmhmhmbbjvaaajajajjvjvjvjvjvaaayaajvjvjvjvjvjvjvjvjvjvjvjvjvaaalalaabbhmhmhmhmhmbbjvjvjvjvjvjvjvjvjvjvjv",
"jvjvjvjvjvjvjvjvbbhmhmhmhmhmhmbbjvhmhmhmjvjvjvjvjvjvaaayaajvjvjvjvjvjvjvjvjvjvjvjvjvjvaaaajvbbhmhmhmhmhmbbjvjvjvjvjvjvjvjvjvjvjv",
"jvjvjvaaaajvjvjvbbhmhmhmhmhmhmbbjvjvjvjvjvjvjvjvjvjvaaayaajvjvjvjvjvjvjvjvjvjvjvjvjvjvjvjvjvbbhmhmhmhmhmbbjvjvjvjvjvjvjvjvjvjvjv",
"jvjvaagegeaajvjvbbhmhmhmhmhmhmbbjvjvjvjvjvjvjvjvjvioiohmhmiojvjvjvjvjvjvjvjvjvjvjvjvjvjvjvjvbbhmhmhmhmhmhmbbjvjvjvjvjvjvjvjvjvjv",
"jvjvaagegeaajvjvbbhmhmhmhmhmhmbbjvjvjvjvjvjvjvjvjvjvjvjvjvjvjvjvjvjvjvjvjvjvjvjvjvjvjvjvjvjvjvbbhmhmhmhmhmbbjvjvjvjvjvjvjvjvjvjv",
"jvjvaaaygeaajvjvbbhmhmhmhmhmhmbbjvjvjvjvjvjvjvjvjvjvjvjvjvjvjvjvjvjvjvjvjvjvjvjvjvjvjvjvjvjvjvbbhmhmhmhmhmhmbbjvjvjvjvjvjvjvjvjv",
"jvjvaagegeaajvjvbbhmhmhmhmhmhmbbjvjvjvjvjvjvjvjvjvjvjvjvjvjvjvjvjvjvjvjvjvjvjvjvjvjvjvjvalaljvjvbbhmhmhmhmhmbbjvjvjvjvjvjvjvjvjv",
"jvjvaagegeaajvjvbbhmhmhmhmhmhmbbjvjvaaaajvjvjvjvjvjvjvjvjvjvjvjvjvjvjvjvjvjvjvjvjvjvjvaaalalaajvbbhmhmhmhmhmhmbbjvjvjvjvjvjvjvjv",
"jvjvhmaaaajvjvjvbbhmhmhmhmhmhmbbjvaabbetaajvjvjvjvjvjvjvjvjvjvjvjvjvjvjvjvjvjvjvjvjvjvaaalalaajvjvbbhmhmhmhmhmbbjvjvjvjvjvjvjvjv",
"jvjvjvjvjvjvjvjvbbhmhmhmhmhmhmbbjvaaaaaaaaaaaajvjvjvjvaaaajvjvjvjvjvjvjvjvjvjvjvjvjvhmaaaaajaajvjvbbhmhmhmhmhmbbjvjvjvjvjvjvjvjv",
"jvjvjvjvjvjvjvjvbbhmhmhmhmhmhmbbjvaaalalaaalalaaaaaaaaalalaaaaaajvjvjvjvjvjvjvjvjvjvaabbetaaaajvjvbbhmhmhmhmhmbbjvjvjvjvjvjvjvjv",
"jvjvjvjvjvjvjvjvbbhmhmhmhmhmhmbbjvaaajalaaaaaaaabbbbaaajaaaaalalaajvjvjvjvjvjvjvjvjvaaaaaaaaaajvjvbbhmhmhmhmhmbbjvjvjvjvjvjvjvjv",
"jvjvjvjvjvjvjvjvbbhmhmhmhmhmhmbbjvhmaaaaaaalalaaajajaaetalaaaaaaaajvjvjvjvjvjvjvjvjvaaetetaaaajvjvbbhmhmhmhmhmbbjvjvjvjvjvjvjvjv",
"jvjvjvjvjvjvjvjvbbhmhmhmhmhmhmbbjvjvjvjvaaalalaackalaaetetaabbajaajvjvjvjvjvjvjvjvjvaaetetaajvjvbbhmhmhmhmhmhmbbjvjvjvjvjvjvjvjv",
"jvjvjvjvjvjvjvjvjvbbhmhmhmhmhmbbjvjvjvjvjvaaaaaackckaaetalaaajajaajvjvjvjvjvjvjvjvjvetaaaahmjvjvbbhmhmhmhmhmbbjvjvjvjvjvjvjvjvjv",
"jvjvjvjvjvjvjvjvjvbbhmhmhmhmhmhmbbjvjvjvjvjvjvjvaaaajvaaaajvaaaajvjvjvjvjvjvjvjvjvjvjvjvjvjvjvbbhmhmhmhmhmhmbbjvjvjvjvjvjvjvjvjv",
"jvjvjvjvjvjvjvjvjvbbhmhmhmhmhmhmhmbbjvjvjvjvjvjvjvjvjvjvjvjvjvjvjvjvjvjvjvjvjvjvjvjvjvjvjvjvbbbbhmhmhmhmhmhmbbjvaajvjvjvjvjvjvjv",
"jvjvjvjvjvjvjvjvjvjvbbhmhmhmhmhmhmhmbbbbbbbbbbbbbbbbbbbbbbbbbbbbbbbbbbbbbbbbbbbbbbbbbbbbbbbbhmhmhmhmhmhmhmbbjvaageaajvjvjvjvjvjv",
"jvjvjvjvjvjvaajvjvjvbbhmhmhmhmhmhmhmhmhmhmhmhmhmhmhmhmhmhmhmhmhmhmhmhmhmhmhmhmhmhmhmhmhmhmhmhmhmhmhmhmhmhmbbjvaageaajvjvjvjvjvjv",
"jvjvjvjvjvaageaajvjvjvbbhmhmhmhmhmhmhmhmhmhmhmhmhmhmhmhmhmhmhmhmhmhmhmhmhmhmhmhmhmhmhmhmhmhmhmhmhmhmhmhmetjvbbaageaaaaaajvjvjvjv",
"jvjvjvjvjvaageaajvjvjvjvbbhmhmhmhmhmhmhmhmhmhmhmhmhmhmhmhmhmhmhmhmhmhmhmhmhmhmhmhmhmhmhmhmhmhmhmhmhmhmbbjvaaaaaageaaaaaajvjvjvjv",
"jvjvjvjvjvaageaajvajjvjvjvbbhmhmhmhmhmhmhmhmhmhmhmajajhmhmhmhmhmhmhmhmhmhmhmhmhmhmhmhmhmhmhmhmhmhmhmbbjvjvaaaaaageaaaaaajvjvjvjv",
"jvjvjvaaaaaageaaaaaajvjvjvjvbbbbhmhmhmaaaahmaaaaaabbbbaahmhmhmhmhmhmhmhmhmhmhmhmhmhmhmhmhmhmhmhmbbbbjvjvjvaaaaaageayayaajvjvjvjv",
"jvjvjvaaaaaageaaaaaajvjvjvjvjvjvbbbbaabbetaabbbbbbaaaaaaaahmaahmhmhmhmhmhmhmhmhmhmhmhmhmhmhmbbbbjvjvjvjvjvaagegegeayaajvjvjvjvjv",
"jvjvjvaaayaageajaybujvjvjvjvjvjvjvjvaaajajaaaaaaaaaaalaahmaaayaabbbbbbbbbbbbbbbbbbbbbbbbbbbbjvjvjvjvjvjvjvjvaaaageaajvjvjvjvjvjv",
"jvjvjvaaaygegeayaajvjvjvjvjvjvjvjvjvaacketaackckckaaalaahmhmayaajvjvjvjvjvjvjvjvjvjvjvjvjvjvjvjvjvjvjvjvjvjvjvaageaajvjvjvjvjvjv",
"jvjvjvjvajaaayaajvjvjvjvjvjvjvjvjvjvaaetetaackckckaaaaaahmayayaajvjvjvjvjvjvjvjvjvjvjvjvjvjvjvjvjvjvjvjvjvjvjvaageaajvjvjvjvjvjv",
"jvjvjvjvjvaaayaajvjvjvjvjvjvjvjvjvjvjvaaaajvaaaaaajvjvjvaaaybuhmjvjvjvjvjvjvjvjvjvjvjvjvjvjvjvjvjvjvjvjvjvjvjvjvioiojvjvjvjvjvjv",
"jvjvjvjvjvaageaaiojvjvjvjvjvjvjvjvjvjvjvjvjvjvjvjvjvjvjvjvgehmjvjvjvjvjvjvjvjvjvjvjvjvjvjvjvjvjvjvjvjvjvjvjvjvjvjvjvjvjvjvjvjvjv",
"jvjvjvjvjvbbgegejvjvjvjvjvjvjvjvjvjvjvjvjvjvjvjvjvjvjvjvjvjvjvjvjvjvjvjvjvjvjvjvjvjvjvjvjvjvjvjvjvjvjvjvjvjvjvjvjvjvjvjvjvjvjvjv",
"jvjvjvjvjvjvjvjvjvjvjvjvjvjvjvjvjvjvjvjvjvjvjvjvjvjvjvjvjvjvjvjvjvjvjvjvjvjvjvjvjvjvjvjvjvjvjvjvjvjvjvjvjvjvjvjvjvjvjvjvjvjvjvjv",
"jvjvjvjvjvjvjvjvjvjvjvjvjvjvjvjvjvjvjvjvjvjvjvjvjvjvjvjvjvjvjvjvjvjvjvjvjvjvjvjvjvjvjvjvjvjvjvjvjvjvjvjvjvjvjvjvjvjvjvjvjvjvjvjv"
};
