/* XPM */
static char *tile_road_desert_xpm[] = {
"64 64 3 2",
"ag c #F0F0F0",
"bb c #8B7355",
"bf c #5D4037",
/* pixels */
"bfbfbfbbbfbfbfbfbbbbbfbfbbbbbfbbbbbbbfbfbfbbbfbfbfbbbfbfbfbbagagagagbfbfbfbfbbbbbfbbbfbfbfbbbfbbbbbfbfbfbbbbbfbbbfbfbbbbbfbfbfbf",
"bfbfbfbfbfbfbfbbbfbbbfbbbfbfbbbbbbbfbfbfbfbfbfbfbfbfbfbfbfbfagagagagbbbfbfbfbbbfbbbbbbbfbbbfbfbfbfbfbfbfbfbbbbbfbfbbbfbbbfbbbfbf",
"bfbfbfbbbbbfbfbfbfbbbbbfbbbfbbbfbfbfbbbfbfbbbfbfbbbfbfbfbfbbagagagagbfbfbbbfbbbbbfbfbfbbbfbbbfbbbbbbbfbfbfbfbfbfbfbbbbbfbbbbbfbf",
"bfbfbfbfbfbfbfbfbfbbbfbbbfbbbfbbbfbbbbbbbbbbbfbbbfbfbbbbbfbbagagagagbbbbbbbfbbbbbfbfbbbfbbbfbbbbbbbbbfbbbfbfbbbfbfbfbfbbbfbbbfbf",
"bfbfbfbbbfbfbfbbbfbfbfbbbfbfbfbfbbbbbbbfbbbfbfbbbfbfbfbbbbbfagagagagbbbfbfbbbbbbbfbfbbbfbbbfbbbbbfbbbfbbbbbfbfbfbbbfbbbfbfbfbfbf",
"bfbfbfbbbfbbbfbbbfbfbfbbbbbfbbbbbbbfbbbbbbbfbfbfbfbfbfbbbfbfagagagagbfbfbbbbbbbbbfbfbbbbbbbfbfbfbfbfbbbfbbbbbfbfbbbbbfbbbbbbbfbf",
"bfbfbfbfbbbbbfbfbfbfbbbbbfbfbbbfbfbbbbbbbbbfbbbbbbbfbbbfbfbfagagagagbfbfbbbfbfbfbfbfbbbfbfbfbfbfbfbfbfbbbbbfbbbbbfbbbbbbbfbfbfbf",
"bfbfbfbfbfbfbbbfbbbbbfbbbfbbbbbfbfbfbfbbbbbbbbbfbfbfbbbfbfbfagagagagbfbfbbbfbbbfbbbbbbbfbfbfbfbbbfbbbbbfbfbbbfbfbfbfbfbfbbbfbfbf",
"bfbfbbbfbfbbbbbfbfbfbfbbbfbfbbbfbbbfbfbfbbbfbbbfbbbbbbbfbfbfbbbbbfbbbfbfbfbbbfbfbbbfbfbbbfbfbfbfbfbbbfbbbbbfbbbbbbbfbbbfbfbbbfbf",
"bfbfbfbbbfbfbfbfbbbfbfbbbbbfbbbbbbbfbbbfbfbfbfbfbbbfbfbfbfbfbbbbbfbfbbbfbbbbbbbfbbbfbfbfbbbfbfbfbfbbbbbbbbbbbbbfbbbfbbbfbbbbbfbf",
"bfbfbfbfbfbfbfbbbfbfbbbfbbbbbbbfbfbbbbbfbbbfbfbfbfbbbfbbbfbfbbbbbbbbbbbfbfbfbbbbbfbfbfbfbbbbbfbfbbbbbfbbbbbbbfbfbfbfbbbbbfbfbfbf",
"bfbfbfbfbfbfbbbfbbbfbbbfbbbfbbbfbfbbbfbbbbbfbfbfbfbfbfbbbbbfbbbfbbbbbfbfbfbfbfbfbfbfbfbfbbbbbbbbbbbfbbbbbbbfbfbbbbbfbfbbbbbbbfbf",
"bfbfbbbfbfbfbfbbbfbfbfbbbbbbbbbfbfbbbfbfbbbfbfbbbbbbbfbfbfbbbfbfbfbbbfbfbfbfbfbfbbbbbfbbbbbbbbbbbfbbbfbfbfbbbbbbbfbfbfbfbbbbbfbf",
"bfbfbfbfbfbbbfbbbfbfbbbbbbbfbfbbbbbfbfbfbfbfbfbfbbbbbfbfbfbfbfbfbfbbbfbfbfbfbfbfbbbbbbbfbfbbbfbfbfbfbbbfbbbfbbbfbfbbbfbbbbbfbfbf",
"bfbfbfbfbbbfbfbfbfbbbfbfbfbfbbbfbfbbbfbfbfbfbfbfbfbbbfbbbfbfbfbfbfbbbfbfbbbfbbbbbfbfbfbfbfbbbbbbbbbbbfbfbfbfbfbfbbbfbfbbbbbbbfbf",
"bfbfbbbbbfbfbbbfbbbfbbbfbfbfbfbfbfbfbfbbbfbbbbbfbbbfbfbfbbbfbfbfbfbfbbbbbfbfbfbfbfbbbbbfbfbbbfbfbbbbbbbbbbbfbfbfbfbfbbbbbfbbbfbf",
"bfbfbbbfbbbbbbbbbbbbbbbfbfbfbfbbbfbfbbbbbfbfbfbbbfbbbfbfbfbfagagagagbfbbbfbbbbbbbfbbbbbbbfbbbfbfbbbfbbbfbfbfbfbbbbbfbfbbbbbbbfbf",
"bfbfbbbfbfbbbfbfbfbbbfbbbfbfbbbbbfbfbfbbbbbfbfbfbbbbbbbfbbbbagagagagbbbbbbbfbfbbbfbfbfbfbbbfbbbbbfbfbbbfbbbfbbbbbbbfbbbbbfbbbfbf",
"bfbfbbbfbfbfbbbfbfbbbbbbbfbbbbbfbbbfbbbfbfbfbbbfbfbfbfbbbfbfagagagagbbbfbfbfbfbfbfbbbbbbbfbbbfbfbfbbbfbfbbbfbfbfbfbbbfbfbbbbbfbf",
"bfbfbfbfbbbfbfbbbbbfbbbfbbbbbbbfbbbfbfbbbfbbbbbfbfbbbbbfbfbfagagagagbbbfbfbfbbbfbfbbbbbbbfbfbfbfbbbbbfbbbbbfbbbfbbbfbbbfbfbbbfbf",
"bfbfbbbbbfbfbbbbbfbbbfbfbfbfbfbfbfbfbfbfbfbfbfbfbbbbbbbfbfbfagagagagbfbbbfbfbfbfbbbbbfbbbfbfbbbfbfbfbbbbbfbbbbbbbbbbbfbfbbbfbfbf",
"bfbfbbbbbfbfbbbfbfbfbfbbbfbbbfbbbbbfbbbfbbbfbbbbbfbfbbbfbbbbagagagagbbbfbfbbbfbfbfbbbfbfbfbfbfbfbbbbbfbfbbbbbbbbbbbbbfbfbfbfbfbf",
"bfbfbfbbbfbfbbbfbbbbbbbbbbbfbbbbbbbbbbbfbfbfbfbbbfbbbbbfbfbfagagagagbfbfbbbbbfbbbbbbbfbbbfbbbfbbbfbbbfbbbbbfbfbfbfbfbbbfbbbfbfbf",
"bfbfbfbfbfbbbbbfbfbfbbbbbbbfbfbbbfbfbfbbbbbbbfbfbbbbbfbfbfbbagagagagbfbfbfbfbfbfbbbbbfbfbbbfbbbbbfbfbbbfbfbbbbbfbbbfbfbfbfbbbfbf",
"bfbfbfbfbfbfbfbbbbbbbfbfbfbfbbbbbbbfbfbfbbbfbbbbbfbbbbbfbbbbbfbbbfbfbfbfbfbfbbbfbbbbbfbfbbbfbfbfbfbfbbbfbfbbbfbbbbbfbfbfbfbbbfbf",
"bfbfbfbfbbbbbfbfbfbbbbbbbbbfbfbbbfbfbbbfbfbfbbbfbbbfbfbbbfbbbfbbbbbfbbbfbbbbbfbfbfbbbfbbbfbfbfbbbfbbbbbfbfbbbfbfbbbbbbbfbbbfbfbf",
"bfbfbfbbbfbfbbbbbbbfbbbfbbbfbfbbbfbfbfbfbfbbbfbfbfbbbfbfbfbfbfbbbfbbbfbbbfbbbbbbbfbbbfbbbbbfbbbfbbbbbbbbbfbbbbbfbfbfbbbbbbbfbfbf",
"bfbfbbbfbfbbbbbbbfbfbbbfbbbbbbbbbbbfbfbfbfbfbfbfbbbfbfbfbfbfbfbfbbbbbbbfbfbfbfbfbbbbbbbfbfbfbfbfbfbfbbbbbbbbbbbbbfbfbfbfbbbfbfbf",
"bfbfbfbbbbbbbbbfbfbbbfbfbfbfbbbfbbbfbfbfbfbbbfbfbfbfbbbfbfbbbfbbbfbfbbbbbfbfbbbfbfbbbbbfbbbbbbbbbfbfbfbfbfbfbfbfbfbbbbbfbfbfbfbf",
"bfbfbbbfbbbfbbbbbbbbbfbfbbbfbbbbbbbfbbbfbbbfbfbfbbbfbbbfbfbfbfbbbbbbbfbfbfbbbbbbbbbfbbbfbbbfbbbfbfbfbfbfbbbfbfbfbfbfbbbfbfbfbfbf",
"bfbfbbbbbfbbbfbbbfbfbfbfbfbbbfbfbbbbbbbbbfbfbbbfbbbbbfbbbbbbbfbbbbbfbfbbbbbfbbbbbfbbbfbbbbbfbbbfbfbfbbbfbbbfbfbbbbbfbfbfbfbfbfbf",
"bfbfbbbfbfbfbfbfbfbfbfbfbfbbbbbfbfbbbbbfbbbbbbbfbfbbbbbbbfbfbfbbbfbfbfbfbbbbbfbbbbbbbfbfbfbbbfbfbfbfbbbfbfbfbfbfbbbbbfbfbbbbbfbf",
"bfbfbfbfbbbfbfbfbfbbbbbbbbbbbfbfbbbbbfbbbfbbbfbbbfbfbfbbbfbfagagagagbbbbbfbbbbbfbbbbbbbbbbbfbbbbbfbbbfbbbbbfbfbfbbbbbbbbbbbbbfbf",
"bfbfbfbbbbbfbfbbbfbfbbbbbfbfbbbfbfbfbbbfbfbfbbbfbfbfbbbbbfbbagagagagbbbfbfbbbbbbbfbfbfbfbfbbbfbfbbbbbfbbbfbbbfbfbfbfbbbbbfbbbfbf",
"bfbfbbbfbfbfbbbfbbbfbbbbbfbbbbbbbfbbbbbfbfbfbbbfbbbfbfbfbbbfagagagagbfbfbbbbbbbfbbbbbfbfbfbfbfbbbfbfbfbfbbbfbbbfbbbfbbbbbbbbbfbf",
"bfbfbbbbbbbfbfbfbfbbbfbfbfbbbbbbbbbbbfbfbbbfbfbfbbbfbfbfbbbfagagagagbfbfbfbbbfbbbfbfbfbfbfbfbbbfbfbfbbbbbfbbbfbfbfbbbfbbbfbfbfbf",
"bfbfbbbbbbbbbfbfbbbbbbbbbfbfbfbfbbbbbbbbbfbbbbbbbfbfbfbfbfbfagagagagbfbbbfbfbfbfbfbfbbbfbfbbbfbfbbbbbbbfbbbbbfbfbfbbbbbfbbbfbfbf",
"bfbfbfbfbfbbbfbfbfbfbbbfbfbbbfbbbfbfbbbfbbbfbbbbbbbbbfbbbbbfagagagagbfbfbfbfbbbbbfbfbfbfbfbfbbbfbfbfbbbbbfbfbfbbbbbbbfbfbbbfbfbf",
"bfbfbfbbbfbbbfbbbbbfbbbfbbbbbfbbbbbbbfbfbfbfbbbfbfbfbfbfbfbbagagagagbbbfbfbbbbbfbfbfbbbbbfbfbfbbbbbbbbbfbfbbbfbbbbbbbbbbbbbbbfbf",
"bfbfbfbfbbbbbfbfbbbbbfbbbbbbbfbbbfbbbbbbbfbbbbbfbbbfbbbfbbbbagagagagbfbfbbbfbbbfbfbbbfbfbfbfbfbbbbbfbbbbbbbfbfbbbfbbbfbfbbbfbfbf",
"bfbfbbbbbbbbbfbfbfbfbfbbbbbfbfbfbfbbbbbfbbbbbbbfbbbbbfbbbfbfbbbbbfbfbbbfbfbfbbbfbfbbbbbfbfbbbfbfbbbfbfbfbbbfbfbfbbbfbbbfbbbbbfbf",
"bfbfbbbfbfbfbfbfbfbfbbbbbbbfbfbbbfbfbbbfbfbbbfbbbbbfbbbbbfbbbbbbbbbbbbbfbbbfbfbbbfbfbfbbbfbfbbbfbbbfbbbfbfbfbfbbbfbfbfbbbfbfbfbf",
"bfbfbfbfbbbfbbbfbfbfbbbfbbbbbfbbbbbfbfbfbfbbbfbfbfbbbfbfbfbbbfbbbbbfbfbfbfbfbbbfbbbfbbbbbfbbbbbbbfbfbfbfbbbbbfbfbbbfbbbbbfbfbfbf",
"bfbfbfbfbfbbbfbbbbbfbfbbbfbfbfbbbfbbbfbbbbbbbfbfbbbbbbbfbbbbbbbfbfbfbfbfbfbbbfbfbfbfbfbfbfbfbfbbbbbbbfbbbbbbbfbfbfbfbfbfbbbfbfbf",
"bfbfbbbfbbbfbfbbbbbfbbbfbbbfbbbfbfbfbbbfbfbfbfbfbfbbbbbbbfbfbfbfbfbfbbbbbbbbbbbfbfbfbfbfbfbbbbbfbfbfbbbfbfbbbfbfbbbbbfbbbbbfbfbf",
"bfbfbfbfbfbfbbbbbfbfbfbbbfbbbbbfbbbfbfbbbfbfbbbfbbbbbfbfbfbbbfbbbbbfbfbfbfbbbfbfbfbbbfbfbbbbbbbfbbbfbfbfbfbbbbbbbfbfbfbfbfbfbfbf",
"bfbfbbbfbbbbbfbfbbbfbbbfbfbfbbbbbfbfbfbbbbbbbfbfbbbfbbbbbbbbbbbfbbbfbbbbbfbfbfbbbbbfbfbfbbbbbfbfbbbfbfbbbbbfbfbbbfbfbfbbbfbfbfbf",
"bfbfbfbfbfbfbbbfbbbbbbbbbbbbbfbfbfbfbfbbbbbfbfbbbfbfbfbbbfbbbbbfbfbfbfbbbfbbbfbbbfbfbbbbbbbbbfbfbbbfbfbfbbbbbfbfbfbfbbbbbfbbbfbf",
"bfbfbfbfbbbbbbbbbfbfbfbbbbbfbfbbbbbfbfbfbfbfbfbbbfbfbfbfbfbfagagagagbfbbbfbbbbbfbfbbbbbbbbbfbbbfbbbbbfbbbbbfbfbfbbbfbbbbbfbbbfbf",
"bfbfbfbbbfbbbbbfbfbbbfbbbfbbbfbbbfbfbfbfbfbfbbbbbbbfbbbfbbbbagagagagbfbbbfbbbfbfbfbbbfbbbfbfbbbbbbbfbbbfbfbbbbbfbbbbbfbfbfbfbfbf",
"bfbfbfbfbfbfbfbbbfbfbbbfbfbfbfbfbbbbbfbfbfbfbbbfbbbfbfbfbfbfagagagagbbbbbfbfbbbfbfbfbfbbbfbfbbbbbbbbbbbfbfbbbfbfbbbbbbbfbbbbbfbf",
"bfbfbfbbbbbbbfbfbbbbbbbbbbbbbbbfbbbfbfbfbfbfbbbfbfbfbfbfbfbfagagagagbbbfbbbbbfbfbfbfbbbfbfbfbfbfbbbfbfbbbfbbbbbbbfbbbfbfbfbbbfbf",
"bfbfbfbfbfbfbbbbbfbfbfbfbfbbbbbbbfbbbbbfbfbfbbbbbbbfbfbfbbbbagagagagbbbfbbbfbbbfbfbfbfbbbbbbbfbbbfbfbbbbbbbfbbbfbbbfbbbfbbbfbfbf",
"bfbfbfbfbfbfbbbbbfbbbbbbbfbfbfbbbfbfbbbbbfbbbbbbbfbfbfbbbbbfagagagagbbbfbfbbbfbbbbbbbfbfbfbfbbbbbfbbbfbbbfbfbbbbbbbfbbbfbbbfbfbf",
"bfbfbbbbbfbfbfbbbfbbbbbbbfbbbbbfbfbfbfbbbfbfbfbbbfbfbfbfbfbfagagagagbfbfbbbfbfbfbbbfbbbbbbbbbbbbbbbbbbbfbbbfbfbfbfbbbfbfbbbfbfbf",
"bfbfbfbfbbbfbfbfbfbfbfbbbfbbbfbfbbbfbbbfbbbbbfbfbfbbbfbfbbbfagagagagbfbfbfbbbfbbbfbfbfbfbfbfbbbfbfbbbfbfbfbfbfbfbbbbbbbbbfbfbfbf",
"bfbfbfbfbbbbbfbfbbbfbfbbbfbfbbbfbbbfbbbbbfbfbbbfbfbfbfbfbbbbbbbfbfbfbbbfbfbfbfbbbbbbbfbfbfbbbbbbbfbbbbbfbfbfbfbbbbbfbbbfbfbfbfbf",
"bfbfbfbbbfbbbbbfbfbbbfbfbbbbbfbbbfbfbfbbbbbbbbbfbfbfbfbbbfbfbbbbbbbfbbbbbfbfbfbfbbbfbfbbbfbfbbbfbfbfbfbbbfbfbbbfbfbfbfbfbfbfbfbf",
"bfbfbfbbbbbfbfbbbfbbbbbfbbbbbfbfbfbfbfbfbfbfbbbbbfbfbfbfbfbfbfbbbbbbbfbbbfbfbbbbbfbfbfbfbbbbbbbbbfbbbfbfbbbfbbbbbfbbbfbfbfbbbfbf",
"bfbfbfbfbfbfbfbbbbbfbbbfbfbfbfbfbfbfbbbfbbbbbfbfbbbfbbbbbfbfbfbbbfbbbfbbbbbbbfbfbfbbbfbfbfbfbbbbbbbfbfbfbbbbbfbbbbbbbfbbbbbfbfbf",
"bfbfbbbbbfbfbfbbbbbfbfbfbbbfbfbfbfbbbbbfbfbfbbbfbfbfbbbfbfbbbbbfbfbfbbbfbbbfbfbfbfbbbfbbbbbbbfbbbbbfbbbfbfbbbfbfbfbfbfbfbfbbbfbf",
"bfbfbfbbbfbfbbbbbfbbbbbbbfbfbbbbbfbbbfbbbfbbbbbfbbbbbfbbbfbfbbbfbfbfbfbbbfbfbfbbbbbfbbbfbbbbbfbfbbbbbbbbbfbfbbbbbbbbbbbbbfbfbfbf",
"bfbfbfbbbbbbbbbfbbbfbfbfbbbbbbbfbbbfbfbfbfbfbfbbbfbfbfbbbbbbbfbfbfbfbfbbbfbbbbbbbfbfbfbbbfbbbfbbbfbbbbbbbbbfbfbfbfbfbbbbbfbbbfbf",
"bfbfbfbbbfbbbbbbbbbfbfbbbfbfbbbfbfbfbbbfbfbfbfbbbfbfbbbfbfbfbfbfbfbbbfbfbbbbbbbfbbbfbfbfbfbbbbbbbfbfbfbbbbbfbfbbbfbfbfbfbfbfbfbf"
};
