/* XPM */
static char *tile_road_s_curve_desert_xpm[] = {
"64 64 11 2",
"aa c #000000",
"aj c #383838",
"ay c #3A7D44",
"bo c #1A5276",
"bu c #222222",
"bx c #2C7FB0",
"et c #885522",
"ge c #669933",
"hm c #999966",
"io c #CC9966",
"jv c None",
/* pixels */
"jvjvjvjvjvjvjvjvjvjvjvjvjvjvjvjvjvjvjvjvjvjvjvjvjvjvjvetetioioioioioioioioioioioioioioioioioioioioioioioioioioioioetjvjvjvjvjvjv",
"jvjvjvjvjvjvjvjvjvjvjvjvjvjvjvjvjvjvjvjvjvjvjvjvjvetetioioioioioioioioioioioioioioioioioioioioioioioioioioioioetetjvjvjvjvjvjvjv",
"jvjvjvjvjvjvjvjvjvjvjvjvjvjvjvjvjvjvjvjvjvjvjvetetioioioioioioioioioioioioioioioioioioioioioioioioioioioetetetjvjvjvjvjvjvjvjvjv",
"jvjvjvjvjvjvjvjvjvjvjvjvjvjvjvjvjvjvjvjvjvetetioioioioioioioioioioioioioioioioioioioioioioioioioioioetetjvjvjvjvjvjvjvjvjvjvjvjv",
"jvjvjvjvjvjvjvjvjvjvjvjvjvjvjvjvjvjvjvetetioioioioioioioioioioioioioioioioioioioioioioioioioioioetetjvjvjvjvjvjvjvjvjvjvjvjvjvjv",
"jvjvjvjvjvjvjvjvjvjvjvjvjvjvjvjvjvjvetioioioioioioioioioioioioioioioioioioioioioioioioioioetetetjvjvjvjvaaaajvjvjvjvjvjvjvjvjvjv",
"jvjvjvjvjvjvjvjvjvjvjvjvjvjvjvjvjvetioioioioioioioioioioioioioioioioioioioioioioioioioetetjvjvjvjvjvjvaahmhmaajvjvjvjvjvjvjvjvjv",
"jvjvjvjvjvjvjvjvjvjvjvjvjvjvjvjvetioioioioioioioioioioioioioioioioioioioioioioioioetetjvjvjvjvjvjvjvjvaahmayaajvjvjvjvjvjvjvjvjv",
"jvjvjvjvjvjvjvjvjvjvjvjvjvjvjvethmioioioioioioioioioioioioioioioioioioioioioioetetjvjvjvjvjvjvjvjvjvjvaahmayaajvjvjvjvjvjvjvjvjv",
"jvjvjvjvjvjvjvjvjvjvjvjvjvjvetetioioioioioioioioioioioioioioioioioioioioioioetjvjvjvjvjvjvjvjvjvjvjvjvaahmayaajvjvjvjvjvjvjvjvjv",
"jvjvjvjvjvjvjvjvjvjvjvjvjvetetioioioioioioioioioioioioioioioioioioioioioioetjvjvjvjvjvjvjvjvjvjvjvjvjvaahmayaajvjvjvjvjvjvjvjvjv",
"jvjvjvjvjvjvjvjvjvjvjvjvjvetioioioioioioioioioioioioioioioioioioioioioioetjvjvjvjvjvjvjvjvjvjvjvaajvjvaahmayaajvjvaajvjvjvjvjvjv",
"jvjvjvjvjvjvjvjvjvjvjvjvetioioioioioioioioioioioioioioioioioioioioioioetjvjvjvjvjvjvjvjvjvjvjvaahmaajvaahmayaajvaahmaajvjvjvjvjv",
"jvjvjvjvjvjvjvjvjvjvjvetioioioioioioioioioioioioioioioioioioioioioioetjvjvjvjvjvjvjvjvjvjvjvjvaageaajvaahmayaajvaahmaajvjvjvjvjv",
"jvjvjvjvjvjvjvjvjvjvjvetioioioioioioioioioioioioioioioioioioioioiohmetjvjvjvjvjvjvjvjvjvjvjvjvaahmaajvaahmayaajvaahmaajvjvjvjvjv",
"jvjvjvjvjvjvjvjvjvjvetioioioioioioioioioioioioioioioioioioioioioioetjvjvjvjvjvjvjvjvjvjvjvjvjvaahmaajvaahmayaajvaahmaajvjvjvjvjv",
"jvjvjvjvjvjvjvjvjvjvetioioioioioioioioioioioioioioioioioioioioioioetjvjvjvjvjvjvjvjvjvjvjvjvjvaahmaajvaahmayaajvaahmaajvjvjvjvjv",
"jvjvjvjvjvjvjvjvjvjvetioioioioioioioioioioioioioioioioioioioioioioetjvjvjvjvjvjvjvjvjvjvjvjvjvaagehmaaaahmayaaaahmayaajvjvjvjvjv",
"jvjvjvjvjvjvjvjvjvjvetioioioioioioioioioioioioioioioioioioioioioioetjvjvjvjvjvjvjvjvjvjvjvjvjvaaayayayayhmayayayayayaajvjvjvjvjv",
"jvjvjvjvjvjvjvjvjvjvetioioioioioioioioioioioioioioioioioioioioioioetjvjvjvjvjvjvjvjvjvjvjvjvjvjvaaayayayhmayayayayaajvjvjvjvjvjv",
"jvjvjvjvjvjvjvjvjvjvetioioioioioioioioioioioioioioioioioioioioioioetjvjvjvjvjvjvjvjvjvjvjvjvjvjvjvaaaaayhmayayaaaaaajvjvjvjvjvjv",
"jvjvjvjvjvjvjvjvjvjvetioioioioioioioioioioioioioioioioioioioioioioetjvjvjvjvjvjvjvjvjvjvjvjvjvjvjvjvjvaahmayaajvjvjvjvjvjvjvjvjv",
"jvjvjvjvjvjvjvjvjvjvetioioioioioioioioioioioioioioioioioioioioioioioetjvjvjvjvjvjvjvjvjvjvjvjvjvjvjvjvaahmayaajvjvjvjvjvjvjvjvjv",
"jvjvjvjvjvjvjvjvjvjvetioioioioioioioioioioioioioioioioioioioioioioioioetjvjvjvjvjvjvjvjvjvjvjvjvjvjvjvaahmayaajvjvjvjvjvjvjvjvjv",
"jvjvjvjvjvjvjvjvjvjvetetioioioioioioioioioioioioioioioioioioioioioioioioetjvjvjvjvjvjvjvjvjvjvjvjvjvjvaahmayaajvjvjvjvjvjvjvjvjv",
"jvjvjvjvjvjvjvjvjvjvjvetioioioioioioioioioioioioioioioioioioioioioioioioioetetjvjvjvjvjvjvjvjvjvjvjvjvaahmaybujvjvjvjvjvjvjvjvjv",
"jvjvjvjvjvjvjvjvjvjvjvetioioioioioioioioioioioioioioioioioioioioioioioioioioioetetjvjvjvjvjvjvjvjvjvjvaaayaybujvjvjvjvjvjvjvjvjv",
"jvjvjvjvjvjvjvjvjvjvjvjvetioioioioioioioioioioioioioioioioioioioioioioioioioioioioetetjvjvjvjvjvjvjvjvaaayaybujvjvjvjvjvjvjvjvjv",
"jvjvjvjvjvjvjvjvjvjvjvjvetioioioioioioioioioioioioioioioioioioioioioioioioioioioioioioetetjvjvjvjvjvjvjvajajjvjvjvjvjvjvjvjvjvjv",
"jvjvjvjvjvjvjvjvjvjvjvjvjvetioioioioioioioioioioioioioioioioioioioioioioioioioioioioioioioetjvjvjvjvjvjvjvjvjvjvjvjvjvjvjvjvjvjv",
"jvjvjvjvjvjvjvjvjvjvjvjvjvjvetioioioioioioioioioioioioioioioioioioioioioioioioioioioioioioioetjvjvjvjvjvjvjvjvjvjvjvjvjvjvjvjvjv",
"jvjvjvjvjvjvjvjvjvjvjvjvjvjvjvetioioioioioioioioioioioioioioioioioioioioioioioioioioioioioioioetetjvjvjvjvjvjvjvjvjvjvjvjvjvjvjv",
"jvjvjvjvjvjvjvjvjvjvjvjvjvjvjvjvetioioioioioioioioioioioioioioioioioioioioioioioioioioioioioioioioetjvjvjvjvjvjvjvjvjvjvjvjvjvjv",
"jvjvjvjvjvjvjvjvjvjvjvaaaaaaaaaajvetioioioioioioioioioioioioioioioioioioioioioioioioioioioioioioioioetjvjvjvjvjvjvjvjvjvjvjvjvjv",
"jvjvjvjvjvjvjvjvjvjvaabxbxbxbxboaajvetetioioioioioioioioioioioioioioioioioioioioioioioioioioioioioioetjvjvjvjvjvjvjvjvjvjvjvjvjv",
"jvjvjvjvjvjvjvjvjvaabxbxbxbxbxbobxaajvjvetetioioioioioioioioioioioioioioioioioioioioioioioioioioioioioetjvjvjvjvjvjvjvjvjvjvjvjv",
"jvjvjvjvjvjvjvjvjvaaajbxbxbxbxbxboaajvjvjvjvetioioioioioioioioioioioioioioioioioioioioioioioioioioioioioetjvjvjvjvjvjvjvjvjvjvjv",
"jvjvjvjvjvjvjvjvjvaabxaaaaaaaaaaboaajvjvjvjvjvetioioioioioioioioioioioioioioioioioioioioioioioioioioioioetjvjvjvjvjvjvjvjvjvjvjv",
"jvjvjvjvjvjvjvjvjvaabxbxbxbxbxboboaabububuaaaajvetioioioioioioioioioioioioioioioioioioioioioioioioioioioiohmjvjvjvjvjvjvjvjvjvjv",
"jvjvjvjvjvjvjvjvaaaaaaaaaabxbxboaabobxbxbxajbxaajvetioioioioioioioioioioioioioioioioioioioioioioioioioioiohmjvjvjvjvjvjvjvjvjvjv",
"jvjvjvjvjvjvjvaabxbxbxbxbxaaaaajaabobxbxbxbxbuaajvetioioioioioioioioioioioioioioioioioioioioioioioioioioiohmjvjvjvjvjvjvjvjvjvjv",
"jvjvjvjvjvjvaabxbobxbxbxbxbxaaboaabobububuaaboaajvjvetioioioioioioioioioioioioioioioioioioioioioioioioioiohmjvjvjvjvjvjvjvjvjvjv",
"jvjvjvjvjvjvaaaabxbxbxbxbxaaaaboaabobxbxbxboboaajvjvetetioioioioioioioioioioioioioioioioioioioioioioioioioiohmjvjvjvjvjvjvjvjvjv",
"jvjvjvjvjvjvaabobububuaaaaboaaajaabubxbxbxbobuaajvjvjvetioioioioioioioioioioioioioioioioioioioioioioioioioiohmjvjvjvjvjvjvjvjvjv",
"jvjvjvjvjvjvaabobobxbxbxboboaaajaabobububububoaajvjvjvetioioioioioioioioioioioioioioioioioioioioioioioioioiohmjvjvjvjvjvjvjvjvjv",
"jvjvjvjvjvjvaabububxbxbxbobuaabxaabxbxbxbxbxboaajvjvjvetioioioioioioioioioioioioioioioioioioioioioioioioioiohmjvjvjvjvjvjvjvjvjv",
"jvjvjvjvjvjvaabxbubububububoaaaaaabobxbxbxbobuaajvjvjvetioioioioioioioioioioioioioioioioioioioioioioioioioioetjvjvjvjvjvjvjvjvjv",
"jvjvjvjvjvjvaabxbxbxbxbxboboaajvaabxbububububoaajvjvjvetioioioioioioioioioioioioioioioioioioioioioioioioioioetjvjvjvjvjvjvjvjvjv",
"jvjvjvjvjvjvaabobobxbxbxboboaajvaabxbxbxbxboboaajvjvethmioioioioioioioioioioioioioioioioioioioioioioioioioioetjvjvjvjvjvjvjvjvjv",
"jvjvjvjvjvjvaaboboboboboboboaajvaabobxbxbxboboaajvjvethmioioioioioioioioioioioioioioioioioioioioioioioioioioetjvjvjvjvjvjvjvjvjv",
"jvjvjvjvjvjvaaboboboboboboboaajvjvaaaaaaaaaaaajvjvjvetioioioioioioioioioioioioioioioioioioioioioioioioioioioetjvjvjvjvjvjvjvjvjv",
"jvjvjvjvjvjvaabobxbxbxbxboboaajvjvjvjvjvjvjvjvjvjvetioioioioioioioioioioioioioioioioioioioioioioioioioioioioetjvjvjvjvjvjvjvjvjv",
"jvjvjvjvjvjvjvaabobxbxboboaajvjvjvjvjvjvjvjvjvjvetioioioioioioioioioioioioioioioioioioioioioioioioioioioioioetjvjvjvjvjvjvjvjvjv",
"jvjvjvjvjvjvjvjvaaaaaaaaaajvjvjvjvjvjvjvjvjvjvetioioioioioioioioioioioioioioioioioioioioioioioioioioioioioioetjvjvjvjvjvjvjvjvjv",
"jvjvjvjvjvjvjvjvjvjvjvjvjvjvjvjvjvjvjvjvjvjvetioioioioioioioioioioioioioioioioioioioioioioioioioioioioioioetjvjvjvjvjvjvjvjvjvjv",
"jvjvjvjvjvjvjvjvjvjvjvjvjvjvjvjvjvjvjvjvjvetioioioioioioioioioioioioioioioioioioioioioioioioioioioioioioioetjvjvjvjvjvjvjvjvjvjv",
"jvjvjvjvjvjvjvjvjvjvjvjvjvjvjvjvjvjvjvetetioioioioioioioioioioioioioioioioioioioioioioioioioioioioioioioioetjvjvjvjvjvjvjvjvjvjv",
"jvjvjvjvjvjvjvjvjvjvjvjvjvjvjvjvjvjvetioioioioioioioioioioioioioioioioioioioioioioioioioioioioioioioioioetjvjvjvjvjvjvjvjvjvjvjv",
"jvjvjvjvjvjvjvjvjvjvjvjvjvjvjvjvetetioioioioioioioioioioioioioioioioioioioioioioioioioioioioioioioioioioetjvjvjvjvjvjvjvjvjvjvjv",
"jvjvjvjvjvjvjvjvjvjvjvjvjvjvetetioioioioioioioioioioioioioioioioioioioioioioioioioioioioioioioioioioioetjvjvjvjvjvjvjvjvjvjvjvjv",
"jvjvjvjvjvjvjvjvjvjvjvjvetetetioioioioioioioioioioioioioioioioioioioioioioioioioioioioioioioioioioioioetjvjvjvjvjvjvjvjvjvjvjvjv",
"jvjvjvjvjvjvjvjvjvjvjvetetioioioioioioioioioioioioioioioioioioioioioioioioioioioioioioioioioioioioioetjvjvjvjvjvjvjvjvjvjvjvjvjv",
"jvjvjvjvjvjvjvjvjvetetioioioioioioioioioioioioioioioioioioioioioioioioioioioioioioioioioioioioioioetjvjvjvjvjvjvjvjvjvjvjvjvjvjv",
"jvjvjvjvjvjvjvetetioioioioioioioioioioioioioioioioioioioioioioioioioioioioioioioioioioioioioioetetjvjvjvjvjvjvjvjvjvjvjvjvjvjvjv"
};
