/* XPM */
static char *tile_road_straight_desert_xpm[] = {
"64 64 13 2",
"aa c #000000",
"aj c #383838",
"ay c #3A7D44",
"bu c #222222",
"bv c #FEF9E7",
"cg c #A93226",
"ck c #6E2018",
"et c #885522",
"fw c #FDE68A",
"ge c #669933",
"hm c #999966",
"io c #CC9966",
"jv c None",
/* pixels */
"jvjvjvjvjvjvjvjvjvjvjvjvjvjvjvjvjvjvjvhmbvfwfwfwfwfwfwfwfwfwfwfwfwfwfwfwfwfwfwfwfwfwfwbvhmjvjvjvjvjvjvjvjvjvjvjvjvjvjvjvjvjvjvjv",
"jvjvjvjvjvjvjvjvjvjvjvjvjvjvjvjvjvjvjvhmbvfwfwfwfwfwfwfwfwfwfwfwfwfwfwfwfwfwfwfwfwfwfwbvhmjvjvjvjvjvjvjvjvjvjvjvjvjvjvjvjvjvjvjv",
"jvjvjvjvjvjvjvjvjvjvjvjvjvjvjvjvjvjvjvhmbvfwfwfwfwfwfwfwfwfwfwfwfwfwfwfwfwfwfwfwfwfwfwbvhmjvjvjvjvjvjvjvjvjvjvjvjvjvjvjvjvjvjvjv",
"jvjvjvjvjvjvjvjvjvjvjvjvjvjvjvjvjvjvhmbvfwfwfwfwfwfwfwfwfwfwfwfwfwfwfwfwfwfwfwfwfwfwfwfwbvhmjvjvjvjvjvjvjvjvjvjvjvjvjvjvjvjvjvjv",
"jvjvjvjvjvjvjvjvbubububuckckjvjvjvjvhmbvfwfwfwfwfwfwfwfwfwfwfwfwfwfwfwfwfwfwfwfwfwfwfwfwbvhmjvjvjvjvjvjvjvjvjvjvjvjvjvjvjvjvjvjv",
"jvjvjvjvjvjvjvaackcgcgcgcgckaajvjvjvhmbvfwfwfwfwfwfwfwfwfwfwfwfwfwfwfwfwfwfwfwfwfwfwfwfwbvhmjvjvjvjvjvjvjvjvjvjvjvjvjvjvjvjvjvjv",
"jvjvjvjvjvjvjvaackcgcgcgcgcgaajvjvjvhmbvfwfwfwfwfwfwfwfwfwfwfwfwfwfwfwfwfwfwfwfwfwfwfwfwbvhmjvjvjvjvjvjvjvjvjvbubujvjvjvjvjvjvjv",
"jvjvjvjvjvjvjvaacgckckckckckaajvjvjvhmbvfwfwfwfwfwfwfwfwfwfwfwfwfwfwfwfwfwfwfwfwfwfwfwfwbvhmjvjvjvjvjvjvjvjvbuhmgebujvjvjvjvjvjv",
"jvjvjvjvjvjvjvaacgcgcgcgcgckaajvjvjvhmbvfwfwfwfwfwfwfwfwfwfwfwfwfwfwfwfwfwfwfwfwfwfwfwfwbvhmjvjvjvjvjvjvjvjvajhmgeajjvjvjvjvjvjv",
"jvjvjvjvjvjvjvaackcgcgcgcgckaajvjvjvhmbvfwfwfwfwfwfwfwfwfwfwfwfwfwfwfwfwfwfwfwfwfwfwfwfwbvhmjvjvjvjvjvjvjvjvajgegeajjvjvjvjvjvjv",
"jvjvjvjvjvjvjvaacgckckckckckaajvjvjvhmbvfwfwfwfwfwfwfwfwfwfwfwfwfwfwfwfwfwfwfwfwfwfwfwfwbvhmjvjvjvjvjvbujvjvajgegeajjvjvjvjvjvjv",
"jvjvjvjvjvjvjvaacgcgcgcgckckaajvjvhmbvfwfwfwfwfwfwfwfwfwfwfwfwfwfwfwfwfwfwfwfwfwfwfwfwfwfwbvhmjvjvjvajhmajjvajgegeajjvjvbujvjvjv",
"jvjvjvjvjvjvjvaackcgcgcgckckaajvjvhmbvfwfwfwfwfwfwfwfwfwfwfwfwfwfwfwfwfwfwfwfwfwfwfwfwfwfwbvhmjvjvjvajhmajjvajgegeajjvajhmajjvjv",
"jvjvjvjvjvjvjvaacgckckaackckaajvjviobvfwfwfwfwfwfwfwfwfwfwfwfwfwfwfwfwfwfwfwfwfwfwfwfwfwfwbvhmjvjvjvajhmajjvajgegeajjvajgeajjvjv",
"jvjvjvjvjvjvjvaacgcgcgcgcgckaajvjviobvfwfwfwfwfwfwfwfwfwfwfwfwfwfwfwfwfwfwfwfwfwfwfwfwfwfwbvhmjvjvjvajhmajjvajgegeajjvajhmajjvjv",
"jvjvjvjvjvjviockckcgcgcgcgaaaahmjviobvfwfwfwfwfwfwfwfwfwfwfwfwfwfwfwfwfwfwfwfwfwfwfwfwfwfwbvhmjvjvjvajgeajjvajgegeajjvajhmajjvjv",
"jvjvjvjvjvjvjvjvetaaaaaaaackjvjvjviobvfwfwfwfwfwfwfwfwfwfwfwfwfwfwfwfwfwfwfwfwfwfwfwfwfwfwbvhmjvjvjvajgeajjvajgegeajjvajhmajjvjv",
"jvjvjvjvjvjvjvjvjvjvjvjvjvjvjvjvjviobvfwfwfwfwfwfwfwfwfwfwfwfwfwfwfwfwfwfwfwfwfwfwfwfwfwfwbvhmjvjvjvajayhmbuajgegeajjvajhmajjvjv",
"jvjvjvjvjvjvjvjvjvjvjvjvjvjvjvjvhmbvfwfwfwfwfwfwfwfwfwfwfwfwfwfwfwfwfwfwfwfwfwfwfwfwfwfwfwfwbvhmjvjvajayhmhmhmgegeajajhmhmajjvjv",
"jvjvjvjvjvjvjvjvjvjvjvjvjvjvjvjvhmbvfwfwfwfwfwfwfwfwfwfwfwfwfwfwfwfwfwfwfwfwfwfwfwfwfwfwfwfwbvhmjvjvjvajgegegegegegegegegeajjvjv",
"jvjvjvjvjvjvjvjvjvjvjvjvjvjvjvjvhmbvfwfwfwfwfwfwfwfwfwfwfwfwfwfwfwfwfwfwfwfwfwfwfwfwfwfwfwfwbvhmjvjvjvjvajajgegegegebububujvjvjv",
"jvjvjvjvjvjvjvjvjvjvjvjvjvjvjvjvhmbvfwfwfwfwfwfwfwfwfwfwfwfwfwfwfwfwfwfwfwfwfwfwfwfwfwfwfwfwbvhmjvjvjvjvjvjvajaygebujvjvjvjvjvjv",
"jvjvjvjvjvjvjvjvjvjvjvjvjvjvjvjvhmbvfwfwfwfwfwfwfwfwfwfwfwfwfwfwfwfwfwfwfwfwfwfwfwfwfwfwfwfwbvhmjvjvjvjvjvjvajaygeajjvjvjvjvjvjv",
"jvjvjvjvaaaaaaaaaackjvjvjvjvjvjvhmbvfwfwfwfwfwfwfwfwfwfwfwfwfwfwfwfwfwfwfwfwfwfwfwfwfwfwfwfwbvhmjvjvjvjvjvjvbuaygeajjvjvjvjvjvjv",
"jvjvjvaackcgcgcgcgckaajvjvjvjvhmbvfwfwfwfwfwfwfwfwfwfwfwfwfwfwfwfwfwfwfwfwfwfwfwfwfwfwfwfwfwfwbvhmjvjvjvjvjvbuayayajjvjvjvjvjvjv",
"jvjvjvaackcgcgcgcgcgaajvjvjvjvhmbvfwfwfwfwfwfwfwfwfwfwfwfwfwfwfwfwfwfwfwfwfwfwfwfwfwfwfwfwfwfwbvhmjvjvjvjvjvbuayayajjvjvjvjvjvjv",
"jvjvjvaacgckckckckckaajvjvjvjvhmbvfwfwfwfwfwfwfwfwfwfwfwfwfwfwfwfwfwfwfwfwfwfwfwfwfwfwfwfwfwfwbviojvjvjvjvjvbuayayajjvjvjvjvjvjv",
"jvjvjvaacgcgcgcgckckaajvjvjvjvhmbvfwfwfwfwfwfwfwfwfwfwfwfwfwfwfwfwfwfwfwfwfwfwfwfwfwfwfwfwfwfwbviojvjvjvjvjvbuayayajjvjvjvjvjvjv",
"jvjvjvaackcgcgcgckckaajvjvjvjvhmbvfwfwfwfwfwfwfwfwfwfwfwfwfwfwfwfwfwfwfwfwfwfwfwfwfwfwfwfwfwfwbvhmjvjvjvjvjvjvayayjvjvjvjvjvjvjv",
"jvjvjvaacgckckckckckaajvjvjvjvhmbvfwfwfwfwfwfwfwfwfwfwfwfwfwfwfwfwfwfwfwfwfwfwfwfwfwfwfwfwfwfwbvhmjvjvjvjvjvjvjvjvjvjvjvjvjvjvjv",
"jvjvjvaacgcgcgcgckckaajvjvjvjvhmbvfwfwfwfwfwfwfwfwfwfwfwfwfwfwfwfwfwfwfwfwfwfwfwfwfwfwfwfwfwfwbvhmjvjvjvjvjvjvjvjvjvjvjvjvjvjvjv",
"jvjvjvaackcgcgcgckaaaajvjvjvhmbvfwfwfwfwfwfwfwfwfwfwfwfwfwfwfwfwfwfwfwfwfwfwfwfwfwfwfwfwfwfwfwfwbvhmjvjvjvjvjvjvjvjvjvjvjvjvjvjv",
"jvjvjvaacgckckckckckaajvjvjvhmbvfwfwfwfwfwfwfwfwfwfwfwfwfwfwfwfwfwfwfwfwfwfwfwfwfwfwfwfwfwfwfwfwbvhmjvjvjvjvjvjvjvjvjvjvjvjvjvjv",
"jvjvjvaacgcgcgcgcgckaajvjvjvhmbvfwfwfwfwfwfwfwfwfwfwfwfwfwfwfwfwfwfwfwfwfwfwfwfwfwfwfwfwfwfwfwfwbvhmjvjvjvjvjvjvjvjvjvjvjvjvjvjv",
"jvjviockckcgcgcgckaaetjvjvjvhmbvfwfwfwfwfwfwfwfwfwfwfwfwfwfwfwfwfwfwfwfwfwfwfwfwfwfwfwfwfwfwfwfwbvhmjvjvjvjvjvjvjvjvjvjvjvjvjvjv",
"jvjvjvjvetaaaaaaaajvjvjvjvjvhmbvfwfwfwfwfwfwfwfwfwfwfwfwfwfwfwfwfwfwfwfwfwfwfwfwfwfwfwfwfwfwfwfwbvhmjvjvjvjvjvjvjvjvjvjvjvjvjvjv",
"jvjvjvjvjvjvjvjvjvjvjvjvjvjvhmbvfwfwfwfwfwfwfwfwfwfwfwfwfwfwfwfwfwfwfwfwfwfwfwfwfwfwfwfwfwfwfwfwbvhmjvjvjvjvjvjvjvjvjvjvjvjvjvjv",
"jvjvjvjvjvjvjvjvjvjvjvjvjvhmbvfwfwfwfwfwfwfwfwfwfwfwfwfwfwfwfwfwfwfwfwfwfwfwfwfwfwfwfwfwfwfwfwfwfwbvhmjvjvjvjvjvjvjvjvjvjvjvjvjv",
"jvjvjvjvjvjvjvjvjvjvjvjvjvhmbvfwfwfwfwfwfwfwfwfwfwfwfwfwfwfwfwfwfwfwfwfwfwfwfwfwfwfwfwfwfwfwfwfwfwbvhmjvjvjvjvaaaaaaaaaaaajvjvjv",
"jvjvjvjvjvjvjvjvjvjvjvjvjvhmbvfwfwfwfwfwfwfwfwfwfwfwfwfwfwfwfwfwfwfwfwfwfwfwfwfwfwfwfwfwfwfwfwfwfwbvhmjvjvjvaackcgcgcgckckaajvjv",
"jvjvjvjvjvjvjvjvjvjvjvjvjvhmbvfwfwfwfwfwfwfwfwfwfwfwfwfwfwfwfwfwfwfwfwfwfwfwfwfwfwfwfwfwfwfwfwfwfwbvhmjvjvjvaackckcgcgcgckaajvjv",
"jvjvjvjvjvjvjvjvjvjvjvjvjvhmbvfwfwfwfwfwfwfwfwfwfwfwfwfwfwfwfwfwfwfwfwfwfwfwfwfwfwfwfwfwfwfwfwfwfwbvhmjvjvjvaackckckckaackaajvjv",
"jvjvjvjvjvjvjvjvjvjvjvjvjvhmbvfwfwfwfwfwfwfwfwfwfwfwfwfwfwfwfwfwfwfwfwfwfwfwfwfwfwfwfwfwfwfwfwfwfwbvhmjvjvjvaacgcgcgcgckckaajvjv",
"jvjvjvjvjvjvjvjvjvjvjvjvjvhmbvfwfwfwfwfwfwfwfwfwfwfwfwfwfwfwfwfwfwfwfwfwfwfwfwfwfwfwfwfwfwfwfwfwfwbvhmjvjvjvaaaacgcgcgckckaajvjv",
"jvjvjvjvjvjvjvjvjvjvjvjvhmbvfwfwfwfwfwfwfwfwfwfwfwfwfwfwfwfwfwfwfwfwfwfwfwfwfwfwfwfwfwfwfwfwfwfwfwfwbvhmjvjvaacgckckckckckaajvjv",
"jvjvjvjvjvjvjvjvjvjvjvjvhmbvfwfwfwfwfwfwfwfwfwfwfwfwfwfwfwfwfwfwfwfwfwfwfwfwfwfwfwfwfwfwfwfwfwfwfwfwbvhmjvjvaacgcgcgcgckckaajvjv",
"jvjvjvjvjvjvjvjvjvjvjvjviobvfwfwfwfwfwfwfwfwfwfwfwfwfwfwfwfwfwfwfwfwfwfwfwfwfwfwfwfwfwfwfwfwfwfwfwfwbvhmjvjvaaaacgcgcgckaaaajvjv",
"jvjvjvjvjvjvjvjvjvjvjvjviobvfwfwfwfwfwfwfwfwfwfwfwfwfwfwfwfwfwfwfwfwfwfwfwfwfwfwfwfwfwfwfwfwfwfwfwfwbvhmjvjvaacgaabububuckaajvjv",
"jvjvjvjvjvjvjvjvjvjvjvjviobvfwfwfwfwfwfwfwfwfwfwfwfwfwfwfwfwfwfwfwfwfwfwfwfwfwfwfwfwfwfwfwfwfwfwfwfwbvhmjvjvaacgcgcgcgckckaajvjv",
"jvjvjvjvjvjvjvjvjvjvjvjvhmbvfwfwfwfwfwfwfwfwfwfwfwfwfwfwfwfwfwfwfwfwfwfwfwfwfwfwfwfwfwfwfwfwfwfwfwfwbvhmjvjvaaaacgcgcgckaaaajvjv",
"jvjvjvjvjvjvjvjvjvjvjvjvhmbvfwfwfwfwfwfwfwfwfwfwfwfwfwfwfwfwfwfwfwfwfwfwfwfwfwfwfwfwfwfwfwfwfwfwfwfwbvhmjvjvjvetaaaaaaaaaajvjvjv",
"jvjvjvjvjvjvjvjvjvjvjvhmbvfwfwfwfwfwfwfwfwfwfwfwfwfwfwfwfwfwfwfwfwfwfwfwfwfwfwfwfwfwfwfwfwfwfwfwfwfwfwbvhmjvjvjvjvjvjvjvjvjvjvjv",
"jvjvjvjvjvjvjvjvjvjvjvhmbvfwfwfwfwfwfwfwfwfwfwfwfwfwfwfwfwfwfwfwfwfwfwfwfwfwfwfwfwfwfwfwfwfwfwfwfwfwfwbvhmjvjvjvjvjvjvjvjvjvjvjv",
"jvjvjvjvjvjvjvjvjvjvjvhmbvfwfwfwfwfwfwfwfwfwfwfwfwfwfwfwfwfwfwfwfwfwfwfwfwfwfwfwfwfwfwfwfwfwfwfwfwfwfwbvhmjvjvjvjvjvjvjvjvjvjvjv",
"jvjvjvjvjvjvjvjvjvjvjvhmbvfwfwfwfwfwfwfwfwfwfwfwfwfwfwfwfwfwfwfwfwfwfwfwfwfwfwfwfwfwfwfwfwfwfwfwfwfwfwbvhmjvjvjvjvjvjvjvjvjvjvjv",
"jvjvjvjvjvjvjvjvjvjvjvhmbvfwfwfwfwfwfwfwfwfwfwfwfwfwfwfwfwfwfwfwfwfwfwfwfwfwfwfwfwfwfwfwfwfwfwfwfwfwfwbvhmjvjvjvjvjvjvjvjvjvjvjv",
"jvjvjvjvjvjvjvjvjvjvjvhmbvfwfwfwfwfwfwfwfwfwfwfwfwfwfwfwfwfwfwfwfwfwfwfwfwfwfwfwfwfwfwfwfwfwfwfwfwfwfwbvhmjvjvjvjvjvjvjvjvjvjvjv",
"jvjvjvjvjvjvjvjvjvjvjvhmbvfwfwfwfwfwfwfwfwfwfwfwfwfwfwfwfwfwfwfwfwfwfwfwfwfwfwfwfwfwfwfwfwfwfwfwfwfwfwbvhmjvjvjvjvjvjvjvjvjvjvjv",
"jvjvjvjvjvjvjvjvjvjvhmbvfwfwfwfwfwfwfwfwfwfwfwfwfwfwfwfwfwfwfwfwfwfwfwfwfwfwfwfwfwfwfwfwfwfwfwfwfwfwfwfwbvhmjvjvjvjvjvjvjvjvjvjv",
"jvjvjvjvjvjvjvjvjvjvhmbvfwfwfwfwfwfwfwfwfwfwfwfwfwfwfwfwfwfwfwfwfwfwfwfwfwfwfwfwfwfwfwfwfwfwfwfwfwfwfwfwbvhmjvjvjvjvjvjvjvjvjvjv",
"jvjvjvjvjvjvjvjvjvjvhmbvfwfwfwfwfwfwfwfwfwfwfwfwfwfwfwfwfwfwfwfwfwfwfwfwfwfwfwfwfwfwfwfwfwfwfwfwfwfwfwfwbvhmjvjvjvjvjvjvjvjvjvjv",
"jvjvjvjvjvjvjvjvjvjvhmbvfwfwfwfwfwfwfwfwfwfwfwfwfwfwfwfwfwfwfwfwfwfwfwfwfwfwfwfwfwfwfwfwfwfwfwfwfwfwfwfwbvhmjvjvjvjvjvjvjvjvjvjv",
"jvjvjvjvjvjvjvjvjvjvhmbvfwfwfwfwfwfwfwfwfwfwfwfwfwfwfwfwfwfwfwfwfwfwfwfwfwfwfwfwfwfwfwfwfwfwfwfwfwfwfwfwbvhmjvjvjvjvjvjvjvjvjvjv",
"jvjvjvjvjvjvjvjvjvjvhmbvfwfwfwfwfwfwfwfwfwfwfwfwfwfwfwfwfwfwfwfwfwfwfwfwfwfwfwfwfwfwfwfwfwfwfwfwfwfwfwfwbvhmjvjvjvjvjvjvjvjvjvjv"
};
