/* XPM */
static char *car_blue_08_s1[] = {
/* columns rows colors chars-per-pixel */
"64 64 38 1 ",
"  c #FF00FF",
". c #010000",
"X c #252923",
"o c #2D342B",
"O c #282936",
"+ c #3A4338",
"@ c #141A50",
"# c #22286F",
"$ c #423875",
"% c #444B43",
"& c #55614C",
"* c #5A745F",
"= c #66696E",
"- c #6E8351",
"; c #A6B57D",
": c #1E2285",
"> c #1B2595",
", c #272D87",
"< c #2D339B",
"1 c #2335AB",
"2 c #3433AB",
"3 c #3023B8",
"4 c #2D34B8",
"5 c #3736BD",
"6 c #584582",
"7 c #2830C7",
"8 c #3C40CF",
"9 c #5352D4",
"0 c #685ACC",
"q c #4A49E1",
"w c #955DEC",
"e c #D86EFF",
"r c #808185",
"t c #8A8798",
"y c #989BA0",
"u c #A6A8AB",
"i c #B8BBBC",
"p c #C6CECA",
/* pixels */
"                                                                ",
"                                                                ",
"                                                                ",
"                                                                ",
"                                                                ",
"                                                                ",
"                                                                ",
"                                                                ",
"                                                                ",
"                                                                ",
"                              ....                              ",
"                          ....2222....                          ",
"                       ...99992..22009...                       ",
"                      .925<<<<.55.2222999.                      ",
"                     .9222>><.5555.<<23229.                     ",
"                    .<2,,:....5555....::::2.                    ",
"                    ......,. .5555. .#......                    ",
"                         .,. .5555. .$.                         ",
"                  ....   .,&.<5ww42.-$.   ....                  ",
"                 .+%%%. .<.&.<weee2.;.$. .%%%%.                 ",
"                 .%%%%...<...<22222...,...%%%%.                 ",
"                 .%%%%.;.<,<.<....<.$,,.r.%%%%.                 ",
"                 .XXXX...,+o..oooo..OO,...XXXX.                 ",
"                 .XXXX. .,+o.o....+.%O,. .XXXX.                 ",
"                  ....  .$+O.+.++.o.%O,.  ....                  ",
"                        .$+o.++.o++.%O,.                        ",
"                    .....$++.+.o..O.%O,.....                    ",
"                   .819..$+++.oo+O.%%O,..940.                   ",
"                   .819..$+++o....+%%O<..940.                   ",
"                   .849.&......+%......=.940.                   ",
"                   .849.&.%&&&&..&&&&&.=.940.                   ",
"                  .8849.&.%%&&%..&&&&&.=.9400.                  ",
"                  .8849.&.%%&&%..%&&&&.=.9440.                  ",
"                  .9549.&.%&&&%..%&&&&.=.9740.                  ",
"                  .9559.&.%&&%%..%&&&o.*.9440.                  ",
"                  .9559.**XXXXX++XXXXX**.9440.                  ",
"                  .9559.**++++++++++++**.9450.                  ",
"                  .9559..**%+++++++++**..q550.                  ",
"                  .0555...************...<420.                  ",
"                  ......#..............#......                  ",
"                        $.XXXX....XOOO.$                        ",
"                  ....  .$....pppp....,.  ....                  ",
"                 .++++. .$.iy.iyyy.==.,. .++++.                 ",
"                 .++++...$.iy.yiii.==.,...+%%%.                 ",
"                 .++++.t.$.iy.rrrr.==.,.r.+%%%.                 ",
"                 .++++...$.io.uuui....$...%%%%.                 ",
"                 .XXXX. .$.ioo.....&&.<. .XXXX.                 ",
"                 .XXXX...6....rrrr....$...XXXX.                 ",
"                  ....999.............@499....                  ",
"                     .93444477777777777749.                     ",
"                     .93337777777777777779.                     ",
"                     .99999999999999999999.                     ",
"                      ....................                      ",
"                                                                ",
"                                                                ",
"                                                                ",
"                                                                ",
"                                                                ",
"                                                                ",
"                                                                ",
"                                                                ",
"                                                                ",
"                                                                ",
"                                                                "
};
