/* XPM */
static char *blossom_tree2_xpm[] = {
"64 64 26 1",
"a c #FF00FF",
"b c #F5F4F6",
"c c #F4D8E0",
"d c #F4C6D2",
"e c #BCC4C6",
"f c #EDA7BA",
"g c #E588AB",
"h c #C398AD",
"i c #9CA3A4",
"j c #DC7DA0",
"k c #CD708F",
"l c #BA6182",
"m c #C45385",
"n c #B45179",
"o c #A3466A",
"p c #704C31",
"q c #6E5F47",
"r c #5C3B25",
"s c #993461",
"t c #882E52",
"u c #6E2B3D",
"v c #524D3E",
"w c #3F3C32",
"x c #3E271C",
"y c #2E1B0F",
"z c #16181D",
/* pixels */
"aaaaaaaaaaaaaaaaaaaaaaaaaaaaaaaaaaaaaaaaaaaaaaaaaaaaaaaaaaaaaaaa",
"aaaaaaaaaaaaaaaaaaaaaaaaaaaaaaaaaaaaaaaaaaaaaaaaaaaaaaaaaaaaaaaa",
"aaaaaaaaaaaaaaaaaaaaaaaaaaaaaaaaaaaaaaaaaaaaaaaaaaaaaaaaaaaaaaaa",
"aaaaaaaaaaaaaaaaaaaaaaaaaaaaaaaaaaaaaaaaaaaaaaaaaaaaaaaaaaaaaaaa",
"aaaaaaaaaaaaaaaaaaaaaaaaaaaaaaaaaaaaaaaaaaaaaaaaaaaaaaaaaaaaaaaa",
"aaaaaaaaaaaaaaaaaaaaaaaaaaaaaaaaaaaaaaaaaaaaaaaaaaaaaaaaaaaaaaaa",
"aaaaaaaaaaaaaaaaaaaaaaakddkaaaaaaaaaaaaaaaaaaaaaaaaaaaaaaaaaaaaa",
"aaaaaaaaaaaaaaaaaaaaakkdddddgjjaaaaaaaaaaaaaaaaaaaaaaaaaaaaaaaaa",
"aaaaaaaaaaaaaaaaaaahjddddgdddddddddjaaflaaaaaaaaaaaaaaaaaaaaaaaa",
"aaaaaaaaaaaaaaaaaajhdddggddffddddddfjjdflaaaaaaaaaaaaaaaaaaaaaaa",
"aaaaaaaaaaaaaaaaaaddhjddddgffddfddddjdddfjaaaaaaaaaaaaaaaaaaaaaa",
"aaaaaaaaaaaaaaaaajdddddddddkkfdfgddddgdddfjaaaaaaaaaaaaaaaaaaaaa",
"aaaaaaaaaaaaaaaaajdddfddgdddddgdfgddddgdddkraaajaaaaaaaaaaaaaaaa",
"aaaaaaaaaaaaaaaaaajddfffdgdgdddddddddgddddkkjjjdjjaaaaaaaaaaaaaa",
"aaaaaaaaaaaaaaalkaaadkkkkkggffckddddddggddffkkdddddnaaaaaaaaaaaa",
"aaaaaaaaaaaaagfgdjnaakrllzggfcckdgdddfdddfffkfdddddgoaaaaaaaaaaa",
"aaaaaaaaaaaagdddddfnaaaapzgggcccfddddffddfkkofdddddgoaaaaaaaaaaa",
"aaaaaaaaaafgdddfdddfjaaaizggdcfffjdffffrffkzokfgddgnggaaaaaaaaaa",
"aaaaaaaaakddfddddddfflllazogdfffffffkzzzffkzoofgggmngaaaaaaaaaaa",
"aaaaaaaajddddgdgddfdffffjjonkkfffffklzzllooxlgggmmggnnaaaaaaaaaa",
"aaaaaaajddddfddddddddddfddjnxlkkflllzlnlnoxllkdddmmmmnnaaaaaaaaa",
"aaaaaaajdddgddfdkdddggcfggnntxlllllzllllnrlfddgddddndnnnaaaaaaaa",
"aaaaaafdjdddgfgddjdgdggddgnnnzpujjjnlllnnffddddddddddbdmaaaaaaaa",
"aaaaaaagddddggdokjdddddgdnnllzjfddddffnnjffddgddgddfddfmmaaaaaaa",
"aaaaaanfdddgdddgkkdgdddgdnnllgfdddddddfnjffffdgdgdddfffmmaaaaaaa",
"aaaaaafffffggggddkokkggjnnnggfddddddddffjjjfkddddddgffggmoaaaaaa",
"aaaaaaaaoggggggddguztknnnncgddddddddddfffzzffldddgglggnmmoaaaaaa",
"aaaaaaaaaooggkddgkkoxxnnnkggddddjddddffffpznlffmfmdlggnnnaaaaaaa",
"aaaaaaaaaaaookkkkkkoooxlkkgdddddddddffffkxtttolfmgllllnndaaaaaaa",
"aaaaaaaaaaaaaoossokddhnxxkggggkddddffkkrrxxlaoooglllllsaaaaaaaaa",
"aaaaaaaaaaaaaffaadddfffxxxgggddggffkkkkxxxluaaausssltaaaaaaaaaaa",
"aaaaaaaaaaaaaaaahhddffdflyqggggggokkkxxnnnlkoouaaeataaaaaaaaaaaa",
"aaaaaaaaaaaaaakddddddddffdgjjjggjokyyynnnkkkkoouaaaaaaaaaaaaaaaa",
"aaaaaaaaaaaaafdddddjfffjddgfnnjokkkyynnnjngdddjotaaaaaaaaaaaaaaa",
"aaaaaaaaaaaakdddffddffddddgfgzoooyxxnnnonjdddgddhtaaaaaaaaaaaaaa",
"aaaaaaaaaaakffffddgdddddfdglgrrzrrynnnnjjjdfddgddntaaaaaaaaaaaaa",
"aaaaaaaaaaaakdddggdfddfffggglnrrrrtnnnndjjfddgcgnntaaaaaaaaaaaaa",
"aaaaaaaaaaaakgdlgddgffjjflllorrrrrronnjjndlfflgoonaaaaaaaaaaaaaa",
"aaaaaaaaaaaaaggggggmfffjlllzaazrryaannnngllllloooaaaaaaaaaaaaaaa",
"aaaaaaaaaaaaaasgslgmffllllyzzazrryaaxuulllllllooaaaaaaaaaaaaaaaa",
"aaaaaaaaaaaaaaaoaallfllnlvazzzzrryayxaaltllllsoaaaaaaaaaaaaaaaaa",
"aaaaaaaaaaaaaaaaaaaallaaaaaaapxrrxyyaaaaattaaaaaaaaaaaaaaaaaaaaa",
"aaaaaaaaaaaaaaaaaaaaaaaaaaaaaazrrxyaaaaaaaaaaaaaaaaaaaaaaaaaaaaa",
"aaaaaaaaaaaaaaaaaaaaaaaaaaaaaayrrxyaaaaaaaaaaaaaaaaaaaaaaaaaaaaa",
"aaaaaaaaaaaaaaaaaaaaaaaaaaaaaayrrxaaaaaaaaaaaaaaaaaaaaaaaaaaaaaa",
"aaaaaaaaaaaaaaaaaaaaaaaaaaaaapyrrxaaaaaaaaaaaaaaaaaaaaaaaaaaaaaa",
"aaaaaaaaaaaaaaaaaaaaaaaaaaaaapxrrxaaaaaaaaaaaaaaaaaaaaaaaaaaaaaa",
"aaaaaaaaaaaaaaaaaaaaaaaaaaaaaxrxrxaaaaaaaaaaaaaaaaaaaaaaaaaaaaaa",
"aaaaaaaaaaaaaaaaaaaaaaaaaaaaarpxyyaaaaaaaaaaaaaaaaaaaaaaaaaaaaaa",
"aaaaaaaaaaaaaaaaaaaaaaaaaaaaxrpxyaaaaaaaaaaaaaaaaaaaaaaaaaaaaaaa",
"aaaaaaaaaaaaaaaaaaaaaaaaaaaaxrpxyaaaaaaaaaaaaaaaaaaaaaaaaaaaaaaa",
"aaaaaaaaaaaaaaaaaaaaaaaaaaazrrpxyyaaaaaaaaaaaaaaaaaaaaaaaaaaaaaa",
"aaaaaaaaaaaaaaaaaaaaaaaaaazzyrrywyyaaaaaaaaaaaaaaaaaaaaaaaaaaaaa",
"aaaaaaaaaaaaaaaaaaaaaaaaaaaaqrzyyyqaaaaaaaaaaaaaaaaaaaaaaaaaaaaa",
"aaaaaaaaaaaaaaaaaaaaaaaaaaaqzzaaayyaaaaaaaaaaaaaaaaaaaaaaaaaaaaa",
"aaaaaaaaaaaaaaaaaaaaaaaaaaaaaaaaaaaaaaaaaaaaaaaaaaaaaaaaaaaaaaaa",
"aaaaaaaaaaaaaaaaaaaaaaaaaaaaaaaaaaaaaaaaaaaaaaaaaaaaaaaaaaaaaaaa",
"aaaaaaaaaaaaaaaaaaaaaaaaaaaaaaaaaaaaaaaaaaaaaaaaaaaaaaaaaaaaaaaa",
"aaaaaaaaaaaaaaaaaaaaaaaaaaaaaaaaaaaaaaaaaaaaaaaaaaaaaaaaaaaaaaaa",
"aaaaaaaaaaaaaaaaaaaaaaaaaaaaaaaaaaaaaaaaaaaaaaaaaaaaaaaaaaaaaaaa",
"aaaaaaaaaaaaaaaaaaaaaaaaaaaaaaaaaaaaaaaaaaaaaaaaaaaaaaaaaaaaaaaa",
"aaaaaaaaaaaaaaaaaaaaaaaaaaaaaaaaaaaaaaaaaaaaaaaaaaaaaaaaaaaaaaaa",
"aaaaaaaaaaaaaaaaaaaaaaaaaaaaaaaaaaaaaaaaaaaaaaaaaaaaaaaaaaaaaaaa",
"aaaaaaaaaaaaaaaaaaaaaaaaaaaaaaaaaaaaaaaaaaaaaaaaaaaaaaaaaaaaaaaa"
};
