/* XPM */
static char *blossom_tree_xpm[] = {
"64 64 30 1",
"a c #FF00FF",
"b c #F5F4F6",
"c c #F4D8E0",
"d c #F4C6D2",
"e c #EDA7BA",
"f c #E7A593",
"g c #E588AB",
"h c #DC7DA0",
"i c #DB907A",
"j c #C398AD",
"k c #938B74",
"l c #CD708F",
"m c #CB6A64",
"n c #BA6182",
"o c #C45385",
"p c #976F55",
"q c #6E5F47",
"r c #B45179",
"s c #BF4D25",
"t c #A3466A",
"u c #993461",
"v c #882E52",
"w c #704C31",
"x c #5C3B25",
"y c #6E2B3D",
"z c #3F3C32",
"A c #3E271C",
"B c #2E1B0F",
"C c #16181D",
"D c #000000",
/* pixels */
"aaaaaaaaaaaaaaaaaaaaaaaaaaaaaaaaaaaaaaaaaaaaaaaaaaaaaaaaaaaaaaaa",
"aaaaaaaaaaaaaaaaaaaaaaaaaaaaaaaaaaaaaaaaaaaaaaaaaaaaaaaaaaaaaaaa",
"aaaaaaaaaaaaaaaaaaaaaaaaaaaaaaaaaaaaaaaaaaaaaaaaaaaaaaaaaaaaaaaa",
"aaaaaaaaaaaaaaaaaaaaaaaaaaaaaaaaaaaaaaaaaaaaaaaaaaaaaaaaaaaaaaaa",
"aaaaaaaaaaaaaaaaaaaaaaaaaaaaaaaaaaaaaaaaaaaaaaaaaaaaaaaaaaaaaaaa",
"aaaaaaaaaaaaaaaaaaaaaaaaaaaaaaaaaaaaaaaaaaaaaaaaaaaaaaaaaaaaaaaa",
"aaaaaaaaaaaaaaaaaaaaaaaddddaaaaaaaaaaaaaaaaaaaaaaaaaaaaaaaaaaaaa",
"aaaaaaaaaaaaaaaaaaaaaddddddddaaaaaaaaaaaaaaaaaaaaaaaaaaaaaaaaaaa",
"aaaaaaaaaaaaaaaaaaaadedddddddadaaaaaaaaaaaaaaaaaaaaaaaaaaaaaaaaa",
"aaaaaaaaaaaaaaaacaaddennddndddddrcaaaaaaaaaaaaaaaaaaaaaaaaaaaaaa",
"aaaaaaaaaaaaaddddaadnenddddncaedraaaaaaaadadcaccaaaaaaaaaaaaaaaa",
"aaaaaaaaaaadddddddaldndnddmccsddgraaaaaaddddcccdaadadaaaaaaaaaaa",
"aaaaaaaaaaddddddmdddlddddmdceddgdrraaaaadddcccdidddddaaaaaaaaaaa",
"aaaaaaaaaadddddmddrddhddhdmmedmdddraaaadafdccfcddddddddaaaaaaaaa",
"aaaaaaaaaeddllddddrdddhhhddddCdnddtaaadddaddieecdddddeddaaaaaaaa",
"aaaaaaaaeagxdclddCdglldhcAdddedddhhtarddadCddicwdmddegaaaaaaaaaa",
"aaaaaaaaaadlllddeepdllcclnlldmdldddtrdddadaddmcdddddddadaaaaaaaa",
"aaaaaaaaddddddddddCCllllggddddmbhndtdddaaidaxdedddddlddddaaaaaaa",
"aaaaaaadddddmdpdnneCClldbgdddddmcndrndddddiccdeedddCldhdddaaaaaa",
"aaaaaaaddddddpbddeeeClddddbdddddldddndlddddddddgegqydhddddaaaaaa",
"aaaaaaaeddddddddddeeClhddldndddrdlddnnldlddddddceeCdhdeddaaaaaaa",
"aaaaaaanedddenddaeeCBhhdddnngdCennnnnnlleleeeeBllCedllddaaaeaaaa",
"aaaaaaaaneennnnaannaCndddnnngdCeeendnnlleeCeeeBBBllldddeaeeeaaaa",
"aaaaaaaaannannnaaannnBrlCdendCllenddnCnneeeCnnBBlllloddhdgoeaaaa",
"aaaaaaaaaaaaenCCCdnnnBgerneeCllddnndnnlllllCCnBlndlcogddeoooaaaa",
"aaaaaaaaeddhdnggiCBnlBBrreeCCllendllcCddeglaBBBnCdlcogooooeaaaaa",
"aaaaaaddderdhddwdpBBBxBrrrrCllcccdlddbddeDchhBBldddlcoooooaaaaaa",
"aaaaaadddrdddlddddpjBxBAhhChlcclcdddgddddhchrCldddddtaaaaaaaaaaa",
"aaaaadddddddddddndjdnngAhBBheecccdcgdddjjcccltddbhdddceeaaaaaaaa",
"aaaaaadhhddbddddddddddnnhBthnenccccgdddCccceeedcdcccdhcccdaaaaaa",
"aaaaaaadeexaldgdenndddnnnBChnnccscggggCocnooeeecccyyooodtaaaaaaa",
"aaaaaahddddrdudnndddrdnneChhnnCgcCdgABnnoooooBhhhhhgooddgtaaaaaa",
"aaaaaahddcrdheCnngdnddnneChrnnClllllABnCohhhlBhhcheeeoddraaaaaaa",
"aaaaaaahccdrhenCnChndnnCeChrnnnClllAABooCohhBBhhhChhooooaaaaaaaa",
"aaaaaaaaahhhhellggAgnnnnBhhhCnnnCllAABonCBrBBBtBChhugoooaaaaaaaa",
"aaaaaaaaathhAvvgggCBCannBthAonnnCClAABonoBaBBBBBnnnongaaaaaaaaaa",
"aaaaaaaaaathahhunnryBCnBBBhAaonnaBBAABannBaBwBBnreeaaraaaaaaaaaa",
"aaaaaaaaaaaaaalggrnaaBBBwBBBaaraaaBwABaaaBBxBBarraaaaaaaaaaaaaaa",
"aaaaaaaaaaaaaaalataaaaaBwBBaaaaaaaBwABaaaBwBBaaaaaaaaaaaaaaaaaaa",
"aaaaaaaaaaaaaaaaaaaaaaaaBwBaaaaaaaBwABaaaBwBBaaaaaaaaaaaaaaaaaaa",
"aaaaaaaaaaaaaaaaaaaaaaaaBwBaaaaaaaBwBBaaAwwBaaaaaaaaaaaaaaaaaaaa",
"aaaaaaaaaaaaaaaaaaaaaaaaBwBBaaaaaBwwBaaaAwBBaaaaaaaaaaaaaaaaaaaa",
"aaaaaaaaaaaaaaaaaaaaaaaaaBwBaaaaaBwBBaaaAwBaaaaaaaaaaaaaaaaaaaaa",
"aaaaaaaaaaaaaaaaaaaaaaaaaBwBCaaaaBwBBaaAwABaaaaaaaaaaaaaaaaaaaaa",
"aaaaaaaaaaaaaaaaaaaaaaaaaBwwBaaaaBwBaaaAwABaaaaaaaaaaaaaaaaaaaaa",
"aaaaaaaaaaaaaaaaaaaaaaaaaaAwxCaaBwwBaaaAwABaaaaaaaaaaaaaaaaaaaaa",
"aaaaaaaaaaaaaaaaaaaaaaaaaaAwwBaaBwBaaaAwwABaaaaaaaaaaaaaaaaaaaaa",
"aaaaaaaaaaaaaaaaaaaaaaaaaaAwwBaBBwBaaaAwABaaaaaaaaaaaaaaaaaaaaaa",
"aaaaaaaaaaaaaaaaaaaaaaaaaaaAwBBBAwBaaaxxABaaaaaaaaaaaaaaaaaaaaaa",
"aaaaaaaaaaaaaaaaaaaaaaaaaaaAwwBBxxBaaaxxABaaaaaaaaaaaaaaaaaaaaaa",
"aaaaaaaaaaaaaaaaaaaaaaaaaaaAwwxBwxBaaBxABaaaaaaaaaaaaaaaaaaaaaaa",
"aaaaaaaaaaaaaaaaaaaaaaaaaaaAwwxBwxxBCBBABaaaaaaaaaaaaaaaaaaaaaaa",
"aaaaaaaaaaaaaaaaaaaaaaaaaaaAwwxBwxxBBxBBBaaaaaaaaaaaaaaaaaaaaaaa",
"aaaaaaaaaaaaaaaaaaaaaaaaaaaBwxBxwxxBxBBzBaaaaaaaaaaaaaaaaaaaaaaa",
"aaaaaaaaaaaaaaaaaaaaaaaaaaBxxCBxxxxBABBBzBaaaaaaaaaaaaaaaaaaaaaa",
"aaaaaaaaaaaaaaaaaaaaaaaaaBxBCCBxxxCCxBBBBBCaaaaaaaaaaaaaaaaaaaaa",
"aaaaaaaaaaaaaaaaaaaaaaaaBxBCCCxxxCCBxxBCCBBBaaaaaaaaaaaaaaaaaaaa",
"aaaaaaaaaaaaaaaaaaaaaaaCBCCaakBBCaaaBCBaaCCCCaaaaaaaaaaaaaaaaaaa",
"aaaaaaaaaaaaaaaaaaaaaaaaaaaaaCCCaaaaaaBCaaaaaaaaaaaaaaaaaaaaaaaa",
"aaaaaaaaaaaaaaaaaaaaaaaaaaaaaaaaaaaaaaaaaaaaaaaaaaaaaaaaaaaaaaaa",
"aaaaaaaaaaaaaaaaaaaaaaaaaaaaaaaaaaaaaaaaaaaaaaaaaaaaaaaaaaaaaaaa",
"aaaaaaaaaaaaaaaaaaaaaaaaaaaaaaaaaaaaaaaaaaaaaaaaaaaaaaaaaaaaaaaa",
"aaaaaaaaaaaaaaaaaaaaaaaaaaaaaaaaaaaaaaaaaaaaaaaaaaaaaaaaaaaaaaaa",
"aaaaaaaaaaaaaaaaaaaaaaaaaaaaaaaaaaaaaaaaaaaaaaaaaaaaaaaaaaaaaaaa"
};
