/* XPM */
static char *blossom_umbrella_xpm[] = {
"64 64 32 1",
"a c #FF00FF",
"b c #F7E4DF",
"c c #F3D7D3",
"d c #F7D5AB",
"e c #EFCBCC",
"f c #F5BAC8",
"g c #E3C0B9",
"h c #F2AFBE",
"i c #D4ADA5",
"j c #EEA3B9",
"k c #E997AD",
"l c #CC9378",
"m c #C09D99",
"n c #B48A64",
"o c #DB85A0",
"p c #A67C58",
"q c #A5847A",
"r c #8F6B57",
"s c #6A653F",
"t c #83634B",
"u c #AC5375",
"v c #79543C",
"w c #6A4933",
"x c #5D5E56",
"y c #555B3D",
"z c #583A27",
"A c #4A4C49",
"B c #3F4536",
"C c #472E1D",
"D c #2D332F",
"E c #322012",
"F c #000000",
/* pixels */
"aaaaaaaaaaaaaaaaaaaaaaaaaaaaaaaaaaaaaaaaaaaaaaaaaaaaaaaaaaaaaaaa",
"aaaaaaaaaaaaaaaaaaaaaaaaaaaaaaaaaaaaaaaaaaaaaaaaaaaaaaaaaaaaaaaa",
"aaaaaaaaaaaaaaaaaaaaaaaaaaaaaaaaaaaaaaaaaaaaaaaaaaaaaaaaaaaaaaaa",
"aaaaaaaaaaaaaaaaaaaaaaaaaaaaaaaaaaaaaaaaaaaaaaaaaaaaaaaaaaaaaaaa",
"aaaaaaaaaaaaaaaaaaaaaaaaaaaaaaaaaaaaaaaaaaaaaaaaaaaaaaaaaaaaaaaa",
"aaaaaaaaaaaaaaaaaaaaaaaaaaaaaaaaaaaaaaaaaaaaaaaaaaaaaaaaaaaaaaaa",
"aaaaaaaaaaaaaaaaaaaaaaaaaaaaaaaaaaaaaaaaaaaaaaaaaaaaaaaaaaaaaaaa",
"aaaaaaaaaaaaaaaaaaaaaaaaaaaaaaaaaaaaaaaaaaaaaaaaaaaaaaaaaaaaaaaa",
"aaaaaaaaaaaaaaaaaaaaaaaaaaaaaaaaaaaaaaaaaaaaaaaaaaaaaaaaaaaaaaaa",
"aaaaaaaaaaaaaaaaaaaaaaaaaaaaaaaaaaaaaaaaaaaaaaaaaaaaaaaaaaaaaaaa",
"aaaaaaaaaaaaaaaaaaaaaaaaaaaaaaaaaaaaaaaFFFFFFFFaaaaaaaaaaaaaaaaa",
"aaaaaaaaaaaaaaaaaaaaaaaaaaaaaaaaaaaaFFFgggeeewmFaaaaaaaaaaaaaaaa",
"aaaaaaaaaaaaaaaaaaaaaaaaaaaaaaaaaaFFbrrbbbbgwbbbFaaaaaaaaaaaaaaa",
"aaaaaaaaaaaaaaaaaaaaaaaaaaaaaaaaFFcctbbbbbssbbbbbFaaaaaaaaaaaaaa",
"aaaaaaaaaaaaaaaaaaaaaaaaaaaaaaFFeecvbbbbssbbbbbbbbFaaaaaaaaaaaaa",
"aaaaaaaaaaaaaaaaaaaaaaaaaaaaFFpieesbbbssbbbbbbsstsFaaaaaaaaaaaaa",
"aaaaaaaaaaaaaaaaaaaaaaaaaaaFbrreesbbtsbbbbbbssbbbbFaaaaaaaaaaaaa",
"aaaaaaaaaaaaaaaaaaaaaaaaaaFtbrcssbssbbbbbsssbbbbbbFaaaaaaaaaaaaa",
"aaaaaaaaaaaaaaaaaaaaaaaaaFritbvbbsbbbbssybbbbbbbbbFaaaaaaaaaaaaa",
"aaaaaaaaaaaaaaaaaaaaaaaaFdribtbssbbbssbbbbgbbbbbbbFaaaaaaaaaaaaa",
"aaaaaaaaaaaaaaaaaaaaaaaFggrrrrtbbsssbbbbbbbbbbbstsFaaaaaaaaaaaaa",
"aaaaaaaaaaaaaaaaaaaaaaFlggtrrbrttbbbbbbbbsstttsbbgFaaaaaaaaaaaaa",
"aaaaaaaaaaaaaaaaaaaaaFlFgFFFrrbbbbsssssssbbbbbbbbgFaaaaaaaaaaaaa",
"aaaaaaaaaaaaaaaaaaaaFlrrFAAFzrrrttbbbbbbbbbibbbbbFaaaaaaaaaaaaaa",
"aaaaaaaaaaaaaaaaaaaFcFrrAAAFccbbbbbbbbbbbbibibbbcFaaaaaaaaaaaaaa",
"aaaaaaaaaaaaaaaaaaFirrAABAFsstttttttbbbbbbbbbbbccFaaaaaaaaaaaaaa",
"aaaaaaaaaaaaaaaaaFikiFABAAFssbbbbbbbssssssssscccFaaaaaaaaaaaaaaa",
"aaaaaaaaaaaaaaaaFkkvwFBAAFCccssbbbbbbbbbbghbivvsFaaaaaaaaaaaaaaa",
"aaaaaaaaaaaaaaaaFkvjCFDEFrbscbbsssbbbbbbbggcccccFaaaaaaaaaaaaaaa",
"aaaaaaaaaaaaaaaFttitnttcrrcbscbbbbssbbbbhhhhccbFaaaaaaaaaaaaaaaa",
"aaaaaaaaaaaaaaaFggvtnttcrrcbbsbbbbbbxsbbbhhcbbFaaaaaaaaaaaaaaaaa",
"aaaaaaaaaaaaaaFmgtgvtgtctbtbbbybbbbbbbssbbbbbbFaaaaaaaaaaaaaaaaa",
"aaaaaaaaaaaaaaFftftgtgtctbtbbbbybbbbgcbbsssbbFaaaaaaaaaaaaaaaaaa",
"aaaaaaaaaaaaaFfftgtgtgtbtbbtbbbbybbgbbbbbbbssFaaaaaaaaaaaaaaaaaa",
"aaaaaaaaaaaaaFftftetetgbtbbtbbbbbybggbbbbbbbFaaaaaaaaaaaaaaaaaaa",
"aaaaaaaaaaaaFhrfetftetgbtbbbtbibbbybbbbbbbbFaaaaaaaaaaaaaaaaaaaa",
"aaaaaaaaaaaaFrrftfftetgbtbibtbbbbbbybbbbbbFaaaaaaaaaaaaaaaaaaaaa",
"aaaaaaaaaaaaFrfftgteetgbtbbkbtbbbbrbybbbbFaaaaaaaaaaaaaaaaaaaaaa",
"aaaaaaaaaaaFrggshhveetgbbrbkbbtbbrbbbybcFaaaaaaaaaaaaaaaaaaaaaaa",
"aaaaaaaaaaaFgggvhteeetbbbrbbbbtbrbbbbbBBFFaaaaaaaaaaaaaaaaaaaaaa",
"aaaaaaaaaaaFfgtfgteeetbbbrbbbubrbbbbbbbFBzFaaaaaaaaaaaaaaaaaaaaa",
"aaaaaaaaaaFeefvfhteeerbbbrbbubbtbbbbeeFaFzzFaaaaaaaaaaaaaaaaaaaa",
"aaaaaaaaaaFeeterhteqerbbbrbqbbqqtbbeeFaaaFwwFaaaaaaaaaaaaaaaaaaa",
"aaaaaaaaaaFereeetfeerrbbbrqqqqqbtbeeFaaaaaFwvFaaaaaaaaaaaaaaaaaa",
"aaaaaaaaaaFereeerfeerbbhrrbbbbbbbteFaaaaaaaFvvFaaaaaaaaaaaaaaaaa",
"aaaaaaaaaaFmreeetreerbbbrbrbbbbbbtFaaaaaaaaaFvtFaaaaaaaaaaaaaaaa",
"aaaaaaaaaaFreeevcrrtrrrrbbrbbbbbFFaaaaaaaaaaaFttFaaaaaaaaaaaaaaa",
"aaaaaaaaaaFgeeevooccrfhbbbrbbbbFaaaaaaaaaaaaaaFrrFaaaaaaaaaaaaaa",
"aaaaaaaaaaFeeeseooccrbhhbbrbbFFaaaaaaaaaaaaaaaaFrrFaaaaaaaaaaaaa",
"aaaaaaaaaaFeeeseoeccrbbbbbrrFaaaaaaaaaaaaaaaaaaaFrrFaaaaaaaaaaaa",
"aaaaaaaaaaaFeeweeeccrbbbbbFFaaaaaaaaaaaaaaaaaaaaaFrpFaaaaaaaaaaa",
"aaaaaaaaaaaaFeeeeeectbbbFFaaaaaaaaaaaaaaaaaaaaaaaaFppFaaaaaaaaaa",
"aaaaaaaaaaaaaFeeeeerpFFFaaaaaaaaaaaaaaaaaaaaaaaaaaaFnvFaaaaaaaaa",
"aaaaaaaaaaaaaaFFFFFFFaaaaaaaaaaaaaaaaaaaaaaaaaaaaaaaFFaaaaaaaaaa",
"aaaaaaaaaaaaaaaaaaaaaaaaaaaaaaaaaaaaaaaaaaaaaaaaaaaaaaaaaaaaaaaa",
"aaaaaaaaaaaaaaaaaaaaaaaaaaaaaaaaaaaaaaaaaaaaaaaaaaaaaaaaaaaaaaaa",
"aaaaaaaaaaaaaaaaaaaaaaaaaaaaaaaaaaaaaaaaaaaaaaaaaaaaaaaaaaaaaaaa",
"aaaaaaaaaaaaaaaaaaaaaaaaaaaaaaaaaaaaaaaaaaaaaaaaaaaaaaaaaaaaaaaa",
"aaaaaaaaaaaaaaaaaaaaaaaaaaaaaaaaaaaaaaaaaaaaaaaaaaaaaaaaaaaaaaaa",
"aaaaaaaaaaaaaaaaaaaaaaaaaaaaaaaaaaaaaaaaaaaaaaaaaaaaaaaaaaaaaaaa",
"aaaaaaaaaaaaaaaaaaaaaaaaaaaaaaaaaaaaaaaaaaaaaaaaaaaaaaaaaaaaaaaa",
"aaaaaaaaaaaaaaaaaaaaaaaaaaaaaaaaaaaaaaaaaaaaaaaaaaaaaaaaaaaaaaaa",
"aaaaaaaaaaaaaaaaaaaaaaaaaaaaaaaaaaaaaaaaaaaaaaaaaaaaaaaaaaaaaaaa",
"aaaaaaaaaaaaaaaaaaaaaaaaaaaaaaaaaaaaaaaaaaaaaaaaaaaaaaaaaaaaaaaa"
};
