/* XPM */
static char *blossom_petals_xpm[] = {
"64 64 21 1",
"a c #FF00FF",
"b c #FDFBF9",
"c c #F7E4DF",
"d c #F3D7D3",
"e c #EFCBCC",
"f c #E3C0B9",
"g c #F5BAC8",
"h c #F2AFBE",
"i c #EEA3B9",
"j c #E997AD",
"k c #DB85A0",
"l c #D57895",
"m c #CB6C8B",
"n c #BF6083",
"o c #BA5272",
"p c #AC5375",
"q c #A8466A",
"r c #99405E",
"s c #8C3B55",
"t c #83354C",
"u c #733241",
/* pixels */
"aaaaaaaaaaaaaaaaaaaaaaaaaaaaaaaaaaaaaaaaaaaaaaaaaaaaaaaaaaaaaaaa",
"aaaaaaaaaaaaaaaaaaaaaaaaaaaaaaaaaaaaaaaaaaaaaaaaaaaaaaaaaaaaaaaa",
"aaaaaaaaaaaaaaaaaaaaaaaaaaaaaaaaaaaaaaaaaaaaaaaaaaaaaaaaaaaaaaaa",
"aaaaaaaaaaaaaaaaaaaaaaaaaaaaaaaaaaaaaaaaaaaaaaaaaaaaaaaaaaaaaaaa",
"aaaaaaaaaaaaaaaaaaaaaaaaaaaaaaaaaaaaaaaaaaaaaaaaaaaaaaaaaaaaaaaa",
"aaaaaaaaaaaaaaaaaaaaaaaaaaaaaaaaaaaaaaaaaaaaaaaaaaaaaaaaaaaaaaaa",
"aaaaaaaaaaaaaaaaaaaaaaaaaaaaaaaaaaaaaaaaaaaaaaaaaaaaaaaaaaaaaaaa",
"aaaaaaaaaaaaaaaaaaaaaaaaaaaaaaaaaaaaaaaaaaaaaaaaaaaaaaaaaaaaaaaa",
"aaaaaaaaaaaaaaaaaaaaaaaaaaaaaaamlllaaaaaaaaaaaaaaaaaaaaaaaaaaaaa",
"aaaaaaaaaaaaaaaaaaaaaaaaaaaaaalggggjgaaaaaaaaaaaaaaaaaaaaaaaaaaa",
"aaaaaaaaaaaaaaaaaaaaaaaaaaaaasssgggjiiiiiaaaaaaaaaaaaaaaaaaaaaaa",
"aaaaaaaaaaaaaaaaaaaaaaaaapppaaaassrmiiiiiiaaaaaaaaaaaaaaaaaaaaaa",
"aaaaaaaaaaaaaaaaaaaaaaaalgggraaadddssssiiiaaaaaaaaaaaaaaaaaaaaaa",
"aaaaaaaaaaaaaaaaaaaaaaallrrraaajaddaaaakiihaaaiiiaaaaaaaaaaaaaaa",
"aaaaaaaaaaaaaaaaaaaaaaaiiiiaaaaaaapaaaaashihaasiiiaaaaaaaaaaaaaa",
"aaaaaaaaaaaaaaaaaaaaaaaiaaaaaaaaaaaaaaaaassjaaatiiiaaaaaaaaaaaaa",
"aaaaaaaaaaaaaaaaaaaaqqaaaaaaaaaaaaaaaaaaasggqaaaiiiaaaaaaaaaaaaa",
"aaaaaaaaaaaaaaaaaaaqetaaaaaaaarrlaaaaaaaaagqqaaauilaaaaaaaaaaaaa",
"aaaaaaaaaaaaaaaaaaqedtaaaaaakreeeraaaaaaaaaaaaaaulaaaaaaaaaaaaaa",
"aaaaaaaaaaaaaaaaaaqetaaaaakkksssssssaaaaaaaaaaaaaaaaaaaaaaaaaaaa",
"aaaaaaaaaaaaaaaaaajtaaaagkggssaaaaaaaaaaaaaaaaaaaaaaaaaaaaaaaaaa",
"aaaaaaaaaaaaaaaaaaaaaaalggttaaaaaaaagaaaaaaappaaaarmaaaaaaaaaaaa",
"aaaaaaaaaaaaaaaaaaaaaatedghagguuaallgtttaaanihpaaardnaaaaaaaaaaa",
"aaaaaaaaaaaaaaaaqaaaaateepggggaafmmghggssaanhhpaaardmaaaaaaaaaaa",
"aaaaaaaaaaaaaaakeaaraaaasgaguaaadddtggggssaapppaahhtaaaaaaaaaaaa",
"aaaaaaaaaaaaaaakeeqcpparggssaaammmmmttggjsaaaaaahhhuaaaaaaaaaaaa",
"aaaaaaaaaaaaaaakeeqdccreennsatmmmmmmmmmnjsssajuahhuaaaaaaaaaaaaa",
"aaaaaaaaaaaaaaakeeqccireennssmmmrrrrmmsjjsjsatkuhuaaaaaaaaaaaaaa",
"aaaaaaaaaaaaaaaakeqciieeonnsrrrrrrrrmmsgsjjstllugguuaaaaaaaaaaaa",
"aaaaaaaaaaaaaaasleeqiiikpcnnrrrrggrrrrissmmsllugggqquaaaaaaaaaaa",
"aaaaaaaaaaaaaasllkiihhqgpcnnrrrgggurriitiitlluggggqiiuaaaaaaaaaa",
"aaaaaaaaaaaaaasllshihhqhgrdnrhgggtrrlssgttlloggggriiiiuaaaaaaaaa",
"aaaaaaaaaaalkkgsssihllgggrenrrgsttllskgggglogggssannrrsuaaaaaaaa",
"aaaaaaaaaamgbkkkhhthllggggsgrrssntttggggttleggtkssnnjjjjuaaaaaaa",
"aaaaaaaaaaautkkkhhhulllgggglmmssnnngeessieeetttslhhhpjjtiaaaaaaa",
"aaaaaaaaaaaaaskkrhhnuullgugglmmgnnnnsssdddkkkkkllhhqqjtdisaaaaaa",
"aaaaaaaaaaqqrkermmnnddllleegggmggnggnnnnneklkkkqgqqgllddisaaaaaa",
"aaaaaaaaaaqggrddmgeessggllettggggngggnnnneedkccqplllllrrssaaaaaa",
"aaaaaaarraqgqimdmmeessgggllllsgggrrggnggeeekdccqlhlrllraaaaaaaaa",
"aaaaaaqgggrriimmmmmmggtgglllllsssccssgggekkkkrrdqllrrraalaaaaaaa",
"aaaaaaqgggaattttmsgugggussgglllllkllllgeekkkkkkeqlliillllaaaaaaa",
"aaaaaaarrraaaqjjjtgggqggggrreglrrrllllsslkgggglllllislllltaaaaaa",
"aaaaaaaaaaaaaqjjossggrrkggkgqqrcllllqlllggggglllltttaaattuaaaaaa",
"aaaaaaaaaaaaaauuaasgggrkkkogqccclellssmmggssollltaaaaaaaaaaaaaaa",
"aaaaaaaaaaaaiiaaaassrrrrrrggqccnmeesmmlmrrllcttttaaaaaaaaaaaaaaa",
"aaaaaaaaaaaasiiarmmmrrrdkkeeqqhnmmmmlldddrllsjjjuaaarsaaaaaaaaaa",
"aaaaaaaaaaaaspihhmmlmlrrkkttihhhmmmmddddrrllsjjuaaarjjsaaaaaaaaa",
"aaaaaaaaaaaaasssstteeerrstjjjshhssmmssscjjsstttaaarjjjsaaaaaaaaa",
"aaaaaaaaaaaaaaaaaaeeeeesaatjjsssssssssssjjjtaaaaaarjjtaaaaaaaaaa",
"aaaaaaaaaaaaaaaaaateedksaatttlkksasjjsaasiitaaaaaasstaaaaaaaaaaa",
"aaaaaaaaaaaajjjaaaautttaaaaaatkktasjjjtaatttaahoaasaaaaaaaaaaaaa",
"aaaaaaaaaaaargggoaaaaaaaaaaaaattaaasjjtaaataaggtaaaaaaaaaaaaaaaa",
"aaaaaaaaaaaaasssaaaaaaaaaaaaaaaaaaaatttaaaaahggtaaaaaaaaaaaaaaaa",
"aaaaaaaaaaaaaaaaaaaaaaaaoonaaaaaaaaaaaaaaaaasttaaaaaaaaaaaaaaaaa",
"aaaaaaaaaaaaaaaaaaaaaaaniiinsaaaaaaaaaaaaaaaaaaaaaaaaaaaaaaaaaaa",
"aaaaaaaaaaaaaaaaaaaaaaaniiisaaaaaaaaaaaaaaaaaaaaaaaaaaaaaaaaaaaa",
"aaaaaaaaaaaaaaaaaaaaaaaarrraaaaaaaaaaaaaaaaaaaaaaaaaaaaaaaaaaaaa",
"aaaaaaaaaaaaaaaaaaaaaaaaaaaaaaaaaaaaaaaaaaaaaaaaaaaaaaaaaaaaaaaa",
"aaaaaaaaaaaaaaaaaaaaaaaaaaaaaaaaaaaaaaaaaaaaaaaaaaaaaaaaaaaaaaaa",
"aaaaaaaaaaaaaaaaaaaaaaaaaaaaaaaaaaaaaaaaaaaaaaaaaaaaaaaaaaaaaaaa",
"aaaaaaaaaaaaaaaaaaaaaaaaaaaaaaaaaaaaaaaaaaaaaaaaaaaaaaaaaaaaaaaa",
"aaaaaaaaaaaaaaaaaaaaaaaaaaaaaaaaaaaaaaaaaaaaaaaaaaaaaaaaaaaaaaaa",
"aaaaaaaaaaaaaaaaaaaaaaaaaaaaaaaaaaaaaaaaaaaaaaaaaaaaaaaaaaaaaaaa",
"aaaaaaaaaaaaaaaaaaaaaaaaaaaaaaaaaaaaaaaaaaaaaaaaaaaaaaaaaaaaaaaa"
};
