/* XPM */
static char * images_028_xpm[] = {
"86 86 6327 2",
"  	c #9B9682",
". 	c #938D77",
"+ 	c #948D73",
"@ 	c #998E72",
"# 	c #B7AA88",
"$ 	c #BFB18C",
"% 	c #97855D",
"& 	c #837247",
"* 	c #AD9E73",
"= 	c #A89B6F",
"- 	c #8E855C",
"; 	c #A5A279",
"> 	c #A6A680",
", 	c #999F7B",
"' 	c #7B8562",
") 	c #95A080",
"! 	c #8B907A",
"~ 	c #989D89",
"{ 	c #898B76",
"] 	c #7D7C68",
"^ 	c #7A7863",
"/ 	c #827D69",
"( 	c #98907D",
"_ 	c #8F8774",
": 	c #87806E",
"< 	c #A49F8C",
"[ 	c #9B9587",
"} 	c #929083",
"| 	c #9A9A8E",
"1 	c #909388",
"2 	c #848780",
"3 	c #757A74",
"4 	c #686A67",
"5 	c #898B88",
"6 	c #8F8E8C",
"7 	c #9C9B96",
"8 	c #8F8A84",
"9 	c #9B978C",
"0 	c #9E968B",
"a 	c #B9B2A2",
"b 	c #716859",
"c 	c #A09786",
"d 	c #B2AB98",
"e 	c #ACA592",
"f 	c #C1BCA9",
"g 	c #B3AE9B",
"h 	c #93907D",
"i 	c #BAB9A7",
"j 	c #9D9E8E",
"k 	c #B6B8AA",
"l 	c #B1B3A5",
"m 	c #B8BAAC",
"n 	c #606255",
"o 	c #5E6053",
"p 	c #75776C",
"q 	c #BEC0B5",
"r 	c #A2A39D",
"s 	c #969791",
"t 	c #9FA09B",
"u 	c #90918C",
"v 	c #A1A29D",
"w 	c #8A8B86",
"x 	c #8E8E8C",
"y 	c #BABBB6",
"z 	c #898C81",
"A 	c #616459",
"B 	c #7D8079",
"C 	c #A4A6A3",
"D 	c #C2C3C7",
"E 	c #A8A8B0",
"F 	c #A8A8B4",
"G 	c #9998A6",
"H 	c #BCBBC9",
"I 	c #9797A3",
"J 	c #696971",
"K 	c #67686C",
"L 	c #777976",
"M 	c #AAADA6",
"N 	c #A1A499",
"O 	c #ABB5AD",
"P 	c #84929D",
"Q 	c #97AAB9",
"R 	c #7E8F99",
"S 	c #7C8B90",
"T 	c #9EACAC",
"U 	c #A4B0AC",
"V 	c #706D5C",
"W 	c #8B8672",
"X 	c #ADA791",
"Y 	c #A89E83",
"Z 	c #9B9072",
"` 	c #988968",
" .	c #978763",
"..	c #B3A47D",
"+.	c #A89972",
"@.	c #9E926A",
"#.	c #9A916A",
"$.	c #817D58",
"%.	c #565735",
"&.	c #828866",
"*.	c #B1BA9B",
"=.	c #ACB59A",
"-.	c #888D77",
";.	c #60624D",
">.	c #787762",
",.	c #6D6B56",
"'.	c #8A8571",
").	c #9A927F",
"!.	c #ABA390",
"~.	c #97907E",
"{.	c #8C8573",
"].	c #5E5848",
"^.	c #777465",
"/.	c #88887C",
"(.	c #7F8176",
"_.	c #93968D",
":.	c #73766F",
"<.	c #828783",
"[.	c #868A89",
"}.	c #868684",
"|.	c #686963",
"1.	c #88857E",
"2.	c #908D84",
"3.	c #A6A094",
"4.	c #A19B8D",
"5.	c #9D9686",
"6.	c #847D6B",
"7.	c #67624F",
"8.	c #7E7966",
"9.	c #95927F",
"0.	c #B2B19F",
"a.	c #8D8C7A",
"b.	c #939482",
"c.	c #A0A191",
"d.	c #7E8170",
"e.	c #8C8F7E",
"f.	c #A9AC9B",
"g.	c #747668",
"h.	c #ABAD9F",
"i.	c #BDBFB2",
"j.	c #898B80",
"k.	c #76776F",
"l.	c #73746C",
"m.	c #9C9D97",
"n.	c #8C8D87",
"o.	c #B2B3AD",
"p.	c #898A84",
"q.	c #858681",
"r.	c #93948E",
"s.	c #979A8F",
"t.	c #989B90",
"u.	c #8E9188",
"v.	c #898B86",
"w.	c #B4B5B7",
"x.	c #97989D",
"y.	c #93939B",
"z.	c #B3B3BD",
"A.	c #BBBBC5",
"B.	c #8A8A92",
"C.	c #85868B",
"D.	c #98999B",
"E.	c #787A75",
"F.	c #81847B",
"G.	c #8A8D82",
"H.	c #A9B0A9",
"I.	c #8A98A1",
"J.	c #96A8B6",
"K.	c #6E7F89",
"L.	c #758489",
"M.	c #98A4A4",
"N.	c #96A29E",
"O.	c #B0B0A4",
"P.	c #A19F90",
"Q.	c #A5A291",
"R.	c #A39D87",
"S.	c #A59B82",
"T.	c #A59A7E",
"U.	c #9A8D6D",
"V.	c #A69776",
"W.	c #AB9C7B",
"X.	c #B3A888",
"Y.	c #A09778",
"Z.	c #777455",
"`.	c #8C8C70",
" +	c #ABAF94",
".+	c #AAAF98",
"++	c #889079",
"@+	c #ACB19B",
"#+	c #A0A58F",
"$+	c #868873",
"%+	c #9B9A85",
"&+	c #888671",
"*+	c #77725C",
"=+	c #7C745F",
"-+	c #8A826D",
";+	c #A19986",
">+	c #928B79",
",+	c #635C4C",
"'+	c #958F81",
")+	c #9E9A8E",
"!+	c #858377",
"~+	c #B1B1A7",
"{+	c #969992",
"]+	c #A6ACA8",
"^+	c #B4BDBA",
"/+	c #B2B7B3",
"(+	c #7C817B",
"_+	c #84857F",
":+	c #83857A",
"<+	c #939185",
"[+	c #888679",
"}+	c #8E8C7D",
"|+	c #81806E",
"1+	c #7A7967",
"2+	c #91907E",
"3+	c #70715F",
"4+	c #929584",
"5+	c #888B7A",
"6+	c #A2A594",
"7+	c #939683",
"8+	c #9C9D8B",
"9+	c #A6A795",
"0+	c #A8A997",
"a+	c #949585",
"b+	c #898A7A",
"c+	c #919284",
"d+	c #A5A698",
"e+	c #A4A498",
"f+	c #818175",
"g+	c #8E8E84",
"h+	c #66665C",
"i+	c #9E9E94",
"j+	c #828278",
"k+	c #86867E",
"l+	c #7C7E73",
"m+	c #82857A",
"n+	c #A5A99B",
"o+	c #AAADA2",
"p+	c #9A9D96",
"q+	c #AFB1AC",
"r+	c #949695",
"s+	c #8A8B8D",
"t+	c #A3A4A6",
"u+	c #C6C7C9",
"v+	c #AEAFB1",
"w+	c #C6C8C7",
"x+	c #C4C6C1",
"y+	c #898C85",
"z+	c #96998E",
"A+	c #A6AA9C",
"B+	c #A7AEA7",
"C+	c #8997A0",
"D+	c #93A5B3",
"E+	c #64757F",
"F+	c #78878C",
"G+	c #899490",
"H+	c #8D8E86",
"I+	c #ABA899",
"J+	c #A19A88",
"K+	c #9A927D",
"L+	c #988E75",
"M+	c #ADA187",
"N+	c #B6AA92",
"O+	c #B5AB92",
"P+	c #9D977F",
"Q+	c #86816B",
"R+	c #B9B8A4",
"S+	c #B0B3A0",
"T+	c #9CA08F",
"U+	c #8B9280",
"V+	c #747965",
"W+	c #717660",
"X+	c #8E907B",
"Y+	c #8D8C77",
"Z+	c #A2A08B",
"`+	c #6F6A54",
" @	c #978F7A",
".@	c #938B78",
"+@	c #AFA695",
"@@	c #A19889",
"#@	c #B9B1A4",
"$@	c #ACA69A",
"%@	c #787469",
"&@	c #89867D",
"*@	c #90918B",
"=@	c #8F9895",
"-@	c #9FA9A8",
";@	c #868F8C",
">@	c #7F8581",
",@	c #797E77",
"'@	c #969990",
")@	c #84867B",
"!@	c #7B7D70",
"~@	c #67695B",
"{@	c #646658",
"]@	c #626456",
"^@	c #6F7163",
"/@	c #787C6D",
"(@	c #9AA191",
"_@	c #8A9082",
":@	c #8F9686",
"<@	c #909380",
"[@	c #888A74",
"}@	c #8C8E79",
"|@	c #979984",
"1@	c #80816F",
"2@	c #AEAF9F",
"3@	c #929383",
"4@	c #8E8F7F",
"5@	c #A9AA9C",
"6@	c #818274",
"7@	c #909183",
"8@	c #7E7F71",
"9@	c #8C8C80",
"0@	c #929286",
"a@	c #787A6D",
"b@	c #808378",
"c@	c #929489",
"d@	c #6D6E66",
"e@	c #767972",
"f@	c #8F908A",
"g@	c #959690",
"h@	c #8E918A",
"i@	c #9FA09A",
"j@	c #8F9289",
"k@	c #73756A",
"l@	c #7D7F74",
"m@	c #6C736C",
"n@	c #8E9BA3",
"o@	c #9EAEBB",
"p@	c #7B8992",
"q@	c #96A4A7",
"r@	c #A4AEAD",
"s@	c #848D8A",
"t@	c #717777",
"u@	c #737776",
"v@	c #A0A29F",
"w@	c #ADAEA8",
"x@	c #98958C",
"y@	c #8F897D",
"z@	c #918A7A",
"A@	c #A59C8B",
"B@	c #BAB1A2",
"C@	c #928B7B",
"D@	c #999385",
"E@	c #878377",
"F@	c #7B796D",
"G@	c #7B7D72",
"H@	c #ACAFA6",
"I@	c #ACB2A8",
"J@	c #969A8B",
"K@	c #8E937F",
"L@	c #949583",
"M@	c #777662",
"N@	c #8B8875",
"O@	c #6A6551",
"P@	c #8F8875",
"Q@	c #857D6A",
"R@	c #6F6353",
"S@	c #9E9282",
"T@	c #A69A8C",
"U@	c #978D81",
"V@	c #A3998F",
"W@	c #877E75",
"X@	c #676058",
"Y@	c #868580",
"Z@	c #707978",
"`@	c #8B9999",
" #	c #8F9B99",
".#	c #A0ABA7",
"+#	c #9BA49F",
"@#	c #B3BAB3",
"##	c #B5BBB1",
"$#	c #CDD0C5",
"%#	c #A4A79C",
"&#	c #9FA395",
"*#	c #7C8072",
"=#	c #474D3F",
"-#	c #808879",
";#	c #99A494",
">#	c #8E998B",
",#	c #939B8C",
"'#	c #9DA08B",
")#	c #CFCFB7",
"!#	c #A8A792",
"~#	c #72715C",
"{#	c #BEBDA8",
"]#	c #A6A591",
"^#	c #81806C",
"/#	c #959482",
"(#	c #A8A795",
"_#	c #A2A18F",
":#	c #AAA899",
"<#	c #9D9B8C",
"[#	c #979586",
"}#	c #9E9C8D",
"|#	c #868779",
"1#	c #97978D",
"2#	c #9D9F94",
"3#	c #A6A69C",
"4#	c #9B9D90",
"5#	c #858579",
"6#	c #939587",
"7#	c #9E9F91",
"8#	c #8D907F",
"9#	c #8D8E7E",
"0#	c #838577",
"a#	c #8B8C7E",
"b#	c #8F9184",
"c#	c #A0A094",
"d#	c #636359",
"e#	c #757A76",
"f#	c #79848A",
"g#	c #8F9BA7",
"h#	c #848E97",
"i#	c #9CA5AA",
"j#	c #989E9E",
"k#	c #727876",
"l#	c #868F96",
"m#	c #62696F",
"n#	c #6E7376",
"o#	c #767A7B",
"p#	c #777775",
"q#	c #888580",
"r#	c #89847E",
"s#	c #867F77",
"t#	c #A59E96",
"u#	c #918A82",
"v#	c #8A857F",
"w#	c #87847F",
"x#	c #91908C",
"y#	c #8D8D8B",
"z#	c #7E807F",
"A#	c #5E605D",
"B#	c #818479",
"C#	c #646557",
"D#	c #6C6D5D",
"E#	c #7C796A",
"F#	c #9F9989",
"G#	c #ABA494",
"H#	c #9D9483",
"I#	c #B2A698",
"J#	c #BCB0A4",
"K#	c #A99C93",
"L#	c #7E7168",
"M#	c #9C8F89",
"N#	c #9F948E",
"O#	c #645955",
"P#	c #706C69",
"Q#	c #616A69",
"R#	c #6E7C7D",
"S#	c #899797",
"T#	c #869290",
"U#	c #9CA5A2",
"V#	c #848B84",
"W#	c #848982",
"X#	c #83867D",
"Y#	c #71746B",
"Z#	c #ABAEA3",
"`#	c #CBCEC3",
" $	c #93998D",
".$	c #BBC3B8",
"+$	c #929C91",
"@$	c #6B756C",
"#$	c #6A7265",
"$$	c #6C6D5B",
"%$	c #666550",
"&$	c #979681",
"*$	c #9D9C87",
"=$	c #999884",
"-$	c #9A9985",
";$	c #B3B29E",
">$	c #8F8E7C",
",$	c #A7A694",
"'$	c #9C9B89",
")$	c #9F9E8C",
"!$	c #AAA997",
"~$	c #9B998A",
"{$	c #AFAE9C",
"]$	c #918F80",
"^$	c #848275",
"/$	c #8C8982",
"($	c #AEADA8",
"_$	c #9E9B92",
":$	c #949488",
"<$	c #9D9B8E",
"[$	c #919280",
"}$	c #6D6C58",
"|$	c #767862",
"1$	c #82816D",
"2$	c #9A9C87",
"3$	c #C1BFB3",
"4$	c #A2A298",
"5$	c #7D7A75",
"6$	c #8F8F8F",
"7$	c #666D75",
"8$	c #747E87",
"9$	c #7E878E",
"0$	c #8D9598",
"a$	c #8B8F90",
"b$	c #7E807D",
"c$	c #636D79",
"d$	c #4E5862",
"e$	c #636C75",
"f$	c #5D6268",
"g$	c #45484D",
"h$	c #5C5C5E",
"i$	c #757374",
"j$	c #807C7D",
"k$	c #7B7575",
"l$	c #898383",
"m$	c #736D6F",
"n$	c #847F83",
"o$	c #ACAAAF",
"p$	c #9C99A0",
"q$	c #4C4B51",
"r$	c #2A292E",
"s$	c #676863",
"t$	c #6E6F67",
"u$	c #4A4A42",
"v$	c #616157",
"w$	c #656156",
"x$	c #8E887C",
"y$	c #8C8479",
"z$	c #7D756A",
"A$	c #8A8077",
"B$	c #7F756C",
"C$	c #736660",
"D$	c #685B55",
"E$	c #857776",
"F$	c #A79998",
"G$	c #A19393",
"H$	c #9B9293",
"I$	c #7A7F82",
"J$	c #5F6A6C",
"K$	c #525C5D",
"L$	c #505958",
"M$	c #8D9391",
"N$	c #8C918B",
"O$	c #6B6E67",
"P$	c #36372F",
"Q$	c #797A72",
"R$	c #84857D",
"S$	c #63665D",
"T$	c #858881",
"U$	c #7B8079",
"V$	c #70756F",
"W$	c #7B7E75",
"X$	c #939486",
"Y$	c #858271",
"Z$	c #8A8776",
"`$	c #9B9887",
" %	c #B1AE9D",
".%	c #9F9C8B",
"+%	c #928F7E",
"@%	c #8A8778",
"#%	c #4B4839",
"$%	c #666354",
"%%	c #A5A293",
"&%	c #B6B3A4",
"*%	c #949084",
"=%	c #8D8A7B",
"-%	c #898579",
";%	c #938F84",
">%	c #938E8B",
",%	c #A29E9D",
"'%	c #7C7773",
")%	c #747168",
"!%	c #767266",
"~%	c #747361",
"{%	c #64624D",
"]%	c #8D8D75",
"^%	c #73715C",
"/%	c #94937E",
"(%	c #AFAC9B",
"_%	c #918F82",
":%	c #AFABA2",
"<%	c #AEABA6",
"[%	c #9E9898",
"}%	c #979598",
"|%	c #80838A",
"1%	c #71787E",
"2%	c #808589",
"3%	c #7E8285",
"4%	c #878787",
"5%	c #9E9F9A",
"6%	c #717A89",
"7%	c #6E7884",
"8%	c #939BA6",
"9%	c #888F99",
"0%	c #5D6069",
"a%	c #5B5B63",
"b%	c #5A595F",
"c%	c #504E53",
"d%	c #5A555B",
"e%	c #585158",
"f%	c #615C62",
"g%	c #777279",
"h%	c #4C4952",
"i%	c #54515A",
"j%	c #67646F",
"k%	c #7E7D83",
"l%	c #7F7D80",
"m%	c #7E7D7B",
"n%	c #646361",
"o%	c #5B5754",
"p%	c #585550",
"q%	c #58534D",
"r%	c #6B645E",
"s%	c #665D56",
"t%	c #625954",
"u%	c #564B47",
"v%	c #514644",
"w%	c #544645",
"x%	c #382829",
"y%	c #413134",
"z%	c #6A595F",
"A%	c #51464C",
"B%	c #45464A",
"C%	c #565E60",
"D%	c #42474A",
"E%	c #444849",
"F%	c #565855",
"G%	c #959691",
"H%	c #A3A29D",
"I%	c #AFACA5",
"J%	c #A29F98",
"K%	c #8F8C85",
"L%	c #97948D",
"M%	c #8E8E86",
"N%	c #7F7E79",
"O%	c #767772",
"P%	c #6B6B69",
"Q%	c #73746E",
"R%	c #716E65",
"S%	c #5C584C",
"T%	c #696559",
"U%	c #747064",
"V%	c #6E6A5E",
"W%	c #7E7A6F",
"X%	c #59554A",
"Y%	c #6D695E",
"Z%	c #69655A",
"`%	c #6F6B60",
" &	c #6C685D",
".&	c #5E5953",
"+&	c #605A5C",
"@&	c #544E52",
"#&	c #564D4E",
"$&	c #6B6660",
"%&	c #4A4339",
"&&	c #4F4C3D",
"*&	c #5C5744",
"=&	c #706E59",
"-&	c #5A5541",
";&	c #44412E",
">&	c #635D4F",
",&	c #605C51",
"'&	c #7A726F",
")&	c #746E6E",
"!&	c #7E757A",
"~&	c #807B81",
"{&	c #919297",
"]&	c #676B6E",
"^&	c #6A6B6D",
"/&	c #545454",
"(&	c #605F5B",
"_&	c #8F8C87",
":&	c #CED6E3",
"<&	c #CDD5E2",
"[&	c #CBD3DE",
"}&	c #CAD1DB",
"|&	c #CBCED7",
"1&	c #CBCBD3",
"2&	c #CBCAD2",
"3&	c #CBC8CF",
"4&	c #C9C4CB",
"5&	c #CBC6CD",
"6&	c #CCC7CE",
"7&	c #CDC8CF",
"8&	c #CCC6D0",
"9&	c #CEC8D2",
"0&	c #CDCAD3",
"a&	c #DAD5DC",
"b&	c #D8D3D9",
"c&	c #D5D0D4",
"d&	c #D1CDCE",
"e&	c #CFCBCC",
"f&	c #CFC9C9",
"g&	c #CFCAC7",
"h&	c #D1C9C7",
"i&	c #D0C6C5",
"j&	c #CDC1C3",
"k&	c #C7BBBD",
"l&	c #C3B4B9",
"m&	c #BDAEB5",
"n&	c #BAA9B3",
"o&	c #B4A7B0",
"p&	c #A6A4A9",
"q&	c #A6A7A9",
"r&	c #A5A5A5",
"s&	c #A5A4A2",
"t&	c #AEAAA7",
"u&	c #BEB9B5",
"v&	c #CBC4BE",
"w&	c #D0C7C0",
"x&	c #CFC6BF",
"y&	c #CCC3BC",
"z&	c #CAC1BC",
"A&	c #C9C2BC",
"B&	c #CAC2BF",
"C&	c #C6C1BD",
"D&	c #C1BCB9",
"E&	c #BCB7B4",
"F&	c #BAB5AF",
"G&	c #BAB3AD",
"H&	c #AFA8A2",
"I&	c #9D9690",
"J&	c #8C857F",
"K&	c #8D8680",
"L&	c #ADA6A0",
"M&	c #A9A29C",
"N&	c #A8A19B",
"O&	c #A69F99",
"P&	c #A49D97",
"Q&	c #A29B93",
"R&	c #A09991",
"S&	c #9F9890",
"T&	c #9E9693",
"U&	c #9F969B",
"V&	c #968C94",
"W&	c #8F8488",
"X&	c #8E8684",
"Y&	c #948B86",
"Z&	c #938D81",
"`&	c #8C8575",
" *	c #827D6A",
".*	c #918A78",
"+*	c #908A7A",
"@*	c #90887D",
"#*	c #8C857D",
"$*	c #877D7C",
"%*	c #7F7679",
"&*	c #786D75",
"**	c #716A71",
"=*	c #838184",
"-*	c #7B7B7B",
";*	c #747371",
">*	c #736F6C",
",*	c #77726E",
"'*	c #7C7771",
")*	c #BDC1CC",
"!*	c #BCC0CB",
"~*	c #BDC0C9",
"{*	c #BEBEC6",
"]*	c #BEBDC3",
"^*	c #BFBCC3",
"/*	c #C1BCC3",
"(*	c #C1BCC2",
"_*	c #C3BEC4",
":*	c #C4BFC5",
"<*	c #C2BBC2",
"[*	c #C0BBC1",
"}*	c #C2BBC3",
"|*	c #C4BDC5",
"1*	c #C3BCC4",
"2*	c #C0BBBF",
"3*	c #C1BDBE",
"4*	c #C2BEBD",
"5*	c #C4BFBC",
"6*	c #C6C1BE",
"7*	c #C9C0C1",
"8*	c #CCC2C3",
"9*	c #CEC2C6",
"0*	c #CFC2C9",
"a*	c #D2C2CC",
"b*	c #D0C5CB",
"c*	c #CDC9CA",
"d*	c #CDCCCA",
"e*	c #CDC9C6",
"f*	c #CBC6C2",
"g*	c #CEC6C3",
"h*	c #D5CCC5",
"i*	c #D9CEC8",
"j*	c #D9CCC4",
"k*	c #D2C5BD",
"l*	c #D1C4BC",
"m*	c #D0C3BD",
"n*	c #D0C5BF",
"o*	c #D3C8C4",
"p*	c #D2C8C6",
"q*	c #CFC5C3",
"r*	c #D2C8C7",
"s*	c #D2CAC7",
"t*	c #CFC7C4",
"u*	c #CDC3C1",
"v*	c #CDC5C2",
"w*	c #D4CAC8",
"x*	c #D8D0CD",
"y*	c #D9CFCD",
"z*	c #D7CFCC",
"A*	c #D7CDCB",
"B*	c #D4CCC9",
"C*	c #D3CAC5",
"D*	c #D0C9C3",
"E*	c #D0C7C2",
"F*	c #D1C6CC",
"G*	c #CCC1C9",
"H*	c #C9BDC1",
"I*	c #CAC0BF",
"J*	c #D0C5C1",
"K*	c #D1C8BF",
"L*	c #CEC4B8",
"M*	c #C7C0B0",
"N*	c #CEC6B9",
"O*	c #D0C6BD",
"P*	c #CFC6C1",
"Q*	c #CFC3C3",
"R*	c #CCC1C5",
"S*	c #CABDC6",
"T*	c #C7BCC2",
"U*	c #C9C3C3",
"V*	c #C4C1BC",
"W*	c #C1BCB6",
"X*	c #C0BBB5",
"Y*	c #C5BEB6",
"Z*	c #C8BFB8",
"`*	c #AAA9AF",
" =	c #ABAAB0",
".=	c #ADABB0",
"+=	c #AEACB1",
"@=	c #B1ACB0",
"#=	c #B3ADAF",
"$=	c #B2ACAE",
"%=	c #B4AEAE",
"&=	c #B2ACAC",
"*=	c #B1A8A9",
"==	c #AEA8A8",
"-=	c #B0A7AA",
";=	c #B2A9AC",
">=	c #B0A6AE",
",=	c #AEA7AE",
"'=	c #AEA8AC",
")=	c #AEAAAB",
"!=	c #B0ACAB",
"~=	c #B1ADAA",
"{=	c #B0AFAA",
"]=	c #AAA9A4",
"^=	c #ABAAA5",
"/=	c #B1ACA9",
"(=	c #B5ACAD",
"_=	c #B7AEAF",
":=	c #BAAFB3",
"<=	c #BAB1B2",
"[=	c #B5B0AD",
"}=	c #BAB5B1",
"|=	c #BBB6B0",
"1=	c #BAB3AB",
"2=	c #BAAFA9",
"3=	c #BBAEA5",
"4=	c #B8AAA1",
"5=	c #B2A499",
"6=	c #BEB0A5",
"7=	c #BEB0A7",
"8=	c #C0B1AA",
"9=	c #C2B5AF",
"0=	c #C0B5AF",
"a=	c #BFB4B0",
"b=	c #BCB2B0",
"c=	c #C3B7B7",
"d=	c #C0B6B5",
"e=	c #C0B4B4",
"f=	c #C3B9B8",
"g=	c #C8BCBC",
"h=	c #C7BDBC",
"i=	c #C3B8B6",
"j=	c #BDB3B1",
"k=	c #C5BAB8",
"l=	c #C3B9B7",
"m=	c #C3B8B4",
"n=	c #C1B8B3",
"o=	c #C0B5B1",
"p=	c #BEB5B0",
"q=	c #BDB2AC",
"r=	c #BDB2AE",
"s=	c #B7ABAD",
"t=	c #B6AAAE",
"u=	c #B7A9A9",
"v=	c #B7ACAA",
"w=	c #BCAEAB",
"x=	c #BCB2A9",
"y=	c #BEB1A8",
"z=	c #BAB0A4",
"A=	c #BDB0A7",
"B=	c #BBB1A7",
"C=	c #BFB2AA",
"D=	c #BEB3AF",
"E=	c #C2B4B3",
"F=	c #C2B6B6",
"G=	c #C5B6BB",
"H=	c #C3B7B9",
"I=	c #C1BAB2",
"J=	c #BEBAAF",
"K=	c #C0BAAE",
"L=	c #C2BAAF",
"M=	c #C5BBB1",
"N=	c #A6A0A0",
"O=	c #A7A1A1",
"P=	c #A8A2A2",
"Q=	c #A9A4A1",
"R=	c #AAA5A2",
"S=	c #ACA4A1",
"T=	c #ADA5A2",
"U=	c #AAA29F",
"V=	c #ABA3A0",
"W=	c #ACA59F",
"X=	c #ABA49E",
"Y=	c #AAA19C",
"Z=	c #A9A09B",
"`=	c #ABA19F",
" -	c #ADA3A4",
".-	c #ACA1A5",
"+-	c #ABA2A3",
"@-	c #A7A49F",
"#-	c #A5A59D",
"$-	c #A5A59B",
"%-	c #A4A699",
"&-	c #A6A89B",
"*-	c #A5A79A",
"=-	c #A5A79C",
"--	c #A7A49D",
";-	c #A8A39D",
">-	c #A4A296",
",-	c #A9A59A",
"'-	c #AAA498",
")-	c #ACA296",
"!-	c #AEA294",
"~-	c #AA9D8D",
"{-	c #A49787",
"]-	c #AB9E8E",
"^-	c #AA9C91",
"/-	c #AB9D92",
"(-	c #AA9D94",
"_-	c #A89E95",
":-	c #A79C96",
"<-	c #A59C97",
"[-	c #B0A5A3",
"}-	c #AA9F9D",
"|-	c #A99E9C",
"1-	c #ADA2A0",
"2-	c #AEA39F",
"3-	c #AA9F9B",
"4-	c #A69B97",
"5-	c #AA9F99",
"6-	c #A99E98",
"7-	c #A79D94",
"8-	c #A69C93",
"9-	c #A59B92",
"0-	c #AEA19B",
"a-	c #AFA19E",
"b-	c #B0A39D",
"c-	c #AFA29A",
"d-	c #AEA199",
"e-	c #ADA097",
"f-	c #AEA198",
"g-	c #AFA299",
"h-	c #B1A49B",
"i-	c #B0A39A",
"j-	c #AFA29C",
"k-	c #B2A4A1",
"l-	c #B3A6A0",
"m-	c #A8A093",
"n-	c #A8A191",
"o-	c #ABA293",
"p-	c #ACA394",
"q-	c #AFA395",
"r-	c #AFA194",
"s-	c #B1A49C",
"t-	c #AFA59C",
"u-	c #B0A69D",
"v-	c #AEA69B",
"w-	c #B0A89D",
"x-	c #B2AA9D",
"y-	c #B2A99A",
"z-	c #B0A999",
"A-	c #B3AA9B",
"B-	c #B5AB9F",
"C-	c #B2A7A1",
"D-	c #B2A7A3",
"E-	c #B1A8A1",
"F-	c #B0A99F",
"G-	c #ACAA9D",
"H-	c #AAAB9B",
"I-	c #A7AC98",
"J-	c #A5AD96",
"K-	c #A5AD95",
"L-	c #A6AE96",
"M-	c #A7AF98",
"N-	c #ABB09A",
"O-	c #ACB19D",
"P-	c #AEB19E",
"Q-	c #A9AA9A",
"R-	c #ADAE9C",
"S-	c #B0AF9B",
"T-	c #B4AF9C",
"U-	c #B6AF9C",
"V-	c #B5AD98",
"W-	c #B1A994",
"X-	c #AEA38F",
"Y-	c #ABA291",
"Z-	c #AAA190",
"`-	c #A7A193",
" ;	c #A7A195",
".;	c #A8A296",
"+;	c #B3A9A0",
"@;	c #B2A59D",
"#;	c #B6A9A0",
"$;	c #B8ABA2",
"%;	c #BAADA4",
"&;	c #B7AAA1",
"*;	c #B7AB9F",
"=;	c #B6AA9C",
"-;	c #B5A99B",
";;	c #B4A898",
">;	c #BDB0A0",
",;	c #BEB1A1",
"';	c #BFB2A2",
");	c #BAAC9F",
"!;	c #B8AA9D",
"~;	c #B9ABA0",
"{;	c #BBADA2",
"];	c #BFB1A6",
"^;	c #BDAFA4",
"/;	c #B7A99C",
"(;	c #B7AA9A",
"_;	c #B8AB9B",
":;	c #B8AD9B",
"<;	c #B9AE9A",
"[;	c #B8B09B",
"};	c #BAAF9B",
"|;	c #BBAE9B",
"1;	c #BCAC9C",
"2;	c #BBA99B",
"3;	c #BAAA9B",
"4;	c #B6AA9A",
"5;	c #B4AC99",
"6;	c #B6AE9B",
"7;	c #B6AE99",
"8;	c #B5AD96",
"9;	c #B7AF98",
"0;	c #BBB09C",
"a;	c #B7AB9D",
"b;	c #B8AC9E",
"c;	c #B7AE9F",
"d;	c #B6B19D",
"e;	c #B3B39B",
"f;	c #AFB398",
"g;	c #ABB495",
"h;	c #AAB593",
"i;	c #A8B693",
"j;	c #A9B794",
"k;	c #ACB797",
"l;	c #AEB79A",
"m;	c #AEB39C",
"n;	c #B1B69F",
"o;	c #B0B49D",
"p;	c #ADAF97",
"q;	c #ADAD95",
"r;	c #B0AE95",
"s;	c #B1AD94",
"t;	c #ADA98E",
"u;	c #B0AA90",
"v;	c #B1AB93",
"w;	c #B0AB95",
"x;	c #AFAA96",
"y;	c #ABA895",
"z;	c #ACA996",
"A;	c #ADAC9A",
"B;	c #B0AD9C",
"C;	c #AAA094",
"D;	c #AFA397",
"E;	c #B3A79B",
"F;	c #B7AB9B",
"G;	c #B9AD9D",
"H;	c #BBAF9F",
"I;	c #BBB09E",
"J;	c #BBB09A",
"K;	c #BBB198",
"L;	c #B5A98F",
"M;	c #B6AA90",
"N;	c #B7AB93",
"O;	c #B7AB95",
"P;	c #B6A996",
"Q;	c #B5A897",
"R;	c #B6A89B",
"S;	c #BBADA0",
"T;	c #B9AB9E",
"U;	c #B7AA99",
"V;	c #B5A993",
"W;	c #B7AB91",
"X;	c #B7AC90",
"Y;	c #BFB399",
"Z;	c #C0B49A",
"`;	c #BFB39B",
" >	c #C0B19C",
".>	c #BFAE9A",
"+>	c #BFA896",
"@>	c #BEA996",
"#>	c #BCAA96",
"$>	c #BCAB99",
"%>	c #BCAB97",
"&>	c #BBAC99",
"*>	c #B9AD97",
"=>	c #B6AA94",
"->	c #B6AB95",
";>	c #B8AE95",
">>	c #B7AD92",
",>	c #B6AC91",
"'>	c #B5AC8F",
")>	c #B7AE91",
"!>	c #B9AD93",
"~>	c #B9AE98",
"{>	c #B5B194",
"]>	c #B1B292",
"^>	c #ACB28E",
"/>	c #A7B28A",
"(>	c #A3B287",
"_>	c #AEBF93",
":>	c #ADBE91",
"<>	c #ACBD90",
"[>	c #ACBB90",
"}>	c #ABBA8F",
"|>	c #ADB991",
"1>	c #ACB894",
"2>	c #ACBA99",
"3>	c #B0BB9D",
"4>	c #B0B99C",
"5>	c #AEB596",
"6>	c #AEB395",
"7>	c #B2B596",
"8>	c #B4B596",
"9>	c #B1B293",
"0>	c #B1B092",
"a>	c #B2B193",
"b>	c #B0B094",
"c>	c #ADAD93",
"d>	c #A8AA92",
"e>	c #A7A993",
"f>	c #A8AB96",
"g>	c #AEAD99",
"h>	c #B0A996",
"i>	c #B4A997",
"j>	c #B5AA98",
"k>	c #B7AC98",
"l>	c #B8AD99",
"m>	c #B8AD97",
"n>	c #B7AC96",
"o>	c #B6AC93",
"p>	c #BCB299",
"q>	c #BCB297",
"r>	c #BCB396",
"s>	c #BDB497",
"t>	c #BDB493",
"u>	c #C0B692",
"v>	c #C1B491",
"w>	c #C1B492",
"x>	c #C2B497",
"y>	c #C3B59B",
"z>	c #C4B5A0",
"A>	c #C4B4A4",
"B>	c #C4B4A5",
"C>	c #C6B6A7",
"D>	c #C5B5A5",
"E>	c #C5B6A1",
"F>	c #C4B69C",
"G>	c #C5B79A",
"H>	c #C5B896",
"I>	c #C6B996",
"J>	c #C5BB97",
"K>	c #BDB294",
"L>	c #BFB498",
"M>	c #C2B49A",
"N>	c #C1B198",
"O>	c #BFAF98",
"P>	c #BFAD97",
"Q>	c #BAA68E",
"R>	c #B9A791",
"S>	c #BAA892",
"T>	c #BAA995",
"U>	c #B9AA95",
"V>	c #BAAB98",
"W>	c #B8AB98",
"X>	c #BAB399",
"Y>	c #B8B195",
"Z>	c #B6AF92",
"`>	c #B4AE8E",
" ,	c #B5AF8F",
".,	c #B5B090",
"+,	c #B6B392",
"@,	c #B4B492",
"#,	c #B0B48F",
"$,	c #ABB38C",
"%,	c #A5B287",
"&,	c #9CAF81",
"*,	c #95AD7B",
"=,	c #90AC79",
"-,	c #8EAC76",
";,	c #90AF76",
">,	c #92B178",
",,	c #96B17A",
"',	c #97B27B",
"),	c #9BB47D",
"!,	c #9CB482",
"~,	c #9EB88B",
"{,	c #A2BB91",
"],	c #A7BE94",
"^,	c #A7BC93",
"/,	c #ACBE94",
"(,	c #B2C49A",
"_,	c #B5C69C",
":,	c #B3C299",
"<,	c #B3BF97",
"[,	c #B4C098",
"},	c #B0BF98",
"|,	c #AAB894",
"1,	c #A4B28F",
"2,	c #A0AE8B",
"3,	c #A0AF8E",
"4,	c #A6B18F",
"5,	c #A7AD8B",
"6,	c #A6A785",
"7,	c #A2A381",
"8,	c #A4A583",
"9,	c #AAAB89",
"0,	c #B1B290",
"a,	c #B5B593",
"b,	c #B6B694",
"c,	c #B7B493",
"d,	c #B8B393",
"e,	c #B9B494",
"f,	c #BAB492",
"g,	c #BFB591",
"h,	c #BDB48D",
"i,	c #BDB08E",
"j,	c #BEB093",
"k,	c #C0B097",
"l,	c #C1B09C",
"m,	c #C0AD9C",
"n,	c #BEAB9C",
"o,	c #C1AE9F",
"p,	c #C1AE9D",
"q,	c #C0B099",
"r,	c #C0B096",
"s,	c #BFB292",
"t,	c #BFB28F",
"u,	c #BAAF91",
"v,	c #C0B297",
"w,	c #C4B49B",
"x,	c #C2B09A",
"y,	c #C0AE98",
"z,	c #B1A58B",
"A,	c #AFA389",
"B,	c #ADA189",
"C,	c #ACA08A",
"D,	c #ABA08E",
"E,	c #AB9F8F",
"F,	c #AB9F91",
"G,	c #A89F90",
"H,	c #9C9384",
"I,	c #A7A28E",
"J,	c #A7A28C",
"K,	c #B1B094",
"L,	c #A7A889",
"M,	c #9D9E7E",
"N,	c #A7AD87",
"O,	c #A5B586",
"P,	c #97AB78",
"Q,	c #8AA26E",
"R,	c #96B47E",
"S,	c #739862",
"T,	c #6E9961",
"U,	c #7DAD73",
"V,	c #4A7D42",
"W,	c #346A2C",
"X,	c #346B2A",
"Y,	c #376B29",
"Z,	c #396C29",
"`,	c #3D6C28",
" '	c #426D28",
".'	c #436C26",
"+'	c #446D29",
"@'	c #4C7938",
"#'	c #4F7D3D",
"$'	c #588445",
"%'	c #618D4E",
"&'	c #6C9657",
"*'	c #759F60",
"='	c #7CA466",
"-'	c #7FA76B",
";'	c #90B67B",
">'	c #99BF84",
",'	c #A2C58D",
"''	c #A5C890",
")'	c #A9CC96",
"!'	c #AFD29C",
"~'	c #B2D59F",
"{'	c #B1D29B",
"]'	c #AECC90",
"^'	c #ACC989",
"/'	c #A5C184",
"('	c #A0B97F",
"_'	c #9AB37A",
":'	c #98AF79",
"<'	c #98AC79",
"['	c #9AAA7B",
"}'	c #A1AE82",
"|'	c #A5B088",
"1'	c #AAB48F",
"2'	c #B0B795",
"3'	c #B3B898",
"4'	c #B4B798",
"5'	c #B5B599",
"6'	c #B5B498",
"7'	c #BCB598",
"8'	c #B7AE8F",
"9'	c #BAAC92",
"0'	c #C3B39C",
"a'	c #C8B3A0",
"b'	c #C4AD9D",
"c'	c #C2A89B",
"d'	c #C4A89C",
"e'	c #C2A899",
"f'	c #C0A997",
"g'	c #BCAA94",
"h'	c #BAAC91",
"i'	c #B8AD8F",
"j'	c #B7AE8D",
"k'	c #C2B19D",
"l'	c #C0AF9B",
"m'	c #BEAD99",
"n'	c #BDAC98",
"o'	c #958B72",
"p'	c #928B71",
"q'	c #928771",
"r'	c #8F8772",
"s'	c #8E8576",
"t'	c #8D8475",
"u'	c #8B8175",
"v'	c #8B8376",
"w'	c #969080",
"x'	c #8D8A77",
"y'	c #7B7A65",
"z'	c #7C7F64",
"A'	c #8C9173",
"B'	c #9DA282",
"C'	c #A7B18C",
"D'	c #9AB07F",
"E'	c #95B27C",
"F'	c #8FB079",
"G'	c #628950",
"H'	c #67975B",
"I'	c #619759",
"J'	c #5F9B5B",
"K'	c #135410",
"L'	c #3D803B",
"M'	c #3C8239",
"N'	c #3E8235",
"O'	c #418434",
"P'	c #458433",
"Q'	c #498430",
"R'	c #4B8530",
"S'	c #4B8531",
"T'	c #427F2F",
"U'	c #3F7E2D",
"V'	c #3A792A",
"W'	c #347322",
"X'	c #2D6A1A",
"Y'	c #256212",
"Z'	c #215B0E",
"`'	c #1D570A",
" )	c #1D550A",
".)	c #296116",
"+)	c #397126",
"@)	c #477D32",
"#)	c #568C41",
"$)	c #679D52",
"%)	c #72A75F",
"&)	c #76AA5F",
"*)	c #87B867",
"=)	c #90BF6E",
"-)	c #9BCA7A",
";)	c #A8D487",
">)	c #B0DA90",
",)	c #B2DA94",
"')	c #B3D694",
"))	c #B3D296",
"!)	c #A5C089",
"~)	c #9DB581",
"{)	c #8EA475",
"])	c #83956B",
"^)	c #7E8D66",
"/)	c #7F8D69",
"()	c #86916F",
"_)	c #8E9574",
":)	c #969777",
"<)	c #999476",
"[)	c #9C9277",
"})	c #A0917A",
"|)	c #9F8D79",
"1)	c #9E8775",
"2)	c #A18577",
"3)	c #A38779",
"4)	c #A28678",
"5)	c #A18778",
"6)	c #9F8876",
"7)	c #9C8A74",
"8)	c #9A8B74",
"9)	c #988E73",
"0)	c #968F72",
"a)	c #9B8F77",
"b)	c #998D77",
"c)	c #9A8B76",
"d)	c #968A74",
"e)	c #978873",
"f)	c #948872",
"g)	c #938872",
"h)	c #958973",
"i)	c #948973",
"j)	c #948975",
"k)	c #938876",
"l)	c #908875",
"m)	c #948D7B",
"n)	c #8E8976",
"o)	c #918F7A",
"p)	c #999981",
"q)	c #9FA189",
"r)	c #A8AC91",
"s)	c #A5A98E",
"t)	c #919A7B",
"u)	c #778762",
"v)	c #6E8358",
"w)	c #546F42",
"x)	c #1E400E",
"y)	c #406B35",
"z)	c #588B50",
"A)	c #478441",
"B)	c #276B22",
"C)	c #6EB768",
"D)	c #6BB965",
"E)	c #6CBB62",
"F)	c #6DBD5E",
"G)	c #71BC5D",
"H)	c #72BE5A",
"I)	c #74BE5B",
"J)	c #75BF5C",
"K)	c #6FBA5B",
"L)	c #70BB5C",
"M)	c #71BC5F",
"N)	c #72BD5E",
"O)	c #73BD5E",
"P)	c #72BC5D",
"Q)	c #6CB657",
"R)	c #5EA547",
"S)	c #4E9537",
"T)	c #42892B",
"U)	c #387F23",
"V)	c #307518",
"W)	c #307012",
"X)	c #397418",
"Y)	c #458024",
"Z)	c #578F36",
"`)	c #6AA04A",
" !	c #7BAF5D",
".!	c #8BBA6C",
"+!	c #94C075",
"@!	c #B1DA94",
"#!	c #B1D895",
"$!	c #B2D497",
"%!	c #ADCC91",
"&!	c #A1BE86",
"*!	c #91AC77",
"=!	c #839B69",
"-!	c #7C8F61",
";!	c #758257",
">!	c #7F855F",
",!	c #838462",
"'!	c #807D5E",
")!	c #81775C",
"!!	c #897B61",
"~!	c #95836D",
"{!	c #97806E",
"]!	c #97826F",
"^!	c #94856E",
"/!	c #91876C",
"(!	c #90896C",
"_!	c #938C70",
":!	c #918C6F",
"<!	c #918A6E",
"[!	c #8F8A6D",
"}!	c #8F886C",
"|!	c #8E896C",
"1!	c #958673",
"2!	c #978875",
"3!	c #9A8E78",
"4!	c #9A8F79",
"5!	c #99917A",
"6!	c #98927A",
"7!	c #A19B83",
"8!	c #918F76",
"9!	c #9E9C85",
"0!	c #A2A48C",
"a!	c #81836B",
"b!	c #5C6049",
"c!	c #3F442D",
"d!	c #222A12",
"e!	c #000900",
"f!	c #081900",
"g!	c #041A00",
"h!	c #234218",
"i!	c #476F3D",
"j!	c #64965B",
"k!	c #2F6C27",
"l!	c #55994C",
"m!	c #61AF59",
"n!	c #5EB254",
"o!	c #5EB451",
"p!	c #5FB64E",
"q!	c #61B84D",
"r!	c #62BA4C",
"s!	c #63BB4B",
"t!	c #63BB4D",
"u!	c #68BF54",
"v!	c #6AC156",
"w!	c #6CC358",
"x!	c #6FC65B",
"y!	c #72CA5C",
"z!	c #73CB5D",
"A!	c #74CC5E",
"B!	c #75CD5F",
"C!	c #6FC759",
"D!	c #75CD5D",
"E!	c #7AD262",
"F!	c #79D161",
"G!	c #7CD665",
"H!	c #7FD767",
"I!	c #7FD566",
"J!	c #7CC95F",
"K!	c #77C057",
"L!	c #6BB24A",
"M!	c #5CA33D",
"N!	c #519532",
"O!	c #498B2A",
"P!	c #478427",
"Q!	c #468127",
"R!	c #568E37",
"S!	c #669C48",
"T!	c #82B364",
"U!	c #9AC87D",
"V!	c #A9D48C",
"W!	c #ABD68E",
"X!	c #A6CF89",
"Y!	c #A3C885",
"Z!	c #A1BD83",
"`!	c #9BAF7C",
" ~	c #8D9D6E",
".~	c #8A956A",
"+~	c #969B73",
"@~	c #A19E7D",
"#~	c #867A60",
"$~	c #998B71",
"%~	c #9B8C75",
"&~	c #9A8E74",
"*~	c #9A9174",
"=~	c #999275",
"-~	c #989574",
";~	c #8E8E6C",
">~	c #8C8E69",
",~	c #8C8D6B",
"'~	c #8B8D68",
")~	c #8B8C6A",
"!~	c #A49182",
"~~	c #A79485",
"{~	c #A99886",
"]~	c #A99884",
"^~	c #A79881",
"/~	c #A5997F",
"(~	c #A59C7F",
"_~	c #A5A082",
":~	c #A09B7D",
"<~	c #ABAA8C",
"[~	c #7E8166",
"}~	c #31331D",
"|~	c #181B08",
"1~	c #282C1B",
"2~	c #2D3122",
"3~	c #5F6557",
"4~	c #616C5B",
"5~	c #64735C",
"6~	c #758E6E",
"7~	c #74986C",
"8~	c #5B8B51",
"9~	c #235F19",
"0~	c #5EA352",
"a~	c #69B85C",
"b~	c #65BB56",
"c~	c #63BF54",
"d~	c #63C151",
"e~	c #62C350",
"f~	c #63C450",
"g~	c #64C551",
"h~	c #65C652",
"i~	c #67C854",
"j~	c #69C854",
"k~	c #6AC953",
"l~	c #67C950",
"m~	c #66C84F",
"n~	c #64C64B",
"o~	c #63C74B",
"p~	c #65CB4E",
"q~	c #6BD152",
"r~	c #6DD656",
"s~	c #6CD555",
"t~	c #6CD554",
"u~	c #70DB59",
"v~	c #73DD59",
"w~	c #75DA5A",
"x~	c #7ED960",
"y~	c #84DC64",
"z~	c #8BE069",
"A~	c #8EE36E",
"B~	c #8DE06C",
"C~	c #8ADA69",
"D~	c #85D365",
"E~	c #81CD61",
"F~	c #73BC53",
"G~	c #63AA44",
"H~	c #4D912E",
"I~	c #408221",
"J~	c #458525",
"K~	c #5D9D3F",
"L~	c #7EBB5E",
"M~	c #96CE77",
"N~	c #B1DF94",
"O~	c #BBE29F",
"P~	c #B6D999",
"Q~	c #9DB97E",
"R~	c #849863",
"S~	c #7F8C5E",
"T~	c #8F966C",
"U~	c #A0A27B",
"V~	c #8F8C6B",
"W~	c #918C6C",
"X~	c #918C6E",
"Y~	c #938C6F",
"Z~	c #938E70",
"`~	c #948F6F",
" {	c #949170",
".{	c #91936E",
"+{	c #8A9368",
"@{	c #879466",
"#{	c #869367",
"${	c #869365",
"%{	c #879468",
"&{	c #BBA399",
"*{	c #BDA79A",
"={	c #BEA998",
"-{	c #B9A793",
";{	c #B4A48A",
">{	c #B0A587",
",{	c #B2A988",
"'{	c #B2AE89",
"){	c #A9A683",
"!{	c #C0C09E",
"~{	c #A9AA8B",
"{{	c #56593E",
"]{	c #282B16",
"^{	c #505244",
"/{	c #868980",
"({	c #7E837D",
"_{	c #788279",
":{	c #919F90",
"<{	c #647B5F",
"[{	c #6D8D64",
"}{	c #3A652F",
"|{	c #508743",
"1{	c #73B464",
"2{	c #66B156",
"3{	c #63B551",
"4{	c #61B84F",
"5{	c #5FBB4E",
"6{	c #5FBD4F",
"7{	c #5EBF4E",
"8{	c #5FBF51",
"9{	c #5FC04F",
"0{	c #5DBC48",
"a{	c #5FBE48",
"b{	c #63C24C",
"c{	c #6BCD54",
"d{	c #6DD155",
"e{	c #70D458",
"f{	c #70D657",
"g{	c #67D04F",
"h{	c #6BD654",
"i{	c #6BD954",
"j{	c #68D850",
"k{	c #67D74F",
"l{	c #6ADC51",
"m{	c #6CDE53",
"n{	c #6CDB51",
"o{	c #74D955",
"p{	c #7ADB5A",
"q{	c #7DDE5D",
"r{	c #80E160",
"s{	c #84E365",
"t{	c #86E265",
"u{	c #87E166",
"v{	c #86DF67",
"w{	c #8CE46C",
"x{	c #91E671",
"y{	c #94E773",
"z{	c #90E06F",
"A{	c #7FCF5E",
"B{	c #65B343",
"C{	c #4A982A",
"D{	c #3C851C",
"E{	c #45862A",
"F{	c #68A24E",
"G{	c #94C979",
"H{	c #B0DE93",
"I{	c #ABD38D",
"J{	c #94B475",
"K{	c #829B62",
"L{	c #7E905C",
"M{	c #8D9A6C",
"N{	c #919A6F",
"O{	c #929970",
"P{	c #949971",
"Q{	c #959A72",
"R{	c #959A71",
"S{	c #949D70",
"T{	c #92A470",
"U{	c #8FA66E",
"V{	c #8EA56F",
"W{	c #8EA56D",
"X{	c #B79C95",
"Y{	c #B79F93",
"Z{	c #B7A291",
"`{	c #B2A08A",
" ]	c #AD9E81",
".]	c #ABA17E",
"+]	c #AEA983",
"@]	c #B3B087",
"#]	c #ACAD85",
"$]	c #A6A881",
"%]	c #6D7051",
"&]	c #2F331A",
"*]	c #383B28",
"=]	c #6E7065",
"-]	c #777C78",
";]	c #898F8D",
">]	c #868F8A",
",]	c #B3C0B6",
"']	c #7E947D",
")]	c #7A9572",
"!]	c #325827",
"~]	c #699759",
"{]	c #5C944B",
"]]	c #6FAF5B",
"^]	c #6BB158",
"/]	c #69B457",
"(]	c #67B758",
"_]	c #67B85B",
":]	c #67BB5D",
"<]	c #66BB5E",
"[]	c #67BD5C",
"}]	c #67BC54",
"|]	c #68BE51",
"1]	c #69C153",
"2]	c #6AC252",
"3]	c #6AC453",
"4]	c #69C653",
"5]	c #67C650",
"6]	c #65C74E",
"7]	c #6CD054",
"8]	c #70D659",
"9]	c #70D959",
"0]	c #6CD755",
"a]	c #69D754",
"b]	c #6DDD57",
"c]	c #6FDF59",
"d]	c #70DE57",
"e]	c #79E35B",
"f]	c #79E059",
"g]	c #75DC55",
"h]	c #73DA53",
"i]	c #76DC55",
"j]	c #7CE15D",
"k]	c #83E763",
"l]	c #87EA69",
"m]	c #88E968",
"n]	c #8AE969",
"o]	c #8BEA6A",
"p]	c #8FEB6C",
"q]	c #90EC6D",
"r]	c #91EC6D",
"s]	c #92EC70",
"t]	c #93EB73",
"u]	c #7CCE60",
"v]	c #54A13B",
"w]	c #3B8320",
"x]	c #539438",
"y]	c #7BB560",
"z]	c #8EC172",
"A]	c #8FBA72",
"B]	c #8DB26D",
"C]	c #91AF71",
"D]	c #94AD73",
"E]	c #97AC74",
"F]	c #99AC75",
"G]	c #9AAB77",
"H]	c #98AD75",
"I]	c #8DAB6D",
"J]	c #89AC6A",
"K]	c #89AC6C",
"L]	c #88AB69",
"M]	c #88AB6B",
"N]	c #B49992",
"O]	c #B59D93",
"P]	c #B6A190",
"Q]	c #B2A088",
"R]	c #AFA184",
"S]	c #B0A883",
"T]	c #B7B48B",
"U]	c #BEBC93",
"V]	c #9DA075",
"W]	c #7C8159",
"X]	c #424727",
"Y]	c #2C3019",
"Z]	c #4F5143",
"`]	c #757776",
" ^	c #808485",
".^	c #97A09F",
"+^	c #85918D",
"@^	c #99A99E",
"#^	c #849A85",
"$^	c #637C5C",
"%^	c #345329",
"&^	c #7FA470",
"*^	c #76A263",
"=^	c #6FA15C",
"-^	c #6DA25A",
";^	c #6BA55B",
">^	c #6AA65C",
",^	c #6AA761",
"'^	c #6AA963",
")^	c #69AA66",
"!^	c #6AAC64",
"~^	c #76BA65",
"{^	c #75BC60",
"]^	c #76BD61",
"^^	c #75BF60",
"/^	c #75C15F",
"(^	c #73C15C",
"_^	c #71C25C",
":^	c #6FC258",
"<^	c #71C85D",
"[^	c #74CD5F",
"}^	c #74D15F",
"|^	c #70CF5B",
"1^	c #6DCF58",
"2^	c #70D35C",
"3^	c #73D75D",
"4^	c #72D85B",
"5^	c #72D956",
"6^	c #73DD55",
"7^	c #79E35D",
"8^	c #7DE75F",
"9^	c #81E863",
"0^	c #80E762",
"a^	c #7EE35F",
"b^	c #82E763",
"c^	c #82E662",
"d^	c #85E663",
"e^	c #88E966",
"f^	c #8CED6A",
"g^	c #90F16E",
"h^	c #92F274",
"i^	c #95F37B",
"j^	c #97F17F",
"k^	c #95EB7E",
"l^	c #7BCC63",
"m^	c #48922F",
"n^	c #2C6F12",
"o^	c #548E39",
"p^	c #93C775",
"q^	c #87B368",
"r^	c #89B16A",
"s^	c #8CAF6B",
"t^	c #8DAD6A",
"u^	c #8FAC6C",
"v^	c #8EAD6A",
"w^	c #8EB66F",
"x^	c #8CB66E",
"y^	c #8BB56D",
"z^	c #8AB46C",
"A^	c #89B36B",
"B^	c #B49C92",
"C^	c #BFAC9B",
"D^	c #A6967D",
"E^	c #B1AC86",
"F^	c #E1DFB6",
"G^	c #979A6F",
"H^	c #A7AC83",
"I^	c #4E542E",
"J^	c #282D0F",
"K^	c #595E48",
"L^	c #6F7166",
"M^	c #575853",
"N^	c #9F9EA3",
"O^	c #92979A",
"P^	c #869590",
"Q^	c #A8BCB1",
"R^	c #98AD9E",
"S^	c #8DA38E",
"T^	c #385134",
"U^	c #597350",
"V^	c #668158",
"W^	c #5F7C4E",
"X^	c #557544",
"Y^	c #577746",
"Z^	c #5A7B4C",
"`^	c #597D4F",
" /	c #587B51",
"./	c #547950",
"+/	c #4F734F",
"@/	c #4B7246",
"#/	c #558146",
"$/	c #5D8C48",
"%/	c #63924E",
"&/	c #72A45D",
"*/	c #87BB71",
"=/	c #89BF73",
"-/	c #80BA6D",
";/	c #82C06D",
">/	c #7ABB67",
",/	c #7DC16A",
"'/	c #85CE74",
")/	c #73BE61",
"!/	c #70BD5D",
"~/	c #87D776",
"{/	c #83D370",
"]/	c #6FC55A",
"^/	c #70CE56",
"//	c #74D758",
"(/	c #7BDE60",
"_/	c #86E96A",
":/	c #7ADD5F",
"</	c #7FE264",
"[/	c #7DE062",
"}/	c #7EE162",
"|/	c #82E264",
"1/	c #86E668",
"2/	c #8AE96B",
"3/	c #8DEC6E",
"4/	c #8BEB6E",
"5/	c #8FF176",
"6/	c #90F279",
"7/	c #96F581",
"8/	c #9FF988",
"9/	c #93E67A",
"0/	c #95E27C",
"a/	c #004400",
"b/	c #74B559",
"c/	c #86C06B",
"d/	c #77AC5A",
"e/	c #88B968",
"f/	c #8BBA6A",
"g/	c #87B263",
"h/	c #7CA758",
"i/	c #82AB5D",
"j/	c #92BD6E",
"k/	c #87B666",
"l/	c #86B766",
"m/	c #89BA69",
"n/	c #B39D90",
"o/	c #A1907E",
"p/	c #ACA086",
"q/	c #A29C7C",
"r/	c #E3E1BB",
"s/	c #999B74",
"t/	c #9DA27A",
"u/	c #717751",
"v/	c #2F3615",
"w/	c #2F351B",
"x/	c #595D4C",
"y/	c #7E7F77",
"z/	c #797979",
"A/	c #99989E",
"B/	c #919699",
"C/	c #97ABA0",
"D/	c #98B3A2",
"E/	c #829B86",
"F/	c #6D856F",
"G/	c #162D13",
"H/	c #74876B",
"I/	c #A3B396",
"J/	c #A5B696",
"K/	c #CAD9BC",
"L/	c #CCDBBE",
"M/	c #D0DCC4",
"N/	c #D0DEC7",
"O/	c #CFDCCA",
"P/	c #CCD8CA",
"Q/	c #C7D5C8",
"R/	c #C2D3C0",
"S/	c #A8BE9A",
"T/	c #9CB689",
"U/	c #7A9666",
"V/	c #597646",
"W/	c #53713F",
"X/	c #577A44",
"Y/	c #658B52",
"Z/	c #79A266",
"`/	c #8BB778",
" (	c #82B06F",
".(	c #95C885",
"+(	c #87BC76",
"@(	c #50883F",
"#(	c #66A056",
"$(	c #9CD68A",
"%(	c #8ACB77",
"&(	c #81CF69",
"*(	c #8CE273",
"=(	c #75CB5C",
"-(	c #83D96A",
";(	c #74CA5B",
">(	c #8DE374",
",(	c #80D667",
"'(	c #92EA7A",
")(	c #97EE7D",
"!(	c #95EC7B",
"~(	c #91E877",
"{(	c #8EE574",
"](	c #8DE473",
"^(	c #90E776",
"/(	c #8FE977",
"((	c #86E571",
"_(	c #94F581",
":(	c #9BF886",
"<(	c #91EA7C",
"[(	c #99EF84",
"}(	c #A9FA93",
"|(	c #479331",
"1(	c #3B8224",
"2(	c #7CBD63",
"3(	c #8DCC73",
"4(	c #79B35C",
"5(	c #83BB64",
"6(	c #8AC06A",
"7(	c #8EC36B",
"8(	c #82B45D",
"9(	c #7AAE59",
"0(	c #87BB66",
"a(	c #85B966",
"b(	c #83B764",
"c(	c #80B461",
"d(	c #7CB05D",
"e(	c #79AD5A",
"f(	c #BAA997",
"g(	c #AFA08D",
"h(	c #ADA18B",
"i(	c #A59E82",
"j(	c #AFAC8D",
"k(	c #C8C9A7",
"l(	c #8E9470",
"m(	c #828967",
"n(	c #333C1D",
"o(	c #2C351A",
"p(	c #58604B",
"q(	c #707466",
"r(	c #868688",
"s(	c #7D7A81",
"t(	c #7D8182",
"u(	c #879E8E",
"v(	c #7A9880",
"w(	c #7A967F",
"x(	c #5D755D",
"y(	c #21331D",
"z(	c #9EAB97",
"A(	c #CED5C3",
"B(	c #CBCFC0",
"C(	c #D2D2C6",
"D(	c #D6D3CA",
"E(	c #DAD5D1",
"F(	c #DDD8D5",
"G(	c #DED8DA",
"H(	c #DCD7DB",
"I(	c #DAD5DB",
"J(	c #D6D5D3",
"K(	c #D6D9C8",
"L(	c #E9EFD5",
"M(	c #E5EED3",
"N(	c #CDD8BA",
"O(	c #B4BFA1",
"P(	c #93A281",
"Q(	c #768765",
"R(	c #6A7E59",
"S(	c #586E47",
"T(	c #627D52",
"U(	c #607D51",
"V(	c #87A778",
"W(	c #87A977",
"X(	c #5A7F4C",
"Y(	c #769B68",
"Z(	c #9FCB8E",
"`(	c #8FCA7A",
" _	c #99DB81",
"._	c #8ACF74",
"+_	c #8CD176",
"@_	c #8FD479",
"#_	c #96DB80",
"$_	c #86CB70",
"%_	c #8AD175",
"&_	c #78BD62",
"*_	c #79C064",
"=_	c #7EC569",
"-_	c #85CC70",
";_	c #8DD37A",
">_	c #96DC83",
",_	c #9BE48A",
"'_	c #9EE98A",
")_	c #97E882",
"!_	c #A3F68E",
"~_	c #A6F892",
"{_	c #90E07D",
"]_	c #A5F292",
"^_	c #ACF79A",
"/_	c #9AE185",
"(_	c #367B22",
"__	c #55973F",
":_	c #8FCF78",
"<_	c #75B45B",
"[_	c #74B058",
"}_	c #6DA84E",
"|_	c #7CB75B",
"1_	c #81B95E",
"2_	c #83BB60",
"3_	c #79AF59",
"4_	c #7AB05A",
"5_	c #7DB35D",
"6_	c #80B660",
"7_	c #83B963",
"8_	c #87BD67",
"9_	c #9F957C",
"0_	c #BBB59B",
"a_	c #AAA98D",
"b_	c #ABAC8D",
"c_	c #808565",
"d_	c #A3AC8D",
"e_	c #465035",
"f_	c #29361C",
"g_	c #69725D",
"h_	c #9CA495",
"i_	c #A2A7A0",
"j_	c #A0A09E",
"k_	c #8C8A8D",
"l_	c #817C83",
"m_	c #828685",
"n_	c #6B836D",
"o_	c #668768",
"p_	c #7D9A7E",
"q_	c #475F47",
"r_	c #51604D",
"s_	c #BAC2B5",
"t_	c #D1D2CA",
"u_	c #CAC5C1",
"v_	c #DAD0D1",
"w_	c #DDD1D5",
"x_	c #E3D4DB",
"y_	c #E7D7E1",
"z_	c #EADAE5",
"A_	c #EADDE7",
"B_	c #EBDEE8",
"C_	c #EBE0E4",
"D_	c #F2E9E0",
"E_	c #F9F3E3",
"F_	c #C8C2B4",
"G_	c #615E4D",
"H_	c #121100",
"I_	c #0B0D00",
"J_	c #484B36",
"K_	c #8E937C",
"L_	c #C7CFB7",
"M_	c #E5F2D6",
"N_	c #B7C4A8",
"O_	c #D3E2C3",
"P_	c #E8F9D9",
"Q_	c #899C7C",
"R_	c #576A4A",
"S_	c #546F46",
"T_	c #658D51",
"U_	c #4A7935",
"V_	c #42712D",
"W_	c #3A6925",
"X_	c #43722E",
"Y_	c #619250",
"Z_	c #83B472",
"`_	c #7DB06D",
" :	c #91C481",
".:	c #8EC17E",
"+:	c #86BB77",
"@:	c #7BAF6D",
"#:	c #6CA05E",
"$:	c #5D9451",
"%:	c #548D46",
"&:	c #5E9D4C",
"*:	c #68A955",
"=:	c #89C975",
"-:	c #99D887",
";:	c #B7F6A5",
">:	c #AEED9E",
",:	c #C7FFB6",
"':	c #88C577",
"):	c #215E0E",
"!:	c #579542",
"~:	c #81BC68",
"{:	c #8AC670",
"]:	c #7DB760",
"^:	c #84BF65",
"/:	c #86C165",
"(:	c #83BB62",
"_:	c #86BC66",
"::	c #85BB65",
"<:	c #84BA64",
"[:	c #A7A284",
"}:	c #ABA889",
"|:	c #A4A586",
"1:	c #AFB496",
"2:	c #83896D",
"3:	c #798368",
"4:	c #738066",
"5:	c #212F18",
"6:	c #3F4C3A",
"7:	c #98A496",
"8:	c #A4ABA3",
"9:	c #A7ACA8",
"0:	c #9A9A9C",
"a:	c #828085",
"b:	c #908991",
"c:	c #8B8D8A",
"d:	c #6E866E",
"e:	c #708F6F",
"f:	c #769073",
"g:	c #1D301A",
"h:	c #798476",
"i:	c #BDC0B9",
"j:	c #CAC6C5",
"k:	c #D6CBD1",
"l:	c #DACAD4",
"m:	c #DCCBD5",
"n:	c #DFCDD9",
"o:	c #E1D0DA",
"p:	c #E4D8DC",
"q:	c #E6DADE",
"r:	c #E7DCDA",
"s:	c #F1E7DE",
"t:	c #DBD1C5",
"u:	c #9E948A",
"v:	c #5B5346",
"w:	c #3A3225",
"x:	c #2E2818",
"y:	c #2F2919",
"z:	c #363322",
"A:	c #ACAB99",
"B:	c #F5F8E5",
"C:	c #F2F5E2",
"D:	c #F1F6E0",
"E:	c #F6FEE7",
"F:	c #F7FFE9",
"G:	c #E8F2DA",
"H:	c #8C997D",
"I:	c #324621",
"J:	c #102700",
"K:	c #000F00",
"L:	c #3C552B",
"M:	c #1E370D",
"N:	c #B0C9A1",
"O:	c #EDFFDF",
"P:	c #F0FFE3",
"Q:	c #E1FDD5",
"R:	c #E3FFD9",
"S:	c #E9FFE1",
"T:	c #EEFFE6",
"U:	c #EDFFE8",
"V:	c #E9FFE4",
"W:	c #E3FFDB",
"X:	c #DEFFD0",
"Y:	c #B0D79E",
"Z:	c #81AA70",
"`:	c #5D864C",
" <	c #628E53",
".<	c #719D62",
"+<	c #A4D294",
"@<	c #D1FFC1",
"#<	c #73A663",
"$<	c #51843F",
"%<	c #85B96F",
"&<	c #8DC274",
"*<	c #83BA69",
"=<	c #86BD69",
"-<	c #72AA53",
";<	c #80B662",
"><	c #7FB360",
",<	c #7EB25F",
"'<	c #A4A681",
")<	c #B2B693",
"!<	c #A0A684",
"~<	c #8C9576",
"{<	c #7F8C70",
"]<	c #85937A",
"^<	c #2E3D28",
"/<	c #2A3B29",
"(<	c #69796E",
"_<	c #A7B4AB",
":<	c #828B88",
"<<	c #898D8E",
"[<	c #838287",
"}<	c #7C777D",
"|<	c #938992",
"1<	c #81817F",
"2<	c #748B71",
"3<	c #789674",
"4<	c #11220F",
"5<	c #9DA59A",
"6<	c #C0C0BE",
"7<	c #C7BDC5",
"8<	c #DDD0DA",
"9<	c #E2D0DE",
"0<	c #E2D0DC",
"a<	c #E1D2D9",
"b<	c #E1D5D7",
"c<	c #E1D7D5",
"d<	c #E2DBD3",
"e<	c #E3DDD1",
"f<	c #F7EDE1",
"g<	c #F5E9DD",
"h<	c #C8BCB0",
"i<	c #786E62",
"j<	c #312819",
"k<	c #0D0600",
"l<	c #1D1606",
"m<	c #433D2F",
"n<	c #726F60",
"o<	c #E4E1D2",
"p<	c #FAF8E9",
"q<	c #E5E6D6",
"r<	c #EEEFDF",
"s<	c #FDFFEF",
"t<	c #FCFFEE",
"u<	c #CDD2BE",
"v<	c #7A7D6A",
"w<	c #1B1E09",
"x<	c #21240F",
"y<	c #000400",
"z<	c #272C18",
"A<	c #757A66",
"B<	c #FCFFF1",
"C<	c #E8F1DE",
"D<	c #F7FFF1",
"E<	c #F6FFF1",
"F<	c #F3FFEF",
"G<	c #F2FEF0",
"H<	c #F1FFF0",
"I<	c #F2FFF1",
"J<	c #F3FFF4",
"K<	c #F4FFF0",
"L<	c #EEFEE1",
"M<	c #F3FFE2",
"N<	c #F7FFE6",
"O<	c #ECFFDD",
"P<	c #DBF4CD",
"Q<	c #B1CBA4",
"R<	c #638258",
"S<	c #5C8050",
"T<	c #9EC590",
"U<	c #547D43",
"V<	c #608C4D",
"W<	c #7EAD69",
"X<	c #78AA61",
"Y<	c #79AC5F",
"Z<	c #80B565",
"`<	c #7FB462",
" [	c #78AC5A",
".[	c #86BA67",
"+[	c #9EA37B",
"@[	c #A6AC86",
"#[	c #A4AC87",
"$[	c #768161",
"%[	c #86947A",
"&[	c #576953",
"*[	c #1D2F1F",
"=[	c #44564A",
"-[	c #869791",
";[	c #9DACA9",
">[	c #7C8687",
",[	c #84878C",
"'[	c #7F7E84",
")[	c #8B868D",
"![	c #8F858D",
"~[	c #82817D",
"{[	c #73876C",
"][	c #738E6B",
"^[	c #4E6247",
"/[	c #33402E",
"([	c #B1B6AF",
"_[	c #CAC8C9",
":[	c #C6BCC5",
"<[	c #D3C5D2",
"[[	c #DBCADA",
"}[	c #DBCBD8",
"|[	c #D9CCD3",
"1[	c #D8CECD",
"2[	c #D7D3C8",
"3[	c #D7D8C6",
"4[	c #DADEC7",
"5[	c #DDDFC7",
"6[	c #E2DBC8",
"7[	c #EAE1D0",
"8[	c #DFD6C5",
"9[	c #BCB3A2",
"0[	c #837A69",
"a[	c #423B29",
"b[	c #231C0A",
"c[	c #2A2414",
"d[	c #B2AF9E",
"e[	c #FFFCEB",
"f[	c #FFFFEF",
"g[	c #F6F7E5",
"h[	c #FFFFF1",
"i[	c #F1F4E3",
"j[	c #DADDCC",
"k[	c #FAFBED",
"l[	c #B5ACA5",
"m[	c #837874",
"n[	c #291E1A",
"o[	c #423733",
"p[	c #231917",
"q[	c #BBB1AF",
"r[	c #F5EDEB",
"s[	c #FFFDFD",
"t[	c #FFFEFF",
"u[	c #FDFBFE",
"v[	c #FBF9FE",
"w[	c #F9F8FD",
"x[	c #FBFAFF",
"y[	c #FCFDFF",
"z[	c #FFFFFF",
"A[	c #FFFFF8",
"B[	c #FFFFF4",
"C[	c #FFFFF3",
"D[	c #F7F8EA",
"E[	c #FCFFEF",
"F[	c #F5FFEB",
"G[	c #DEEED4",
"H[	c #D2E7C8",
"I[	c #7D9772",
"J[	c #5B7A4E",
"K[	c #1C410D",
"L[	c #7EA56C",
"M[	c #8FB979",
"N[	c #89B673",
"O[	c #83B26A",
"P[	c #89B96F",
"Q[	c #8EBF70",
"R[	c #8DBE6D",
"S[	c #8ABB6A",
"T[	c #84B564",
"U[	c #80B160",
"V[	c #849666",
"W[	c #94A779",
"X[	c #84996E",
"Y[	c #8AA07A",
"Z[	c #5F7659",
"`[	c #172D16",
" }	c #2B4031",
".}	c #4F6358",
"+}	c #697A74",
"@}	c #727E7C",
"#}	c #747D7C",
"$}	c #7E8281",
"%}	c #757472",
"&}	c #8D8885",
"*}	c #788D6E",
"=}	c #6B8965",
"-}	c #374E31",
";}	c #4A5C46",
">}	c #A8B4A8",
",}	c #CACFCB",
"'}	c #C3C3C3",
")}	c #C6C4C7",
"!}	c #D0CCC9",
"~}	c #CFCFC5",
"{}	c #CFD3C2",
"]}	c #D1DBC2",
"^}	c #D4E3C4",
"/}	c #D8E9C5",
"(}	c #DEECC9",
"_}	c #E3E5CD",
":}	c #EDEAD7",
"<}	c #F1EEDB",
"[}	c #F0EED9",
"}}	c #DEDDC8",
"|}	c #C1C0AB",
"1}	c #BEC0AA",
"2}	c #DBDDC7",
"3}	c #EFF3DC",
"4}	c #E5E9D2",
"5}	c #EDF3D9",
"6}	c #E9EED7",
"7}	c #FBFFE9",
"8}	c #FDFFEB",
"9}	c #FDFFED",
"0}	c #FFFEF5",
"a}	c #F4EAE8",
"b}	c #D6CECB",
"c}	c #C4BCB9",
"d}	c #E3DEDA",
"e}	c #FFFDFA",
"f}	c #FFFEFB",
"g}	c #F8F4F1",
"h}	c #FAF9F7",
"i}	c #FAFAF8",
"j}	c #FDFDFB",
"k}	c #FEFFFF",
"l}	c #FCFFFF",
"m}	c #FDFFFA",
"n}	c #F8FCEB",
"o}	c #F8FFEE",
"p}	c #EBF7E1",
"q}	c #F7FFED",
"r}	c #E9FDE1",
"s}	c #E2FCD9",
"t}	c #BAD9B0",
"u}	c #577E49",
"v}	c #79A268",
"w}	c #81AB6C",
"x}	c #709D5C",
"y}	c #74A25A",
"z}	c #7AAB5C",
"A}	c #79AD5B",
"B}	c #7AAE5C",
"C}	c #ACD697",
"D}	c #A8D195",
"E}	c #8EB580",
"F}	c #7EA475",
"G}	c #2E502B",
"H}	c #335135",
"I}	c #304936",
"J}	c #6F8578",
"K}	c #5C6C62",
"L}	c #6D796F",
"M}	c #747C71",
"N}	c #8E9284",
"O}	c #777866",
"P}	c #73715A",
"Q}	c #5D5940",
"R}	c #5B6241",
"S}	c #68845C",
"T}	c #7A9F76",
"U}	c #001100",
"V}	c #7A987C",
"W}	c #AAC3AD",
"X}	c #ACC3AF",
"Y}	c #C6DCC7",
"Z}	c #B0C3AD",
"`}	c #B6CAAE",
" |	c #AABF9E",
".|	c #A8C199",
"+|	c #AAC59A",
"@|	c #A3C094",
"#|	c #9AB98D",
"$|	c #8AAB7E",
"%|	c #77936B",
"&|	c #89957D",
"*|	c #828977",
"=|	c #78806B",
"-|	c #737D65",
";|	c #727F65",
">|	c #738064",
",|	c #718061",
"'|	c #6F805E",
")|	c #687955",
"!|	c #62744E",
"~|	c #62744C",
"{|	c #687A52",
"]|	c #697952",
"^|	c #64744D",
"/|	c #66774D",
"(|	c #6F7F5B",
"_|	c #75836C",
":|	c #6F7D6C",
"<|	c #7A8877",
"[|	c #879683",
"}|	c #879885",
"||	c #93A58F",
"1|	c #A8BAA4",
"2|	c #B1C3AB",
"3|	c #B2C6AB",
"4|	c #C5D9BD",
"5|	c #D0E4C8",
"6|	c #D3EBCB",
"7|	c #D8F0D0",
"8|	c #EAFFE0",
"9|	c #ECFFE2",
"0|	c #E6FFD9",
"a|	c #E9FFD9",
"b|	c #EBFFDC",
"c|	c #EAFFDB",
"d|	c #E3FFD8",
"e|	c #E8FFDF",
"f|	c #EDFFE6",
"g|	c #EBFFE6",
"h|	c #EAFFE4",
"i|	c #DDFFD6",
"j|	c #88AF80",
"k|	c #002000",
"l|	c #48733B",
"m|	c #8CB87D",
"n|	c #8EBA7D",
"o|	c #76A561",
"p|	c #7FB263",
"q|	c #7DB35F",
"r|	c #7CB25E",
"s|	c #7BB15D",
"t|	c #7AB05C",
"u|	c #78AE5A",
"v|	c #81B271",
"w|	c #7EAB72",
"x|	c #446E3C",
"y|	c #254B22",
"z|	c #1C3D1E",
"A|	c #3D5640",
"B|	c #657A69",
"C|	c #6A7A6D",
"D|	c #6E7A6C",
"E|	c #69705E",
"F|	c #7E816C",
"G|	c #777A5F",
"H|	c #898A6A",
"I|	c #8D8D69",
"J|	c #9AA27B",
"K|	c #69855C",
"L|	c #678D64",
"M|	c #103611",
"N|	c #648767",
"O|	c #719275",
"P|	c #6C8A6E",
"Q|	c #668566",
"R|	c #5E7D5B",
"S|	c #618056",
"T|	c #5F814F",
"U|	c #678A54",
"V|	c #698E58",
"W|	c #678E59",
"X|	c #779F6B",
"Y|	c #93BA8B",
"Z|	c #A1C49C",
"`|	c #A2B69D",
" 1	c #B3C2AF",
".1	c #BFCEB9",
"+1	c #BFD1B9",
"@1	c #BBCFB3",
"#1	c #B9D1B1",
"$1	c #B8D2AF",
"%1	c #B6D2AA",
"&1	c #C1DDB4",
"*1	c #C3E0B4",
"=1	c #C3E0B2",
"-1	c #C4E1B3",
";1	c #CAE5B8",
">1	c #D1EBBE",
",1	c #D1EBBC",
"'1	c #CCE7BC",
")1	c #BCDAB8",
"!1	c #B4D3B4",
"~1	c #B2D1B1",
"{1	c #ACCBAB",
"]1	c #A4C3A1",
"^1	c #A2C19F",
"/1	c #93B38E",
"(1	c #76966F",
"_1	c #587851",
":1	c #58784F",
"<1	c #7EA276",
"[1	c #9ABE92",
"}1	c #BEE2B4",
"|1	c #AED2A4",
"11	c #BBDFAF",
"21	c #BFE5B2",
"31	c #A4CD93",
"41	c #A7D396",
"51	c #AAD69B",
"61	c #ABD69E",
"71	c #AFDAA4",
"81	c #B6E1AC",
"91	c #B8E2B2",
"01	c #B6E0B0",
"a1	c #ACD6A6",
"b1	c #D3FDCB",
"c1	c #B4DEAC",
"d1	c #4D7842",
"e1	c #47723A",
"f1	c #6F9B60",
"g1	c #709C5F",
"h1	c #7FAE6A",
"i1	c #75A859",
"j1	c #73A955",
"k1	c #71A753",
"l1	c #6FA551",
"m1	c #6EA450",
"n1	c #6DA34F",
"o1	c #74A063",
"p1	c #659156",
"q1	c #6A925D",
"r1	c #284E1D",
"s1	c #22451D",
"t1	c #223F20",
"u1	c #4A6248",
"v1	c #657862",
"w1	c #71806D",
"x1	c #6E7A66",
"y1	c #656D58",
"z1	c #71755E",
"A1	c #6D7053",
"B1	c #787959",
"C1	c #767652",
"D1	c #788059",
"E1	c #738F66",
"F1	c #4C7148",
"G1	c #244824",
"H1	c #395A3B",
"I1	c #415F45",
"J1	c #627E65",
"K1	c #779478",
"L1	c #A0BE9C",
"M1	c #ACC8A0",
"N1	c #A9C99A",
"O1	c #B8D8A6",
"P1	c #C9ECB6",
"Q1	c #D0F5C1",
"R1	c #DBFFCE",
"S1	c #E0FFD7",
"T1	c #D9FCD4",
"U1	c #E3FBE1",
"V1	c #EDFFEE",
"W1	c #EBFFED",
"X1	c #DFF9E0",
"Y1	c #DCF9DD",
"Z1	c #E9FFE9",
"`1	c #EBFFEC",
" 2	c #EAFFEA",
".2	c #D6FCD5",
"+2	c #DDFFDA",
"@2	c #DAFFD6",
"#2	c #CEF3C8",
"$2	c #C9ECC2",
"%2	c #C5E8BE",
"&2	c #B3D6AC",
"*2	c #9DC096",
"=2	c #B6DDB0",
"-2	c #B3DAAB",
";2	c #B0D7AA",
">2	c #A9D0A3",
",2	c #AFD6A9",
"'2	c #C8EFC2",
")2	c #CBF2C6",
"!2	c #B2D9AD",
"~2	c #A6CDA1",
"{2	c #94BB8F",
"]2	c #B5DAB1",
"^2	c #B4D9B0",
"/2	c #D4F9D0",
"(2	c #A4C9A0",
"_2	c #ADD1AB",
":2	c #A8CFA2",
"<2	c #9BC78C",
"[2	c #99C786",
"}2	c #95C383",
"|2	c #93C183",
"12	c #99C68B",
"22	c #A2CF96",
"32	c #A4D09B",
"42	c #A2CE99",
"52	c #C0EDB6",
"62	c #B7E4AD",
"72	c #B9E6AB",
"82	c #B2E0A2",
"92	c #D2FFC0",
"02	c #93C180",
"a2	c #79A862",
"b2	c #81B263",
"c2	c #81B260",
"d2	c #82B361",
"e2	c #85B664",
"f2	c #88B967",
"g2	c #628753",
"h2	c #5B804C",
"i2	c #5A7C4A",
"j2	c #406134",
"k2	c #345028",
"l2	c #435D3A",
"m2	c #506546",
"n2	c #6B7B60",
"o2	c #66745B",
"p2	c #667057",
"q2	c #656D55",
"r2	c #72765B",
"s2	c #787B5E",
"t2	c #7E7F60",
"u2	c #787758",
"v2	c #707755",
"w2	c #99B48B",
"x2	c #759870",
"y2	c #82A17F",
"z2	c #87A687",
"A2	c #8FA990",
"B2	c #A6BFA9",
"C2	c #B4CCB2",
"D2	c #D0E9CB",
"E2	c #C0DAB5",
"F2	c #B0CBA0",
"G2	c #ACC999",
"H2	c #AFCF9D",
"I2	c #B1D1A0",
"J2	c #B6D7A8",
"K2	c #B4D8AC",
"L2	c #A8C89F",
"M2	c #BFDDB9",
"N2	c #CBE9C5",
"O2	c #D0F0CB",
"P2	c #D0F2CD",
"Q2	c #DEFFDA",
"R2	c #E7FFE4",
"S2	c #D7FFD5",
"T2	c #B7E5B6",
"U2	c #B9E9B9",
"V2	c #B2E2B2",
"W2	c #A4D2A1",
"X2	c #96C493",
"Y2	c #B5E1B0",
"Z2	c #BAE9B5",
"`2	c #9FD196",
" 3	c #A4D699",
".3	c #AFE1A6",
"+3	c #B0E1A9",
"@3	c #ACDBA5",
"#3	c #B6E5B1",
"$3	c #BCE8B7",
"%3	c #B0DBAD",
"&3	c #C1ECBF",
"*3	c #BBE4BA",
"=3	c #C7EFCA",
"-3	c #B1D6B4",
";3	c #C8EDCC",
">3	c #B9DEBF",
",3	c #C7ECCD",
"'3	c #BADFBD",
")3	c #BDE7B7",
"!3	c #B4E0AB",
"~3	c #A6D29F",
"{3	c #9DC996",
"]3	c #A4CFA1",
"^3	c #B2DDAF",
"/3	c #BAE5B8",
"(3	c #BBE6BB",
"_3	c #B6E1B6",
":3	c #B9E4B7",
"<3	c #AED9AB",
"[3	c #CAF6C5",
"}3	c #BDE9B8",
"|3	c #C1EDB8",
"13	c #BAE5AD",
"23	c #A9D391",
"33	c #A4CE8C",
"43	c #9EC886",
"53	c #9AC482",
"63	c #97C17F",
"73	c #8BA87C",
"83	c #7F9C6E",
"93	c #8BA67B",
"03	c #8DA67C",
"a3	c #899F78",
"b3	c #879C75",
"c3	c #82936F",
"d3	c #98A683",
"e3	c #A1AC8C",
"f3	c #9AA384",
"g3	c #959C7D",
"h3	c #919678",
"i3	c #9A9D80",
"j3	c #A0A386",
"k3	c #A8A88C",
"l3	c #A3AA89",
"m3	c #B0C6A0",
"n3	c #A1BF99",
"o3	c #B3CEAD",
"p3	c #BED8BD",
"q3	c #C8DEC9",
"r3	c #C5DBC6",
"s3	c #C7DAC6",
"t3	c #BDD1B8",
"u3	c #C1D6B5",
"v3	c #C3D9B2",
"w3	c #CBE5B8",
"x3	c #CAE6B6",
"y3	c #BDD8AB",
"z3	c #C0DDAF",
"A3	c #CEEDC3",
"B3	c #D2F3C4",
"C3	c #BAE0A5",
"D3	c #BDE5A6",
"E3	c #B3DD9D",
"F3	c #A4D190",
"G3	c #A3D492",
"H3	c #A7DA97",
"I3	c #92C783",
"J3	c #70A964",
"K3	c #5B9751",
"L3	c #67A35D",
"M3	c #84C07A",
"N3	c #A1DD97",
"O3	c #A6E19D",
"P3	c #9AD591",
"Q3	c #9BD490",
"R3	c #A3DF99",
"S3	c #B9F5AD",
"T3	c #ACE8A0",
"U3	c #B2EBA6",
"V3	c #BBF3B2",
"W3	c #B6ECAE",
"X3	c #B3E9AF",
"Y3	c #BCEEB9",
"Z3	c #BFEFBF",
"`3	c #AEDDB1",
" 4	c #B3E0B9",
".4	c #B2DBB9",
"+4	c #A7CEB1",
"@4	c #AACDB5",
"#4	c #B0D3BD",
"$4	c #B3D6C2",
"%4	c #ABCEBA",
"&4	c #A4CAB1",
"*4	c #9CC3A8",
"=4	c #8FB59C",
"-4	c #88AE95",
";4	c #8FB5A0",
">4	c #9DC3AE",
",4	c #A5CAB8",
"'4	c #AFD4C2",
")4	c #A6CBB9",
"!4	c #A4CAB5",
"~4	c #AFD5BE",
"{4	c #9FC5AE",
"]4	c #A1C7AE",
"^4	c #B1D8BD",
"/4	c #BBDFC3",
"(4	c #C0E1C2",
"_4	c #C1E0C0",
":4	c #C0DFBF",
"<4	c #BFDEBE",
"[4	c #7B8F6A",
"}4	c #647853",
"|4	c #869872",
"14	c #7E9068",
"24	c #93A37C",
"34	c #75845B",
"44	c #76825A",
"54	c #7E8A62",
"64	c #8E9971",
"74	c #89916C",
"84	c #848A68",
"94	c #6C7151",
"04	c #6E7154",
"a4	c #676A4F",
"b4	c #717157",
"c4	c #6A7054",
"d4	c #667A55",
"e4	c #5E7851",
"f4	c #52694C",
"g4	c #556C52",
"h4	c #697C68",
"i4	c #738472",
"j4	c #808E7D",
"k4	c #788772",
"l4	c #99A98E",
"m4	c #9BAC8A",
"n4	c #A7BC95",
"o4	c #AFC69C",
"p4	c #ABC49A",
"q4	c #B2CBA1",
"r4	c #BCD6AF",
"s4	c #B8D8A7",
"t4	c #D0FAB2",
"u4	c #CAF9A8",
"v4	c #B4E392",
"w4	c #8FC371",
"x4	c #7CB15F",
"y4	c #7DB665",
"z4	c #81BC6A",
"A4	c #7CBB6A",
"B4	c #98D989",
"C4	c #8ECF7F",
"D4	c #90D082",
"E4	c #98D88A",
"F4	c #8ECE80",
"G4	c #80C074",
"H4	c #90D084",
"I4	c #B0F0A4",
"J4	c #98D88E",
"K4	c #7FBE77",
"L4	c #84C17C",
"M4	c #A1DC9A",
"N4	c #ACE4A7",
"O4	c #A4D9A1",
"P4	c #9ACE9D",
"Q4	c #92C396",
"R4	c #89B792",
"S4	c #8DB696",
"T4	c #8CB398",
"U4	c #93B6A0",
"V4	c #87A897",
"W4	c #80A093",
"X4	c #77958B",
"Y4	c #79978F",
"Z4	c #83A29C",
"`4	c #81A09B",
" 5	c #7C9B96",
".5	c #779593",
"+5	c #789696",
"@5	c #7B9999",
"#5	c #799799",
"$5	c #739193",
"%5	c #729092",
"&5	c #638183",
"*5	c #668484",
"=5	c #729090",
"-5	c #7D9B99",
";5	c #668580",
">5	c #6F8E89",
",5	c #5D7A75",
"'5	c #7B948E",
")5	c #80978F",
"!5	c #859C94",
"~5	c #8CA39B",
"{5	c #93AAA2",
"]5	c #99B0A8",
"^5	c #778166",
"/5	c #687355",
"(5	c #778262",
"_5	c #6E7A56",
":5	c #79845C",
"<5	c #717C52",
"[5	c #6F784D",
"}5	c #767F52",
"|5	c #677043",
"15	c #6D744A",
"25	c #787E58",
"35	c #636746",
"45	c #66694C",
"55	c #595C41",
"65	c #666852",
"75	c #61674D",
"85	c #596A46",
"95	c #627852",
"05	c #5C6F53",
"a5	c #55674F",
"b5	c #647261",
"c5	c #727E70",
"d5	c #5D685A",
"e5	c #616C5C",
"f5	c #939F89",
"g5	c #7D8A6E",
"h5	c #6C7E58",
"i5	c #6E835C",
"j5	c #819570",
"k5	c #90A682",
"l5	c #8BA878",
"m5	c #7EA75B",
"n5	c #88B95E",
"o5	c #93C46B",
"p5	c #92C76F",
"q5	c #90C670",
"r5	c #8FC974",
"s5	c #91CC7A",
"t5	c #8FCE7D",
"u5	c #82C373",
"v5	c #7EC172",
"w5	c #83C679",
"x5	c #87CA7D",
"y5	c #7CBF72",
"z5	c #6DAF65",
"A5	c #72B46A",
"B5	c #86C57F",
"C5	c #94D291",
"D5	c #8ECA8E",
"E5	c #A1DBA0",
"F5	c #BBF4BD",
"G5	c #B9EFBB",
"H5	c #9ACE9E",
"I5	c #709F75",
"J5	c #4A7652",
"K5	c #689173",
"L5	c #71947C",
"M5	c #799A87",
"N5	c #688778",
"O5	c #6D887F",
"P5	c #6D8680",
"Q5	c #7C928F",
"R5	c #7B9091",
"S5	c #657982",
"T5	c #697C8A",
"U5	c #667987",
"V5	c #637685",
"W5	c #627584",
"X5	c #5D707F",
"Y5	c #566978",
"Z5	c #607382",
"`5	c #667988",
" 6	c #5C6F7E",
".6	c #5F7280",
"+6	c #4D606E",
"@6	c #6F8290",
"#6	c #758793",
"$6	c #687885",
"%6	c #6C7A87",
"&6	c #6E7C89",
"*6	c #707E8B",
"=6	c #6F7D8A",
"-6	c #80836E",
";6	c #82866F",
">6	c #6D7156",
",6	c #767B5B",
"'6	c #595F3B",
")6	c #868D63",
"!6	c #70774B",
"~6	c #81895A",
"{6	c #686E40",
"]6	c #6D7347",
"^6	c #797E56",
"/6	c #5B5F3C",
"(6	c #5C5F42",
"_6	c #51533B",
":6	c #676953",
"<6	c #676C55",
"[6	c #53633F",
"}6	c #617550",
"|6	c #66765B",
"16	c #54614D",
"26	c #5E6A5C",
"36	c #7B857C",
"46	c #525951",
"56	c #6E7669",
"66	c #707765",
"76	c #727C63",
"86	c #7D8A6C",
"96	c #7D8C6B",
"06	c #6F7E5D",
"a6	c #6D7E5C",
"b6	c #748767",
"c6	c #738D60",
"d6	c #577C39",
"e6	c #558031",
"f6	c #5B873A",
"g6	c #67954C",
"h6	c #72A45B",
"i6	c #7AAD68",
"j6	c #79B06D",
"k6	c #76AE6F",
"l6	c #70AC6E",
"m6	c #76B177",
"n6	c #7AB57D",
"o6	c #77B27A",
"p6	c #70AB73",
"q6	c #6BA66E",
"r6	c #6DA872",
"s6	c #71AB78",
"t6	c #71A97A",
"u6	c #6EA377",
"v6	c #71A67C",
"w6	c #72A57C",
"x6	c #70A07A",
"y6	c #79A584",
"z6	c #7EA789",
"A6	c #769981",
"B6	c #6D8E7B",
"C6	c #749081",
"D6	c #698378",
"E6	c #0E231C",
"F6	c #0A1D19",
"G6	c #081817",
"H6	c #263434",
"I6	c #0B191C",
"J6	c #19262F",
"K6	c #202C3A",
"L6	c #262F3E",
"M6	c #24303E",
"N6	c #283140",
"O6	c #2D3947",
"P6	c #323B4A",
"Q6	c #303C4A",
"R6	c #313A49",
"S6	c #414D5B",
"T6	c #3A4654",
"U6	c #464F5E",
"V6	c #3B4755",
"W6	c #485160",
"X6	c #404958",
"Y6	c #4A5362",
"Z6	c #4F5867",
"`6	c #586170",
" 7	c #616A79",
".7	c #687180",
"+7	c #6D7685",
"@7	c #A9A896",
"#7	c #74735F",
"$7	c #A3A38B",
"%7	c #B2B296",
"&7	c #A1A280",
"*7	c #71734C",
"=7	c #7A7D50",
"-7	c #757B4B",
";7	c #AEB182",
">7	c #8A9062",
",7	c #6D7249",
"'7	c #535734",
")7	c #575A3D",
"!7	c #5E6048",
"~7	c #5B5D48",
"{7	c #727760",
"]7	c #768461",
"^7	c #667652",
"/7	c #5B694F",
"(7	c #687460",
"_7	c #545953",
":7	c #181D17",
"<7	c #000200",
"[7	c #020600",
"}7	c #121A05",
"|7	c #575F47",
"17	c #848F71",
"27	c #536042",
"37	c #6A795A",
"47	c #859477",
"57	c #6F8360",
"67	c #607B50",
"77	c #6A8A59",
"87	c #648558",
"97	c #507448",
"07	c #719770",
"a7	c #709875",
"b7	c #739E80",
"c7	c #6F9B80",
"d7	c #729F88",
"e7	c #72A28C",
"f7	c #6C9B87",
"g7	c #79A896",
"h7	c #709F8D",
"i7	c #77A694",
"j7	c #6C9887",
"k7	c #7AA793",
"l7	c #77A490",
"m7	c #76A18D",
"n7	c #77A18D",
"o7	c #7CA390",
"p7	c #6A8F7E",
"q7	c #749686",
"r7	c #87A599",
"s7	c #647E73",
"t7	c #7D948C",
"u7	c #677A74",
"v7	c #293833",
"w7	c #000503",
"x7	c #000605",
"y7	c #040D0C",
"z7	c #010707",
"A7	c #05090A",
"B7	c #0C1011",
"C7	c #0A0E0F",
"D7	c #0B0D0C",
"E7	c #0A0E0D",
"F7	c #0E100F",
"G7	c #0D1110",
"H7	c #060807",
"I7	c #191D1C",
"J7	c #080A09",
"K7	c #1B1F1E",
"L7	c #1A1E1D",
"M7	c #090A0C",
"N7	c #1C2021",
"O7	c #0C1212",
"P7	c #090F0F",
"Q7	c #020808",
"R7	c #131919",
"S7	c #040A0A",
"T7	c #191F1F",
"U7	c #7B7869",
"V7	c #908D7C",
"W7	c #7F7D68",
"X7	c #7E7C63",
"Y7	c #959475",
"Z7	c #7A7A56",
"`7	c #75784D",
" 8	c #A5A87B",
".8	c #616437",
"+8	c #696C41",
"@8	c #777C54",
"#8	c #777B58",
"$8	c #838669",
"%8	c #84866E",
"&8	c #686A55",
"*8	c #656952",
"=8	c #5F6A48",
"-8	c #667451",
";8	c #6F7C62",
">8	c #687160",
",8	c #434841",
"'8	c #181A17",
")8	c #050704",
"!8	c #0A0C07",
"~8	c #010300",
"{8	c #0B0F00",
"]8	c #101500",
"^8	c #555E43",
"/8	c #4E583D",
"(8	c #7C896D",
"_8	c #6B785E",
":8	c #6C7C61",
"<8	c #4F6445",
"[8	c #597252",
"}8	c #546D50",
"|8	c #526E55",
"18	c #75927E",
"28	c #729182",
"38	c #81A299",
"48	c #6A8D87",
"58	c #8FB3B1",
"68	c #6F9294",
"78	c #6E9195",
"88	c #82A5A9",
"98	c #628589",
"08	c #75969B",
"a8	c #7FA0A5",
"b8	c #7EA0A2",
"c8	c #77999A",
"d8	c #749695",
"e8	c #7B9B9A",
"f8	c #819F9F",
"g8	c #8AA7A5",
"h8	c #748C8C",
"i8	c #819596",
"j8	c #6F8181",
"k8	c #748283",
"l8	c #485454",
"m8	c #11191B",
"n8	c #000405",
"o8	c #0D0E10",
"p8	c #131315",
"q8	c #121013",
"r8	c #181617",
"s8	c #130F0C",
"t8	c #110E09",
"u8	c #100D08",
"v8	c #131009",
"w8	c #14110A",
"x8	c #110E05",
"y8	c #0D0A01",
"z8	c #1F1C13",
"A8	c #0F0C05",
"B8	c #232019",
"C8	c #0C0904",
"D8	c #211E19",
"E8	c #100C09",
"F8	c #201F1B",
"G8	c #1D1E19",
"H8	c #181B14",
"I8	c #191B16",
"J8	c #23261F",
"K8	c #1B1D18",
"L8	c #252821",
"M8	c #898377",
"N8	c #989284",
"O8	c #827D67",
"P8	c #949377",
"Q8	c #828260",
"R8	c #90906C",
"S8	c #868660",
"T8	c #75774F",
"U8	c #7B7D56",
"V8	c #7D7F5A",
"W8	c #6A6B4B",
"X8	c #737357",
"Y8	c #818169",
"Z8	c #70725C",
"`8	c #70745B",
" 9	c #747F5D",
".9	c #6A7855",
"+9	c #656F56",
"@9	c #4D5444",
"#9	c #1E231C",
"$9	c #010302",
"%9	c #000002",
"&9	c #010101",
"*9	c #010000",
"=9	c #0B0D02",
"-9	c #010500",
";9	c #444C35",
">9	c #7B836B",
",9	c #98A289",
"'9	c #657258",
")9	c #647258",
"!9	c #6E7E61",
"~9	c #6D8165",
"{9	c #576B52",
"]9	c #657D67",
"^9	c #8BA393",
"/9	c #97B1A8",
"(9	c #D1EBE8",
"_9	c #B5D1D4",
":9	c #78939A",
"<9	c #69848D",
"[9	c #86A1AC",
"}9	c #C1DBE8",
"|9	c #93AAB8",
"19	c #A4BAC8",
"29	c #DCF2FF",
"39	c #D3E9F6",
"49	c #D5ECFA",
"59	c #C9E0EE",
"69	c #8199A5",
"79	c #6B818E",
"89	c #8698A4",
"99	c #8697A1",
"09	c #6B7881",
"a9	c #4F5962",
"b9	c #6B727A",
"c9	c #2B3036",
"d9	c #030408",
"e9	c #0A0A0C",
"f9	c #141215",
"g9	c #130F10",
"h9	c #150F11",
"i9	c #1B1213",
"j9	c #190F10",
"k9	c #170D0E",
"l9	c #160C0D",
"m9	c #170D0C",
"n9	c #180E0C",
"o9	c #19100B",
"p9	c #180F0A",
"q9	c #160D08",
"r9	c #221914",
"s9	c #160C0A",
"t9	c #281E1C",
"u9	c #130908",
"v9	c #251B1A",
"w9	c #251C1D",
"x9	c #24201F",
"y9	c #1B1A16",
"z9	c #252422",
"A9	c #252420",
"B9	c #272624",
"C9	c #23221E",
"D9	c #837D71",
"E9	c #838071",
"F9	c #857F6F",
"G9	c #898772",
"H9	c #8F8D74",
"I9	c #7A795D",
"J9	c #A9A889",
"K9	c #747452",
"L9	c #888967",
"M9	c #848563",
"N9	c #828363",
"O9	c #717253",
"P9	c #757559",
"Q9	c #76765C",
"R9	c #5C5E46",
"S9	c #5B5F44",
"T9	c #56603D",
"U9	c #626D4B",
"V9	c #646C54",
"W9	c #383F2F",
"X9	c #222025",
"Y9	c #343235",
"Z9	c #3D3C3A",
"`9	c #3A3A32",
" 0	c #2F3123",
".0	c #262B17",
"+0	c #6D755E",
"@0	c #757D66",
"#0	c #6F7961",
"$0	c #606D53",
"%0	c #5E6F4D",
"&0	c #596D4A",
"*0	c #374C2D",
"=0	c #4F634A",
"-0	c #708572",
";0	c #849A8E",
">0	c #E1F8F2",
",0	c #CADFE0",
"'0	c #D6EBF0",
")0	c #D2E6EF",
"!0	c #B0C4CF",
"~0	c #F1FFFF",
"{0	c #D2E2EF",
"]0	c #B7C5D0",
"^0	c #EBF9FF",
"/0	c #BACAD7",
"(0	c #A4B5C5",
"_0	c #D7EAFB",
":0	c #A0B3C4",
"<0	c #99AABA",
"[0	c #8C99A9",
"}0	c #85919F",
"|0	c #5C6672",
"10	c #6E7480",
"20	c #4A4E57",
"30	c #16161E",
"40	c #040309",
"50	c #121015",
"60	c #110C10",
"70	c #0F090B",
"80	c #160D10",
"90	c #14090D",
"00	c #1B1018",
"a0	c #190D17",
"b0	c #190C15",
"c0	c #180D13",
"d0	c #1A0E12",
"e0	c #1A1011",
"f0	c #190D0F",
"g0	c #1A0E10",
"h0	c #1E1415",
"i0	c #271C20",
"j0	c #14070E",
"k0	c #22171F",
"l0	c #1E111B",
"m0	c #221620",
"n0	c #241D24",
"o0	c #181317",
"p0	c #272226",
"q0	c #1E191D",
"r0	c #262125",
"s0	c #191418",
"t0	c #858273",
"u0	c #827F6E",
"v0	c #8F8E7A",
"w0	c #7F7E69",
"x0	c #787860",
"y0	c #8A8A72",
"z0	c #818167",
"A0	c #7F7F65",
"B0	c #6E6E52",
"C0	c #717155",
"D0	c #7B7B61",
"E0	c #6F6F55",
"F0	c #515137",
"G0	c #575C3E",
"H0	c #616B48",
"I0	c #65704E",
"J0	c #4D553E",
"K0	c #171D0F",
"L0	c #000100",
"M0	c #141416",
"N0	c #2F2C33",
"O0	c #2F2D32",
"P0	c #302E2F",
"Q0	c #2E2D28",
"R0	c #333528",
"S0	c #191D0C",
"T0	c #444C37",
"U0	c #6B735E",
"V0	c #808974",
"W0	c #536044",
"X0	c #607248",
"Y0	c #617746",
"Z0	c #485F33",
"`0	c #7C9474",
" a	c #869E86",
".a	c #E1F8E6",
"+a	c #CEE4D8",
"@a	c #ACC1BC",
"#a	c #EEFFFF",
"$a	c #A0B2B2",
"%a	c #E5F5F5",
"&a	c #CCDADA",
"*a	c #939F9F",
"=a	c #EAF4F5",
"-a	c #DFEAEC",
";a	c #E0F1F9",
">a	c #E3F5FF",
",a	c #95A7B3",
"'a	c #798A94",
")a	c #86949D",
"!a	c #6F7C85",
"~a	c #566069",
"{a	c #697078",
"]a	c #11161C",
"^a	c #030409",
"/a	c #0A090E",
"(a	c #131116",
"_a	c #0C070B",
":a	c #110B0D",
"<a	c #1C1618",
"[a	c #170D15",
"}a	c #1B1021",
"|a	c #190D23",
"1a	c #180B1F",
"2a	c #180D1E",
"3a	c #1A0D1E",
"4a	c #190E1C",
"5a	c #180C18",
"6a	c #150B14",
"7a	c #1B0F1B",
"8a	c #160C17",
"9a	c #190D1B",
"0a	c #231828",
"aa	c #120517",
"ba	c #1D1125",
"ca	c #1F1128",
"da	c #1B0F23",
"ea	c #2A2132",
"fa	c #1C1423",
"ga	c #28202F",
"ha	c #1D1524",
"ia	c #251D2C",
"ja	c #1B1322",
"ka	c #636250",
"la	c #82816F",
"ma	c #494836",
"na	c #92917F",
"oa	c #656452",
"pa	c #898874",
"qa	c #757460",
"ra	c #888773",
"sa	c #696853",
"ta	c #5E5E46",
"ua	c #5D5D43",
"va	c #65654B",
"wa	c #5A5A3E",
"xa	c #49492D",
"ya	c #5F6243",
"za	c #7A8461",
"Aa	c #5E6947",
"Ba	c #202811",
"Ca	c #000300",
"Da	c #151714",
"Ea	c #353439",
"Fa	c #2D2A33",
"Ga	c #19161D",
"Ha	c #0D0B0E",
"Ia	c #1C1B17",
"Ja	c #1B1D12",
"Ka	c #2C3321",
"La	c #89917C",
"Ma	c #87907D",
"Na	c #47543A",
"Oa	c #5B7143",
"Pa	c #5E7644",
"Qa	c #4D6436",
"Ra	c #5B744C",
"Sa	c #7A9272",
"Ta	c #849C82",
"Ua	c #D2E9D7",
"Va	c #D0E6DA",
"Wa	c #91A49E",
"Xa	c #F4FFFF",
"Ya	c #AFBDBD",
"Za	c #E0ECEC",
"`a	c #D9E3E4",
" b	c #99A2A1",
".b	c #DEE4E2",
"+b	c #EFF8F7",
"@b	c #A0AFB2",
"#b	c #DAEDF1",
"$b	c #E3F5F9",
"%b	c #8C9EA0",
"&b	c #92A1A4",
"*b	c #677578",
"=b	c #717C80",
"-b	c #4D5759",
";b	c #000105",
">b	c #020609",
",b	c #111216",
"'b	c #100F14",
")b	c #09070A",
"!b	c #100E11",
"~b	c #130E14",
"{b	c #191021",
"]b	c #170E21",
"^b	c #150C1D",
"/b	c #150D1C",
"(b	c #160E1B",
"_b	c #160E19",
":b	c #140D15",
"<b	c #130C13",
"[b	c #1A131A",
"}b	c #0E070F",
"|b	c #1F1724",
"1b	c #0E0615",
"2b	c #170E1F",
"3b	c #1F1629",
"4b	c #130A1B",
"5b	c #2A222F",
"6b	c #1F1722",
"7b	c #241C27",
"8b	c #201823",
"9b	c #221A25",
"0b	c #231B26",
"ab	c #7A7C67",
"bb	c #939580",
"cb	c #5B5C4A",
"db	c #787967",
"eb	c #444535",
"fb	c #888979",
"gb	c #484639",
"hb	c #1D1B0C",
"ib	c #6A6859",
"jb	c #62614F",
"kb	c #696854",
"lb	c #6A6A52",
"mb	c #6D6B52",
"nb	c #605F43",
"ob	c #484729",
"pb	c #555938",
"qb	c #4F5934",
"rb	c #424D2B",
"sb	c #131B04",
"tb	c #070D00",
"ub	c #323431",
"vb	c #414045",
"wb	c #434049",
"xb	c #615E67",
"yb	c #4F4D52",
"zb	c #504F4D",
"Ab	c #23241C",
"Bb	c #202416",
"Cb	c #0B1200",
"Db	c #737A68",
"Eb	c #757E6D",
"Fb	c #4D5B42",
"Gb	c #637953",
"Hb	c #607B52",
"Ib	c #536D48",
"Jb	c #566F51",
"Kb	c #7E9680",
"Lb	c #89A193",
"Mb	c #BAD1CB",
"Nb	c #C8DCDB",
"Ob	c #A0B2B6",
"Pb	c #D5E3EC",
"Qb	c #9AA7B0",
"Rb	c #C3CDD6",
"Sb	c #F0F7FF",
"Tb	c #E4E8F1",
"Ub	c #DCDFE6",
"Vb	c #D4DCDF",
"Wb	c #CDDED8",
"Xb	c #E0F7ED",
"Yb	c #CBE0D7",
"Zb	c #7B8E88",
"`b	c #738680",
" c	c #6F807A",
".c	c #5D6C67",
"+c	c #000907",
"@c	c #000302",
"#c	c #0A1312",
"$c	c #0F1515",
"%c	c #0F1014",
"&c	c #101115",
"*c	c #0C0B10",
"=c	c #0B0B0D",
"-c	c #161419",
";c	c #121011",
">c	c #12110F",
",c	c #13120D",
"'c	c #12120A",
")c	c #101006",
"!c	c #0E0E04",
"~c	c #19190F",
"{c	c #080800",
"]c	c #15150D",
"^c	c #1B1A15",
"/c	c #0B0A08",
"(c	c #1E1C1F",
"_c	c #0F0B0C",
":c	c #231E1A",
"<c	c #1F1812",
"[c	c #1D1610",
"}c	c #261F19",
"|c	c #2D2620",
"1c	c #4F503E",
"2c	c #B7B8A6",
"3c	c #8A8B79",
"4c	c #464737",
"5c	c #6A6B5D",
"6c	c #8A8A7E",
"7c	c #5C5A4E",
"8c	c #838175",
"9c	c #4A483C",
"0c	c #555346",
"ac	c #656656",
"bc	c #636452",
"cc	c #696B55",
"dc	c #6E7058",
"ec	c #65684D",
"fc	c #757B5F",
"gc	c #6A7557",
"hc	c #435036",
"ic	c #060F00",
"jc	c #13190D",
"kc	c #5C5D58",
"lc	c #5A5859",
"mc	c #464145",
"nc	c #6D686C",
"oc	c #575153",
"pc	c #5C5855",
"qc	c #37372F",
"rc	c #1B1F11",
"sc	c #1F2314",
"tc	c #5E6754",
"uc	c #6B7761",
"vc	c #59694F",
"wc	c #586D4C",
"xc	c #587352",
"yc	c #587255",
"zc	c #809C85",
"Ac	c #7B9683",
"Bc	c #839E8F",
"Cc	c #8BA59A",
"Dc	c #718880",
"Ec	c #94ABA5",
"Fc	c #8BA09B",
"Gc	c #82928F",
"Hc	c #85948F",
"Ic	c #94A09C",
"Jc	c #838E88",
"Kc	c #A4B4AA",
"Lc	c #93AC99",
"Mc	c #84A18B",
"Nc	c #6E8976",
"Oc	c #9FB7A7",
"Pc	c #6C8075",
"Qc	c #66776F",
"Rc	c #35413D",
"Sc	c #010B0A",
"Tc	c #050B0B",
"Uc	c #101417",
"Vc	c #090A0E",
"Wc	c #08090D",
"Xc	c #1B1A1F",
"Yc	c #17161B",
"Zc	c #101012",
"`c	c #151513",
" d	c #13140F",
".d	c #11120C",
"+d	c #101109",
"@d	c #111308",
"#d	c #111306",
"$d	c #0F1104",
"%d	c #0C0E00",
"&d	c #1A1C0E",
"*d	c #060800",
"=d	c #15170C",
"-d	c #1A1B13",
";d	c #0B0C06",
">d	c #10110C",
",d	c #20201E",
"'d	c #0C0B07",
")d	c #1E1A11",
"!d	c #1C180D",
"~d	c #191208",
"{d	c #2A261B",
"]d	c #1E170D",
"^d	c #322E23",
"/d	c #626554",
"(d	c #8F9281",
"_d	c #A1A292",
":d	c #626355",
"<d	c #666458",
"[d	c #928F86",
"}d	c #717169",
"|d	c #585850",
"1d	c #505247",
"2d	c #454B3F",
"3d	c #4F5547",
"4d	c #606958",
"5d	c #5C6756",
"6d	c #687363",
"7d	c #5C685C",
"8d	c #041004",
"9d	c #141C0F",
"0d	c #3F4237",
"ad	c #5A5A4E",
"bd	c #686459",
"cd	c #3C332A",
"dd	c #393029",
"ed	c #362B27",
"fd	c #483F3A",
"gd	c #1C1711",
"hd	c #24241A",
"id	c #111504",
"jd	c #5A644C",
"kd	c #6E7C62",
"ld	c #657558",
"md	c #536847",
"nd	c #4F6946",
"od	c #536E4B",
"pd	c #5D7B57",
"qd	c #6D8D68",
"rd	c #769971",
"sd	c #71966B",
"td	c #799E73",
"ud	c #789F73",
"vd	c #789D72",
"wd	c #779C71",
"xd	c #799C72",
"yd	c #7D9D74",
"zd	c #7FA075",
"Ad	c #7EA179",
"Bd	c #79A17E",
"Cd	c #85AE8E",
"Dd	c #7FA387",
"Ed	c #728F7B",
"Fd	c #657B6E",
"Gd	c #75847F",
"Hd	c #000104",
"Id	c #090A0F",
"Jd	c #080510",
"Kd	c #140C19",
"Ld	c #120A17",
"Md	c #110712",
"Nd	c #150E16",
"Od	c #1C1819",
"Pd	c #131210",
"Qd	c #040500",
"Rd	c #1E1F1A",
"Sd	c #0B0C07",
"Td	c #20211C",
"Ud	c #070803",
"Vd	c #141510",
"Wd	c #171813",
"Xd	c #040402",
"Yd	c #131311",
"Zd	c #1D1D1B",
"`d	c #0C0C0C",
" e	c #151517",
".e	c #212123",
"+e	c #0E0C0D",
"@e	c #1C1817",
"#e	c #26221F",
"$e	c #130E0B",
"%e	c #2B2724",
"&e	c #2D2926",
"*e	c #787969",
"=e	c #828373",
"-e	c #78796B",
";e	c #78766A",
">e	c #97948B",
",e	c #79766D",
"'e	c #A09D96",
")e	c #78756E",
"!e	c #62635B",
"~e	c #656861",
"{e	c #646A60",
"]e	c #656F64",
"^e	c #657165",
"/e	c #576357",
"(e	c #5E6B61",
"_e	c #424E4A",
":e	c #08130D",
"<e	c #414840",
"[e	c #4F5345",
"}e	c #504F3D",
"|e	c #312C19",
"1e	c #1B1201",
"2e	c #201406",
"3e	c #2B1E15",
"4e	c #342A21",
"5e	c #1C150D",
"6e	c #222014",
"7e	c #070B00",
"8e	c #3C462D",
"9e	c #657455",
"0e	c #657956",
"ae	c #516945",
"be	c #4B6741",
"ce	c #47663D",
"de	c #4C6D42",
"ee	c #547A49",
"fe	c #5A824E",
"ge	c #57824A",
"he	c #538143",
"ie	c #5A8B4A",
"je	c #598A49",
"ke	c #578847",
"le	c #568745",
"me	c #568746",
"ne	c #598747",
"oe	c #5A8848",
"pe	c #59894D",
"qe	c #528453",
"re	c #518159",
"se	c #5E8765",
"te	c #527459",
"ue	c #6B8373",
"ve	c #2F3F35",
"we	c #0A1010",
"xe	c #06050B",
"ye	c #130D19",
"ze	c #1D1220",
"Ae	c #140A15",
"Be	c #110B0F",
"Ce	c #0E080A",
"De	c #161211",
"Ee	c #171612",
"Fe	c #090A05",
"Ge	c #0C0C0A",
"He	c #0B0B09",
"Ie	c #050505",
"Je	c #111111",
"Ke	c #1B1B1B",
"Le	c #08080A",
"Me	c #121214",
"Ne	c #18181A",
"Oe	c #07060B",
"Pe	c #0F0E13",
"Qe	c #0B090C",
"Re	c #14100F",
"Se	c #1E1A17",
"Te	c #0E0906",
"Ue	c #25211E",
"Ve	c #110C09",
"We	c #2A2623",
"Xe	c #5D5C4A",
"Ye	c #929081",
"Ze	c #7C7A6D",
"`e	c #787468",
" f	c #888479",
".f	c #504C41",
"+f	c #87847B",
"@f	c #7F7C73",
"#f	c #6A6A60",
"$f	c #74756D",
"%f	c #797F73",
"&f	c #767E71",
"*f	c #687365",
"=f	c #546052",
"-f	c #616D61",
";f	c #39463F",
">f	c #131E18",
",f	c #575F54",
"'f	c #404435",
")f	c #32311D",
"!f	c #0F0A00",
"~f	c #271F0A",
"{f	c #352A18",
"]f	c #483C2E",
"^f	c #443A2E",
"/f	c #443E32",
"(f	c #434132",
"_f	c #1B200C",
":f	c #232D14",
"<f	c #556445",
"[f	c #576D47",
"}f	c #57764C",
"|f	c #4E7244",
"1f	c #496F3E",
"2f	c #4C7440",
"3f	c #537E46",
"4f	c #5A874C",
"5f	c #598C4A",
"6f	c #578C48",
"7f	c #548943",
"8f	c #518940",
"9f	c #51893E",
"0f	c #548941",
"af	c #558A42",
"bf	c #568A48",
"cf	c #528751",
"df	c #4C7D4E",
"ef	c #507D54",
"ff	c #5C8160",
"gf	c #658168",
"hf	c #000A00",
"if	c #0E1911",
"jf	c #010703",
"kf	c #050608",
"lf	c #0F0D10",
"mf	c #0C0A0D",
"nf	c #0A0809",
"of	c #0F0F0D",
"pf	c #0D0F0A",
"qf	c #0C0F06",
"rf	c #15180F",
"sf	c #0C0D07",
"tf	c #030400",
"uf	c #080904",
"vf	c #181914",
"wf	c #060604",
"xf	c #1A1A18",
"yf	c #0A0A0A",
"zf	c #101010",
"Af	c #151515",
"Bf	c #1F1F21",
"Cf	c #141213",
"Df	c #1A150F",
"Ef	c #221E15",
"Ff	c #160F07",
"Gf	c #28241B",
"Hf	c #171008",
"If	c #2A261D",
"Jf	c #737260",
"Kf	c #585745",
"Lf	c #7C7B69",
"Mf	c #7D7A6B",
"Nf	c #848172",
"Of	c #575145",
"Pf	c #817D71",
"Qf	c #827E73",
"Rf	c #68665A",
"Sf	c #6D6F62",
"Tf	c #727668",
"Uf	c #6D7365",
"Vf	c #5F6758",
"Wf	c #535E50",
"Xf	c #6B776B",
"Yf	c #38433B",
"Zf	c #242F27",
"`f	c #4F574A",
" g	c #252A16",
".g	c #1B1B03",
"+g	c #201C01",
"@g	c #474024",
"#g	c #4A4027",
"$g	c #2D220E",
"%g	c #231A09",
"&g	c #3F3A27",
"*g	c #474632",
"=g	c #2D311A",
"-g	c #192308",
";g	c #505F3E",
">g	c #516740",
",g	c #4A6B3C",
"'g	c #3D6830",
")g	c #3D6D31",
"!g	c #447637",
"~g	c #4A7F3B",
"{g	c #4A823B",
"]g	c #498337",
"^g	c #478436",
"/g	c #488535",
"(g	c #498636",
"_g	c #4A8737",
":g	c #4B8838",
"<g	c #4D8A3A",
"[g	c #508A3D",
"}g	c #518B41",
"|g	c #3D7536",
"1g	c #3E733D",
"2g	c #356535",
"3g	c #658E64",
"4g	c #355734",
"5g	c #000B00",
"6g	c #011400",
"7g	c #061405",
"8g	c #040E05",
"9g	c #0C130B",
"0g	c #070E06",
"ag	c #040C01",
"bg	c #081305",
"cg	c #051201",
"dg	c #020F00",
"eg	c #0A1504",
"fg	c #080E02",
"gg	c #050800",
"hg	c #13160D",
"ig	c #080B02",
"jg	c #080B04",
"kg	c #141710",
"lg	c #070A03",
"mg	c #0C0E09",
"ng	c #181A15",
"og	c #0F110C",
"pg	c #121411",
"qg	c #0A0C09",
"rg	c #10120F",
"sg	c #171918",
"tg	c #0F100B",
"ug	c #1A170E",
"vg	c #201C11",
"wg	c #141005",
"xg	c #100C01",
"yg	c #706D5A",
"zg	c #676451",
"Ag	c #787262",
"Bg	c #7E7868",
"Cg	c #6D6558",
"Dg	c #797365",
"Eg	c #807A6C",
"Fg	c #625F50",
"Gg	c #636557",
"Hg	c #5B6252",
"Ig	c #515A49",
"Jg	c #4E5647",
"Kg	c #697466",
"Lg	c #27322A",
"Mg	c #3B453C",
"Ng	c #4A5042",
"Og	c #242712",
"Pg	c #1A1900",
"Qg	c #3E3919",
"Rg	c #4B4221",
"Sg	c #372C0E",
"Tg	c #2C2006",
"Ug	c #1D1300",
"Vg	c #36301A",
"Wg	c #3E3E26",
"Xg	c #3A3E23",
"Yg	c #222B0C",
"Zg	c #54623F",
"`g	c #51683E",
" h	c #4F7641",
".h	c #47773B",
"+h	c #447436",
"@h	c #447935",
"#h	c #457D36",
"$h	c #478135",
"%h	c #448133",
"&h	c #41802F",
"*h	c #3E7F2B",
"=h	c #3D812A",
"-h	c #3E822B",
";h	c #3E832A",
">h	c #41832B",
",h	c #43832D",
"'h	c #438231",
")h	c #3E7A32",
"!h	c #3E7635",
"~h	c #3B6E33",
"{h	c #578650",
"]h	c #0A3102",
"^h	c #001300",
"/h	c #000C00",
"(h	c #001200",
"_h	c #051900",
":h	c #041800",
"<h	c #071B00",
"[h	c #12290C",
"}h	c #152E0E",
"|h	c #1F3619",
"1h	c #24311D",
"2h	c #242F1E",
"3h	c #2B3625",
"4h	c #232E1D",
"5h	c #232E1E",
"6h	c #2A3525",
"7h	c #222D1D",
"8h	c #232E20",
"9h	c #212C1E",
"0h	c #1B2618",
"ah	c #1A2517",
"bh	c #192318",
"ch	c #141E13",
"dh	c #121C11",
"eh	c #111B12",
"fh	c #0D1309",
"gh	c #191A12",
"hh	c #17140B",
"ih	c #1C1910",
"jh	c #100D04",
"kh	c #16130A",
"lh	c #686350",
"mh	c #6B6653",
"nh	c #55503D",
"oh	c #76715E",
"ph	c #615A48",
"qh	c #6F6856",
"rh	c #6C6553",
"sh	c #635C4A",
"th	c #7A7361",
"uh	c #5F5C4B",
"vh	c #605F4D",
"wh	c #5C5D4D",
"xh	c #545847",
"yh	c #4B5242",
"zh	c #454C3C",
"Ah	c #5A6253",
"Bh	c #212B22",
"Ch	c #4E584F",
"Dh	c #464D3B",
"Eh	c #22240C",
"Fh	c #232301",
"Gh	c #4B4721",
"Hh	c #4C441D",
"Ih	c #403710",
"Jh	c #584E2B",
"Kh	c #483F20",
"Lh	c #413C1F",
"Mh	c #3D3C1E",
"Nh	c #4C4F32",
"Oh	c #404A28",
"Ph	c #65734F",
"Qh	c #61784C",
"Rh	c #699059",
"Sh	c #629254",
"Th	c #619452",
"Uh	c #639854",
"Vh	c #659F55",
"Wh	c #67A456",
"Xh	c #66A554",
"Yh	c #65A652",
"Zh	c #61A54E",
"`h	c #60A64D",
" i	c #61A64D",
".i	c #61A64B",
"+i	c #60A54A",
"@i	c #61A34B",
"#i	c #5FA149",
"$i	c #60A04C",
"%i	c #559244",
"&i	c #488238",
"*i	c #5F9652",
"=i	c #4E8041",
"-i	c #214E15",
";i	c #18400C",
">i	c #0D3103",
",i	c #14340B",
"'i	c #0E2C06",
")i	c #13310B",
"!i	c #0D2D04",
"~i	c #18390E",
"{i	c #173B0D",
"]i	c #13390A",
"^i	c #1C3D12",
"/i	c #253D1D",
"(i	c #2D4024",
"_i	c #314428",
":i	c #304327",
"<i	c #34472B",
"[i	c #3A4C32",
"}i	c #384A30",
"|i	c #394B33",
"1i	c #384A32",
"2i	c #394B35",
"3i	c #3B4D37",
"4i	c #3A4C36",
"5i	c #364832",
"6i	c #364532",
"7i	c #384035",
"8i	c #3D4039",
"9i	c #3A3D36",
"0i	c #393C35",
"ai	c #3B3E37",
"bi	c #6E6754",
"ci	c #67604D",
"di	c #5C5542",
"ei	c #7A7360",
"fi	c #5C5441",
"gi	c #78705D",
"hi	c #68604D",
"ii	c #625B48",
"ji	c #766F5C",
"ki	c #615C48",
"li	c #605D4A",
"mi	c #545543",
"ni	c #4E5140",
"oi	c #4C503F",
"pi	c #414838",
"qi	c #30372F",
"ri	c #535B50",
"si	c #383D29",
"ti	c #101300",
"ui	c #3F3D16",
"vi	c #4F4B1E",
"wi	c #554D1E",
"xi	c #5D5224",
"yi	c #4F4417",
"zi	c #4D441D",
"Ai	c #2D2703",
"Bi	c #262302",
"Ci	c #484C2B",
"Di	c #565D3B",
"Ei	c #6B8055",
"Fi	c #5A7F4B",
"Gi	c #548146",
"Hi	c #538345",
"Ii	c #558846",
"Ji	c #589049",
"Ki	c #5E984C",
"Li	c #629F51",
"Mi	c #64A450",
"Ni	c #6EB059",
"Oi	c #6DB259",
"Pi	c #71B35B",
"Qi	c #72B45C",
"Ri	c #73B55D",
"Si	c #73B35D",
"Ti	c #73B15C",
"Ui	c #79B764",
"Vi	c #6FAC5C",
"Wi	c #8EC87B",
"Xi	c #7DB56C",
"Yi	c #83B673",
"Zi	c #89B779",
"`i	c #91BC84",
" j	c #93BB86",
".j	c #85AD78",
"+j	c #86AC79",
"@j	c #69945E",
"#j	c #5E8B52",
"$j	c #4F7F45",
"%j	c #527F48",
"&j	c #395D2D",
"*j	c #436238",
"=j	c #405F35",
"-j	c #416036",
";j	c #426138",
">j	c #45643B",
",j	c #3F5E35",
"'j	c #4B6943",
")j	c #4E6C46",
"!j	c #4A6842",
"~j	c #4B6945",
"{j	c #53714D",
"]j	c #54724E",
"^j	c #52704C",
"/j	c #587154",
"(j	c #566659",
"_j	c #5A655F",
":j	c #5D6862",
"<j	c #5E6963",
"[j	c #606B65",
"}j	c #69624F",
"|j	c #524B38",
"1j	c #5D5643",
"2j	c #76705A",
"3j	c #554D38",
"4j	c #574F3A",
"5j	c #615942",
"6j	c #746E58",
"7j	c #605B45",
"8j	c #5B5944",
"9j	c #4B4D38",
"0j	c #484937",
"aj	c #45493A",
"bj	c #4E5446",
"cj	c #3B423A",
"dj	c #4A5046",
"ej	c #2B2E19",
"fj	c #090A00",
"gj	c #625F34",
"hj	c #514B19",
"ij	c #504710",
"jj	c #574E17",
"kj	c #524612",
"lj	c #2C2500",
"mj	c #1A1600",
"nj	c #3E3F1D",
"oj	c #4F5531",
"pj	c #525C37",
"qj	c #4B5D33",
"rj	c #456534",
"sj	c #3D6530",
"tj	c #37622A",
"uj	c #356325",
"vj	c #356825",
"wj	c #396E28",
"xj	c #3E762B",
"yj	c #407A2D",
"zj	c #3F7C2C",
"Aj	c #42802D",
"Bj	c #468431",
"Cj	c #4A8835",
"Dj	c #508B39",
"Ej	c #538E3C",
"Fj	c #548F3D",
"Gj	c #56913D",
"Hj	c #54923D",
"Ij	c #599243",
"Jj	c #5F954A",
"Kj	c #689B56",
"Lj	c #6D9E5C",
"Mj	c #6C9D5C",
"Nj	c #76A466",
"Oj	c #7BA96B",
"Pj	c #74A466",
"Qj	c #76A869",
"Rj	c #84B775",
"Sj	c #87BB79",
"Tj	c #83BA76",
"Uj	c #8ABE7C",
"Vj	c #94C284",
"Wj	c #9BC48A",
"Xj	c #8EB77D",
"Yj	c #86AF77",
"Zj	c #7CA56D",
"`j	c #709961",
" k	c #6E975F",
".k	c #628A55",
"+k	c #517944",
"@k	c #527A45",
"#k	c #48703C",
"$k	c #426A36",
"%k	c #466E3A",
"&k	c #416937",
"*k	c #476C41",
"=k	c #536D54",
"-k	c #556C5C",
";k	c #5B7061",
">k	c #597060",
",k	c #5F7465",
"'k	c #5C7363",
")k	c #605947",
"!k	c #6B6451",
"~k	c #413A27",
"{k	c #67614B",
"]k	c #4C442F",
"^k	c #827A63",
"/k	c #585039",
"(k	c #524B31",
"_k	c #6C664E",
":k	c #5B573E",
"<k	c #615F4A",
"[k	c #666853",
"}k	c #555644",
"|k	c #4E5243",
"1k	c #414739",
"2k	c #464B44",
"3k	c #55584F",
"4k	c #191B06",
"5k	c #292907",
"6k	c #565424",
"7k	c #4E4710",
"8k	c #655B1E",
"9k	c #5E5416",
"0k	c #50440A",
"ak	c #6A5E2A",
"bk	c #4F4718",
"ck	c #3B380F",
"dk	c #474721",
"ek	c #4D512E",
"fk	c #525A35",
"gk	c #46562F",
"hk	c #425D32",
"ik	c #3F6031",
"jk	c #3E6330",
"kk	c #3C632E",
"lk	c #3B642A",
"mk	c #3A6629",
"nk	c #3B6C2A",
"ok	c #3E712C",
"pk	c #3F732B",
"qk	c #3E7429",
"rk	c #3F7329",
"sk	c #3F7328",
"tk	c #3F7925",
"uk	c #3F7B25",
"vk	c #407A26",
"wk	c #417A29",
"xk	c #457B2D",
"yk	c #467C31",
"zk	c #477B33",
"Ak	c #487C34",
"Bk	c #4D803B",
"Ck	c #4E813C",
"Dk	c #50853F",
"Ek	c #518942",
"Fk	c #538B44",
"Gk	c #538C45",
"Hk	c #518D43",
"Ik	c #528C42",
"Jk	c #629A51",
"Kk	c #679C54",
"Lk	c #75AA64",
"Mk	c #7EB36D",
"Nk	c #86BB75",
"Ok	c #8CC17B",
"Pk	c #8FC480",
"Qk	c #8DC27E",
"Rk	c #8EC37F",
"Sk	c #8CC07E",
"Tk	c #85B977",
"Uk	c #78AC6A",
"Vk	c #699D5B",
"Wk	c #5E9252",
"Xk	c #59894F",
"Yk	c #466D41",
"Zk	c #3E623E",
"`k	c #30522F",
" l	c #1F431F",
".l	c #153714",
"+l	c #0D310D",
"@l	c #514A3A",
"#l	c #4F4836",
"$l	c #6F6855",
"%l	c #88826C",
"&l	c #4D452E",
"*l	c #625A43",
"=l	c #696248",
"-l	c #453F25",
";l	c #6F694F",
">l	c #55533C",
",l	c #4F513C",
"'l	c #434633",
")l	c #3B3F2E",
"!l	c #353B2F",
"~l	c #50554F",
"{l	c #64675E",
"]l	c #252711",
"^l	c #3D3D19",
"/l	c #5D5A27",
"(l	c #504A0C",
"_l	c #544B06",
":l	c #4A4000",
"<l	c #544909",
"[l	c #695F24",
"}l	c #5C5521",
"|l	c #534F22",
"1l	c #4A4821",
"2l	c #3A3E19",
"3l	c #3F4624",
"4l	c #374522",
"5l	c #415731",
"6l	c #3F5A31",
"7l	c #3F5B32",
"8l	c #3D5D2E",
"9l	c #3B5D2B",
"0l	c #396029",
"al	c #3C652B",
"bl	c #3C6829",
"cl	c #427030",
"dl	c #42702F",
"el	c #43702D",
"fl	c #43702F",
"gl	c #42712B",
"hl	c #3D7423",
"il	c #3C7621",
"jl	c #3C7622",
"kl	c #3F7625",
"ll	c #407628",
"ml	c #41772B",
"nl	c #42782D",
"ol	c #40752D",
"pl	c #41762E",
"ql	c #417930",
"rl	c #437B32",
"sl	c #437D33",
"tl	c #417D33",
"ul	c #417E31",
"vl	c #407D2F",
"wl	c #3D7A2A",
"xl	c #3E7C29",
"yl	c #407D2D",
"zl	c #448131",
"Al	c #478434",
"Bl	c #4D8A3C",
"Cl	c #4E8B3D",
"Dl	c #64A153",
"El	c #6AA759",
"Fl	c #72AF62",
"Gl	c #7AB76A",
"Hl	c #80BC72",
"Il	c #85C177",
"Jl	c #8BC77D",
"Kl	c #91C982",
"Ll	c #9BCD8E",
"Ml	c #99C98D",
"Nl	c #97C489",
"Ol	c #90C084",
"Pl	c #8FBC81",
"Ql	c #8CBC80",
"Rl	c #524C3E",
"Sl	c #544E3E",
"Tl	c #625D4A",
"Ul	c #4D4834",
"Vl	c #57513B",
"Wl	c #575139",
"Xl	c #716B51",
"Yl	c #6F6A4D",
"Zl	c #696349",
"`l	c #5F5D44",
" m	c #4F4F37",
".m	c #484A35",
"+m	c #4A4E3D",
"@m	c #383E30",
"#m	c #3B4137",
"$m	c #323731",
"%m	c #4E4F47",
"&m	c #0F0E00",
"*m	c #3F3D17",
"=m	c #625C28",
"-m	c #6C6423",
";m	c #736921",
">m	c #766A1E",
",m	c #594C06",
"'m	c #554A0A",
")m	c #534A13",
"!m	c #5F5B2B",
"~m	c #525027",
"{m	c #3C3E19",
"]m	c #484E2C",
"^m	c #455030",
"/m	c #3E4F2F",
"(m	c #3D532F",
"_m	c #3D5531",
":m	c #3C572E",
"<m	c #3A572B",
"[m	c #375927",
"}m	c #375C28",
"|m	c #385F26",
"1m	c #3C6529",
"2m	c #3C6627",
"3m	c #3D6527",
"4m	c #3E6429",
"5m	c #3C6626",
"6m	c #396C21",
"7m	c #376E1D",
"8m	c #396E20",
"9m	c #3A6F21",
"0m	c #3B6F24",
"am	c #3B6F25",
"bm	c #3C7026",
"cm	c #386E23",
"dm	c #3A6F27",
"em	c #397128",
"fm	c #387228",
"gm	c #377124",
"hm	c #3A7A26",
"im	c #3A7A24",
"jm	c #397923",
"km	c #397925",
"lm	c #387824",
"mm	c #3A7928",
"nm	c #3E7D2C",
"om	c #448334",
"pm	c #4A893A",
"qm	c #529142",
"rm	c #5B9A4B",
"sm	c #65A455",
"tm	c #6CA959",
"um	c #7EB861",
"vm	c #86BE67",
"wm	c #8BC56E",
"xm	c #91C972",
"ym	c #91CB74",
"zm	c #464236",
"Am	c #4E4B3C",
"Bm	c #484534",
"Cm	c #25200C",
"Dm	c #4A452F",
"Em	c #403C23",
"Fm	c #554F35",
"Gm	c #666245",
"Hm	c #504C31",
"Im	c #56543B",
"Jm	c #4B4D35",
"Km	c #4D503B",
"Lm	c #5C6351",
"Mm	c #545C4D",
"Nm	c #40483B",
"Om	c #424941",
"Pm	c #484A47",
"Qm	c #60615B",
"Rm	c #171602",
"Sm	c #4A4822",
"Tm	c #5B561F",
"Um	c #5F5812",
"Vm	c #544B00",
"Wm	c #544900",
"Xm	c #62560A",
"Ym	c #403600",
"Zm	c #393000",
"`m	c #57511F",
" n	c #4E4B22",
".n	c #393A18",
"+n	c #4E5333",
"@n	c #515A3D",
"#n	c #404F30",
"$n	c #3F5232",
"%n	c #405632",
"&n	c #3E5730",
"*n	c #3B562D",
"=n	c #375728",
"-n	c #385A27",
";n	c #375C26",
">n	c #396027",
",n	c #396125",
"'n	c #3A6025",
")n	c #3C5F25",
"!n	c #396123",
"~n	c #386721",
"{n	c #36691E",
"]n	c #376A1F",
"^n	c #376920",
"/n	c #386A21",
"(n	c #386A23",
"_n	c #376B23",
":n	c #386B26",
"<n	c #396C27",
"[n	c #3A6D28",
"}n	c #387027",
"|n	c #387323",
"1n	c #35751F",
"2n	c #36741F",
"3n	c #367620",
"4n	c #377522",
"5n	c #367622",
"6n	c #397626",
"7n	c #387726",
"8n	c #377426",
"9n	c #337223",
"0n	c #326F21",
"an	c #317021",
"bn	c #367325",
"cn	c #397724",
"dn	c #427F20",
"en	c #478522",
"fn	c #4F8D2A",
"gn	c #579532",
"hn	c #5C9A37",
"in	c #5D9B38",
"jn	c #38362A",
"kn	c #3D3B2E",
"ln	c #5F5C49",
"mn	c #42402B",
"nn	c #35331A",
"on	c #484429",
"pn	c #39381A",
"qn	c #424125",
"rn	c #4E4E34",
"sn	c #474B34",
"tn	c #4A4F3B",
"un	c #5C6353",
"vn	c #535B4C",
"wn	c #3A4439",
"xn	c #3A413A",
"yn	c #1C1D1F",
"zn	c #3E3D39",
"An	c #070400",
"Bn	c #504C27",
"Cn	c #706932",
"Dn	c #786F2A",
"En	c #6C6111",
"Fn	c #6A5E0C",
"Gn	c #6E6113",
"Hn	c #4B3E00",
"In	c #3E3B12",
"Jn	c #1E1E00",
"Kn	c #34371A",
"Ln	c #40492C",
"Mn	c #425132",
"Nn	c #405333",
"On	c #39562A",
"Pn	c #365625",
"Qn	c #365923",
"Rn	c #365C23",
"Sn	c #3A6226",
"Tn	c #396324",
"Un	c #3A6224",
"Vn	c #3B6124",
"Wn	c #376121",
"Xn	c #35621F",
"Yn	c #366320",
"Zn	c #356420",
"`n	c #336520",
" o	c #32641F",
".o	c #356322",
"+o	c #366423",
"@o	c #376525",
"#o	c #386626",
"$o	c #3B672A",
"%o	c #386927",
"&o	c #32661C",
"*o	c #2F681B",
"=o	c #32681C",
"-o	c #316A1D",
";o	c #346A1F",
">o	c #336B20",
",o	c #366C21",
"'o	c #356D22",
")o	c #376C24",
"!o	c #376F26",
"~o	c #3A6F29",
"{o	c #376F28",
"]o	c #386D27",
"^o	c #366E27",
"/o	c #3B7427",
"(o	c #377218",
"_o	c #397515",
":o	c #3D7919",
"<o	c #417D1D",
"[o	c #437F1F",
"}o	c #302E22",
"|o	c #3C3A2D",
"1o	c #413F30",
"2o	c #454430",
"3o	c #44422D",
"4o	c #45432A",
"5o	c #454428",
"6o	c #4B4C2D",
"7o	c #545438",
"8o	c #575A3F",
"9o	c #52563F",
"0o	c #4C543F",
"ao	c #4B5648",
"bo	c #3C483E",
"co	c #353E39",
"do	c #47484C",
"eo	c #5A5957",
"fo	c #1A1706",
"go	c #726B34",
"ho	c #706820",
"io	c #6E6311",
"jo	c #6E620C",
"ko	c #6E6112",
"lo	c #685C14",
"mo	c #6E6635",
"no	c #464119",
"oo	c #161500",
"po	c #282B10",
"qo	c #3E472C",
"ro	c #3B512D",
"so	c #38512A",
"to	c #335024",
"uo	c #2F4F20",
"vo	c #2E501D",
"wo	c #2E541B",
"xo	c #30581C",
"yo	c #315B1C",
"zo	c #2F5C1B",
"Ao	c #315B1B",
"Bo	c #325A1B",
"Co	c #325A1C",
"Do	c #31591D",
"Eo	c #30591D",
"Fo	c #31591B",
"Go	c #305A1B",
"Ho	c #2E5A1B",
"Io	c #2F5B1C",
"Jo	c #325920",
"Ko	c #345B22",
"Lo	c #355C25",
"Mo	c #355E22",
"No	c #356221",
"Oo	c #34631F",
"Po	c #366521",
"Qo	c #2F5D1C",
"Ro	c #315F1F",
"So	c #346222",
"To	c #346224",
"Uo	c #366426",
"Vo	c #356624",
"Wo	c #2F6416",
"Xo	c #2E6512",
"Yo	c #2F6613",
"Zo	c #306714",
"`o	c #316815",
" p	c #2A2A20",
".p	c #38382C",
"+p	c #0F1002",
"@p	c #010200",
"#p	c #302F1A",
"$p	c #313117",
"%p	c #29290D",
"&p	c #505034",
"*p	c #505439",
"=p	c #525740",
"-p	c #4F5742",
";p	c #475242",
">p	c #4A564A",
",p	c #48534B",
"'p	c #3B4441",
")p	c #4E4F53",
"!p	c #595554",
"~p	c #1D1707",
"{p	c #48421E",
"]p	c #797039",
"^p	c #70661E",
"/p	c #7B6F1B",
"(p	c #7C6E16",
"_p	c #716211",
":p	c #7E7027",
"<p	c #796E30",
"[p	c #7A733F",
"}p	c #625D37",
"|p	c #3B3819",
"1p	c #434329",
"2p	c #475B38",
"3p	c #415C33",
"4p	c #3D5A2E",
"5p	c #335522",
"6p	c #31581F",
"7p	c #345D21",
"8p	c #366322",
"9p	c #35641E",
"0p	c #386220",
"ap	c #386222",
"bp	c #3A6027",
"cp	c #386125",
"dp	c #376024",
"ep	c #365D24",
"fp	c #355B22",
"gp	c #375A24",
"hp	c #395927",
"ip	c #385B25",
"jp	c #32581D",
"kp	c #30571E",
"lp	c #2F561D",
"mp	c #375E29",
"np	c #345B26",
"op	c #315823",
"pp	c #325924",
"qp	c #325A25",
"rp	c #356229",
"sp	c #336329",
"tp	c #34642A",
"up	c #35652B",
"vp	c #36662C",
"wp	c #44443C",
"xp	c #3F3F35",
"yp	c #46463A",
"zp	c #2C2D1D",
"Ap	c #2B2A18",
"Bp	c #201F0A",
"Cp	c #24230E",
"Dp	c #32341E",
"Ep	c #424532",
"Fp	c #474E3E",
"Gp	c #3F473A",
"Hp	c #4A5247",
"Ip	c #4E5850",
"Jp	c #3D433F",
"Kp	c #151618",
"Lp	c #2A2925",
"Mp	c #0C0900",
"Np	c #484222",
"Op	c #8C824F",
"Pp	c #786D2B",
"Qp	c #7F7224",
"Rp	c #766513",
"Sp	c #7B6A18",
"Tp	c #89792B",
"Up	c #746723",
"Vp	c #756C31",
"Wp	c #787242",
"Xp	c #5F5B35",
"Yp	c #5D5C3D",
"Zp	c #626C4A",
"`p	c #5A734B",
" q	c #547347",
".q	c #4E6F40",
"+q	c #476C38",
"@q	c #426B33",
"#q	c #416D32",
"$q	c #457333",
"%q	c #487937",
"&q	c #4B7E3B",
"*q	c #4B7E39",
"=q	c #4B7F37",
"-q	c #4C7D3B",
";q	c #4B7939",
">q	c #4C783B",
",q	c #4B7738",
"'q	c #4A7838",
")q	c #437131",
"!q	c #416F2F",
"~q	c #3F6B2C",
"{q	c #3C682B",
"]q	c #3A6327",
"^q	c #3B6229",
"/q	c #335D1E",
"(q	c #315E1D",
"_q	c #315D1E",
":q	c #335C20",
"<q	c #2E571B",
"[q	c #2F581E",
"}q	c #2E571D",
"|q	c #2D561C",
"1q	c #345B24",
"2q	c #365E29",
"3q	c #2C5825",
"4q	c #2B5928",
"5q	c #2C5A29",
"6q	c #2E5C2B",
"7q	c #2F5D2C",
"8q	c #305E2D",
"9q	c #5A5752",
"0q	c #56534C",
"aq	c #54514A",
"bq	c #57544B",
"cq	c #59564D",
"dq	c #524F46",
"eq	c #434135",
"fq	c #363428",
"gq	c #2C2A1E",
"hq	c #2D2B1F",
"iq	c #2E2E24",
"jq	c #34342C",
"kq	c #3A3B33",
"lq	c #43443E",
"mq	c #4A4B45",
"nq	c #4F504B",
"oq	c #282A25",
"pq	c #0E0F07",
"qq	c #1A1809",
"rq	c #393319",
"sq	c #7C734C",
"tq	c #827541",
"uq	c #8A7838",
"vq	c #847125",
"wq	c #7C6A18",
"xq	c #7E6E19",
"yq	c #524600",
"zq	c #453C00",
"Aq	c #787031",
"Bq	c #6E6B34",
"Cq	c #403F11",
"Dq	c #5B663B",
"Eq	c #4A6737",
"Fq	c #446C38",
"Gq	c #45703A",
"Hq	c #46733A",
"Iq	c #48753C",
"Jq	c #4B7B3F",
"Kq	c #518346",
"Lq	c #548848",
"Mq	c #558C4B",
"Nq	c #558E4A",
"Oq	c #57904C",
"Pq	c #57924E",
"Qq	c #59954F",
"Rq	c #599650",
"Sq	c #5A964E",
"Tq	c #58944A",
"Uq	c #5A974A",
"Vq	c #5D9A4D",
"Wq	c #609D4F",
"Xq	c #63A052",
"Yq	c #5F9C4E",
"Zq	c #619E50",
"`q	c #629F52",
" r	c #649E52",
".r	c #609A4E",
"+r	c #5A9448",
"@r	c #549143",
"#r	c #4D8B38",
"$r	c #478731",
"%r	c #417F2A",
"&r	c #3D7B28",
"*r	c #3A7825",
"=r	c #357320",
"-r	c #306B19",
";r	c #2B6616",
">r	c #2F6819",
",r	c #2C6516",
"'r	c #2B6115",
")r	c #295F13",
"!r	c #2A5E13",
"~r	c #2A5E14",
"{r	c #295C17",
"]r	c #36692E",
"^r	c #235822",
"/r	c #245923",
"(r	c #2D622C",
"_r	c #275C26",
":r	c #215620",
"<r	c #35322D",
"[r	c #36332E",
"}r	c #37342F",
"|r	c #383530",
"1r	c #34312C",
"2r	c #322F2A",
"3r	c #302D28",
"4r	c #2F2C27",
"5r	c #2C2924",
"6r	c #2A2722",
"7r	c #2B2823",
"8r	c #2D2A25",
"9r	c #2C2B26",
"0r	c #21231E",
"ar	c #1E211A",
"br	c #19170A",
"cr	c #28220C",
"dr	c #7D7350",
"er	c #897B4A",
"fr	c #877535",
"gr	c #8D7A2D",
"hr	c #847019",
"ir	c #7D6C10",
"jr	c #574A00",
"kr	c #544C00",
"lr	c #8C853D",
"mr	c #7A7639",
"nr	c #555323",
"or	c #4E572C",
"pr	c #436B39",
"qr	c #3F6A35",
"rr	c #416D38",
"sr	c #45743E",
"tr	c #497A42",
"ur	c #4A7D44",
"vr	c #497F45",
"wr	c #4B8147",
"xr	c #4C8447",
"yr	c #4B8548",
"zr	c #4B8646",
"Ar	c #4A8744",
"Br	c #508C42",
"Cr	c #508E41",
"Dr	c #539043",
"Er	c #539144",
"Fr	c #569346",
"Gr	c #559346",
"Hr	c #5E9B4E",
"Ir	c #5E9C4F",
"Jr	c #609D50",
"Kr	c #62A053",
"Lr	c #65A255",
"Mr	c #65A356",
"Nr	c #66A356",
"Or	c #64A354",
"Pr	c #69AD56",
"Qr	c #67AC53",
"Rr	c #64A950",
"Sr	c #61A34C",
"Tr	c #5EA049",
"Ur	c #5C9C46",
"Vr	c #599943",
"Wr	c #4F8D38",
"Xr	c #4C8A37",
"Yr	c #488331",
"Zr	c #437E2C",
"`r	c #3F7827",
" s	c #3A7322",
".s	c #366F1E",
"+s	c #336C1F",
"@s	c #2B641F",
"#s	c #27601C",
"$s	c #2C6521",
"%s	c #326B27",
"&s	c #306925",
"*s	c #030000",
"=s	c #080500",
"-s	c #0D0A03",
";s	c #0C0902",
">s	c #0B0801",
",s	c #0E0B04",
"'s	c #18150E",
")s	c #211E17",
"!s	c #25221B",
"~s	c #24211A",
"{s	c #1E1B14",
"]s	c #1D1A13",
"^s	c #2B2D2C",
"/s	c #1C1600",
"(s	c #786F48",
"_s	c #90834C",
":s	c #85752A",
"<s	c #8D7E23",
"[s	c #968722",
"}s	c #8F821A",
"|s	c #746A08",
"1s	c #726B13",
"2s	c #9A934D",
"3s	c #716E39",
"4s	c #6D6B44",
"5s	c #474C2C",
"6s	c #415733",
"7s	c #3F5A37",
"8s	c #405B38",
"9s	c #405E38",
"0s	c #44623C",
"as	c #496942",
"bs	c #50734B",
"cs	c #557A4F",
"ds	c #537A4E",
"es	c #527C4E",
"fs	c #547E50",
"gs	c #568153",
"hs	c #588355",
"is	c #578554",
"js	c #588657",
"ks	c #578753",
"ls	c #55854B",
"ms	c #548647",
"ns	c #568648",
"os	c #57894A",
"ps	c #5A8A4C",
"qs	c #5C8E4F",
"rs	c #5F8F51",
"ss	c #609253",
"ts	c #5A8C4D",
"us	c #5B8B4D",
"vs	c #5E8E50",
"ws	c #639355",
"xs	c #629654",
"ys	c #599349",
"zs	c #5B984A",
"As	c #67A154",
"Bs	c #69A356",
"Cs	c #6CA659",
"Ds	c #6FA85B",
"Es	c #70A95C",
"Fs	c #6FA75C",
"Gs	c #70A65B",
"Hs	c #6EA459",
"Is	c #6BA156",
"Js	c #689E53",
"Ks	c #659B50",
"Ls	c #649A4C",
"Ms	c #609B47",
"Ns	c #609E48",
"Os	c #5F9D47",
"Ps	c #589640",
"Qs	c #53913B",
"Rs	c #54923C",
"Ss	c #040100",
"Ts	c #19160F",
"Us	c #1C1912",
"Vs	c #201D16",
"Ws	c #1F1E1C",
"Xs	c #0F0F17",
"Ys	c #26272C",
"Zs	c #1D1A15",
"`s	c #1E1802",
" t	c #635A31",
".t	c #8E8345",
"+t	c #8D812D",
"@t	c #8B7D1A",
"#t	c #918519",
"$t	c #918718",
"%t	c #878018",
"&t	c #79731B",
"*t	c #7D7836",
"=t	c #433F10",
"-t	c #615D40",
";t	c #131F09",
">t	c #15240F",
",t	c #1A2914",
"'t	c #1D2F17",
")t	c #22341C",
"!t	c #273B22",
"~t	c #2C4329",
"{t	c #30492C",
"]t	c #3D573A",
"^t	c #3E593A",
"/t	c #3F5C3D",
"(t	c #436041",
"_t	c #456444",
":t	c #476646",
"<t	c #476948",
"[t	c #476944",
"}t	c #4B6E44",
"|t	c #4C7042",
"1t	c #4D7143",
"2t	c #507446",
"3t	c #55794B",
"4t	c #5A7E50",
"5t	c #5F8355",
"6t	c #628658",
"7t	c #65895B",
"8t	c #668A5C",
"9t	c #64885A",
"0t	c #628855",
"at	c #618E53",
"bt	c #629553",
"ct	c #669756",
"dt	c #649755",
"et	c #609351",
"ft	c #5D904E",
"gt	c #5F904F",
"ht	c #60914F",
"it	c #699A58",
"jt	c #6C9D5B",
"kt	c #6FA05E",
"lt	c #72A361",
"mt	c #73A462",
"nt	c #73A75C",
"ot	c #73AE54",
"pt	c #75B352",
"qt	c #72B04F",
"rt	c #70AE4D",
"st	c #74B251",
"tt	c #211C16",
"ut	c #201B15",
"vt	c #1F1A14",
"wt	c #1D1812",
"xt	c #1E1913",
"yt	c #221D17",
"zt	c #241F19",
"At	c #25201A",
"Bt	c #171522",
"Ct	c #1A1825",
"Dt	c #241D0A",
"Et	c #40370C",
"Ft	c #807736",
"Gt	c #A19740",
"Ht	c #988D24",
"It	c #918716",
"Jt	c #918A18",
"Kt	c #948F29",
"Lt	c #85802C",
"Mt	c #757134",
"Nt	c #3A3610",
"Ot	c #595643",
"Pt	c #181810",
"Qt	c #020300",
"Rt	c #040700",
"St	c #070C05",
"Tt	c #060B04",
"Ut	c #030B00",
"Vt	c #020A00",
"Wt	c #000500",
"Xt	c #000700",
"Yt	c #000D00",
"Zt	c #001400",
"`t	c #031700",
" u	c #0C2005",
".u	c #102409",
"+u	c #13270C",
"@u	c #192D12",
"#u	c #273B20",
"$u	c #34482D",
"%u	c #3F5338",
"&u	c #485C41",
"*u	c #506449",
"=u	c #526B4B",
"-u	c #53734A",
";u	c #577D4E",
">u	c #608454",
",u	c #658B5A",
"'u	c #678D5A",
")u	c #6A905D",
"!u	c #6F9562",
"~u	c #739A65",
"{u	c #618954",
"]u	c #658D58",
"^u	c #69925A",
"/u	c #6B945C",
"(u	c #6B945A",
"_u	c #6A9359",
":u	c #6C955B",
"<u	c #6A9953",
"[u	c #689E46",
"}u	c #69A543",
"|u	c #67A341",
"1u	c #6DA947",
"2u	c #76B250",
"3u	c #6BA745",
"4u	c #3D3832",
"5u	c #39342E",
"6u	c #35302A",
"7u	c #332E28",
"8u	c #312C26",
"9u	c #2D2822",
"0u	c #29241E",
"au	c #26211B",
"bu	c #231E18",
"cu	c #1E1A19",
"du	c #23212E",
"eu	c #151320",
"fu	c #1A1617",
"gu	c #251F0F",
"hu	c #211900",
"iu	c #655C21",
"ju	c #9F9746",
"ku	c #A79F3D",
"lu	c #9C952A",
"mu	c #989127",
"nu	c #9F9A3C",
"ou	c #949144",
"pu	c #857F4B",
"qu	c #5A5537",
"ru	c #5D594E",
"su	c #181216",
"tu	c #1A1519",
"uu	c #131112",
"vu	c #0B090A",
"wu	c #080808",
"xu	c #0E0E0C",
"yu	c #0D0F0C",
"zu	c #0A0F09",
"Au	c #080D07",
"Bu	c #050C05",
"Cu	c #030A02",
"Du	c #020901",
"Eu	c #000800",
"Fu	c #010900",
"Gu	c #040C00",
"Hu	c #060E01",
"Iu	c #0A1205",
"Ju	c #0E1609",
"Ku	c #0B1306",
"Lu	c #000600",
"Mu	c #001700",
"Nu	c #0A2303",
"Ou	c #16300D",
"Pu	c #213B18",
"Qu	c #29451F",
"Ru	c #304C26",
"Su	c #59784F",
"Tu	c #5F7E54",
"Uu	c #668559",
"Vu	c #698A5D",
"Wu	c #6B8C5D",
"Xu	c #6D9161",
"Yu	c #749664",
"Zu	c #769D64",
"`u	c #618F46",
" v	c #6EA24F",
".v	c #6CA04E",
"+v	c #6DA14E",
"@v	c #6CA04D",
"#v	c #464239",
"$v	c #433F36",
"%v	c #3F3B32",
"&v	c #3D3930",
"*v	c #3B372E",
"=v	c #38342B",
"-v	c #332F26",
";v	c #302C23",
">v	c #29251C",
",v	c #221F28",
"'v	c #1F1C27",
")v	c #282216",
"!v	c #171000",
"~v	c #423A0B",
"{v	c #746B2A",
"]v	c #9C9344",
"^v	c #A19A42",
"/v	c #989139",
"(v	c #9E984A",
"_v	c #898545",
":v	c #6A6639",
"<v	c #565239",
"[v	c #413E35",
"}v	c #080405",
"|v	c #160C14",
"1v	c #1A1019",
"2v	c #180E17",
"3v	c #171017",
"4v	c #171218",
"5v	c #140F13",
"6v	c #0E0E0E",
"7v	c #090907",
"8v	c #0C0D08",
"9v	c #151611",
"0v	c #191A15",
"av	c #22251E",
"bv	c #131E10",
"cv	c #121F0E",
"dv	c #142110",
"ev	c #142310",
"fv	c #152411",
"gv	c #13220D",
"hv	c #0C1E06",
"iv	c #081A00",
"jv	c #001600",
"kv	c #082000",
"lv	c #102A07",
"mv	c #17310C",
"nv	c #203C16",
"ov	c #2D4720",
"pv	c #355128",
"qv	c #698E5A",
"rv	c #5B804D",
"sv	c #416632",
"tv	c #4D723F",
"uv	c #547945",
"vv	c #4F4B42",
"wv	c #4E4A41",
"xv	c #4C483F",
"yv	c #49453C",
"zv	c #444037",
"Av	c #423E35",
"Bv	c #413D34",
"Cv	c #39352C",
"Dv	c #363229",
"Ev	c #343027",
"Fv	c #2D2920",
"Gv	c #27241F",
"Hv	c #181619",
"Iv	c #2A282D",
"Jv	c #211D1C",
"Kv	c #2D261E",
"Lv	c #1C1302",
"Mv	c #292003",
"Nv	c #42360C",
"Ov	c #837743",
"Pv	c #B2A86B",
"Qv	c #ABA364",
"Rv	c #ADA76D",
"Sv	c #848050",
"Tv	c #4E4B28",
"Uv	c #45432E",
"Vv	c #2C2C24",
"Wv	c #100C0D",
"Xv	c #180C16",
"Yv	c #160A16",
"Zv	c #130912",
"`v	c #110710",
" w	c #170D16",
".w	c #181118",
"+w	c #110A11",
"@w	c #120D11",
"#w	c #130E12",
"$w	c #110F12",
"%w	c #110F10",
"&w	c #100E0F",
"*w	c #0C0809",
"=w	c #0D090A",
"-w	c #0E0A0B",
";w	c #090506",
">w	c #171314",
",w	c #161213",
"'w	c #120E0F",
")w	c #110D0E",
"!w	c #191816",
"~w	c #161815",
"{w	c #131812",
"]w	c #161B14",
"^w	c #181D16",
"/w	c #161E13",
"(w	c #10180B",
"_w	c #081303",
":w	c #0B1A03",
"<w	c #12240A",
"[w	c #1A2C12",
"}w	c #23371B",
"|w	c #314529",
"1w	c #3C5034",
"2w	c #536A50",
"3w	c #71886E",
"4w	c #435A40",
"5w	c #59524A",
"6w	c #564F47",
"7w	c #524B43",
"8w	c #4F4840",
"9w	c #4D463E",
"0w	c #4B443C",
"aw	c #49423A",
"bw	c #453E36",
"cw	c #413A32",
"dw	c #3E372F",
"ew	c #3B342C",
"fw	c #38332D",
"gw	c #221E1B",
"hw	c #261E1B",
"iw	c #2F2621",
"jw	c #24170F",
"kw	c #190C00",
"lw	c #281904",
"mw	c #483A1F",
"nw	c #716646",
"ow	c #443B1A",
"pw	c #312C0E",
"qw	c #36341B",
"rw	c #5E5D4B",
"sw	c #050400",
"tw	c #140E12",
"uw	c #150B13",
"vw	c #120B12",
"ww	c #100910",
"xw	c #0F0A0E",
"yw	c #0F0D0E",
"zw	c #100F0D",
"Aw	c #11100E",
"Bw	c #141414",
"Cw	c #141613",
"Dw	c #161813",
"Ew	c #141912",
"Fw	c #161C12",
"Gw	c #161E11",
"Hw	c #182011",
"Iw	c #192413",
"Jw	c #1C2716",
"Kw	c #1D2A16",
"Lw	c #1F2C18",
"Mw	c #202D1C",
"Nw	c #212B23",
"Ow	c #27302D",
"Pw	c #29322F",
"Qw	c #1F2825",
"Rw	c #0E1714",
"Sw	c #000906",
"Tw	c #5B544C",
"Uw	c #5C554D",
"Vw	c #5A534B",
"Ww	c #585149",
"Xw	c #554E46",
"Yw	c #534C44",
"Zw	c #504941",
"`w	c #4C453D",
" x	c #433C34",
".x	c #3F3B30",
"+x	c #464437",
"@x	c #38332F",
"#x	c #1D1415",
"$x	c #150A10",
"%x	c #372A33",
"&x	c #47383F",
"*x	c #291A1D",
"=x	c #221411",
"-x	c #1C0F06",
";x	c #3F3828",
">x	c #645E4E",
",x	c #575546",
"'x	c #2A2B1D",
")x	c #040600",
"!x	c #0F0E0C",
"~x	c #0E0D0B",
"{x	c #0D0E09",
"]x	c #0F0E0A",
"^x	c #13120E",
"/x	c #15140F",
"(x	c #11100C",
"_x	c #140D14",
":x	c #160F17",
"<x	c #161118",
"[x	c #161417",
"}x	c #171516",
"|x	c #161614",
"1x	c #13160F",
"2x	c #171A11",
"3x	c #171D11",
"4x	c #191F13",
"5x	c #1A2213",
"6x	c #1C2218",
"7x	c #262628",
"8x	c #2A292F",
"9x	c #2E2B32",
"0x	c #27262C",
"ax	c #1C1920",
"bx	c #111016",
"cx	c #625950",
"dx	c #61584F",
"ex	c #60574E",
"fx	c #5F564D",
"gx	c #5E554C",
"hx	c #5D544B",
"ix	c #5A5148",
"jx	c #595047",
"kx	c #574E45",
"lx	c #544B42",
"mx	c #50473E",
"nx	c #4D443B",
"ox	c #4B4239",
"px	c #494337",
"qx	c #3F3C29",
"rx	c #383725",
"sx	c #3E3933",
"tx	c #251C1F",
"ux	c #140816",
"vx	c #56475A",
"wx	c #8A7B90",
"xx	c #6C5D70",
"yx	c #726471",
"zx	c #4D4248",
"Ax	c #847C7A",
"Bx	c #6F6A64",
"Cx	c #434037",
"Dx	c #0D0D0B",
"Ex	c #0B0E07",
"Fx	c #0E0F09",
"Gx	c #11140B",
"Hx	c #15160E",
"Ix	c #171810",
"Jx	c #12130D",
"Kx	c #161014",
"Lx	c #171018",
"Mx	c #171216",
"Nx	c #151314",
"Ox	c #12110D",
"Px	c #13140E",
"Qx	c #14150F",
"Rx	c #151610",
"Sx	c #16170F",
"Tx	c #181712",
"Ux	c #1D1717",
"Vx	c #201A1C",
"Wx	c #241B1E",
"Xx	c #211B1D",
"Yx	c #1F1619",
"Zx	c #181214",
"`x	c #685F56",
" y	c #665D54",
".y	c #635A51",
"+y	c #5C534A",
"@y	c #5B5249",
"#y	c #524940",
"$y	c #4E483A",
"%y	c #4C4A35",
"&y	c #42412D",
"*y	c #42393C",
"=y	c #261B29",
"-y	c #3E3047",
";y	c #6C5E77",
">y	c #766881",
",y	c #8C7F91",
"'y	c #695F6A",
")y	c #767074",
"!y	c #2D2928",
"~y	c #0B0A05",
"{y	c #060700",
"]y	c #20231A",
"^y	c #090B06",
"/y	c #090B08",
"(y	c #080A05",
"_y	c #060902",
":y	c #0A0D04",
"<y	c #0D1007",
"[y	c #10130A",
"}y	c #14150D",
"|y	c #11120A",
"1y	c #160F16",
"2y	c #151014",
"3y	c #141011",
"4y	c #151112",
"5y	c #151110",
"6y	c #16120F",
"7y	c #171310",
"8y	c #150D0B",
"9y	c #160C0B",
"0y	c #190F0E",
"ay	c #1B1110",
"by	c #1A100F",
"cy	c #6B6259",
"dy	c #675E55",
"ey	c #554C43",
"fy	c #544E42",
"gy	c #54513E",
"hy	c #53503F",
"iy	c #514A42",
"jy	c #4C4344",
"ky	c #3F353E",
"ly	c #291E2E",
"my	c #281D2E",
"ny	c #3E3343",
"oy	c #483E49",
"py	c #322C30",
"qy	c #2C2829",
"ry	c #0A0B06",
"sy	c #090D0C",
"ty	c #0B0D0A",
"uy	c #070802",
"vy	c #0D0E06",
"wy	c #13140C",
"xy	c #13130B",
"yy	c #17140D",
"zy	c #14110C",
"Ay	c #130F0E",
"By	c #181212",
"Cy	c #181310",
"Dy	c #18100D",
"Ey	c #17100A",
"Fy	c #1A130D",
"Gy	c #1C150F",
"Hy	c #71685F",
"Iy	c #6C635A",
"Jy	c #696057",
"Ky	c #655C53",
"Ly	c #645B52",
"My	c #5D554A",
"Ny	c #504A3C",
"Oy	c #595549",
"Py	c #4E4741",
"Qy	c #473F3D",
"Ry	c #544B50",
"Sy	c #443A42",
"Ty	c #22191E",
"Uy	c #100B08",
"Vy	c #1B1813",
"Wy	c #14140C",
"Xy	c #111310",
"Yy	c #141517",
"Zy	c #000005",
"`y	c #0B0E13",
" z	c #060709",
".z	c #060805",
"+z	c #060606",
"@z	c #050503",
"#z	c #040301",
"$z	c #040300",
"%z	c #080703",
"&z	c #0C0B06",
"*z	c #12110C",
"=z	c #17170F",
"-z	c #1A1914",
";z	c #1A1710",
">z	c #17140F",
",z	c #15120B",
"'z	c #17120C",
")z	c #18130D",
"!z	c #14130F",
"~z	c #141311",
"{z	c #191313",
"]z	c #1A1112",
"^z	c #1D1512",
"/z	c #1A1511",
"(z	c #1B1610",
"_z	c #1D1814",
":z	c #847C71",
"<z	c #7C7469",
"[z	c #746C61",
"}z	c #70685D",
"|z	c #6F675C",
"1z	c #6B6358",
"2z	c #675F54",
"3z	c #696156",
"4z	c #686055",
"5z	c #665E53",
"6z	c #655D52",
"7z	c #645C51",
"8z	c #635B50",
"9z	c #645D53",
"0z	c #625B53",
"az	c #5D5650",
"bz	c #554D4A",
"cz	c #544C49",
"dz	c #524B45",
"ez	c #37332A",
"fz	c #151105",
"gz	c #0E0F00",
"hz	c #020400",
"iz	c #121318",
"jz	c #00000C",
"kz	c #0E0D1B",
"lz	c #060407",
"mz	c #070506",
"nz	c #080705",
"oz	c #0A0607",
"pz	c #0B0706",
"qz	c #191512",
"rz	c #1C1815",
"sz	c #1C1714",
"tz	c #1B1612",
"uz	c #1C1411",
"vz	c #1E1613",
"wz	c #1C1713",
"xz	c #161912",
"yz	c #181713",
"zz	c #1A1613",
"Az	c #1E1516",
"Bz	c #1F1516",
"Cz	c #1E1317",
"Dz	c #1D1719",
"Ez	c #1D1918",
"Fz	c #1E1A1B",
"Gz	c #978F82",
"Hz	c #8D8578",
"Iz	c #827A6D",
"Jz	c #7A7265",
"Kz	c #776F62",
"Lz	c #726A5D",
"Mz	c #6B6356",
"Nz	c #655D50",
"Oz	c #696154",
"Pz	c #686053",
"Qz	c #675F52",
"Rz	c #665E51",
"Sz	c #645C4F",
"Tz	c #4A433B",
"Uz	c #5E5550",
"Vz	c #665F59",
"Wz	c #4D443D",
"Xz	c #514A40",
"Yz	c #5D5749",
"Zz	c #45402D",
"`z	c #36341F",
" A	c #181601",
".A	c #161503",
"+A	c #0D0E00",
"@A	c #060501",
"#A	c #07050A",
"$A	c #000009",
"%A	c #090712",
"&A	c #0C0A0F",
"*A	c #0D0B0C",
"=A	c #181413",
"-A	c #1F1A17",
";A	c #1E1916",
">A	c #1D1815",
",A	c #1E1915",
"'A	c #221A18",
")A	c #231B18",
"!A	c #211916",
"~A	c #1F1A16",
"{A	c #1A1A12",
"]A	c #1A1B15",
"^A	c #1C1B16",
"/A	c #1E1B16",
"(A	c #211917",
"_A	c #23191A",
":A	c #22191A",
"<A	c #221C1C",
"[A	c #231F1E",
"}A	c #252122",
"|A	c #221E1F",
"1A	c #221E1D",
"2A	c #A39A8B",
"3A	c #9F9687",
"4A	c #999081",
"5A	c #92897A",
"6A	c #898071",
"7A	c #817869",
"8A	c #797061",
"9A	c #736A5B",
"0A	c #6F6657",
"aA	c #6E6556",
"bA	c #6A6152",
"cA	c #655C4D",
"dA	c #675E4F",
"eA	c #6C6354",
"fA	c #61574B",
"gA	c #60584D",
"hA	c #62584F",
"iA	c #60564D",
"jA	c #5B5348",
"kA	c #595146",
"lA	c #544C41",
"mA	c #524A3F",
"nA	c #4F463D",
"oA	c #433C36",
"pA	c #3E3634",
"qA	c #393031",
"rA	c #362D2E",
"sA	c #2E2926",
"tA	c #2C2723",
"uA	c #292420",
"vA	c #2A2521",
"wA	c #2D2824",
"xA	c #28231F",
"yA	c #2B2622",
"zA	c #2A251F",
"AA	c #282320",
"BA	c #27221F",
"CA	c #292421",
"DA	c #2A2522",
"EA	c #25201D",
"FA	c #231E1B",
"GA	c #201B18",
"HA	c #211C19",
"IA	c #221D1A",
"JA	c #1F1F17",
"KA	c #1E1E16",
"LA	c #202018",
"MA	c #22221A",
"NA	c #23201B",
"OA	c #221F1A",
"PA	c #221D19",
"QA	c #211C18",
"RA	c #25201C",
"SA	c #27221C",
"TA	c #2B2620",
"UA	c #9B9281",
"VA	c #988F7E",
"WA	c #948B7A",
"XA	c #938A79",
"YA	c #918877",
"ZA	c #8C8372",
"`A	c #877E6D",
" B	c #7F7665",
".B	c #7A7160",
"+B	c #776E5D",
"@B	c #756C5B",
"#B	c #6F6655",
"$B	c #685F4E",
"%B	c #6C6352",
"&B	c #695F53",
"*B	c #695F55",
"=B	c #675D53",
"-B	c #655B51",
";B	c #61574E",
">B	c #5F544E",
",B	c #5E534D",
"'B	c #5D524C",
")B	c #5C514B",
"!B	c #594E4A",
"~B	c #544945",
"{B	c #514843",
"]B	c #4C453F",
"^B	c #48433D",
"/B	c #45403A",
"(B	c #423D37",
"_B	c #413C36",
":B	c #3C3731",
"<B	c #3B3630",
"[B	c #3A352F",
"}B	c #332E2A",
"|B	c #302B28",
"1B	c #322D2A",
"2B	c #312E29",
"3B	c #312C29",
"4B	c #2E2B26",
"5B	c #332E2B",
"6B	c #2F2A27",
"7B	c #2B2821",
"8B	c #2A2720",
"9B	c #28251E",
"0B	c #322D27",
"aB	c #312E27",
"bB	c #2F2C25",
"cB	c #302B25",
"dB	c #2E2B24",
"eB	c #2F2A24",
"fB	c #2F2B22",
"gB	c #39322A",
"hB	c #383129",
"iB	c #373028",
"jB	c #362F27",
"kB	c #352E26",
"lB	c #342D25",
"mB	c #9E9584",
"nB	c #9C9382",
"oB	c #99907F",
"pB	c #978E7D",
"qB	c #928978",
"rB	c #8D8473",
"sB	c #887F6E",
"tB	c #847B6A",
"uB	c #7C7362",
"vB	c #746B5A",
"wB	c #736A59",
"xB	c #766D5C",
"yB	c #685E52",
"zB	c #685E54",
"AB	c #665C53",
"BB	c #655B52",
"CB	c #635852",
"DB	c #625751",
"EB	c #615650",
"FB	c #5F5450",
"GB	c #5D544F",
"HB	c #5D564E",
"IB	c #544D45",
"JB	c #423B33",
"KB	c #443D37",
"LB	c #403B35",
"MB	c #413936",
"NB	c #3F3A34",
"OB	c #423A37",
"PB	c #3A322F",
"QB	c #36312B",
"RB	c #362E2B",
"SB	c #342F29",
"TB	c #38302D",
"UB	c #37322C",
"VB	c #3C352F",
"WB	c #3A362D",
"XB	c #3C352D",
"YB	c #322E25",
"ZB	c #353128",
"`B	c #3A332B",
" C	c #382F26",
".C	c #3A3128",
"+C	c #3F362D",
"@C	c #41382F",
"#C	c #A79E8D",
"$C	c #A69D8C",
"%C	c #A29988",
"&C	c #9F9685",
"*C	c #9A9180",
"=C	c #908776",
"-C	c #89806F",
";C	c #796F63",
">C	c #756B5F",
",C	c #71675B",
"'C	c #6D6359",
")C	c #635950",
"!C	c #6A6057",
"~C	c #695E58",
"{C	c #685D57",
"]C	c #665B55",
"^C	c #645953",
"/C	c #615652",
"(C	c #5F564F",
"_C	c #655C55",
":C	c #5E574D",
"<C	c #5A5349",
"[C	c #575046",
"}C	c #564F45",
"|C	c #524B41",
"1C	c #50493F",
"2C	c #4F483E",
"3C	c #474038",
"4C	c #463D38",
"5C	c #473E39",
"6C	c #463F37",
"7C	c #4C433E",
"8C	c #49403B",
"9C	c #484139",
"0C	c #4E4540",
"aC	c #443B34",
"bC	c #453E34",
"cC	c #473E37",
"dC	c #474036",
"eC	c #494039",
"fC	c #494238",
"gC	c #4C433C",
"hC	c #4D463C",
"iC	c #5A514A",
"jC	c #595248",
"kC	c #5B524B",
"lC	c #5C554B",
"mC	c #625B51",
"nC	c #70675E",
"oC	c #726A5F",
"pC	c #776D63",
"qC	c #7B7368",
"rC	c #81776D",
"sC	c #857D72",
"tC	c #AEA292",
"uC	c #AA9E8E",
"vC	c #ACA090",
"wC	c #A29686",
"xC	c #A09484",
"yC	c #A49888",
"zC	c #A99D8D",
"AC	c #A69A8A",
"BC	c #A19585",
"CC	c #9C9080",
"DC	c #A39787",
"EC	c #9C9286",
"FC	c #998F83",
"GC	c #92887C",
"HC	c #8A8074",
"IC	c #81776B",
"JC	c #73695F",
"KC	c #70665C",
"LC	c #6F655C",
"MC	c #6E645B",
"NC	c #6D635A",
"OC	c #6B6158",
"PC	c #615851",
"QC	c #615B4F",
"RC	c #5F584E",
"SC	c #635D51",
"TC	c #605A4E",
"UC	c #60594F",
"VC	c #5F594D",
"WC	c #6E655C",
"XC	c #6D625C",
"YC	c #6E635D",
"ZC	c #6B605A",
"`C	c #7A6F69",
" D	c #776E65",
".D	c #766B65",
"+D	c #766D64",
"@D	c #796E68",
"#D	c #7A7168",
"$D	c #7B706A",
"%D	c #797067",
"&D	c #867C73",
"*D	c #877F74",
"=D	c #8B8178",
"-D	c #8A8277",
";D	c #8D837A",
">D	c #8F877C",
",D	c #897F76",
"'D	c #877D74",
")D	c #867E73",
"!D	c #887E75",
"~D	c #8E847B",
"{D	c #90867C",
"]D	c #8D8175",
"^D	c #8E8276",
"/D	c #8C8276",
"(D	c #A79B8B",
"_D	c #A59989",
":D	c #ADA191",
"<D	c #A1978B",
"[D	c #A0968A",
"}D	c #9D9387",
"|D	c #968C80",
"1D	c #93897D",
"2D	c #92887E",
"3D	c #91877D",
"4D	c #9F958C",
"5D	c #9D928C",
"6D	c #9C918B",
"7D	c #9A8F89",
"8D	c #988F86",
"9D	c #9C938A",
"0D	c #958F83",
"aD	c #969084",
"bD	c #9F998D",
"cD	c #A19B8F",
"dD	c #9B9589",
"eD	c #989286",
"fD	c #9C968A",
"gD	c #9E988C",
"hD	c #9D978B",
"iD	c #9E948B",
"jD	c #9C9289",
"kD	c #9A9087",
"lD	c #988E85",
"mD	c #958B82",
"nD	c #968C83",
"oD	c #998F86",
"pD	c #968C82",
"qD	c #998F85",
"rD	c #9A9086",
"sD	c #988E84",
"tD	c #948A80",
"uD	c #93897F",
"vD	c #958B81",
"wD	c #8F857B",
"xD	c #8C8278",
"yD	c #8A8076",
"zD	c #8D8377",
"AD	c #978B7F",
"BD	c #968A7C",
"CD	c #95897B",
"DD	c #938779",
"ED	c #928678",
"FD	c #908476",
"  . + @ # $ % & * = - ; > , ' ) ! ~ { ] ^ / ( _ : < [ } | 1 2 3 4 5 6 7 8 9 0 a b c d e f g h i j k l m n o p q r s t u v w x y z A B C D E F G H I J K L M N O P Q R S T U ",
"V W X Y Z `  ...+.@.#.$.%.&.*.=.! -.;.>.,.'.).!.~.{.].^./.(._.:.<.[.}.|.1.2.3.4.5.6.7.8.9.0.a.b.c.d.e.f.g.h.i.j.k.l.m.n.o.p.q.r.s.t.u.v.w.x.y.z.A.B.C.D.E.F.G.H.I.J.K.L.M.N.",
"O.P.Q.R.S.T.U.V.W.X.Y.Z.`. +.+++@+#+$+%+&+*+=+-+;+>+,+'+)+!+~+{+]+^+/+(+_+:+<+[+}+|+1+2+3+4+5+6+7+8+9+0+a+b+c+d+e+f+g+h+i+j+k+l+m+n+o+p+q+r+s+t+u+v+w+x+y+z+A+B+C+D+E+F+M.G+",
"{+H+e+I+J+K+L+M+N+O+P+Q+R+S+T+U+V+W+X+Y+Z+`+.  @.@+@@@#@$@%@&@*@=@-@;@>@,@'@)@!@~@{@]@^@/@(@_@:@<@[@X+}@|@1@b.2@3@4@5@6@7@8@9@0@a@b@c@m+d@e@f@y+g@h@i@j@k@b@l@m@n@o@p@q@r@s@",
"t@u@v@w@x@y@z@A@B@C@D@E@F@G@H@I@J@K@L@M@N@O@P@Q@R@S@T@U@V@W@X@Y@Z@`@ #.#+#@###$#%#&#*#=#-#;#>#,#'#)#!#~#{#]#^#/#(#_#:#<#[#}#}+|#1#2#3#4#5#6#7#8#9#0#a#b#c#)@d#e#f#g#h#i#j#k#",
"l#m#n#o#p#q#r#s#t#u#v#w#x#y#z#A#B#0#C#D#E#F#G#H#I#J#K#L#M#N#O#P#Q#R#S#T#U#V#W#X#Y#Z#`# $.$+$@$#$$$%$&$*$=$-$;$>$,$'$)$!$~${$]$^$/$($_$:$<$[$}$|$1$2$!$7#3$4$5$6$7$8$9$0$a$b$",
"c$d$e$f$g$h$i$j$k$l$m$n$o$p$q$r$s$t$u$v$w$x$y$z$A$B$C$D$E$F$G$H$I$J$K$L$M$N$O$P$d@Q$R$S$T$U$V$W$X$Y$Z$`$ %.%+%@%#%$%%%&%*%=%-%;%>%,%'%)%!%~%{%]%^%/%(%_%:%<%[%}%|%1%2%3%4%5%",
"6%7%8%9%0%a%b%c%d%e%f%g%h%i%j%k%l%m%n%o%p%q%r%s%t%u%v%w%x%y%z%A%B%C%D%E%F%G%H%I%J%K%L%M%N%O%P%Q%R%E@!%S%T%U%V%V%W%X%Y%Z%`%Y% &.&+&@&#&$&%&&&*&=&-&;&>&,&'&)&!&~&{&]&^&/&(&_&",
":&<&[&}&|&1&2&3&4&5&6&7&8&8&9&0&a&b&c&d&e&f&g&h&h&i&j&k&l&m&n&o&p&q&r&s&t&u&v&w&x&y&z&A&B&C&D&E&F&G&H&I&J&K&I&L&M&N&O&P&Q&R&S&T&U&V&W&X&Y&Z&`& *.*+*@*#*$*%*&***=*-*;*>*,*'*",
")*)*!*~*{*]*^*/*(*_*:*_*<*[*}*|*|*1*(*2*2*3*4*5*6*6*7*8*9*0*a*b*c*d*e*f*g*h*i*j*k*l*m*n*o*p*q*B&r*s*p*t*u*v*w*x*y*z*A*B*C*D*E*q*F*G*H*I*J*K*L*M*L*N*O*P*Q*R*S*T*U*V*W*X*Y*Z*",
"`* = =.=+=@=@=#=$=#=%=&=*===-=;=>=>=,='=)=!=~={=]=^=t&/=(=_=:=<=[=}=|=1=2=3=4=5=6=6=7=8=9=0=a=b=c=d=e=f=g=h=i=j=k=l=m=n=o=p=q=r=s=t=u=v=w=x=y=z=A=B=C=D=E=F=G=H=I=J=K=L=M=M=",
"N=N=O=P=Q=R=S=T=U=V=W=X=Y=N&Z=`= -.-+-Q=@-#-$-%-&-n+*-=-3#--;-;-_$>-,-'-)-!-~-{-]-]-^-/-(-_-:-<-v=[-}-|-1-2-3-4-3-5-6-_-7-8-9-9-0-a-b-c-d-e-f-g-h-i-c-c-j-b-k-l-m-n-o-p-q-r-",
"s-s-s-t-t-u-u-u-v-w-x-x-y-z-A-B-C-D-E-F-G-H-I-J-J-K-L-M-N-O-P-P-Q-R-0.S-T-U-V-W-X-X-Y-Z-n-`- ;.;+;@;c-c-@;#;$;%;&;*;*;=;-;-;-;;;>;,;';>;);!;~;{;];^;{;!;/;(;_;:;<;[;};|;1;1;",
"2;2;2;3;!;(;/;4;;;5;6;7;V-8;9;0;a;b;c;d;e;f;g;h;h;i;i;j;k;k;l;l;m;n;o;p;q;r;s;t;u;v;w;x;y;z;A;B;C;D;E;-;=;4;F;G;H;I;I;0;0;J;J;K;L;M;N;O;P;Q;R;!;S;T;U;P;V;N+W;X;Y;Z;`; >.>.>",
"+>@>@>#>$>%>&>*>=>->;>>>,>'>)>!>*>~>9;{>]>^>/>(>_>:>:><>[>}>|>1>2>3>4>5>6>7>8>9>0>a>b>c>d>e>f>g>h>i>j>k>l>m>n>o>p>q>q>r>s>s>s>t>u>v>w>x>y>z>A>B>C>D>E>F>G>H>I>J>K>L>M>N>O>P>",
"Q>Q>R>S>T>U>V>W>|;J;X>Y>Z>`> ,.,+,@,#,$,%,&,*,=,-,-,;,>,,,',),!,~,{,],^,/,(,_,:,<,[,},|,1,2,3,4,5,6,7,8,9,0,a,b,+,+,+,c,d,e,e,f,g,h,i,j,k,l,m,n,o,p,q,r,s,t,h,h,u,v,w,w,x,y,",
"z,A,B,C,D,E,F,G,H,G#I,J,K,L,M,N,O,P,Q,R,S,T,U,V,W,X,Y,Z,`, '.'+'@'#'$'%'&'*'='-';'>',''')'!'~'{']'^'/'('_':'<'['}'|'1'2'3'4'5'6'7'8'9'0'a'b'c'd'e'e'f'g'h'i'j'8'y>k'l'm'n'%>",
"o'p'q'r'_ s't'u'v'w'x'y'z'A'B'C'D'E'F'G'H'I'J'K'L'M'N'O'P'Q'R'S'T'U'V'W'X'Y'Z'`' ).)+)@)#)$)%)&)*)=)-);)>),)')))!)~){)])^)/)()_):)<)[)})|)1)2)3)4)5)6)7)8)9)0)0)a)b)c)d)e)f)",
"f)g)h)i)j)k)l)l)m)n)o)p)q)r)s)t)u)v)w)x)y)z)A)B)C)D)E)F)G)H)I)J)K)L)M)N)N)N)O)P)P)O)Q)R)S)T)U)V)W)X)Y)Z)`) !.!+!@!#!$!%!&!*!=!-!;!>!,!'!)!!!~!1){!{!]!~!^!/!(!(!_!:!<![!}!|!",
"1!2!c)3!3!4!5!6!7!8!9!0!a!b!c!d!e!f!g!h!i!j!k!l!m!n!o!p!q!r!s!t!u!v!w!x!y!z!A!B!C!D!E!F!F!G!H!I!J!K!L!M!N!O!P!Q!R!S!T!U!V!W!X!Y!Z!`! ~.~+~@~0)#~$~8)8)%~&~*~=~-~;~>~,~'~)~>~",
"!~~~{~]~^~/~(~_~:~<~K,[~}~|~1~2~3~4~5~6~7~8~9~0~a~b~c~d~e~f~g~h~i~j~k~k~l~m~n~o~p~q~r~s~t~u~v~w~x~y~z~A~B~C~D~E~F~G~H~I~J~K~L~M~N~O~P~Q~R~S~T~U~V~W~X~Y~Z~`~ {.{+{@{#{${%{@{",
"&{*{={-{;{>{,{'{){!{~{{{]{^{B#/{({_{:{<{[{}{|{1{2{3{4{5{6{7{8{9{0{a{b{m~c{d{e{f{g{h{i{j{k{l{m{n{o{p{q{r{s{t{u{v{w{x{y{z{A{B{C{D{E{F{G{H{I{J{K{L{M{N{O{P{P{Q{R{S{T{U{V{W{V{U{",
"X{Y{Z{`{ ].]+]@]#]$]%]&]*]=]2 -];]>],]'])]!]~]{]]]^]/](]_]:]<][]}]|]1]2]3]4]5]6]7]8]9]0]a]b]c]d]e]f]g]h]i]j]k]l]m]n]o]p]q]r]s]t]u]v]w]x]y]z]A]B]C]D]E]F]G]G]G]H]I]J]K]L]M]L]",
"N]O]P]Q]R]S]T]U]V]W]X]Y]Z]d@`] ^.^+^@^#^$^%^&^*^=^-^;^>^,^'^)^!^~^{^]^^^/^(^_^:^<^[^}^|^1^2^3^4^5^6^7^8^9^0^a^j]b^k]c^d^e^f^g^h^i^j^k^l^m^n^o^p^q^r^s^t^u^u^u^v^w^x^y^z^A^z^",
"B^Y{C^D^i'E^F^G^H^I^J^K^L^M^N^O^P^Q^R^S^T^U^V^W^X^Y^Z^`^ /./+/@/#/$/%/&/*/=/-/;/>/,/'/)/!/~/{/]/^///(/_/:/</[/:/}/|/1/2/3/3/3/4/5/6/7/8/9/0/a/b/c/d/e/f/g/h/i/j/k/l/*)e/e/m/",
"n/n,o/p/q/r/s/t/u/v/w/x/y/z/A/B/C/D/E/F/G/H/I/J/K/L/M/N/O/P/Q/R/S/T/U/V/W/X/Y/Z/`/ (.(+(@(#($(%(&(*(=(-(;(>(,('()(!(~({(]({(^(/(((_(:(<([(}(|(1(2(3(4(5(6(7(8(9(0(a(b(c(d(e(",
"f(g(h(i(j(k(l(m(n(o(p(q(w r(s(t(u(v(w(x(y(z(A(B(C(D(E(F(G(H(I(J(K(L(M(N(O(P(Q(R(S(T(U(V(W(X(Y(Z(`( _._+_@_#_$_%_&_*_=_-_;_>_,_'_)_!_~_{_]_^_/_(___:_<_[_}_|_1_2_3_4_5_6_7_8_",
"N;9_0_a_b_c_d_e_f_g_h_i_j_k_l_m_n_o_p_q_r_s_t_u_v_w_x_y_z_A_B_C_D_E_F_G_H_I_J_K_L_M_N_O_P_Q_R_S_T_U_V_W_X_Y_Z_`_ : :.:+:@:#:$:%:&:*:=:-:;:>:,:':):!:~:{:]:^:/:(:8__:_:::::<:",
"[:}:|:1:2:3:4:5:6:7:8:9:0:a:b:c:d:e:f:g:h:i:j:k:l:m:n:o:x_p:q:r:s:t:u:v:w:x:y:z:A:B:C:D:E:F:G:H:I:J:K:L:M:N:O:P:Q:R:S:T:U:U:V:W:X:Y:Z:`: <.<+<@<#<$<%<&<*<=<5(-<;<c(c(><><,<",
"'<)<!<~<{<]<^</<(<_<:<<<[<}<|<1<2<3<<{4<5<6<7<8<9<9<0<a<b<c<d<e<f<g<h<i<j<k<l<m<n<o<p<q<r<s<t<u<v<w<x<y<z<A<B<C<D<E<F<G<H<I<J<K<L<M<N<O<P<Q<R<S<T<U<V<W<X<Y<Z<`< [e(d(><b(.[",
"+[@[#[$[%[&[*[=[-[;[>[,['[)[![~[{[][^[/[([_[:[<[[[}[|[1[2[3[4[5[6[7[8[9[0[a[b[c[d[e[f[g[h[i[j[k[l[m[n[o[p[q[r[s[t[t[u[v[w[x[y[z[A[B[C[D[E[F[G[H[I[J[K[L[M[N[O[P[Q[R[S[*)T[U[",
"V[W[X[Y[Z[`[ }.}+}@}#}$}%}&}'&!@*}=}-};}>},}'})}e&!}~}{}]}^}/}(}_}:}<}[}}}|}1}2}3}4}5}L(6}7}8}9}0}a}b}c}d}e}f}g}h}i}j}z[k}k}l}m}C[D[C[n}o}p}q}r}s}t}K:u}v}w}x}y}z} [A}A}B} !",
"C}D}E}F}G}H}I}J}K}L}M}N}O}P}Q}R}S}T}U}V}W}X}Y}Z}`} |.|+|@|#|$|%|&|*|=|-|;|>|,|'|)|!|~|{|]|^|/|(|_|:|<|[|}|||1|2|3|4|5|6|7|8|9|0|a|b|c|d|R:e|f|g|h|i|j|k|l|m|n|o|p|q|r|s|t|u|",
".:v|w|x|y|z|A|B|C|D|E|F|G|H|I|J|K|L|M|N|O|P|Q|R|S|T|U|V|W|X|Y|Z|`| 1.1+1@1#1$1%1&1*1=1-1;1>1,1'1)1!1~1{1]1^1/1(1_1:1<1[1}1|111213141516171819101a1b1c1d1e1f1g1h1i1j1k1l1m1n1",
"o1p1q1r1s1t1u1v1w1x1y1z1A1B1C1D1E1F1G1H1I1J1K1L1M1N1O1P1Q1R1S1T1U1V1W1X1Y1Z1`1 2.2+2@2#2$2%2&2*2=2-2;2>2,2'2)2!2~2{2]2^2/2(2_2:2<2[2}2|21222324242526272829202a2b2c2c2d2e2f2",
"g2h2i2j2k2l2m2n2o2p2q2r2s2t2u2v2w2x2y2z2A2B2C2D2E2F2G2H2I2J2K2L2M2N2O2P2Q2R2S2T2U2V2W2X2X2W2Y2Z2`2 3.3+3@3#3$3%3&3*3=3-3;3>3,3'3)3!3~3{3]3^3/3(3_3:3<3[3}3i||313C}2333435363",
"73839303a3b3c3d3e3f3g3h3i3j3k3l3m3n3o3p3q3r3s3t3u3v3w3x3y3z3A3B3C3D3E3F3G3H3I3J3K3L3M3N3O3P3Q3R3S3T3U3V3W3X3Y3Z3`3 4.4+4@4#4$4%4&4*4=4-4;4>4,4,4'4)4!4~4{4]4^4/4(4_4:4<4<4:4",
"[4}4|414243444546474849404a4b4c4d4e4f4g4h4i4j4k4l4m4n4o4p4q4r4s4t4u4v4w4x4y4z4A4B4C4D4E4F4G4H4I4J4K4L4M4N4O4P4Q4R4S4T4U4V4W4X4Y4Z4`4 5.5+5@5#5$5%5&5*5=5-5;5>5,5'5)5!5~5{5]5",
"^5/5(5_5:5<5[5}5|515253545556575859505a5b5c5d5e5f5g5(|h5i5j5k5l5m5n5o5p5q5r5s5t5u5v5w5x5y5z5A5B5C5D5E5F5G5H5I5J5K5L5M5N5O5P5Q5R5S5T5T5U5V5W5X5Y5Z5`5Z5 6.6+6@6#6$6%6&6*6*6=6",
"-6;6>6,6'6)6!6~6{6]6^6/6(6_6:6<6[6}6|616263646566676869606a6b6c6d6e6f6g6h6i6j6k6l6m6n6o6p6q6r6s6t6u6v6w6x6y6z6A6B6C6D6E6F6G6H6I6J6K6L6M6N6O6P6Q6R6S6R6T6U6V6W6X6Y6Z6`6 7.7+7",
"@7#7$7%7&7*7=7-7;7>7,7'7)7!7~7{7]7^7/7(7M}_7:7<7[7}7|717273747576777879707a7b7c7d7e7f7g7h7i7j7k7l7m7n7o7p7q7r7s7t7u7v7w7x7y7z7A7B7C7D7E7F7G7F7E7H7I7J7K7H7L7M7N7O7P7Q7R7S7T7",
"U7V7W7X7Y7Z7`7 8.8+8@8#8$8%8&8*8=8-8;8>8,8'8)8!8~8{8]8^8/8(8_8:8<8[8}8|818283848586878889808a8b8c8d8e8f8g8h8i8j8k8l8m8n8o8p8q8r8s8t8u8t8v8w8v8x8y8z8A8B8C8D8E8F8G8H8I8J8K8L8",
"M8N8 *O8P8Q8R8S8T8U8V8W8X8Y8Z8`8 9.9+9@9#9$9%9&9*9=9-9;9>9,9'9)9!9~9{9]9^9/9(9_9:9<9[9}9|919293949596979899909a9b9c9d9e9f9g9h9i9j9k9l9m9n9o9p9q9q9r9s9t9u9v9j9w9x9y9z9A9B9C9",
"D9E9F9G9H9I9J9K9L9M9N9O9P9Q9R9S9T9U9V9W9~8%9X9Y9Z9`9 0.0+0@0#0$0%0&0*0=0-0;0>0,0'0)0!0~0{0]0^0/0(0_0:0<0[0}0|010203040506070809000a0b0c0d0e0f0m9g0h0f0i0j0k0l0m0n0o0p0q0r0s0",
"t0(#u0v0w0x0y0z0A0B0B0C0D0E0F0G0H0I0J0K0L0M0N0O0P0Q0R0S0T0U0V0W0X0Y0Z095`0 a.a+a@a#a$a%a&a*a=a-a;a>a,a'a)a!a~a{a]a^a/a(a_a:a<a[a}a|a1a2a3a4a5a6a7a8a9a0aaabacadaeafagahaiaja",
"kalamanaoa(#paqarasatauavawaxayazaAaBaCaDaEaFaGaHaIaJa2~KaLaMaNaOaPaQaRaSaTaUaVaWaXaYaZa`a b.b+b@b#b$b%b&b*b=b-b;b>b,b'b)b!bs0~b{b]b^b/b(b_b:b<b[b}b_b|b1b2b3b4b5b6b7b8b9b0b",
"abbbcbdbebfbgbhbibjbkblbmbnbobpbqbrbsbtbubvbwbxbybzbAbBbCbDbEbFbGbHbIbJbKbLbMbNbObPbQbRbSbTbUbVbWbXbYbZb`b c.c+c@c#c$cC7%c&c*c=c-cf9;c>c,c'c)c!c~c{c]c^c/c;c(c_c:c<c[c}c<c|c",
"1c2c3c4c5c6c7c8c9c0cacbcccdcecfcgchcicjckclcmcncocpcqcrcsctcucvcwcU^xcyczcAcBcCcDcEcFcGcHcIcJcKcLcMcNcOcPcQcRcScTcUcVcWcXcYc/aZc`c d.d+d@d#d$d%d&d*d=d-d;d>d,d'd)d!d~d{d]d^d",
"/d(d_d:d<d2.[dJ%}d|d1d2d3d4d5d6d7d8d9d0dadbdcdddedfdgdhdidjdkdldmdndodpdqdx2rdsdtdudvdwdxdydzdAdBdCdDdEdFdGdHdIdJdKdLdMdNd<b<bOdPdQdRdSdSdTdUdVdWdXdYdZd`d e.e+e@e#e$e%e$e&e",
"*e=e5@-e;e>e,e'e)e!e~e{e]e^e/e(e_e:e<e[e}e|e1e2e3e4e5e6e7e8e9e0eaebecedeeefegeheiejekelemeneoepeqereseteuevewexeyeze4aAe[aBeCeDeEeFe,dGeHeZdIeJeKeLeMeNeOePeXcQeReSeTeUeVeWe",
"~%XeYeZe`e f.f+f@f#f$f%f&f*f=f-f;f>f,f'f)f!f~f{f]f^f/f(f_f:f<f[f}f|f1f2f3f4f5f6f7f8f8f9f8f0fafbfcfdfefffgfhfifjfkflfmfnfofpfqfrfsftfWdufufvfwfofxfyfzfAfe9p8BfCfDfEfFfGfHfIf",
"JfKfLft0MfNfOfPfQfRfSfTfUfVfWfXfYfZf`f g.g+g@g#g$g%g&g*g=g-g;g>g,gy)'g)g!g~g{g]g^g/g(g_g:g<g[g}g|g1g2g3g4g5g6g7g8g9g0gagbgcgdgegfggghgigjgkglgmgngmgogpgqgrgsgtgugvgwgvgxg!d",
"ygzgzgF9AgBgCgDgEgFg:dGgHgIgJgKgLgMgNgOgPgQgRgSgTgUgVgWgXgYgZg`g h.h+h@h#h$h%h&h*h=h-h;h>h>h,h'h)h!h~h{h]h^h/hK:(h_h:h<h[h}h}h|h1h2h3h4h5h6h7h8h9h0hahbhchdhehfhghz8hhihjhkh",
"lhmhnhohphqhrhshthuhvhwhxhyhzhAhBhChDhEhFhGhHhIhJhKhLhMhNhOhPhQhRhShThUhVhWhXhYhZh`h i.i+i@i#i$i%i&i*i=i-i;i>i,i'i)i'i!i~i{i]i^i/i(i_i:i<i[i[i}i|i|i1i2i3i4i5i6i7i8i9i8i0iai",
"bicidieifigihiiijikiliminioipiJgqirisitiuiviwixiyiziAiBiCiDi_5EiFiGiHiIiJiKiLiMiNiOiPiQiRiSiSiTiUiViWiXiYiZi`i j.j+jX|@j@j#j$j%j&j*j=j-j-j;j>j,j'j)j!j~j{j]j^j/j(j_j:j<j[j[j",
"}j|j1j2j3j=+4j5j6j7j8j9j0joiajbjcjdjejfjgjhjijjjkjxiljmjnjojpjqjrjsjtjujvjwjxjyjzjAjBjCjDjEjFjFjGjHjFjIjJjKjLjMjNjOjPjQjRjSjTjUjVjWjXjYjZj`j k.k+k@k#k$k#k%k&k*k=k-k;k>k,k'k",
")k!k~k{k]k^k/k(k_k:k<k[k}koi|k1k2k3k4k5k6k7k8k9k0kakbkckdkekfkgkhkikjkkklkmknkokpkqkqkqkrkrkrksktkukvkwkxkykzkAkBkCkDkEkFkGkHkIkJkKk-^LkMkNkOkPkQkRkSkTkUkVkWkXkYkZk`k l.l+l",
"@l#l$l%l&l*l=l-l;lQ}>l,l'l)lW9!l~l{l]l^l/l(l_l:l<l[l}l|l1l2l3l4l5l6l7l8l9l0lalblcldlV_V_elelflglhliljlklllmlnlnlolplqlrlsltlulvlwlxlylzlAl_gBlClDlElFlGlHlIlJlKlLlMlNlOlPlQl",
"RlSlTlUlVlWlXlYlZl`l m.m+mpi@m#m$m%m&m*m=m-m;m>m,m'm)m!m~m{m]m^m/m(m_m:m<m[m}m|mal1m2m2m3m3m4m5m6m7m7m8m9m0mambmcmcmdmememfmfmgmhmimimjmkmkmkmlmmmnmompmqmrmsmtmy]umvmwmxmym",
"zmAmBmCmDmEmFmGmHmImJmKmLmMmNmOmPmQmRmSmTmUmVmWmXmYmZm`m n.n+n@n#n$n%n&n*n=n-n;n>n,n,n,n'n'n)n!n~n{n{n]n^n/n(n_n_n_n:n<n[nwj[n}n|n1n2n3n4n5n4n5n6n7n8n9n0nanbncndnenfngnhnin",
"jnknkalnmnnnonpnqnrnsntnunvnwnxnynznAnBnCnDnEnFnGnHnYm`mInJnKnLnMnNn%n:mOnPnQnRnSnTnTnTnUnUnVnUnWnXnXnYnZnZnZn`n o o.o+o@o#o$o%o&o*o=o-o;o>o,o'o)o!o~o{o]o^o~o/o(o_o:o<o[o[o",
"}o|o1o2o3o4o5o6o7o8o9o0oIgaobocodoeofoBngohoiojokolo8kmonooopoqo/mrosotouovowoxoyozozozoAoAoBoCoDoEoFoGoGoHoHoHoIoHoEoEoJoKoLoMoNoOoZnZnPo+o+o+oQoRoSoujToToUoVoWoXoYoYoZo`o",
" p.p+p@p#p$p%p&p7o*p=p-p;p>p,p'p)p!p~p{p]p^p/p(p_p:p<p[p}p|p1p^82p3p4p=n5p6p7p8pZnZn9p9pYnYn0pap>n0lbp>n,ncpdpdpcpdpepfpgpgphpipjpDoxoxoxokplplp>n0l0lmpnpopppqprpspsptpupvp",
"wpxpypzpApH_BpCpDpDpEpFpGpHpIpJpKpLpMpNpOpPpQpRpSpTpUpVpWpXpYpZp`p q.q+q@q#q$q%q&q*q*q=q*q*q*q-q;q>q>q,q'q'q'q'q)q!q~q{q1m]q^q]q/q(q(q_q_q_q/q:q<q<q[q}q|qkp1q2q3q4q5q6q7q8q",
"9q0qaqbqcqdqeqfqgqhqiqjqkqlqmqnqoqpqqqrqsqtquqvqwqxqyqzqAqBqCqDqEqFqGqHqIqJqKqLqMqNqOqPqQqRqRqSqTqUqVqWqLiXqXqLiYqYqZq`q r.r+r@r#r$r%r&r*r=r-r;r>r,r'r)r)r!r~r{r]r^r/r(r_r:r",
"<r[r}r|r|r}r1r2r3r4r5r6r6r7r8r9r0rarbrcrdrerfrgrhrirjrkrlrmrnrorEqprprqrqrrrsrtrurvrwrxryrzryrArBrCrDrErFrGrFrGrHrIrJrKrLrMrNrOrPrQrRr iSrTrUrVrWrXrYrZr`r s.s+s@s#s$s%s&s%s",
"*s=s-s;s>s,s's)s!s~s)s{s]s]s{sIaKp^sug/s(s_s:s<s[s}s|s1s2s3s4s5s6s7s8s9s0sasbscsdsesfsgshsisjskslsmsnsospsqsrssspstsusqsvssswsxsyszsYqXqAsBsCsDsEsFsGsHsIsJsKsLsMsNsOsPsQsRs",
"*s*s*s*s*sSsA8Ts{s]sUsUs]s{sVsWsXsYsZs`s t.t+t@t#t$t%t&t*t=t-tej;t>t,t't)t!t~t{t]t^t/t(t_t:t<t[t}t|t1t2t3t4t5t6t7t8t8t8t9t6t6t0tatbtctdtetftgthtitjtktltltmtmtntotptqtrtstst",
"ttutvtwtwtxtytztAtztytttvtxtxt@eBtCt@eDtEtFtGtHtItJtKtLtMtNtOtPtQtRtjgStTtUtVthfWtWtXte!5g/hYtYt(h^hZt`t<h u.u+u.u@u#u$u%u&u*u=u-u;u>u,u'u)u!u~u{u]u^u/u(u_u:u<u[u}u|u1u2u3u",
"4u5u6u7u7u8u9u0uauAtztbuytutvtcudueufuguhuiujukulumunuoupuquruReh9sutus0uu+evuwuxuyumgzuAuBuCuDuEuXtXtEuFuVtUtGuHuIuJuKuUty<y<LuYtMuNuOuPuQuRuk2SuTuUuVuWuXuYuZu`u v.v+v [@v",
"#v$v%v&v*v=v-v;v>v>v>v>v>v>vGf#e,v'vOd)v!v~v{v]v^v/v(v_v:v<v[v}v|va01v1v2vNd3v4v5vq8q8Zc6v`dyf7vGe8v8v8vSdFeufUdL0Ud>d9vWd0vRdavbvcvdvevfvgvhviv/hjvkvlvmvnvovpv.qqvrvsvtvuv",
"vvwvxvyv#vzvAvBvCv=vDvEv;vFvIfGvHvIvJvKvLvMvNvOvPvQvRvSvTvUvVvWv[aXvYvZv`vZv w.w+w60@w#w$w%w%w&w*w=w-w-w=w*w;w}v-wg9>w,w'w)w,w!w~w{w{w]w^w/w(w_wLuK::w<w[w}w|w1w2w3w4wU}hf^h",
"5w5w5w6w7w8w9w9w9w0wawbwcwdwewfw6rLpgwhwiwjwkwlwmwnwowpwqwrw!cswtwuw6avw+wwwwwxw60)w)wywywzwzwAwPdPdPdPdPdPdPdPdPdPdPdPdPdPdPduu!b!bq8MeBwCwDwEwFwGwHwIwJwKwLwMwNwOwPwQwRwSw",
"TwUwUwVwWw6w6wXwYw7wZw`wawbw x.x+xeq@x#x$x%x&x*x=x-x;x>x,x'x)x-d%w#w#w#w$w%w&w&w!x~x~x{x]x>d^x/x(x(x(x(x(x(x(x(x^x^x^x^x^x^x^xPd_xNd:x<x4v[x}x|x d1xrf2x3x4x5x6x7x8x9x0xaxbx",
"cxcxdxexfxgxhxhxixjxkxlxmxnxoxpxqxrxsxtxuxvxwxxxyxzxAxBxCx{c#dig8v`d`dGeDxDx{x{x8v;d;dExFxGxHxIxJxJxJxJxJxJxJxJxJxJxJxJxJxJxJx^xKx:x:xLx3vMxMxNx%wAwOxPxQxRxSxTxUxVxWxXxYxZx",
"`x y.ycxdxexgxhx+y@yjxkxlx#ymx$y%y&yxv*y=y-y;y>y,y'y)y!y~y{y]y<7^y/y/y/y^y(yjgjg_ylg:y<y[yhg=d=d}y}y]c}y]c}y]c}y'c|y'c|y'c|y'cOxKx1y1y1y1yKx2y3y4y5y5y6y6y7y7y7y8y9ym90yayby",
"cydy.ycxcx.ydxfxexfxhx@yjxkxeyfygyhyiyjykylymynyoypyqy]xrypfJ7sytytyqg/yFeufUdUdtfuyvywySxHx]cxy]c]cyy]cyy]cyy]cw8'cw8'cw8'cw8zy4y2y2y5v5v3yg9AyByByByByByByByCyDyEyEyFyGy[c",
"HyIydy y`xJydyKyKyKyLycxexfxhxMyNyOyPyQyRySyTyh9UyVyWyJxXyYyZy`y z.z+z@z@zQd#z$z%z&z*z=z-z;z>z,z'z'z'z'z'z'z'z'z)z)z)z)z)z)z)z>z!zYd~z~z~zDe5y5y{z{z{z{zi9]z]z]z^zDf/z(z_zwt",
":z<z[z}z}z|z1z2z3z4z2z5z6z7z8zcx9z0zazbzczdzezfzSsH_gzhzL0izjzkz40Ielzmzmznzozpz5y6yqzVyrz_zsztzuzuzuzuzuzuzuzuzvzvzvzvzvzvzvzwzTxxzWdWdWdyzyzzzszszAzAzBzh0CzCzDzEzFzcuFzEz",
"GzHzIzJzKzLzMzNzOzOzPzQzRzNzSz8zfxTzUzVzWzXzYzZz`z A.A+A@A#A$A%A&A*AWv'wReDe=A=A-A;A>A_z>A,A'A)A!A!A!A!A!A!A!A!A!A!A!A!A!A!A!A~A{Agh]A]A]A^A^A/ASe-A-A(A'A'A_A:A<A[A}Ax9|A1A",
"2A3A4A5At'6A7A8A9A0AaAaAbAcAdAeAfAgAhAdxiAMyjAkAlAmAnAawoApAqArAsA8rtAuAvAwAtAxAwAtAyAzAvAzAvAyAvAAABAAACADAAABAEAFAGAGAHAIAHA/A)sJAKALAMA!s!s~sNANAOA:cPAPAPAQA:cztRASAuATA",
"H#UAVAWAXAYAZA`A B.B+B@B#B$B$B%B&B&B*B*B=B-BhA;B>B,B'B)B!Bu%~B{B]B^B/B(B_B(B_Bsx:B<B[B5ufw5u5u5u}B3r|B4r1B2B3B4B5B3r6B4B|B3r3B4B9u7BTA8BTA8BzA9B0BaB8ubBcBdBeBfBgBhBiBjBkBlB",
"c mBH#H#H#nBoBpBqBrBsBtBuBvBwBxByByByB&BzB=BABBBhAhACBCBDBEBFBGBHB5wIBiyZw8w9w`wbwbw xJBJBJB xoAKBLBMBNBOBLBMB4uPBQBRBSBTBfwPBUBVBWBXBCvewCvewCvkBYBlB-vjBZBgB`BjB C.Ccd+C@C",
"Z-#C$C#C$C%C&C&C%CmB*CpB=C-CsBZA;Ci<>C,C'CzBBB)C!C!C~C{C]C^C/C(C_C:CVw<CVw[CXw}C7w|Ciy1C8w2CZwZwaw3C4Cbw5C6C4C x7Caw8C9C7C9w0C`waCbCcCdCeCfCgChCiCjCkClC(CmCs%`xnCoCpCqCrCsC",
"tCuCuCvCuCwCxCyCzCACyCyCBCCCS@DCECFCGCHCIC;CJCKCLCMCNCOC~C]CCBPC`xQCRCSC9zTCRCQCmCQCUCVCRCVCRCUCnCWCXCIyYCIyZC`x`C D.D+D@D#D$D%D&D*D=D-DA$-D;D>D,D*D'D)D!D-D~D{DHCu']Du'^D/D",
"(DwCyCzCACS@S@_DACyCyCACACDC(D:D<D[D}DFC|D1D2D3D4D4D4D4D5D6D7D8D9D0DaDbDcDdDeDfDgDhDfDdDdDdDfDfDiDjDkDkDkDkDlDmDkDlDnDnDlDkDkDoDpDqDrDsDtD2DuDpDvDuDwDxDyDyDxDzDADBDCDDDEDFD"};
