/* XPM */
static char *endur_mini_xpm[] = {
"322 58 2 1",
"  c #0D0D1A",
"X c #FDE68A",
/* pixels */
"                                                                                                                                                                                                                                                                                                                                  ",
"                                                                                                                                                                                                                                                                                                                                  ",
"                                                                                                                                                                                                                                                                                                                                  ",
"                                                                                                                                                                                                                                                                                                                                  ",
"              XXXXXX    XX      XX  XXXXXXXX    XX      XX    XXXXXX    XX      XX  XXXXXXXXXX          XXXXXX      XXXXXX          XX            XXXXXX    XX      XX    XXXXXX            XXXXXX      XXXXXX          XXXXXXXX      XXXXXX      XXXXXX      XXXXXX      XXXXXX    XXXXXXXX    XX          XXXXXXXXXX            ",
"              XXXXXX    XX      XX  XXXXXXXX    XX      XX    XXXXXX    XX      XX  XXXXXXXXXX          XXXXXX      XXXXXX          XX            XXXXXX    XX      XX    XXXXXX            XXXXXX      XXXXXX          XXXXXXXX      XXXXXX      XXXXXX      XXXXXX      XXXXXX    XXXXXXXX    XX          XXXXXXXXXX            ",
"            XX      XX  XX      XX  XX      XX  XX      XX      XX      XX      XX  XX                XX      XX  XX      XX        XX          XX      XX  XXXX    XX  XX      XX        XX      XX  XX      XX        XX      XX  XX      XX  XX      XX  XX      XX      XX      XX      XX  XX          XX                    ",
"            XX      XX  XX      XX  XX      XX  XX      XX      XX      XX      XX  XX                XX      XX  XX      XX        XX          XX      XX  XXXX    XX  XX      XX        XX      XX  XX      XX        XX      XX  XX      XX  XX      XX  XX      XX      XX      XX      XX  XX          XX                    ",
"            XX          XX      XX  XX      XX  XX      XX      XX      XX      XX  XX                XX      XX  XX                XX          XX      XX  XX  XX  XX  XX                XX      XX  XX                XX      XX  XX      XX  XX          XX              XX      XX      XX  XX          XX                    ",
"            XX          XX      XX  XX      XX  XX      XX      XX      XX      XX  XX                XX      XX  XX                XX          XX      XX  XX  XX  XX  XX                XX      XX  XX                XX      XX  XX      XX  XX          XX              XX      XX      XX  XX          XX                    ",
"              XXXXXX    XX      XX  XXXXXXXX    XX      XX      XX      XX      XX  XXXXXXXX          XXXXXXXXXX    XXXXXX          XX          XX      XX  XX    XXXX  XX    XXXX        XXXXXXXXXX    XXXXXX          XXXXXXXX    XX      XX    XXXXXX      XXXXXX        XX      XXXXXXXX    XX          XXXXXXXX              ",
"              XXXXXX    XX      XX  XXXXXXXX    XX      XX      XX      XX      XX  XXXXXXXX          XXXXXXXXXX    XXXXXX          XX          XX      XX  XX    XXXX  XX    XXXX        XXXXXXXXXX    XXXXXX          XXXXXXXX    XX      XX    XXXXXX      XXXXXX        XX      XXXXXXXX    XX          XXXXXXXX              ",
"                    XX  XX      XX  XX  XX      XX      XX      XX      XX      XX  XX                XX      XX          XX        XX          XX      XX  XX      XX  XX      XX        XX      XX          XX        XX          XX      XX          XX          XX      XX      XX      XX  XX          XX                    ",
"                    XX  XX      XX  XX  XX      XX      XX      XX      XX      XX  XX                XX      XX          XX        XX          XX      XX  XX      XX  XX      XX        XX      XX          XX        XX          XX      XX          XX          XX      XX      XX      XX  XX          XX                    ",
"            XX      XX  XX      XX  XX    XX      XX  XX        XX        XX  XX    XX                XX      XX  XX      XX        XX          XX      XX  XX      XX  XX      XX        XX      XX  XX      XX        XX          XX      XX  XX      XX  XX      XX      XX      XX      XX  XX          XX                    ",
"            XX      XX  XX      XX  XX    XX      XX  XX        XX        XX  XX    XX                XX      XX  XX      XX        XX          XX      XX  XX      XX  XX      XX        XX      XX  XX      XX        XX          XX      XX  XX      XX  XX      XX      XX      XX      XX  XX          XX                    ",
"              XXXXXX      XXXXXX    XX      XX      XX        XXXXXX        XX      XXXXXXXXXX                      XXXXXX          XXXXXXXXXX    XXXXXX    XX      XX    XXXXXX                        XXXXXX          XX            XXXXXX      XXXXXX      XXXXXX      XXXXXX    XXXXXXXX    XXXXXXXXXX  XXXXXXXXXX            ",
"              XXXXXX      XXXXXX    XX      XX      XX        XXXXXX        XX      XXXXXXXXXX                      XXXXXX          XXXXXXXXXX    XXXXXX    XX      XX    XXXXXX                        XXXXXX          XX            XXXXXX      XXXXXX      XXXXXX      XXXXXX    XXXXXXXX    XXXXXXXXXX  XXXXXXXXXX            ",
"                                                                                                                                                                                                                                                                                                                                  ",
"                                                                                                                                                                                                                                                                                                                                  ",
"                                                                                                                                                                                                                                                                                                                                  ",
"                                                                                                                                                                                                                                                                                                                                  ",
"                                          XX      XX    XXXXXX          XXXXXXXX      XXXXXX      XXXXXX      XXXXXX    XXXXXXXXXX    XXXXXX            XXXXXX    XX      XX        XXXXXXXXXX  XX      XX    XXXXXX      XXXXXX          XX      XX    XXXXXX    XXXXXXXX    XXXXXXXXXX                                          ",
"                                          XX      XX    XXXXXX          XXXXXXXX      XXXXXX      XXXXXX      XXXXXX    XXXXXXXXXX    XXXXXX            XXXXXX    XX      XX        XXXXXXXXXX  XX      XX    XXXXXX      XXXXXX          XX      XX    XXXXXX    XXXXXXXX    XXXXXXXXXX                                          ",
"                                          XXXX    XX  XX      XX        XX      XX  XX      XX  XX      XX  XX      XX      XX      XX      XX            XX      XXXX    XX            XX      XX      XX      XX      XX      XX        XXXX  XXXX  XX      XX  XX      XX  XX                                                  ",
"                                          XXXX    XX  XX      XX        XX      XX  XX      XX  XX      XX  XX      XX      XX      XX      XX            XX      XXXX    XX            XX      XX      XX      XX      XX      XX        XXXX  XXXX  XX      XX  XX      XX  XX                                                  ",
"                                          XX  XX  XX  XX      XX        XX      XX  XX      XX  XX      XX  XX              XX      XX                    XX      XX  XX  XX            XX      XX      XX      XX      XX                XX  XX  XX  XX      XX  XX      XX  XX                                                  ",
"                                          XX  XX  XX  XX      XX        XX      XX  XX      XX  XX      XX  XX              XX      XX                    XX      XX  XX  XX            XX      XX      XX      XX      XX                XX  XX  XX  XX      XX  XX      XX  XX                                                  ",
"                                          XX    XXXX  XX      XX        XXXXXXXX    XX      XX  XX      XX    XXXXXX        XX        XXXXXX              XX      XX    XXXX            XX      XXXXXXXXXX      XX        XXXXXX          XX      XX  XX      XX  XX      XX  XXXXXXXX                                            ",
"                                          XX    XXXX  XX      XX        XXXXXXXX    XX      XX  XX      XX    XXXXXX        XX        XXXXXX              XX      XX    XXXX            XX      XXXXXXXXXX      XX        XXXXXX          XX      XX  XX      XX  XX      XX  XXXXXXXX                                            ",
"                                          XX      XX  XX      XX        XX      XX  XX      XX  XX      XX          XX      XX              XX            XX      XX      XX            XX      XX      XX      XX              XX        XX      XX  XX      XX  XX      XX  XX                                                  ",
"                                          XX      XX  XX      XX        XX      XX  XX      XX  XX      XX          XX      XX              XX            XX      XX      XX            XX      XX      XX      XX              XX        XX      XX  XX      XX  XX      XX  XX                                                  ",
"                                          XX      XX  XX      XX        XX      XX  XX      XX  XX      XX  XX      XX      XX      XX      XX            XX      XX      XX            XX      XX      XX      XX      XX      XX        XX      XX  XX      XX  XXXXXXXX    XX                                                  ",
"                                          XX      XX  XX      XX        XX      XX  XX      XX  XX      XX  XX      XX      XX      XX      XX            XX      XX      XX            XX      XX      XX      XX      XX      XX        XX      XX  XX      XX  XXXXXXXX    XX                                                  ",
"                                          XX      XX    XXXXXX          XXXXXXXX      XXXXXX      XXXXXX      XXXXXX        XX        XXXXXX            XXXXXX    XX      XX            XX      XX      XX    XXXXXX      XXXXXX          XX      XX    XXXXXX                XXXXXXXXXX                                          ",
"                                          XX      XX    XXXXXX          XXXXXXXX      XXXXXX      XXXXXX      XXXXXX        XX        XXXXXX            XXXXXX    XX      XX            XX      XX      XX    XXXXXX      XXXXXX          XX      XX    XXXXXX                XXXXXXXXXX                                          ",
"                                                                                                                                                                                                                                                                                                                                  ",
"                                                                                                                                                                                                                                                                                                                                  ",
"                                                                                                                                                                                                                                                                                                                                  ",
"                                                                                                                                                                                                                                                                                                                                  ",
"                     XXXXXXXXXX    XXXXXX    XX      XX  XXXXXXXXXX          XXXXXX      XXXXXX    XX      XX  XXXXXXXXXX  XXXXXXXX          XXXXXXXXXX    XXXXXX          XX          XXXXXXXXXX    XXXXXX    XXXXXXXX    XXXXXXXXXX  XXXXXXXX    XXXXXXXX      XXXXXX      XXXXXX    XXXXXXXX    XXXXXXXX                       ",
"                     XXXXXXXXXX    XXXXXX    XX      XX  XXXXXXXXXX          XXXXXX      XXXXXX    XX      XX  XXXXXXXXXX  XXXXXXXX          XXXXXXXXXX    XXXXXX          XX          XXXXXXXXXX    XXXXXX    XXXXXXXX    XXXXXXXXXX  XXXXXXXX    XXXXXXXX      XXXXXX      XXXXXX    XXXXXXXX    XXXXXXXX                       ",
"                         XX          XX      XXXX  XXXX  XX                XX      XX  XX      XX  XX      XX  XX          XX      XX            XX      XX      XX        XX          XX          XX      XX  XX      XX  XX          XX      XX  XX      XX  XX      XX  XX      XX  XX      XX  XX      XX                     ",
"                         XX          XX      XXXX  XXXX  XX                XX      XX  XX      XX  XX      XX  XX          XX      XX            XX      XX      XX        XX          XX          XX      XX  XX      XX  XX          XX      XX  XX      XX  XX      XX  XX      XX  XX      XX  XX      XX                     ",
"                         XX          XX      XX  XX  XX  XX                XX          XX      XX  XX      XX  XX          XX      XX            XX      XX      XX        XX          XX          XX      XX  XX      XX  XX          XX      XX  XX      XX  XX      XX  XX      XX  XX      XX  XX      XX                     ",
"                         XX          XX      XX  XX  XX  XX                XX          XX      XX  XX      XX  XX          XX      XX            XX      XX      XX        XX          XX          XX      XX  XX      XX  XX          XX      XX  XX      XX  XX      XX  XX      XX  XX      XX  XX      XX                     ",
"                         XX          XX      XX      XX  XXXXXXXX            XXXXXX    XXXXXXXXXX  XX      XX  XXXXXXXX    XX      XX            XX      XX      XX        XX          XXXXXXXX    XXXXXXXXXX  XX      XX  XXXXXXXX    XXXXXXXX    XXXXXXXX    XX      XX  XXXXXXXXXX  XXXXXXXX    XX      XX                     ",
"                         XX          XX      XX      XX  XXXXXXXX            XXXXXX    XXXXXXXXXX  XX      XX  XXXXXXXX    XX      XX            XX      XX      XX        XX          XXXXXXXX    XXXXXXXXXX  XX      XX  XXXXXXXX    XXXXXXXX    XXXXXXXX    XX      XX  XXXXXXXXXX  XXXXXXXX    XX      XX                     ",
"                         XX          XX      XX      XX  XX                        XX  XX      XX  XX      XX  XX          XX      XX            XX      XX      XX        XX          XX          XX      XX  XX      XX  XX          XX  XX      XX      XX  XX      XX  XX      XX  XX  XX      XX      XX                     ",
"                         XX          XX      XX      XX  XX                        XX  XX      XX  XX      XX  XX          XX      XX            XX      XX      XX        XX          XX          XX      XX  XX      XX  XX          XX  XX      XX      XX  XX      XX  XX      XX  XX  XX      XX      XX                     ",
"                         XX          XX      XX      XX  XX                XX      XX  XX      XX    XX  XX    XX          XXXXXXXX              XX      XX      XX        XX          XX          XX      XX  XXXXXXXX    XX          XX    XX    XX      XX  XX      XX  XX      XX  XX    XX    XXXXXXXX                       ",
"                         XX          XX      XX      XX  XX                XX      XX  XX      XX    XX  XX    XX          XXXXXXXX              XX      XX      XX        XX          XX          XX      XX  XXXXXXXX    XX          XX    XX    XX      XX  XX      XX  XX      XX  XX    XX    XXXXXXXX                       ",
"                         XX        XXXXXX    XX      XX  XXXXXXXXXX          XXXXXX                    XX      XXXXXXXXXX                        XX        XXXXXX          XXXXXXXXXX  XXXXXXXXXX                          XXXXXXXXXX  XX      XX  XXXXXXXX      XXXXXX                XX      XX                                 ",
"                         XX        XXXXXX    XX      XX  XXXXXXXXXX          XXXXXX                    XX      XXXXXXXXXX                        XX        XXXXXX          XXXXXXXXXX  XXXXXXXXXX                          XXXXXXXXXX  XX      XX  XXXXXXXX      XXXXXX                XX      XX                                 ",
"                                                                                                                                                                                                                                                                                                                                  ",
"                                                                                                                                                                                                                                                                                                                                  ",
"                                                                                                                                                                                                                                                                                                                                  ",
"                                                                                                                                                                                                                                                                                                                                  ",
};
