/* XPM */
static char *leaderboard_button[] = {
"256 64 5 1",
"  c #0d0d1a",
"B c #6c3483",
"D c #4a235a",
"H c #9b59b6",
"T c #ffffff",
/* pixels */
"                                                                                                                                                                                                                                                                ",
"                                                                                                                                                                                                                                                                ",
"                                                                                                                                                                                                                                                                ",
"                                                                                                                                                                                                                                                                ",
"                                                                                                                                                                                                                                                                ",
"                                                                                                                                                                                                                                                                ",
"      HHHHHHHHHHHHHHHHHHHHHHHHHHHHHHHHHHHHHHHHHHHHHHHHHHHHHHHHHHHHHHHHHHHHHHHHHHHHHHHHHHHHHHHHHHHHHHHHHHHHHHHHHHHHHHHHHHHHHHHHHHHHHHHHHHHHHHHHHHHHHHHHHHHHHHHHHHHHHHHHHHHHHHHHHHHHHHHHHHHHHHHHHHHHHHHHHHHHHHHHHHHHHHHHHHHHHHHHHHHHHHHHHHHHHHHHHHHHHHHHHHHH      ",
"      HHHHHHHHHHHHHHHHHHHHHHHHHHHHHHHHHHHHHHHHHHHHHHHHHHHHHHHHHHHHHHHHHHHHHHHHHHHHHHHHHHHHHHHHHHHHHHHHHHHHHHHHHHHHHHHHHHHHHHHHHHHHHHHHHHHHHHHHHHHHHHHHHHHHHHHHHHHHHHHHHHHHHHHHHHHHHHHHHHHHHHHHHHHHHHHHHHHHHHHHHHHHHHHHHHHHHHHHHHHHHHHHHHHHHHHHHHHHHHHHHHHH      ",
"      HHHHHHHHHHHHHHHHHHHHHHHHHHHHHHHHHHHHHHHHHHHHHHHHHHHHHHHHHHHHHHHHHHHHHHHHHHHHHHHHHHHHHHHHHHHHHHHHHHHHHHHHHHHHHHHHHHHHHHHHHHHHHHHHHHHHHHHHHHHHHHHHHHHHHHHHHHHHHHHHHHHHHHHHHHHHHHHHHHHHHHHHHHHHHHHHHHHHHHHHHHHHHHHHHHHHHHHHHHHHHHHHHHHHHHHHHHHHHHHHHHHHDD    ",
"      HHHHHHHHHHHHHHHHHHHHHHHHHHHHHHHHHHHHHHHHHHHHHHHHHHHHHHHHHHHHHHHHHHHHHHHHHHHHHHHHHHHHHHHHHHHHHHHHHHHHHHHHHHHHHHHHHHHHHHHHHHHHHHHHHHHHHHHHHHHHHHHHHHHHHHHHHHHHHHHHHHHHHHHHHHHHHHHHHHHHHHHHHHHHHHHHHHHHHHHHHHHHHHHHHHHHHHHHHHHHHHHHHHHHHHHHHHHHHHHHHHHHDD    ",
"      BBBBBBBBBBBBBBBBBBBBBBBBBBBBBBBBBBBBBBBBBBBBBBBBBBBBBBBBBBBBBBBBBBBBBBBBBBBBBBBBBBBBBBBBBBBBBBBBBBBBBBBBBBBBBBBBBBBBBBBBBBBBBBBBBBBBBBBBBBBBBBBBBBBBBBBBBBBBBBBBBBBBBBBBBBBBBBBBBBBBBBBBBBBBBBBBBBBBBBBBBBBBBBBBBBBBBBBBBBBBBBBBBBBBBBBBBBBBBBBBBBBBDD    ",
"      BBBBBBBBBBBBBBBBBBBBBBBBBBBBBBBBBBBBBBBBBBBBBBBBBBBBBBBBBBBBBBBBBBBBBBBBBBBBBBBBBBBBBBBBBBBBBBBBBBBBBBBBBBBBBBBBBBBBBBBBBBBBBBBBBBBBBBBBBBBBBBBBBBBBBBBBBBBBBBBBBBBBBBBBBBBBBBBBBBBBBBBBBBBBBBBBBBBBBBBBBBBBBBBBBBBBBBBBBBBBBBBBBBBBBBBBBBBBBBBBBBBBDD    ",
"      BBBBBBBBBBBBBBBBBBBBBBBBBBBBBBBBBBBBBBBBBBBBBBBBBBBBBBBBBBBBBBBBBBBBBBBBBBBBBBBBBBBBBBBBBBBBBBBBBBBBBBBBBBBBBBBBBBBBBBBBBBBBBBBBBBBBBBBBBBBBBBBBBBBBBBBBBBBBBBBBBBBBBBBBBBBBBBBBBBBBBBBBBBBBBBBBBBBBBBBBBBBBBBBBBBBBBBBBBBBBBBBBBBBBBBBBBBBBBBBBBBBBDD    ",
"      BBBBBBBBBBBBBBBBBBBBBBBBBBBBBBBBBBBBBBBBBBBBBBBBBBBBBBBBBBBBBBBBBBBBBBBBBBBBBBBBBBBBBBBBBBBBBBBBBBBBBBBBBBBBBBBBBBBBBBBBBBBBBBBBBBBBBBBBBBBBBBBBBBBBBBBBBBBBBBBBBBBBBBBBBBBBBBBBBBBBBBBBBBBBBBBBBBBBBBBBBBBBBBBBBBBBBBBBBBBBBBBBBBBBBBBBBBBBBBBBBBBBDD    ",
"      BBBBBBBBBBBBBBBBBBBBBBBBBBBBBBBBBBBBBBBBBBBBBBBBBBBBBBBBBBBBBBBBBBBBBBBBBBBBBBBBBBBBBBBBBBBBBBBBBBBBBBBBBBBBBBBBBBBBBBBBBBBBBBBBBBBBBBBBBBBBBBBBBBBBBBBBBBBBBBBBBBBBBBBBBBBBBBBBBBBBBBBBBBBBBBBBBBBBBBBBBBBBBBBBBBBBBBBBBBBBBBBBBBBBBBBBBBBBBBBBBBBBDD    ",
"      BBBBBBBBBBBBBBBBBBBBBBBBBBBBBBBBBBBBBBBBBBBBBBBBBBBBBBBBBBBBBBBBBBBBBBBBBBBBBBBBBBBBBBBBBBBBBBBBBBBBBBBBBBBBBBBBBBBBBBBBBBBBBBBBBBBBBBBBBBBBBBBBBBBBBBBBBBBBBBBBBBBBBBBBBBBBBBBBBBBBBBBBBBBBBBBBBBBBBBBBBBBBBBBBBBBBBBBBBBBBBBBBBBBBBBBBBBBBBBBBBBBBDD    ",
"      BBBBBBBBBBBBBBBBBBBBBBBBBBBBBBBBBBBBBBBBBBBBBBBBBBBBBBBBBBBBBBBBBBBBBBBBBBBBBBBBBBBBBBBBBBBBBBBBBBBBBBBBBBBBBBBBBBBBBBBBBBBBBBBBBBBBBBBBBBBBBBBBBBBBBBBBBBBBBBBBBBBBBBBBBBBBBBBBBBBBBBBBBBBBBBBBBBBBBBBBBBBBBBBBBBBBBBBBBBBBBBBBBBBBBBBBBBBBBBBBBBBBDD    ",
"      BBBBBBBBBBBBBBBBBBBBBBBBBBBBBBBBBBBBBBBBBBBBBBBBBBBBBBBBBBBBBBBBBBBBBBBBBBBBBBBBBBBBBBBBBBBBBBBBBBBBBBBBBBBBBBBBBBBBBBBBBBBBBBBBBBBBBBBBBBBBBBBBBBBBBBBBBBBBBBBBBBBBBBBBBBBBBBBBBBBBBBBBBBBBBBBBBBBBBBBBBBBBBBBBBBBBBBBBBBBBBBBBBBBBBBBBBBBBBBBBBBBBDD    ",
"      BBBBBBBBBBBBBBBBBBBBBBBBBBBBBBBBBBBBBBBBBBBBBBBBBBBBBBBBBBBBBBBBBBBBBBBBBBBBBBBBBBBBBBBBBBBBBBBBBBBBBBBBBBBBBBBBBBBBBBBBBBBBBBBBBBBBBBBBBBBBBBBBBBBBBBBBBBBBBBBBBBBBBBBBBBBBBBBBBBBBBBBBBBBBBBBBBBBBBBBBBBBBBBBBBBBBBBBBBBBBBBBBBBBBBBBBBBBBBBBBBBBBDD    ",
"      BBBBBBBBBBBBBBBBBBBBBBBBBBBBBBBBBBBBBBBBBBBBBBBBBBBBBBBBBBBBBBBBBBBBBBBBBBBBBBBBBBBBBBBBBBBBBBBBBBBBBBBBBBBBBBBBBBBBBBBBBBBBBBBBBBBBBBBBBBBBBBBBBBBBBBBBBBBBBBBBBBBBBBBBBBBBBBBBBBBBBBBBBBBBBBBBBBBBBBBBBBBBBBBBBBBBBBBBBBBBBBBBBBBBBBBBBBBBBBBBBBBBDD    ",
"      BBBBBBBBBBBBBBBBBBBBBBBBBBBBBBBBBBBBBBBBBBBBBBBBBBBBBBBBBBBBBBBBBBBBBBBBBBBBBBBBBBBBBBBBBBBBBBBBBBBBBBBBBBBBBBBBBBBBBBBBBBBBBBBBBBBBBBBBBBBBBBBBBBBBBBBBBBBBBBBBBBBBBBBBBBBBBBBBBBBBBBBBBBBBBBBBBBBBBBBBBBBBBBBBBBBBBBBBBBBBBBBBBBBBBBBBBBBBBBBBBBBBDD    ",
"      BBBBBBBBBBBBBBBBBBBBBBBBBBBBBBBBBBBBBBBBBBBBBBBBBBBBBBBBBBBBBBBBBBBBBBBBBBBBBBBBBBBBBBBBBBBBBBBBBBBBBBBBBBBBBBBBBBBBBBBBBBBBBBBBBBBBBBBBBBBBBBBBBBBBBBBBBBBBBBBBBBBBBBBBBBBBBBBBBBBBBBBBBBBBBBBBBBBBBBBBBBBBBBBBBBBBBBBBBBBBBBBBBBBBBBBBBBBBBBBBBBBBDD    ",
"      BBBBBBBBBBBBBBBBBBBBBBBBBBBBBBBBBBBBBBBBBBBBBBBBBBBBBBBBBBBBBBBBBBBBBBBBBBBBBBBBBBBBBBBBBBBBBBBBBBBBBBBBBBBBBBBBBBBBBBBBBBBBBBBBBBBBBBBBBBBBBBBBBBBBBBBBBBBBBBBBBBBBBBBBBBBBBBBBBBBBBBBBBBBBBBBBBBBBBBBBBBBBBBBBBBBBBBBBBBBBBBBBBBBBBBBBBBBBBBBBBBBBDD    ",
"      BBBBBBBBBBBBBBBBBBBBBBBBBBBBBBBBBBBBBBBBBBBBBBBBBBBBBBBBBBBBBBBBBBBBBBBBBBBBBBBBBBBBBBBBBBBBBBBBBBBBBBBBBBBBBBBBBBBBBBBBBBBBBBBBBBBBBBBBBBBBBBBBBBBBBBBBBBBBBBBBBBBBBBBBBBBBBBBBBBBBBBBBBBBBBBBBBBBBBBBBBBBBBBBBBBBBBBBBBBBBBBBBBBBBBBBBBBBBBBBBBBBBDD    ",
"      BBBBBBBBBBBBBBBBBBBBBBBBTTTBBBBBBBBBBBBBBBTTTTTTTTTTTTTTTBBBBBBBBBTTTBBBBBBBBBTTTTTTTTTBBBBBBBBBTTTTTTTTTTTTTTTBBBTTTTTTTTTTTTBBBBBBTTTTTTTTTTTTBBBBBBBBBTTTTTTTTTBBBBBBBBBBBBTTTBBBBBBBBBTTTTTTTTTTTTBBBBBBTTTTTTTTTBBBBBBBBBBBBBBBBBBBBBBBBBBBBBBBDD    ",
"      BBBBBBBBBBBBBBBBBBBBBBBBTTTBBBBBBBBBBBBBBBTTTTTTTTTTTTTTTBBBBBBBBBTTTBBBBBBBBBTTTTTTTTTBBBBBBBBBTTTTTTTTTTTTTTTBBBTTTTTTTTTTTTBBBBBBTTTTTTTTTTTTBBBBBBBBBTTTTTTTTTBBBBBBBBBBBBTTTBBBBBBBBBTTTTTTTTTTTTBBBBBBTTTTTTTTTBBBBBBBBBBBBBBBBBBBBBBBBBBBBBBBDD    ",
"      BBBBBBBBBBBBBBBBBBBBBBBBTTTBBBBBBBBBBBBBBBTTTTTTTTTTTTTTTBBBBBBBBBTTTBBBBBBBBBTTTTTTTTTBBBBBBBBBTTTTTTTTTTTTTTTBBBTTTTTTTTTTTTBBBBBBTTTTTTTTTTTTBBBBBBBBBTTTTTTTTTBBBBBBBBBBBBTTTBBBBBBBBBTTTTTTTTTTTTBBBBBBTTTTTTTTTBBBBBBBBBBBBBBBBBBBBBBBBBBBBBBBDD    ",
"      BBBBBBBBBBBBBBBBBBBBBBBBTTTBBBBBBBBBBBBBBBTTTBBBBBBBBBBBBBBBBBBTTTBBBTTTBBBBBBTTTBBBBBBTTTBBBBBBTTTBBBBBBBBBBBBBBBTTTBBBBBBBBBTTTBBBTTTBBBBBBBBBTTTBBBTTTBBBBBBBBBTTTBBBBBBTTTBBBTTTBBBBBBTTTBBBBBBBBBTTTBBBTTTBBBBBBTTTBBBBBBBBBBBBBBBBBBBBBBBBBBBBDD    ",
"      BBBBBBBBBBBBBBBBBBBBBBBBTTTBBBBBBBBBBBBBBBTTTBBBBBBBBBBBBBBBBBBTTTBBBTTTBBBBBBTTTBBBBBBTTTBBBBBBTTTBBBBBBBBBBBBBBBTTTBBBBBBBBBTTTBBBTTTBBBBBBBBBTTTBBBTTTBBBBBBBBBTTTBBBBBBTTTBBBTTTBBBBBBTTTBBBBBBBBBTTTBBBTTTBBBBBBTTTBBBBBBBBBBBBBBBBBBBBBBBBBBBBDD    ",
"      BBBBBBBBBBBBBBBBBBBBBBBBTTTBBBBBBBBBBBBBBBTTTBBBBBBBBBBBBBBBBBBTTTBBBTTTBBBBBBTTTBBBBBBTTTBBBBBBTTTBBBBBBBBBBBBBBBTTTBBBBBBBBBTTTBBBTTTBBBBBBBBBTTTBBBTTTBBBBBBBBBTTTBBBBBBTTTBBBTTTBBBBBBTTTBBBBBBBBBTTTBBBTTTBBBBBBTTTBBBBBBBBBBBBBBBBBBBBBBBBBBBBDD    ",
"      BBBBBBBBBBBBBBBBBBBBBBBBTTTBBBBBBBBBBBBBBBTTTTTTTTTTTTBBBBBBTTTBBBBBBBBBTTTBBBTTTBBBBBBBBBTTTBBBTTTTTTTTTTTTBBBBBBTTTTTTTTTTTTBBBBBBTTTTTTTTTTTTBBBBBBTTTBBBBBBBBBTTTBBBTTTBBBBBBBBBTTTBBBTTTTTTTTTTTTBBBBBBTTTBBBBBBBBBTTTBBBBBBBBBBBBBBBBBBBBBBBBBDD    ",
"      BBBBBBBBBBBBBBBBBBBBBBBBTTTBBBBBBBBBBBBBBBTTTTTTTTTTTTBBBBBBTTTBBBBBBBBBTTTBBBTTTBBBBBBBBBTTTBBBTTTTTTTTTTTTBBBBBBTTTTTTTTTTTTBBBBBBTTTTTTTTTTTTBBBBBBTTTBBBBBBBBBTTTBBBTTTBBBBBBBBBTTTBBBTTTTTTTTTTTTBBBBBBTTTBBBBBBBBBTTTBBBBBBBBBBBBBBBBBBBBBBBBBDD    ",
"      BBBBBBBBBBBBBBBBBBBBBBBBTTTBBBBBBBBBBBBBBBTTTTTTTTTTTTBBBBBBTTTBBBBBBBBBTTTBBBTTTBBBBBBBBBTTTBBBTTTTTTTTTTTTBBBBBBTTTTTTTTTTTTBBBBBBTTTTTTTTTTTTBBBBBBTTTBBBBBBBBBTTTBBBTTTBBBBBBBBBTTTBBBTTTTTTTTTTTTBBBBBBTTTBBBBBBBBBTTTBBBBBBBBBBBBBBBBBBBBBBBBBDD    ",
"      BBBBBBBBBBBBBBBBBBBBBBBBTTTBBBBBBBBBBBBBBBTTTBBBBBBBBBBBBBBBTTTTTTTTTTTTTTTBBBTTTBBBBBBTTTBBBBBBTTTBBBBBBBBBBBBBBBTTTBBBTTTBBBBBBBBBTTTBBBBBBBBBTTTBBBTTTBBBBBBBBBTTTBBBTTTTTTTTTTTTTTTBBBTTTBBBTTTBBBBBBBBBTTTBBBBBBTTTBBBBBBBBBBBBBBBBBBBBBBBBBBBBDD    ",
"      BBBBBBBBBBBBBBBBBBBBBBBBTTTBBBBBBBBBBBBBBBTTTBBBBBBBBBBBBBBBTTTTTTTTTTTTTTTBBBTTTBBBBBBTTTBBBBBBTTTBBBBBBBBBBBBBBBTTTBBBTTTBBBBBBBBBTTTBBBBBBBBBTTTBBBTTTBBBBBBBBBTTTBBBTTTTTTTTTTTTTTTBBBTTTBBBTTTBBBBBBBBBTTTBBBBBBTTTBBBBBBBBBBBBBBBBBBBBBBBBBBBBDD    ",
"      BBBBBBBBBBBBBBBBBBBBBBBBTTTBBBBBBBBBBBBBBBTTTBBBBBBBBBBBBBBBTTTTTTTTTTTTTTTBBBTTTBBBBBBTTTBBBBBBTTTBBBBBBBBBBBBBBBTTTBBBTTTBBBBBBBBBTTTBBBBBBBBBTTTBBBTTTBBBBBBBBBTTTBBBTTTTTTTTTTTTTTTBBBTTTBBBTTTBBBBBBBBBTTTBBBBBBTTTBBBBBBBBBBBBBBBBBBBBBBBBBBBBDD    ",
"      BBBBBBBBBBBBBBBBBBBBBBBBTTTTTTTTTTTTTTTBBBTTTTTTTTTTTTTTTBBBTTTBBBBBBBBBTTTBBBTTTTTTTTTBBBBBBBBBTTTTTTTTTTTTTTTBBBTTTBBBBBBTTTBBBBBBTTTTTTTTTTTTBBBBBBBBBTTTTTTTTTBBBBBBTTTBBBBBBBBBTTTBBBTTTBBBBBBTTTBBBBBBTTTTTTTTTBBBBBBBBBBBBBBBBBBBBBBBBBBBBBBBDD    ",
"      BBBBBBBBBBBBBBBBBBBBBBBBTTTTTTTTTTTTTTTBBBTTTTTTTTTTTTTTTBBBTTTBBBBBBBBBTTTBBBTTTTTTTTTBBBBBBBBBTTTTTTTTTTTTTTTBBBTTTBBBBBBTTTBBBBBBTTTTTTTTTTTTBBBBBBBBBTTTTTTTTTBBBBBBTTTBBBBBBBBBTTTBBBTTTBBBBBBTTTBBBBBBTTTTTTTTTBBBBBBBBBBBBBBBBBBBBBBBBBBBBBBBDD    ",
"      BBBBBBBBBBBBBBBBBBBBBBBBTTTTTTTTTTTTTTTBBBTTTTTTTTTTTTTTTBBBTTTBBBBBBBBBTTTBBBTTTTTTTTTBBBBBBBBBTTTTTTTTTTTTTTTBBBTTTBBBBBBTTTBBBBBBTTTTTTTTTTTTBBBBBBBBBTTTTTTTTTBBBBBBTTTBBBBBBBBBTTTBBBTTTBBBBBBTTTBBBBBBTTTTTTTTTBBBBBBBBBBBBBBBBBBBBBBBBBBBBBBBDD    ",
"      BBBBBBBBBBBBBBBBBBBBBBBBBBBBBBBBBBBBBBBBBBBBBBBBBBBBBBBBBBBBBBBBBBBBBBBBBBBBBBBBBBBBBBBBBBBBBBBBBBBBBBBBBBBBBBBBBBBBBBBBBBBBBBBBBBBBBBBBBBBBBBBBBBBBBBBBBBBBBBBBBBBBBBBBBBBBBBBBBBBBBBBBBBBBBBBBBBBBBBBBBBBBBBBBBBBBBBBBBBBBBBBBBBBBBBBBBBBBBBBBBBBBDD    ",
"      BBBBBBBBBBBBBBBBBBBBBBBBBBBBBBBBBBBBBBBBBBBBBBBBBBBBBBBBBBBBBBBBBBBBBBBBBBBBBBBBBBBBBBBBBBBBBBBBBBBBBBBBBBBBBBBBBBBBBBBBBBBBBBBBBBBBBBBBBBBBBBBBBBBBBBBBBBBBBBBBBBBBBBBBBBBBBBBBBBBBBBBBBBBBBBBBBBBBBBBBBBBBBBBBBBBBBBBBBBBBBBBBBBBBBBBBBBBBBBBBBBBBDD    ",
"      BBBBBBBBBBBBBBBBBBBBBBBBBBBBBBBBBBBBBBBBBBBBBBBBBBBBBBBBBBBBBBBBBBBBBBBBBBBBBBBBBBBBBBBBBBBBBBBBBBBBBBBBBBBBBBBBBBBBBBBBBBBBBBBBBBBBBBBBBBBBBBBBBBBBBBBBBBBBBBBBBBBBBBBBBBBBBBBBBBBBBBBBBBBBBBBBBBBBBBBBBBBBBBBBBBBBBBBBBBBBBBBBBBBBBBBBBBBBBBBBBBBBDD    ",
"      BBBBBBBBBBBBBBBBBBBBBBBBBBBBBBBBBBBBBBBBBBBBBBBBBBBBBBBBBBBBBBBBBBBBBBBBBBBBBBBBBBBBBBBBBBBBBBBBBBBBBBBBBBBBBBBBBBBBBBBBBBBBBBBBBBBBBBBBBBBBBBBBBBBBBBBBBBBBBBBBBBBBBBBBBBBBBBBBBBBBBBBBBBBBBBBBBBBBBBBBBBBBBBBBBBBBBBBBBBBBBBBBBBBBBBBBBBBBBBBBBBBBDD    ",
"      BBBBBBBBBBBBBBBBBBBBBBBBBBBBBBBBBBBBBBBBBBBBBBBBBBBBBBBBBBBBBBBBBBBBBBBBBBBBBBBBBBBBBBBBBBBBBBBBBBBBBBBBBBBBBBBBBBBBBBBBBBBBBBBBBBBBBBBBBBBBBBBBBBBBBBBBBBBBBBBBBBBBBBBBBBBBBBBBBBBBBBBBBBBBBBBBBBBBBBBBBBBBBBBBBBBBBBBBBBBBBBBBBBBBBBBBBBBBBBBBBBBBDD    ",
"      BBBBBBBBBBBBBBBBBBBBBBBBBBBBBBBBBBBBBBBBBBBBBBBBBBBBBBBBBBBBBBBBBBBBBBBBBBBBBBBBBBBBBBBBBBBBBBBBBBBBBBBBBBBBBBBBBBBBBBBBBBBBBBBBBBBBBBBBBBBBBBBBBBBBBBBBBBBBBBBBBBBBBBBBBBBBBBBBBBBBBBBBBBBBBBBBBBBBBBBBBBBBBBBBBBBBBBBBBBBBBBBBBBBBBBBBBBBBBBBBBBBBDD    ",
"      BBBBBBBBBBBBBBBBBBBBBBBBBBBBBBBBBBBBBBBBBBBBBBBBBBBBBBBBBBBBBBBBBBBBBBBBBBBBBBBBBBBBBBBBBBBBBBBBBBBBBBBBBBBBBBBBBBBBBBBBBBBBBBBBBBBBBBBBBBBBBBBBBBBBBBBBBBBBBBBBBBBBBBBBBBBBBBBBBBBBBBBBBBBBBBBBBBBBBBBBBBBBBBBBBBBBBBBBBBBBBBBBBBBBBBBBBBBBBBBBBBBBDD    ",
"      BBBBBBBBBBBBBBBBBBBBBBBBBBBBBBBBBBBBBBBBBBBBBBBBBBBBBBBBBBBBBBBBBBBBBBBBBBBBBBBBBBBBBBBBBBBBBBBBBBBBBBBBBBBBBBBBBBBBBBBBBBBBBBBBBBBBBBBBBBBBBBBBBBBBBBBBBBBBBBBBBBBBBBBBBBBBBBBBBBBBBBBBBBBBBBBBBBBBBBBBBBBBBBBBBBBBBBBBBBBBBBBBBBBBBBBBBBBBBBBBBBBBDD    ",
"      BBBBBBBBBBBBBBBBBBBBBBBBBBBBBBBBBBBBBBBBBBBBBBBBBBBBBBBBBBBBBBBBBBBBBBBBBBBBBBBBBBBBBBBBBBBBBBBBBBBBBBBBBBBBBBBBBBBBBBBBBBBBBBBBBBBBBBBBBBBBBBBBBBBBBBBBBBBBBBBBBBBBBBBBBBBBBBBBBBBBBBBBBBBBBBBBBBBBBBBBBBBBBBBBBBBBBBBBBBBBBBBBBBBBBBBBBBBBBBBBBBBBDD    ",
"      BBBBBBBBBBBBBBBBBBBBBBBBBBBBBBBBBBBBBBBBBBBBBBBBBBBBBBBBBBBBBBBBBBBBBBBBBBBBBBBBBBBBBBBBBBBBBBBBBBBBBBBBBBBBBBBBBBBBBBBBBBBBBBBBBBBBBBBBBBBBBBBBBBBBBBBBBBBBBBBBBBBBBBBBBBBBBBBBBBBBBBBBBBBBBBBBBBBBBBBBBBBBBBBBBBBBBBBBBBBBBBBBBBBBBBBBBBBBBBBBBBBBDD    ",
"      BBBBBBBBBBBBBBBBBBBBBBBBBBBBBBBBBBBBBBBBBBBBBBBBBBBBBBBBBBBBBBBBBBBBBBBBBBBBBBBBBBBBBBBBBBBBBBBBBBBBBBBBBBBBBBBBBBBBBBBBBBBBBBBBBBBBBBBBBBBBBBBBBBBBBBBBBBBBBBBBBBBBBBBBBBBBBBBBBBBBBBBBBBBBBBBBBBBBBBBBBBBBBBBBBBBBBBBBBBBBBBBBBBBBBBBBBBBBBBBBBBBBDD    ",
"      BBBBBBBBBBBBBBBBBBBBBBBBBBBBBBBBBBBBBBBBBBBBBBBBBBBBBBBBBBBBBBBBBBBBBBBBBBBBBBBBBBBBBBBBBBBBBBBBBBBBBBBBBBBBBBBBBBBBBBBBBBBBBBBBBBBBBBBBBBBBBBBBBBBBBBBBBBBBBBBBBBBBBBBBBBBBBBBBBBBBBBBBBBBBBBBBBBBBBBBBBBBBBBBBBBBBBBBBBBBBBBBBBBBBBBBBBBBBBBBBBBBBDD    ",
"      BBBBBBBBBBBBBBBBBBBBBBBBBBBBBBBBBBBBBBBBBBBBBBBBBBBBBBBBBBBBBBBBBBBBBBBBBBBBBBBBBBBBBBBBBBBBBBBBBBBBBBBBBBBBBBBBBBBBBBBBBBBBBBBBBBBBBBBBBBBBBBBBBBBBBBBBBBBBBBBBBBBBBBBBBBBBBBBBBBBBBBBBBBBBBBBBBBBBBBBBBBBBBBBBBBBBBBBBBBBBBBBBBBBBBBBBBBBBBBBBBBBBDD    ",
"      BBBBBBBBBBBBBBBBBBBBBBBBBBBBBBBBBBBBBBBBBBBBBBBBBBBBBBBBBBBBBBBBBBBBBBBBBBBBBBBBBBBBBBBBBBBBBBBBBBBBBBBBBBBBBBBBBBBBBBBBBBBBBBBBBBBBBBBBBBBBBBBBBBBBBBBBBBBBBBBBBBBBBBBBBBBBBBBBBBBBBBBBBBBBBBBBBBBBBBBBBBBBBBBBBBBBBBBBBBBBBBBBBBBBBBBBBBBBBBBBBBBBDD    ",
"      BBBBBBBBBBBBBBBBBBBBBBBBBBBBBBBBBBBBBBBBBBBBBBBBBBBBBBBBBBBBBBBBBBBBBBBBBBBBBBBBBBBBBBBBBBBBBBBBBBBBBBBBBBBBBBBBBBBBBBBBBBBBBBBBBBBBBBBBBBBBBBBBBBBBBBBBBBBBBBBBBBBBBBBBBBBBBBBBBBBBBBBBBBBBBBBBBBBBBBBBBBBBBBBBBBBBBBBBBBBBBBBBBBBBBBBBBBBBBBBBBBBBDD    ",
"      BBBBBBBBBBBBBBBBBBBBBBBBBBBBBBBBBBBBBBBBBBBBBBBBBBBBBBBBBBBBBBBBBBBBBBBBBBBBBBBBBBBBBBBBBBBBBBBBBBBBBBBBBBBBBBBBBBBBBBBBBBBBBBBBBBBBBBBBBBBBBBBBBBBBBBBBBBBBBBBBBBBBBBBBBBBBBBBBBBBBBBBBBBBBBBBBBBBBBBBBBBBBBBBBBBBBBBBBBBBBBBBBBBBBBBBBBBBBBBBBBBBBDD    ",
"      BBBBBBBBBBBBBBBBBBBBBBBBBBBBBBBBBBBBBBBBBBBBBBBBBBBBBBBBBBBBBBBBBBBBBBBBBBBBBBBBBBBBBBBBBBBBBBBBBBBBBBBBBBBBBBBBBBBBBBBBBBBBBBBBBBBBBBBBBBBBBBBBBBBBBBBBBBBBBBBBBBBBBBBBBBBBBBBBBBBBBBBBBBBBBBBBBBBBBBBBBBBBBBBBBBBBBBBBBBBBBBBBBBBBBBBBBBBBBBBBBBBBDD    ",
"      BBBBBBBBBBBBBBBBBBBBBBBBBBBBBBBBBBBBBBBBBBBBBBBBBBBBBBBBBBBBBBBBBBBBBBBBBBBBBBBBBBBBBBBBBBBBBBBBBBBBBBBBBBBBBBBBBBBBBBBBBBBBBBBBBBBBBBBBBBBBBBBBBBBBBBBBBBBBBBBBBBBBBBBBBBBBBBBBBBBBBBBBBBBBBBBBBBBBBBBBBBBBBBBBBBBBBBBBBBBBBBBBBBBBBBBBBBBBBBBBBBBBDD    ",
"      BBBBBBBBBBBBBBBBBBBBBBBBBBBBBBBBBBBBBBBBBBBBBBBBBBBBBBBBBBBBBBBBBBBBBBBBBBBBBBBBBBBBBBBBBBBBBBBBBBBBBBBBBBBBBBBBBBBBBBBBBBBBBBBBBBBBBBBBBBBBBBBBBBBBBBBBBBBBBBBBBBBBBBBBBBBBBBBBBBBBBBBBBBBBBBBBBBBBBBBBBBBBBBBBBBBBBBBBBBBBBBBBBBBBBBBBBBBBBBBBBBBBDD    ",
"        DDDDDDDDDDDDDDDDDDDDDDDDDDDDDDDDDDDDDDDDDDDDDDDDDDDDDDDDDDDDDDDDDDDDDDDDDDDDDDDDDDDDDDDDDDDDDDDDDDDDDDDDDDDDDDDDDDDDDDDDDDDDDDDDDDDDDDDDDDDDDDDDDDDDDDDDDDDDDDDDDDDDDDDDDDDDDDDDDDDDDDDDDDDDDDDDDDDDDDDDDDDDDDDDDDDDDDDDDDDDDDDDDDDDDDDDDDDDDDDDDDDD    ",
"        DDDDDDDDDDDDDDDDDDDDDDDDDDDDDDDDDDDDDDDDDDDDDDDDDDDDDDDDDDDDDDDDDDDDDDDDDDDDDDDDDDDDDDDDDDDDDDDDDDDDDDDDDDDDDDDDDDDDDDDDDDDDDDDDDDDDDDDDDDDDDDDDDDDDDDDDDDDDDDDDDDDDDDDDDDDDDDDDDDDDDDDDDDDDDDDDDDDDDDDDDDDDDDDDDDDDDDDDDDDDDDDDDDDDDDDDDDDDDDDDDDDD    ",
"                                                                                                                                                                                                                                                                ",
"                                                                                                                                                                                                                                                                ",
"                                                                                                                                                                                                                                                                ",
"                                                                                                                                                                                                                                                                "
};

