/* XPM */
static char *race_mini_xpm[] = {
"340 58 2 1",
"  c #0D0D1A",
"X c #FDE68A",
/* pixels */
"                                                                                                                                                                                                                                                                                                                                                    ",
"                                                                                                                                                                                                                                                                                                                                                    ",
"                                                                                                                                                                                                                                                                                                                                                    ",
"                                                                                                                                                                                                                                                                                                                                                    ",
"            XXXXXXXX    XXXXXXXXXX    XXXXXX    XXXXXXXXXX        XX      XX    XXXXXX    XX      XX  XXXXXXXX          XXXXXXXX      XXXXXX    XX      XX    XXXXXX    XX                XXXXXXXXXX    XXXXXX          XXXXXXXXXX  XX      XX  XXXXXXXXXX        XXXXXXXXXX    XXXXXX    XX      XX    XXXXXX      XXXXXX    XX      XX            ",
"            XXXXXXXX    XXXXXXXXXX    XXXXXX    XXXXXXXXXX        XX      XX    XXXXXX    XX      XX  XXXXXXXX          XXXXXXXX      XXXXXX    XX      XX    XXXXXX    XX                XXXXXXXXXX    XXXXXX          XXXXXXXXXX  XX      XX  XXXXXXXXXX        XXXXXXXXXX    XXXXXX    XX      XX    XXXXXX      XXXXXX    XX      XX            ",
"            XX      XX  XX          XX      XX      XX            XX      XX  XX      XX  XX      XX  XX      XX        XX      XX      XX      XX      XX  XX      XX  XX                    XX      XX      XX            XX      XX      XX  XX                XX              XX      XXXX    XX      XX      XX      XX  XX      XX            ",
"            XX      XX  XX          XX      XX      XX            XX      XX  XX      XX  XX      XX  XX      XX        XX      XX      XX      XX      XX  XX      XX  XX                    XX      XX      XX            XX      XX      XX  XX                XX              XX      XXXX    XX      XX      XX      XX  XX      XX            ",
"            XX      XX  XX          XX      XX      XX              XX  XX    XX      XX  XX      XX  XX      XX        XX      XX      XX      XX      XX  XX      XX  XX                    XX      XX      XX            XX      XX      XX  XX                XX              XX      XX  XX  XX      XX      XX          XX      XX            ",
"            XX      XX  XX          XX      XX      XX              XX  XX    XX      XX  XX      XX  XX      XX        XX      XX      XX      XX      XX  XX      XX  XX                    XX      XX      XX            XX      XX      XX  XX                XX              XX      XX  XX  XX      XX      XX          XX      XX            ",
"            XXXXXXXX    XXXXXXXX    XXXXXXXXXX      XX                XX      XX      XX  XX      XX  XXXXXXXX          XXXXXXXX        XX      XX      XX  XXXXXXXXXX  XX                    XX      XX      XX            XX      XXXXXXXXXX  XXXXXXXX          XXXXXXXX        XX      XX    XXXX      XX        XXXXXX    XXXXXXXXXX            ",
"            XXXXXXXX    XXXXXXXX    XXXXXXXXXX      XX                XX      XX      XX  XX      XX  XXXXXXXX          XXXXXXXX        XX      XX      XX  XXXXXXXXXX  XX                    XX      XX      XX            XX      XXXXXXXXXX  XXXXXXXX          XXXXXXXX        XX      XX    XXXX      XX        XXXXXX    XXXXXXXXXX            ",
"            XX      XX  XX          XX      XX      XX                XX      XX      XX  XX      XX  XX  XX            XX  XX          XX      XX      XX  XX      XX  XX                    XX      XX      XX            XX      XX      XX  XX                XX              XX      XX      XX      XX              XX  XX      XX            ",
"            XX      XX  XX          XX      XX      XX                XX      XX      XX  XX      XX  XX  XX            XX  XX          XX      XX      XX  XX      XX  XX                    XX      XX      XX            XX      XX      XX  XX                XX              XX      XX      XX      XX              XX  XX      XX            ",
"            XX      XX  XX          XX      XX      XX                XX      XX      XX  XX      XX  XX    XX          XX    XX        XX        XX  XX    XX      XX  XX                    XX      XX      XX            XX      XX      XX  XX                XX              XX      XX      XX      XX      XX      XX  XX      XX            ",
"            XX      XX  XX          XX      XX      XX                XX      XX      XX  XX      XX  XX    XX          XX    XX        XX        XX  XX    XX      XX  XX                    XX      XX      XX            XX      XX      XX  XX                XX              XX      XX      XX      XX      XX      XX  XX      XX            ",
"            XXXXXXXX    XXXXXXXXXX                  XX                XX        XXXXXX      XXXXXX    XX      XX        XX      XX    XXXXXX        XX                  XXXXXXXXXX            XX        XXXXXX              XX      XX      XX  XXXXXXXXXX        XX            XXXXXX    XX      XX    XXXXXX      XXXXXX    XX      XX            ",
"            XXXXXXXX    XXXXXXXXXX                  XX                XX        XXXXXX      XXXXXX    XX      XX        XX      XX    XXXXXX        XX                  XXXXXXXXXX            XX        XXXXXX              XX      XX      XX  XXXXXXXXXX        XX            XXXXXX    XX      XX    XXXXXX      XXXXXX    XX      XX            ",
"                                                                                                                                                                                                                                                                                                                                                    ",
"                                                                                                                                                                                                                                                                                                                                                    ",
"                                                                                                                                                                                                                                                                                                                                                    ",
"                                                                                                                                                                                                                                                                                                                                                    ",
"                                          XXXXXXXX      XXXXXX      XXXXXX      XXXXXX    XXXXXXXXXX    XXXXXX            XXXXXX      XXXXXX    XX      XX  XXXXXXXXXX        XXXXXXXXXX  XX      XX  XXXXXXXXXX  XXXXXXXX      XXXXXX            XXXXXX    XXXXXXXX    XXXXXXXXXX  XXXXXXXXXX  XXXXXXXX                                            ",
"                                          XXXXXXXX      XXXXXX      XXXXXX      XXXXXX    XXXXXXXXXX    XXXXXX            XXXXXX      XXXXXX    XX      XX  XXXXXXXXXX        XXXXXXXXXX  XX      XX  XXXXXXXXXX  XXXXXXXX      XXXXXX            XXXXXX    XXXXXXXX    XXXXXXXXXX  XXXXXXXXXX  XXXXXXXX                                            ",
"                                          XX      XX  XX      XX  XX      XX  XX      XX      XX      XX      XX        XX      XX      XX      XX      XX  XX                XX            XX  XX        XX      XX      XX  XX      XX        XX      XX  XX      XX  XX          XX          XX      XX                                          ",
"                                          XX      XX  XX      XX  XX      XX  XX      XX      XX      XX      XX        XX      XX      XX      XX      XX  XX                XX            XX  XX        XX      XX      XX  XX      XX        XX      XX  XX      XX  XX          XX          XX      XX                                          ",
"                                          XX      XX  XX      XX  XX      XX  XX              XX      XX                XX              XX      XX      XX  XX                XX              XX          XX      XX      XX  XX      XX        XX          XX      XX  XX          XX          XX      XX                                          ",
"                                          XX      XX  XX      XX  XX      XX  XX              XX      XX                XX              XX      XX      XX  XX                XX              XX          XX      XX      XX  XX      XX        XX          XX      XX  XX          XX          XX      XX                                          ",
"                                          XXXXXXXX    XX      XX  XX      XX    XXXXXX        XX        XXXXXX          XX    XXXX      XX      XX      XX  XXXXXXXX          XXXXXXXX        XX          XX      XXXXXXXX    XXXXXXXXXX          XXXXXX    XXXXXXXX    XXXXXXXX    XXXXXXXX    XX      XX                                          ",
"                                          XXXXXXXX    XX      XX  XX      XX    XXXXXX        XX        XXXXXX          XX    XXXX      XX      XX      XX  XXXXXXXX          XXXXXXXX        XX          XX      XXXXXXXX    XXXXXXXXXX          XXXXXX    XXXXXXXX    XXXXXXXX    XXXXXXXX    XX      XX                                          ",
"                                          XX      XX  XX      XX  XX      XX          XX      XX              XX        XX      XX      XX      XX      XX  XX                XX            XX  XX        XX      XX  XX      XX      XX                XX  XX          XX          XX          XX      XX                                          ",
"                                          XX      XX  XX      XX  XX      XX          XX      XX              XX        XX      XX      XX      XX      XX  XX                XX            XX  XX        XX      XX  XX      XX      XX                XX  XX          XX          XX          XX      XX                                          ",
"                                          XX      XX  XX      XX  XX      XX  XX      XX      XX      XX      XX        XX      XX      XX        XX  XX    XX                XX          XX      XX      XX      XX    XX    XX      XX        XX      XX  XX          XX          XX          XXXXXXXX                                            ",
"                                          XX      XX  XX      XX  XX      XX  XX      XX      XX      XX      XX        XX      XX      XX        XX  XX    XX                XX          XX      XX      XX      XX    XX    XX      XX        XX      XX  XX          XX          XX          XXXXXXXX                                            ",
"                                          XXXXXXXX      XXXXXX      XXXXXX      XXXXXX        XX        XXXXXX            XXXXXX      XXXXXX        XX      XXXXXXXXXX        XXXXXXXXXX                  XX      XX      XX                      XXXXXX    XX          XXXXXXXXXX  XXXXXXXXXX                                                      ",
"                                          XXXXXXXX      XXXXXX      XXXXXX      XXXXXX        XX        XXXXXX            XXXXXX      XXXXXX        XX      XXXXXXXXXX        XXXXXXXXXX                  XX      XX      XX                      XXXXXX    XX          XXXXXXXXXX  XXXXXXXXXX                                                      ",
"                                                                                                                                                                                                                                                                                                                                                    ",
"                                                                                                                                                                                                                                                                                                                                                    ",
"                                                                                                                                                                                                                                                                                                                                                    ",
"                                                                                                                                                                                                                                                                                                                                                    ",
"                                                      XXXXXXXX      XXXXXX    XX      XX    XXXXXX    XX      XX    XXXXXX      XXXXXX            XXXXXX    XXXXXXXX      XXXXXX    XX      XX        XX      XX    XXXXXX    XX      XX  XXXXXXXX            XXXXXX      XXXXXX    XXXXXXXX                                                        ",
"                                                      XXXXXXXX      XXXXXX    XX      XX    XXXXXX    XX      XX    XXXXXX      XXXXXX            XXXXXX    XXXXXXXX      XXXXXX    XX      XX        XX      XX    XXXXXX    XX      XX  XXXXXXXX            XXXXXX      XXXXXX    XXXXXXXX                                                        ",
"                                                      XX      XX  XX      XX  XXXX    XX  XX      XX  XXXX    XX  XX      XX  XX      XX        XX      XX  XX      XX      XX      XXXX    XX        XX      XX  XX      XX  XX      XX  XX      XX        XX      XX  XX      XX  XX      XX                                                      ",
"                                                      XX      XX  XX      XX  XXXX    XX  XX      XX  XXXX    XX  XX      XX  XX      XX        XX      XX  XX      XX      XX      XXXX    XX        XX      XX  XX      XX  XX      XX  XX      XX        XX      XX  XX      XX  XX      XX                                                      ",
"                                                      XX      XX  XX      XX  XX  XX  XX  XX      XX  XX  XX  XX  XX      XX  XX                XX          XX      XX      XX      XX  XX  XX          XX  XX    XX      XX  XX      XX  XX      XX        XX          XX      XX  XX      XX                                                      ",
"                                                      XX      XX  XX      XX  XX  XX  XX  XX      XX  XX  XX  XX  XX      XX  XX                XX          XX      XX      XX      XX  XX  XX          XX  XX    XX      XX  XX      XX  XX      XX        XX          XX      XX  XX      XX                                                      ",
"                                                      XXXXXXXX    XXXXXXXXXX  XX    XXXX  XXXXXXXXXX  XX    XXXX  XXXXXXXXXX    XXXXXX            XXXXXX    XXXXXXXX        XX      XX    XXXX            XX      XX      XX  XX      XX  XXXXXXXX          XX          XXXXXXXXXX  XXXXXXXX                                                        ",
"                                                      XXXXXXXX    XXXXXXXXXX  XX    XXXX  XXXXXXXXXX  XX    XXXX  XXXXXXXXXX    XXXXXX            XXXXXX    XXXXXXXX        XX      XX    XXXX            XX      XX      XX  XX      XX  XXXXXXXX          XX          XXXXXXXXXX  XXXXXXXX                                                        ",
"                                                      XX      XX  XX      XX  XX      XX  XX      XX  XX      XX  XX      XX          XX                XX  XX              XX      XX      XX            XX      XX      XX  XX      XX  XX  XX            XX      XX  XX      XX  XX  XX                                                          ",
"                                                      XX      XX  XX      XX  XX      XX  XX      XX  XX      XX  XX      XX          XX                XX  XX              XX      XX      XX            XX      XX      XX  XX      XX  XX  XX            XX      XX  XX      XX  XX  XX                                                          ",
"                                                      XX      XX  XX      XX  XX      XX  XX      XX  XX      XX  XX      XX  XX      XX        XX      XX  XX              XX      XX      XX            XX      XX      XX  XX      XX  XX    XX            XXXXXX    XX      XX  XX    XX                                                        ",
"                                                      XX      XX  XX      XX  XX      XX  XX      XX  XX      XX  XX      XX  XX      XX        XX      XX  XX              XX      XX      XX            XX      XX      XX  XX      XX  XX    XX            XXXXXX    XX      XX  XX    XX                                                        ",
"                                                      XXXXXXXX                XX      XX              XX      XX                XXXXXX            XXXXXX    XX            XXXXXX    XX      XX            XX        XXXXXX      XXXXXX    XX      XX                                XX      XX                                                      ",
"                                                      XXXXXXXX                XX      XX              XX      XX                XXXXXX            XXXXXX    XX            XXXXXX    XX      XX            XX        XXXXXX      XXXXXX    XX      XX                                XX      XX                                                      ",
"                                                                                                                                                                                                                                                                                                                                                    ",
"                                                                                                                                                                                                                                                                                                                                                    ",
"                                                                                                                                                                                                                                                                                                                                                    ",
"                                                                                                                                                                                                                                                                                                                                                    ",
};
