/* XPM */
static char *car_blue_06_s1[] = {
/* columns rows colors chars-per-pixel */
"64 64 27 1 ",
"  c #FF00FF",
". c #010000",
"X c #252923",
"o c #2D342B",
"O c #282936",
"+ c #37442E",
"@ c #3A4338",
"# c #141A50",
"$ c #162065",
"% c #1B2078",
"& c #22286F",
"* c #444B43",
"= c #55614C",
"- c #1E2285",
"; c #1B2595",
": c #272D87",
"> c #2D339B",
", c #2335AB",
"< c #3433AB",
"1 c #3023B8",
"2 c #2D34B8",
"3 c #3736BD",
"4 c #453DA9",
"5 c #2830C7",
"6 c #2730D2",
"7 c #3C40CF",
"8 c #B5B6D8",
/* pixels */
"                                                                ",
"                                                                ",
"                                                                ",
"                     ......................                     ",
"                    .7<<-55555555555555;251.                    ",
"                   .%----666666#$666666;;;;,.                   ",
"                  .%-888;;666666666666;;888;;.                  ",
"                  .-----6;666666666666;5----,.                  ",
"                  .-66666;666666666666;666661.                  ",
"                 .-666666;666666666666;6666661.                 ",
"                 .-6666666;6666666666;6666666,.                 ",
"                 .-6666666;6666666666;6666666,.                 ",
"                .-66666666;;;;;;;;;;;;66666666;.                ",
"                .;66666666;5555222333;;6666666;.                ",
"                .;6666666..............6666666;.                ",
"                .;66666..@@@@@@@@@+++@@..66666;.                ",
"                .;6666.@@@@@@@@@@@@@@@===.6666;.                ",
"                .>666.@@@@@@@@@@@@@@======.666;.                ",
"                .;66;.@@@@@@@@@@@@@=======.,66;.                ",
"                .;;.7.@@@@@@@@@@+@@=======.7.;;.                ",
"                 .>.77.@@@@@@@@++@=======.77.;.                 ",
"                ..>..7.@@@@@@@@++========.7..;#.                ",
"               .>><..77.@@@@@@+++=======.77..;>>.               ",
"               .<...o.7.@@@..........===.7.*...<.               ",
"               ...>@..66...6666666556...67..@>...               ",
"                 .>@.@.666666666666666666.*.@>.                 ",
"                 .>@.@.666666666666666666.@.@>.                 ",
"                 .>@.@.666666666666666666.*.@>.                 ",
"                 .>@.@.666666666666666666.*.@>.                 ",
"                 .>@.@.666666666666666666.*.@>.                 ",
"                 .>@.@.666666666666666666.*.@>.                 ",
"                 .>@.@.666666666666666666.*.@>.                 ",
"                 .>@.@.666666666666666666.*.@>.                 ",
"                 .>@.*.666666666666666666.@.@>.                 ",
"                 .>@.@.666666666666666666.*.@>.                 ",
"                 .>@..56666666666666666661..@>.                 ",
"                 .:;;;%666666666666666666#:::>.                 ",
"                 .::OOX666666666666666666...>>.                 ",
"                 .;.++.666666666666666666.++.>.                 ",
"                 .;X++.66------%%%%%%--66.++.>.                 ",
"                 .;X++.66%............-66.++.;.                 ",
"                 .;....56%$;;;;;;;;,,#-66....;.                 ",
"                .-;5566-6%$;;;;;;;;;,#-6;5566;-.                ",
"                .;;5666;6%%;33333333,#-6;6666;-.                ",
"                .;;6666;6%%,########2--6;666;;-.                ",
"                .;;6666;6%;11,,,,,,,22-6;666;;-.                ",
"                .;;6666;6%;11122222222-6;6666;-.                ",
"                .;;6666;6-;##########3-6;6666;-.                ",
"                .;5;;;;;6-,;;;;;;;;;;3-5;;;;;7;.                ",
"                .;5556666-522222232333-5553777;.                ",
"                .;5556666-5##########3-5533373;.                ",
"                .;5556666-5;;;;;;;;;;5-5535553;.                ",
"                .;5OOOX66;655555555555-55OOOO3;.                ",
"                .:5.XOO66-;;;;;>>>>,,,-53OOOO1-.                ",
"                 .:..........................<.                 ",
"                 .>.333333333333333333333337.>.                 ",
"                 .>.333333333333333333333337.>.                 ",
"                 .>.333333333333333333333337.>.                 ",
"                 .>..........................>.                 ",
"                  ..4##4%.OOOOO#######.&4##:..                  ",
"                   ...... ............ ......                   ",
"                                                                ",
"                                                                ",
"                                                                "
};
