/* XPM */
static char *blossom_branch_xpm[] = {
"64 64 22 1",
"a c #FF00FF",
"b c #F7D5AB",
"c c #EBC499",
"d c #E3C0B9",
"e c #D6AA83",
"f c #9DBA68",
"g c #8B944C",
"h c #CC9378",
"i c #B48A64",
"j c #A67C58",
"k c #818078",
"l c #788746",
"m c #8F6B57",
"n c #83634B",
"o c #79543C",
"p c #6A653F",
"q c #555B3D",
"r c #6A4933",
"s c #583A27",
"t c #472E1D",
"u c #322012",
"v c #000000",
/* pixels */
"aaaaaaaaaaaaaaaaaaaaaaaaaaaaaaaaaaaaaaaaaaaaaaaaaaaaaaaaaaaaaaaa",
"aaaaaaaaaaaaaaaaaaaaaaaaaaaaaaaaaaaaaaaaaaaaaaaaaaaaaaaaaaaaaaaa",
"aaaaaaaaaaaaaaaaaaaaaaaaaaaaaaaaaaaaaaaaaaaaaaaaaaaaaaaaaaaaaaaa",
"aaaaaaaaaaaaaaaaaaaaaaaaaaaaaaaaaaaaaaaaaaaaaaaaaaaaaaaaaaaaaaaa",
"aaaaaaaaaaaaaaaaaaaaaaaaaaaaaaaaaaaaaaaaaaaaaaaaaaaaaaaaaaaaaaaa",
"aaaaaaaaaaaaaaaaaaaaaaaaaaaaaaaaaaaaaaaaaaaaaaaaaaaaaaaaaaaaaaaa",
"aaaaaaaaaaaaaaaaaaaaaaaaaaaaaaaaaaaavvvaaaaaaaaaaaaaaaaaaaaaaaaa",
"aaaaaaaaaaaaaaaaaaaaaaaaaaaaaaaaaaaavllvaaaavvvaaaaaaaaaaaaaaaaa",
"aaaaaaaaaaaaaaaaaaaaaaaaaaaaaaaaaaaavllgvaavggvaaaaaaaaaaaaaaaaa",
"aaaaaaaaaaaaaaaaaaaaaaaaaaaaaaaaaaaaavllvavvggvaaaaaaaaaaaaaaaaa",
"aaaaaaaaaaaaaaaaaaaaaaaaaaaaaaaaaaaaaavvqvsvvvaaaaaaaaaaavvvvaaa",
"aaaaaaaaaaaaaaaaaaaaaaaaaaaaaaaaaaaaaaaavbvaaaaaaaaaaaaavtttvaaa",
"aaaaaaaaaaaaaaaaaaaaaaaaaaaaaaaaaaaaaavssvaaaaaaaaaaaavvtttvaaaa",
"aaaaaaaaaaaaaaaaaaaaaaaaaaaaaaaaaaaaaavsvvvvaaaaaaaaavssttvaaaaa",
"aaaaaaaaaaaaaaaaaaaaaaaaaaaaaavvaaaaavsvvpppvaaaaaavvsrttvaaaaaa",
"aaaaaaaaaaaaaaaaaaaaaaaaaaaaaavgvaaaavsvvppvaaaaavvrrrttvaaaaaaa",
"aaaaaaaaaaaaaaaaaaaaaaaaaaaaaavvlvaavrrvavvaaaaavsrrrttvaaaaaaaa",
"aaaaaaaaaaaaaaaaaaaaaaaaaaaavvlvlvavsrrvaaaaaaavsrrtttvaaaaaaaaa",
"aaaaaaaaaaaaaaaaaaaaaaaaaaaavllvlpavrrvaaaaaavvsrrtttvaaaaaaaaaa",
"aaaaaaaaaaaaaaaaaaaaaaaaaaaaavvavpvrrvaaaaavvssrrtuvvaaaaaaaaaaa",
"aaaaaaaaaaaaaaaaaaaaaaaaaaaaaaaaavvrsvaaaavooostttvaaaaaaavvaaaa",
"aaaaaaaaaaaaaaaaaaaaaaaaaaaaaaaaavsrsvaavvoosootvvkaaaavvvstaaaa",
"aaaaaaaaaaaaaaaaaaaaaaaaaaaaaaaaavrstvavtoosottvvvvvvvvsstsvaaaa",
"aaaaaaaaaaaaaaaaaaaaaaaaaaaaaaaaavostvvtoosottsssssssssrtvvaaaaa",
"aaaaaaaaaaaaaaaaaaaaaaaaaaaaaaaavoostttosstttttuuuuuuuttvvaaaaaa",
"aaaaaaaaaaaaaaaaaaaaaaaaaaaaaaaavoottotottstttvvvvvvvvvvaaaaaaaa",
"aaaaaaaaaaaaaaaaaaaaaaaaaaaaaaavsootootttuuutvaaaaaaaaaaaaaaaaaa",
"aaaaaaaaaaaaaaaaaaaaaaaaaaaaaaavsotoosttuvuvvaaaaaaaaaaaaaaaaaaa",
"aaaaaaaaaaaaaaaaaaaaaaaaaaaaaavsotoototuuvvaaaaaaaaaaaaaaaaaaaaa",
"aaaaaaaaaaaaaaaaaaaaaaaaaaaaavssoootrtuuvvaaaaaaaaaaaaaaaaaaaaaa",
"aaaaaaaaaaaaaaaaaaaaaaaaaaavvssoootssuuvaaaaaaaaaaaaaaaaaaaaaaaa",
"aaaaaaaaaaaaaaaaaaaaaaaaavvssooooossuuvaaaaaaaaaaaaavvaaaaaaaaaa",
"aaaaaaaaaaaaaaaaaaaaaaaavtssooooossuuuvaaaaaaaaaaaavfvaaaaaaaaaa",
"aaaaaaaaaaaaaaaaaaaaaavvtssoooossuuuuvaaaaaaaaaaaavvfvaaaaaaaaaa",
"aaaaaaaaaaaaaaaaaaaavvsssooosssuuuuuvaaaaaaaaaaaaavnvaaaaaavaaaa",
"aaaaaaaaaaaaaaaaaavvrssnnsssssuuuvvvaaaaaaaaaaaaaavtvvvvavvaaaaa",
"aaaaaaaaaaaaaaaavvrrrsiisssssvuuuuuuvvaaaaaaaaaaavvtttttvggvaaaa",
"aaaaaaaaaaaaaavvrrrrrdsjssuvvurooorrtsvvvvaaaavvvtttvvvvavggvaaa",
"aaaaaaaaaaaavvrrrurddjjrruuutrtttsssssssssvvvvtttsvvaaaaaavvvaaa",
"aaaaaaaaavvvsrrrrrmddrrruuuuttuuuuusssusssssstssvvaaaaaaaaaaaaaa",
"aaaaaaaavvsssrrorurrurruuustuuuuuuuuutttsssssvvvaaaaaaaaaaaaaaaa",
"aaaaaaavssssssoouruusuuuusouuuuvvvvvvvvvvvuusssvvvvvaaaaaaaaaaaa",
"aaaaaavshtsssoouuutsussssuuuuvvvaaaaaaaaavvvusssstssvaaaaaaaaaaa",
"aaaaaavhmbtoouuuttsussuuuuuvvaaaaaaaaaaaaaaavvvvvvvvvaaaaaaaaaaa",
"aaaaaavhmjbuttrttuussuuuuuvaaaaaaaaaaaaaaaavgvaaaavlvaaaaaaaaaaa",
"aaaaavemhjjmtrruuusuuuuuvvaaaaaaaaaaaaaaaaavggvaaavllvaaaaaaaaaa",
"aaaaavimhmjjtruuusuuuuuvaaaaaaaaaaaaaaaaaaaavgvaaaavlvaaaaaaaaaa",
"aaaaajiimoejtuuuuuuuuvvaaaaaaaaaaaaaaaaaaaaaavvaaaaavvaaaaaaaaaa",
"aaaaaviimooojuuuuuuvvaaaaaaaaaaaaaaaaaaaaaaaaaaaaaaaaaaaaaaaaaaa",
"aaaaaviijjjoocuuuuvaaaaaaaaaaaaaaaaaaaaaaaaaaaaaaaaaaaaaaaaaaaaa",
"aaaaaaviojooeuuuuvaaaaaaaaaaaaaaaaaaaaaaaaaaaaaaaaaaaaaaaaaaaaaa",
"aaaaaavijojoeuuuvaaaaaaaaaaaaaaaaaaaaaaaaaaaaaaaaaaaaaaaaaaaaaaa",
"aaaaaavvjjoetuvvaaaaaaaaaaaaaaaaaaaaaaaaaaaaaaaaaaaaaaaaaaaaaaaa",
"aaaaaaaavjiitvaaaaaaaaaaaaaaaaaaaaaaaaaaaaaaaaaaaaaaaaaaaaaaaaaa",
"aaaaaaaaaviivaaaaaaaaaaaaaaaaaaaaaaaaaaaaaaaaaaaaaaaaaaaaaaaaaaa",
"aaaaaaaaaavvaaaaaaaaaaaaaaaaaaaaaaaaaaaaaaaaaaaaaaaaaaaaaaaaaaaa",
"aaaaaaaaaaaaaaaaaaaaaaaaaaaaaaaaaaaaaaaaaaaaaaaaaaaaaaaaaaaaaaaa",
"aaaaaaaaaaaaaaaaaaaaaaaaaaaaaaaaaaaaaaaaaaaaaaaaaaaaaaaaaaaaaaaa",
"aaaaaaaaaaaaaaaaaaaaaaaaaaaaaaaaaaaaaaaaaaaaaaaaaaaaaaaaaaaaaaaa",
"aaaaaaaaaaaaaaaaaaaaaaaaaaaaaaaaaaaaaaaaaaaaaaaaaaaaaaaaaaaaaaaa",
"aaaaaaaaaaaaaaaaaaaaaaaaaaaaaaaaaaaaaaaaaaaaaaaaaaaaaaaaaaaaaaaa",
"aaaaaaaaaaaaaaaaaaaaaaaaaaaaaaaaaaaaaaaaaaaaaaaaaaaaaaaaaaaaaaaa",
"aaaaaaaaaaaaaaaaaaaaaaaaaaaaaaaaaaaaaaaaaaaaaaaaaaaaaaaaaaaaaaaa",
"aaaaaaaaaaaaaaaaaaaaaaaaaaaaaaaaaaaaaaaaaaaaaaaaaaaaaaaaaaaaaaaa"
};
