/* XPM */
static char *blossom_stump_xpm[] = {
"64 64 25 1",
"a c #FF00FF",
"b c #F7E4DF",
"c c #EFCBCC",
"d c #E3C0B9",
"e c #F5BAC8",
"f c #F2AFBE",
"g c #D6AA83",
"h c #EEA3B9",
"i c #CC9378",
"j c #C09D99",
"k c #B48A64",
"l c #A67C58",
"m c #A5847A",
"n c #818078",
"o c #D57895",
"p c #CB6C8B",
"q c #AC5375",
"r c #8F6B57",
"s c #83634B",
"t c #79543C",
"u c #6A4933",
"v c #583A27",
"w c #472E1D",
"x c #322012",
"y c #000000",
/* pixels */
"aaaaaaaaaaaaaaaaaaaaaaaaaaaaaaaaaaaaaaaaaaaaaaaaaaaaaaaaaaaaaaaa",
"aaaaaaaaaaaaaaaaaaaaaaaaaaaaaaaaaaaaaaaaaaaaaaaaaaaaaaaaaaaaaaaa",
"aaaaaaaaaaaaaaaaaaaaaaaaaaaaaaaaaaaaaaaaaaaaaaaaaaaaaaaaaaaaaaaa",
"aaaaaaaaaaaaaaaaaaaaaaaaaaaaaaaaaaaaaaaaaaaaaaaaaaaaaaaaaaaaaaaa",
"aaaaaaaaaaaaaaaaaaaaaaaaaaaaaaaaaaaaaaaaaaaaaaaaaaaaaaaaaaaaaaaa",
"aaaaaaaaaaaaaaaaaaaaaaaaaaaaaaaaaaaaaaaaaaaaaaaaaaaaaaaaaaaaaaaa",
"aaaaaaaaaaaaaaaaaaaaaaaaaaaaaaaaaaaaaaaaaaaaaaaaeeaaaaaaaaaaaaaa",
"aaaaaaaaaaaaaaaaaaaaaaaaaaaaaaaaaaaaaaaaaaaaaaaffeeaaaaaaaaaaaaa",
"aaaaaaaaaaaaaaaaaaaaaaaaaaaaaaaaaaaaaaaaaaaaaaffpoeeaaaaaaaaaaaa",
"aaaaaaaaaaaaaaaaaaaaaaaaaaaaaaaaaaaaaaaaaaaaaaffpffaaaaaaaaaaaaa",
"aaaaaaaaaaaaaaaaaaaaaaaaaaaaaaaaaaaaaaaaaaaaaaaefffaaaaaaaaaaaaa",
"aaaaaaaaaaaaaaaaaaaaaaaaaaaaaaaaaaaaaaaaaeeaaaaaxxaaaeeeaaaaaaaa",
"aaaaaaaaaaaaaaaaaaaaaaaaaaaaaaaaaaaaaaaaefefaaaaxfaaaeeeeaaaaaaa",
"aaaaaaaaaaaaaaaaaaaaaaaaaaaaaaaaaaaaaaaafemeeaaxxffaeeooeeaaaaaa",
"aaaaaaaaaaaaaaaaaaaaaaaaaaaaaaaaaaaaaaaaaemffaaxhqfeeeofeaaaaaaa",
"aaaaaaaaaaaaaaaaaaaaaaaaaaaaaaaaaaaaaaaaaecwwxaxqqbaxxffaaaaaaaa",
"aaaaaaaaaaaaaaaaaaaaaaaaaaaaaaaaaaaaaaaaacccjxxxbbbxxaffaaaaaaaa",
"aaaaaaaaaaaaaaaaaaaaaaaaaaaaaaaaaaaaaaaaaaccjaxxwwbxxaaaaaaaaaaa",
"aaaaaaaaaaaaaaaaaaaaaaaaaaaaaaaaaaaaaaaaaaaiaaaxsvxxaaaaaaaaaaaa",
"aaaaaaaaaaaaaaaaaaaaaaaaaayyyyyyyyyyaaaaaaaaaaaayvxaacaeeaaaaaaa",
"aaaaaaaaaaaaaaaaaaaaaayyyyggggggggllyyyyaaaaaaaayvxaacxfeaaaaaaa",
"aaaaaaaaaaaaaaaaaaaayylkiillllllllggllllyyaaaanayvxaaxdxeeaaaaaa",
"aaaaaaaaaaaaaaaaaaaysllilllggggggglllgglllyaaaayvvxxxxxeeaaaaaaa",
"aaaaaaaaaaaaaaaaaayrggllggglllllllggglllgglyaaayvxxxaaaeeaaaaaaa",
"aaaaaaaaaaaaaaaaaywgglggglllgggggllllggglggxyaayvxaaaaaaaaaaaaaa",
"aaaaaaaaaaaaaaaaaywggllgglllllllllllgggllggxyaayvxawfaaaaaaaaaaa",
"aaaaaaaaaaaaaaaaaywsggllggglllllllggglllggxxyayvvxxhffaaaaaaaaaa",
"aaaaaaaaaaaaaaaaaywxtgglllllggggggllllgggxxyyywvyaaafaaaaaaaaaaa",
"aaaaaaaaaaaaaaaaaywxxwggggllllllllllggkwxxxywwwyaaaaaaaaaaaaaaaa",
"aaaaaaaaaaaaaaaaayvxxxxxxxgggggggggglwxwxxwxwwyaaaaaaaaaaaaaaaaa",
"aaaaaaaaaaaaaaaaayvxxvxxxxvvvvuuuuuvwwxwxxwwwwyaaaaaaaaaaaaaaaaa",
"aaaaaaaaaaaaaaaaayvxvtvvxxvxxxxxxxxxvwxwxxwwwyaaaaaaaaaaaaaaaaaa",
"aaaaaaaaaaaaaaaaayvtvtvvxvvwwxxxxxxxtvxwxxwwwyaaaaaaaaaaaaaaaaaa",
"aaaaaaaaaaaaaaaaayvtvtvvxvtwwxxxxxxxtvxxxxwwyyaaaaaaaaaaaaaaaaaa",
"aaaaaaaaaaaaaaaayxvtvtvvxvtvvxxxxxxxttxxxxwwxyaaaaaaaaaaaaaaaaaa",
"aaaaaaaaaaaaaaaayxvtvtvvxvttvvxxxxxxtttxxxwwxyaaaaaaaaaaaaaaaaaa",
"aaaaaaaaaaaaaaaaywwtvtvvxvttvvxxxxwxwttxxxxwxyaaaaaaaaaaaaaaaaaa",
"aaaaaaaaaaaaaaaaywvtvtxvxvttvvxxxxwxwwtvxxxwxyaaaaaaaaaaaaaaaaaa",
"aaaaaaaaaaaaaaayxwvttvxvxvttvvxxxxwxwwtvxxxwxxyaaaaaaaaaaaaaaaaa",
"aaaaaaaaaaaaaayxwwtttvwvxvtttvxxxvxxwwttwxxxwxxyaaaaaaaaaaaaaaaa",
"aaaaaaaaaaaayyxwwttttxwxvvtvtvvxxvxxwwwtwxxxwxxyaaaaaaaaaaaaaaaa",
"aaaaaaaaaaayxxxwttwttxxxvttvtvvxxvxxxwwtwxxxxxxxyaaaaaaaaaaaaaaa",
"aaaaaaaaaayxwwyvtwtttxxxvttvtvvxxvxxvxwwwxxxxxxxxyaaaaaaaaaaaaaa",
"aaaaaaaaaayyyyvutwtvxxxxvtvvtxvxxvvxvxwwwxyxxxxxxxyaaaaaaaaaaaaa",
"aaaaaaaaaaaayvuuvwuvxxxxvtvvtxvxxvvywxwwwxyxxxxxxxxyaaaaaaaaaaaa",
"aaaaaaaaaaayuuuvyvuxxxxvtvvvtxvxxxvywxxwwwyyyxxxxxxxyaaaaaaaaaaa",
"aaaaaaaaaayvuuvyxxxxxxxvtvvvxvvxxxxvxxxwwwywyxxxxxxxxyyaaaaaaaaa",
"aaaaaaaayyvuuyyxxxxxxxxvttvvxvxxxxxvvxxxwwwwyyyyyyxxxxyaaaaaaaaa",
"aaaaaaaywwuwxxxxxyyyxxxvttvxxvxxxxxxxxxxxxwwwyaaaayyyyyaaaaaaaaa",
"aaaaaaayyyyyyyyyyaaayyxvtvvxxvxxxxxxxxxxxxwwxyaaaaaaaaaaaaaaaaaa",
"aaaaaaaaaaaaaaaaaaaaayxvtvvxxxxxyyxxxxxxxxxxxyaaaaaaaaaaaaaaaaaa",
"aaaaaaaaaaaaaaaaaaaaayvvttvxxxxyaayxxxxxxxxxxxyaaaaaaaaaaaaaaaaa",
"aaaaaaaaaaaaaaaaaaaaayvvtxxxxxyaaaayyyyxxxxxxxxyaaaaaaaaaaaaaaaa",
"aaaaaaaaaaaaaaaaaaaaayvvxxxxyyaaaaaaaaayyyxxxxxxyaaaaaaaaaaaaaaa",
"aaaaaaaaaaaaaaaaaaaayvvxxxxyaaaaaaaaaaaaaayyyyxxxyaaaaaaaaaaaaaa",
"aaaaaaaaaaaaaaaaaaaayvvxxyyaaaaaaaaaaaaaaaaaaayyyyaaaaaaaaaaaaaa",
"aaaaaaaaaaaaaaaaaaaayvwxyaaaaaaaaaaaaaaaaaaaaaaaaaaaaaaaaaaaaaaa",
"aaaaaaaaaaaaaaaaaaaayyyyaaaaaaaaaaaaaaaaaaaaaaaaaaaaaaaaaaaaaaaa",
"aaaaaaaaaaaaaaaaaaaaaaaaaaaaaaaaaaaaaaaaaaaaaaaaaaaaaaaaaaaaaaaa",
"aaaaaaaaaaaaaaaaaaaaaaaaaaaaaaaaaaaaaaaaaaaaaaaaaaaaaaaaaaaaaaaa",
"aaaaaaaaaaaaaaaaaaaaaaaaaaaaaaaaaaaaaaaaaaaaaaaaaaaaaaaaaaaaaaaa",
"aaaaaaaaaaaaaaaaaaaaaaaaaaaaaaaaaaaaaaaaaaaaaaaaaaaaaaaaaaaaaaaa",
"aaaaaaaaaaaaaaaaaaaaaaaaaaaaaaaaaaaaaaaaaaaaaaaaaaaaaaaaaaaaaaaa",
"aaaaaaaaaaaaaaaaaaaaaaaaaaaaaaaaaaaaaaaaaaaaaaaaaaaaaaaaaaaaaaaa"
};
