/* XPM */
static char *blossom_log_xpm[] = {
"64 64 11 1",
"a c #FF00FF",
"b c #B48A64",
"c c #8F6B57",
"d c #6A653F",
"e c #83634B",
"f c #79543C",
"g c #6A4933",
"h c #583A27",
"i c #472E1D",
"j c #322012",
"k c #000000",
/* pixels */
"aaaaaaaaaaaaaaaaaaaaaaaaaaaaaaaaaaaaaaaaaaaaaaaaaaaaaaaaaaaaaaaa",
"aaaaaaaaaaaaaaaaaaaaaaaaaaaaaaaaaaaaaaaaaaaaaaaaaaaaaaaaaaaaaaaa",
"aaaaaaaaaaaaaaaaaaaaaaaaaaaaaaaaaaaaaaaaaaaaaaaaaaaaaaaaaaaaaaaa",
"aaaaaaaaaaaaaaaaaaaaaaaaaaaaaaaaaaaaaaaaaaaaaaaaaaaaaaaaaaaaaaaa",
"aaaaaaaaaaaaaaaaaaaaaaaaaaaaaaaaaaaaaaaaaaaaaaaaaaaaaaaaaaaaaaaa",
"aaaaaaaaaaaaaaaaaaaaaaaaaaaaaaaaaaaaaaaaaaaaaaaaaaaaaaaaaaaaaaaa",
"aaaaaaaaaaaaaaaaaaaaaaaaaaaaaaaaaaaaaaaaaaaaaaaaaaaaaaaaaaaaaaaa",
"aaaaaaaaaaaaaaaaaaaaaaaaaaaaaaaaaaaaaaaaaaaaaaaaaaaaaaaaaaaaaaaa",
"aaaaaaaaaaaaaaaaaaaaaaaaaaaaaaaaaaaaaaaaaaaaaaaaaaaaaaaaaaaaaaaa",
"aaaaaaaaaaaaaaaaaaaaaaaaaaaaaaaaaaaaaaaaaaaaaaaaaaaaaaaaaaaaaaaa",
"aaaaaaaaaaaaaaaaaaaaaaaaaaaaaaaaakkaaaaaaaaaaaaaaaaaaaaaaaaaaaaa",
"aaaaaaaaaaaaaaaaaaaaaaaaaaaaaaaakgkaaaaaaaaaaaaaaaaaaaaaaaaaaaaa",
"aaaaaaaaaaaaaaaaaaaaaaaaaaaaaakkhgkaaaaaaaaaaaaaaaaaaaaaaaaaaaaa",
"aaaaaaaaaaaaaaaaaaaaaaaaaaaaakbbgkaaaaaaaaaaaaaaaaaaaaaaaaaaaaaa",
"aaaaaaaaaaaaaaaaaaaaaaaaaaakkbbhhkaaaaaaaaaaaaaaaaaaaaaaaaaaaaaa",
"aaaaaaaaaaaaaaaaaaaaaaaaaakeebhhkaaaaaaaaaaaaaakkkkaaaaaaaaaaaaa",
"aaaaaaaaaaaaaaaaaaaaaaaaaakeebhhkaaaaaaaaaaaaakiiihkaaaaaaaaaaaa",
"aaaaaaaaaaaaaaaaaaaaaaaaakgffhhjkaaaaaaaaaaakkiiffkaaaaaaaaaaaaa",
"aaaaaaaaaaaaaaaaaaaaaaaaakgffhjjkaaaaaaaaakkiiigfkkaaaaaaaaaaaaa",
"aaaaaaaaaaaaaaaaaaaaaaaakgffhhjjkaaaaaaakkjiiggikgkkaaaaaaaaaaaa",
"aaaaaaaaaaaaaaaaaaaaaaaakgffhhjjjkaaaakkjjigggjgggggkaaaaaaaaaaa",
"aaaaaaaaaaaaaaaaaaaaaaakgfffhhjjjjkkkkjjjigijjgggggikaaaaaaaaaaa",
"aaaaaaaaaaaaaaaaaaaaaaakghfhjhjjjjjjjjjjigijgggggiikkkkaaaaaaaaa",
"aaaaaaaaaaaaaaaaaaaaaaakhhhhhjjjjjjjjjjggjjgfgggikkffffkaaaaaaaa",
"aaaaaaaaaaaaaaaaaaaaaakhhehjgjjjjjhhjgggjgfffggikfffhhhkaaaaaaaa",
"aaaaaaaaaaaaaaaaaaaaaakhggjggjjjhhhjggjjgffjhijjffhhhhhjkaaaaaaa",
"aaaaaaaaaaaaaaaaaaaaakhggjjggjihhjjjjjggfiiffffffhhhhhjjkaaaaaaa",
"aaaaaaaaaaaaaaaaaaaaakhhjjggjiiiihhhhigiiiiiffffhhhhjjjjkaaaaaaa",
"aaaaaaaaaaaaaaaaaaaakhhjjggjiiiihhhhjhffgjffffhhhhjjjjjjkaaaaaaa",
"aaaaaaaaaaaaaaaaaakkhhhjggjiiiihhhhhhffjjffgghhhjjjjjjjkaaaaaaaa",
"aaaaaaaaaaaaaaakkkhhhhigiiiiiihhhhhhffjfffgihhhjjjjjjjkkaaaaaaaa",
"aaaaaaaaaaaaakkihhhhgfhiiiiffhihhhhhffffiiiijjjiijjjjjkaaaaaaaaa",
"aaaaaaaaaaakkiiihhffffkiffffhjhhhfffffhhijkjiiijiijjjjjkaaaaaaaa",
"aaaaaaaaaakfeeccffffkkffffhhhhhifhfffhhijjiijjhjjjhhjjjkaaaaaaaa",
"aaaaaaaaaakcikkccckkgggffhhhhjjfffhihhijiijiijjjhjjjjjkaaaaaaaaa",
"aaaaaaaaakchhjjkkkkggggffhhjjjffiiihjjjihiijjijhjjjjkkaaaaaaaaaa",
"aaaaaaaakkehhjjjjjkieggeeekkkfffiihjhhhhijjjjjjjjjkkaaaaaaaaaaaa",
"aaaaaaaakehhhjjjjjkeeeekkkkffffiihjhjhjjjjjjjjjjkkaaaaaaaaaaaaaa",
"aaaaaaakeeiiijjjjjjkekkkkkffffihhjjjhhjjjjjjjjkkaaaaaaaaaaaaaaaa",
"aaaaaaakeiiiiijjjjjjkjjjkfffhhhijjhhjjjjjjjjkkaaaaaaaaaaaaaaaaaa",
"aaaaaaaakiiiiijjjjjjjjjkfffigijjhhjjjjjjjjjkaaaaaaaaaaaaaaaaaaaa",
"aaaaaaaaakeiiiiijjjjjjjkfiigijggjjhjjjjjjkkaaaaaaaaaaaaaaaaaaaaa",
"aaaaaaaaakeiiiiijjjjjjjkigfkjggjhhjjjjjjkaaaaaaaaaaaaaaaaaaaaaaa",
"aaaaaaaaaakfiiiiijjjjjkjkkkffjjhhjjjjjkkaaaaaaaaaaaaaaaaaaaaaaaa",
"aaaaaaaaaaakeiiiijijjjkjkkfhjjhhjjjjjkaaaaaaaaaaaaaaaaaaaaaaaaaa",
"aaaaaaaaaaakeiijjiijjjkjkfhjjhjjjjjkkaaaaaaaaaaaaaaaaaaaaaaaaaaa",
"aaaaaaaaaaakejjiiijijjjjjfjjjjjjjjkaaaaaaaaaaaaaaaaaaaaaaaaaaaaa",
"aaaaaaaaaakeiiiiiiijjiiijejjjjjjkkaaaaaaaaaaaaaaaaaaaaaaaaaaaaaa",
"aaaaaaaaaakeiiiiiiiiijhjeiijjjkkaaaaaaaaaaaaaaaaaaaaaaaaaaaaaaaa",
"aaaaaaaaaakeiiifffiiiiieejijkkaaaaaaaaaaaaaaaaaaaaaaaaaaaaaaaaaa",
"aaaaaaaaaaakfffkkgfiiijeiijkaaaaaaaaaaaaaaaaaaaaaaaaaaaaaaaaaaaa",
"aaaaaaaaaaaakkkaakfiiifijkkaaaaaaaaaaaaaaaaaaaaaaaaaaaaaaaaaaaaa",
"aaaaaaaaaaaaaaaaaakdeeikkaaaaaaaaaaaaaaaaaaaaaaaaaaaaaaaaaaaaaaa",
"aaaaaaaaaaaaaaaaaaakkkkaaaaaaaaaaaaaaaaaaaaaaaaaaaaaaaaaaaaaaaaa",
"aaaaaaaaaaaaaaaaaaaaaaaaaaaaaaaaaaaaaaaaaaaaaaaaaaaaaaaaaaaaaaaa",
"aaaaaaaaaaaaaaaaaaaaaaaaaaaaaaaaaaaaaaaaaaaaaaaaaaaaaaaaaaaaaaaa",
"aaaaaaaaaaaaaaaaaaaaaaaaaaaaaaaaaaaaaaaaaaaaaaaaaaaaaaaaaaaaaaaa",
"aaaaaaaaaaaaaaaaaaaaaaaaaaaaaaaaaaaaaaaaaaaaaaaaaaaaaaaaaaaaaaaa",
"aaaaaaaaaaaaaaaaaaaaaaaaaaaaaaaaaaaaaaaaaaaaaaaaaaaaaaaaaaaaaaaa",
"aaaaaaaaaaaaaaaaaaaaaaaaaaaaaaaaaaaaaaaaaaaaaaaaaaaaaaaaaaaaaaaa",
"aaaaaaaaaaaaaaaaaaaaaaaaaaaaaaaaaaaaaaaaaaaaaaaaaaaaaaaaaaaaaaaa",
"aaaaaaaaaaaaaaaaaaaaaaaaaaaaaaaaaaaaaaaaaaaaaaaaaaaaaaaaaaaaaaaa",
"aaaaaaaaaaaaaaaaaaaaaaaaaaaaaaaaaaaaaaaaaaaaaaaaaaaaaaaaaaaaaaaa",
"aaaaaaaaaaaaaaaaaaaaaaaaaaaaaaaaaaaaaaaaaaaaaaaaaaaaaaaaaaaaaaaa"
};
