/* XPM */
static char *car_red_00_s1[] = {
/* columns rows colors chars-per-pixel */
"64 64 37 1 ",
"  c #FF00FF",
". c #000100",
"X c #362829",
"o c #501419",
"O c #65161F",
"+ c #781B1F",
"@ c #562628",
"# c #754338",
"$ c #2E3744",
"% c #43444B",
"& c #4C5561",
"* c #5F5A74",
"= c #6E6669",
"- c #851E21",
"; c #951B24",
": c #87272C",
"> c #9B2D32",
", c #AB2334",
"< c #B82D33",
"1 c #AB3533",
"2 c #BD3836",
"3 c #C7282E",
"4 c #D2272E",
"5 c #CF3C3F",
"6 c #A9463D",
"7 c #E32044",
"8 c #516D83",
"9 c #6A889C",
"0 c #988A87",
"q c #C9B0A8",
"w c #D8B5B6",
"e c #EEBDBF",
"r c #94BBC9",
"t c #CAC6CE",
"y c #D6D5DE",
"u c #EDE5EB",
"i c #F9F5F5",
/* pixels */
"                                                                ",
"                                                                ",
"                                                                ",
"                                                                ",
"                                                                ",
"                         ..............                         ",
"                     ....;;;;;;;;;;;---....                     ",
"                    .00ti;;77777777777-uy##.                    ",
"                   .;0tu+77777777777777Oyy>+.                   ",
"                   .;yu+7777777777777777+yy+.                   ",
"                  .;,y+777777777777777777Oy--.                  ",
"                  .;,+77777777777777777777;-,.                  ",
"                  .,7,77777777777777777777;7,.                  ",
"                 .-,7,77777777777777777777;7,;.                 ",
"                 .;,7,77777777777777777777;7,;.                 ",
"                 .;,7,7777............7777;7,;.                 ",
"                 .;37,77..&8888&&&&&88..77;7,;.                 ",
"                 .;37,..&&&89999999rrr88..;7,;.                 ",
"                 .;34.&99999999999rrrrrrr=.,,-.                 ",
"                 ...4.&9999999999rrrrrrrr=.,...                 ",
"                .>>..2.999999999rrrrrrrrr.1..<<.                ",
"               .>>>..2.99999999rrrrrrrrrr.6..<<<.               ",
"               ....:..1.999999rrrrrrrrrr.6..,....               ",
"                  .:.%>.9..............r.2*.>.                  ",
"                  .>.*>..;777777777777;..2*.,.                  ",
"                  .>.*.,7777777777777777,.*.;.                  ",
"                  .>.*.,7777777777777777,.*.;.                  ",
"                  .>.*.,7777777777777777,.*.;.                  ",
"                  .>.*.,7777777777777777,.*.;.                  ",
"                  .:.*.,7777777777777777,.*.;.                  ",
"                  .:.*.,7777777777777777,.*.>.                  ",
"                  .:.*.,7777777777777777,.*.>.                  ",
"                  .:.*.,7777777777777777,.*.>.                  ",
"                  .:.$.,7777777777777777,.@.:.                  ",
"                  .:::.,7777777777777777,.@.:.                  ",
"                  .::..,7777777777777777,..::.                  ",
"                  .:.*.,7777777777777777,.*.:.                  ",
"                  .:.*.,7777777777777777,.*.:.                  ",
"                  .:.*.,7777777777777777,.*.>.                  ",
"                  .:.*.,7777777777777777,.*.>.                  ",
"                  .:.*.,7777777777777777,.8.>.                  ",
"                  .>.o;47777777777777777,,X.>.                  ",
"                  .>.o;4,77777777777777,,,X.>.                  ",
"                  .>.;;44,,,,,,,,,,,,,,7,,,.,.                  ",
"                 .;,.;334447777777777777,,,.,,.                 ",
"                 .;,;,3...447777777777...,,,,,.                 ",
"                 .,,,,.888............&&&-,,,,.                 ",
"                 .,,,,.88888888888888899&.,,,,.                 ",
"                 .,,,,.899999999999999999.,,,,.                 ",
"                 .;,O,.899999999999999999.,O,,.                 ",
"                 .;oo-<..99999999999999..,OOO,.                 ",
"                 .;O,o-<<..............;5OO,O;.                 ",
"                 .;O55o-;222<<333355555;OO55O;.                 ",
"                 .;;O55o;;;;;;;ee;;;;;;;O55O;;.                 ",
"                  .;;oOoO;;;;;;;;;;;;;;OoOO;;.                  ",
"                  .;;;;;;OOOOOOOOOOOOOO;;;;;;.                  ",
"                   .;;;;;;;;;;;;;;;;;;;;;;;;.                   ",
"                    ..;;;;;;;wwwwwq>>>>>>>..                    ",
"                      ....................                      ",
"                                                                ",
"                                                                ",
"                                                                ",
"                                                                ",
"                                                                "
};
