/* XPM */
static char *red_wins[] = {
"400 400 105 2",
"aa c #000000",
"ab c #FFFFFF",
"ac c #CCCCCC",
"ad c #999999",
"ae c #666666",
"af c #333333",
"ag c #F0F0F0",
"ah c #FFFACD",
"ai c #2A2A2A",
"aj c #383838",
"ak c #444444",
"al c #555555",
"am c #F8F8F8",
"an c #FF2222",
"ao c #282828",
"ap c #EEEEEE",
"aq c #191919",
"ar c #1B1B1B",
"as c #3A7D44",
"at c #2A6030",
"au c #8B7355",
"av c #5D4037",
"aw c #B0E0E6",
"ax c #7A7A7A",
"ay c #4A4A4A",
"az c #1A5276",
"aA c #2471A3",
"aB c #154360",
"aC c #85C1E9",
"aD c #1A1A1A",
"aE c #F9E79F",
"aF c #222222",
"aG c #FEF9E7",
"aH c #2C7FB0",
"aI c #1A3E58",
"aJ c #123048",
"aK c #777777",
"aL c #505050",
"aM c #303030",
"aN c #C0392B",
"aO c #E74C3C",
"aP c #A93226",
"aQ c #922B21",
"aR c #D45F3A",
"aS c #8A2820",
"aT c #6E2018",
"aU c #686868",
"aV c #484848",
"aW c #006699",
"aX c #FFEE66",
"aY c #CCAA00",
"aZ c #FFFFAA",
"a0 c #FFAA00",
"a1 c #330000",
"a2 c #333300",
"a3 c #336666",
"a4 c #339999",
"a5 c #3399CC",
"a6 c #1A1A2E",
"a7 c #111122",
"a8 c #0A0A1E",
"a9 c #660000",
"a! c #000033",
"a@ c #4444AA",
"a# c #F4F4F4",
"a$ c #0D0D1A",
"a% c #DC2626",
"a^ c #7F1D1D",
"a& c #F87171",
"a* c #E8C547",
"a( c #FDE68A",
"a) c #92400E",
"ba c #111111",
"bb c #FCA5A5",
"bc c #AAAAAA",
"bd c #669999",
"be c #6699CC",
"bf c #66CCCC",
"bg c #993366",
"bh c #996600",
"bi c #996633",
"bj c #996699",
"bk c #999900",
"bl c #999933",
"bm c #999966",
"bn c #9999CC",
"bo c #99CC99",
"bp c #99CCCC",
"bq c #CC3366",
"br c #CC6600",
"bs c #CC6666",
"bt c #CC6699",
"bu c #CC9933",
"bv c #CC9966",
"bw c #CC9999",
"bx c #CCCC33",
"by c #CCCC66",
"bz c #CCCC99",
"bA c #CCFF99",
"bB c #FF6633",
"bC c #FF9933",
"bD c #FF9966",
"bE c #FF9999",
"bF c #FFCC33",
"bG c #FFCCCC",
/* pixels */
"aaaaaaaaaaaaaaaaaaaaaaaaaaaaaaaaaaaaaaaaaaaaaaaaaaaaaaaaaaaaaaaaaaaaaaaaaaaaaaaaaaaaaaaaaaaaaaaaaaaaaaaaaaaaaaaaaaaaaaaaaaaaaaaaaaaaaaaaaaaaaaaaaaaaaaaaaaaaaaaaaaaaaaaaaaaaaaaaaaaaaaaaaaaaaaaaaaaaaaaaaaaaaaaaaaaaaaaaaaaaaaaaaaaaaaaaaaaaaaaaaaaaaaaaaaaaaaaaaaaaaaaaaaaaaaaaaaaaaaaaaaaaaaaaaaaaaaaaaaaaaaaaaaaaaaaaaaaaaaaaaaaaaaaaaaaaaaaaaaaaaaaaaaaaaaaaaaaaaaaaaaaaaaaaaaaaaaaaaaaaaaaaaaaaaaaaaaaaaaaaaaaaaaaaaaaaaaaaaaaaaaaaaaaaaaaaaaaaaaaaaaaaaaaaaaaaaaaaaaaaaaaaaaaaaaaaaaaaaaaaaaaaaaaaaaaaaaaaaaaaaaaaaaaaaaaaaaaaaaaaaaaaaaaaaaaaaaaaaaaaaaaaaaaaaaaaaaaaaaaaaaaaaaaaaaaaaaaaaaaaaaaaaaaaaaaaaaaaaaaaaaaaaaaaaaaaaaaaaaaaaaaaaaaaaaaaaaaaaaaaaaaaaaaaaaaaaaaaaaaaaaaaaaaaaaaaaaaaaaaaaaaaaaaaaaaaaaaaaaaaaaaaaaaaaaaaaaaaaaaaaaaaaaaaaaaaaaaaaaaaaaaaaaaaaaaaaaaaaaaaaaaaaaaaaaaaaaaaaaaaaaaaaaaaaaaaaaaaaaaa",
"aaaaaaaaaaaaaaaaaaaaaaaaaaaaaaaaaaaaaaaaaaaaaaaaaaaaaaaaaaaaaaaaaaaaaaaaaaaaaaaaaaaaaaaaaaaaaaaaaaaaaaaaaaaaaaaaaaaaaaaaaaaaaaaaaaaaaaaaaaaaaaaaaaaaaaaaaaaaaaaaaaaaaaaaaaaaaaaaaaaaaaaaaaaaaaaaaaaaaaaaaaaaaaaaaaaaaaaaaaaaaaaaaaaaaaaaaaaaaaaaaaaaaaaaaaaaaaaaaaaaaaaaaaaaaaaaaaaaaaaaaaaaaaaaaaaaaaaaaaaaaaaaaaaaaaaaaaaaaaaaaaaaaaaaaaaaaaaaaaaaaaaaaaaaaaaaaaaaaaaaaaaaaaaaaaaaaaaaaaaaaaaaaaaaaaaaaaaaaaaaaaaaaaaaaaaaaaaaaaaaaaaaaaaaaaaaaaaaaaaaaaaaaaaaaaaaaaaaaaaaaaaaaaaaaaaaaaaaaaaaaaaaaaaaaaaaaaaaaaaaaaaaaaaaaaaaaaaaaaaaaaaaaaaaaaaaaaaaaaaaaaaaaaaaaaaaaaaaaaaaaaaaaaaaaaaaaaaaaaaaaaaaaaaaaaaaaaaaaaaaaaaaaaaaaaaaaaaaaaaaaaaaaaaaaaaaaaaaaaaaaaaaaaaaaaaaaaaaaaaaaaaaaaaaaaaaaaaaaaaaaaaaaaaaaaaaaaaaaaaaaaaaaaaaaaaaaaaaaaaaaaaaaaaaaaaaaaaaaaaaaaaaaaaaaaaaaaaaaaaaaaaaaaaaaaaaaaaaaaaaaaaaaaaaaaaaaaaaaaaa",
"aaaaaaaaaaaaaaaaaaaaaaaaaaaaaaaaaaaaaaaaaaaaaaaaaaaaaaaaaaaaaaaaaaaaaaaaaaaaaaaaaaaaaaaaaaaaaaaaaaaaaaaaaaaaaaaaaaaaaaaaaaaaaaaaaaaaaaaaaaaaaaaaaaaaaaaaaaaaaaaaaaaaaaaaaaaaaaaaaaaaaaaaaaaaaaaaaaaaaaaaaaaaaaaaaaaaaaaaaaaaaaaaaaaaaaaaaaaaaaaaaaaaaaaaaaaaaaaaaaaaaaaaaaaaaaaaaaaaaaaaaaaaaaaaaaaaaaaaaaaaaaaaaaaaaaaaaaaaaaaaaaaaaaaaaaaaaaaaaaaaaaaaaaaaaaaaaaaaaaaaaaaaaaaaaaaaaaaaaaaaaaaaaaaaaaaaaaaaaaaaaaaaaaaaaaaaaaaaaaaaaaaaaaaaaaaaaaaaaaaaaaaaaaaaaaaaaaaaaaaaaaaaaaaaaaaaaaaaaaaaaaaaaaaaaaaaaaaaaaaaaaaaaaaaaaaaaaaaaaaaaaaaaaaaaaaaaaaaaaaaaaaaaaaaaaaaaaaaaaaaaaaaaaaaaaaaaaaaaaaaaaaaaaaaaaaaaaaaaaaaaaaaaaaaaaaaaaaaaaaaaaaaaaaaaaaaaaaaaaaaaaaaaaaaaaaaaaaaaaaaaaaaaaaaaaaaaaaaaaaaaaaaaaaaaaaaaaaaaaaaaaaaaaaaaaaaaaaaaaaaaaaaaaaaaaaaaaaaaaaaaaaaaaaaaaaaaaaaaaaaaaaaaaaaaaaaaaaaaaaaaaaaaaaaaaaaaaaaaaaa",
"aaaaaaaaaaaaaaaaaaaaaaaaaaaaaaaaaaaaaaaaaaaaaaaaaaaaaaaaaaaaaaaaaaaaaaaaaaaaaaaaaaaaaaaaaaaaaaaaaaaaaaaaaaaaaaaaaaaaaaaaaaaaaaaaaaaaaaaaaaaaaaaaaaaaaaaaaaaaaaaaaaaaaaaaaaaaaaaaaaaaaaaaaaaaaaaaaaaaaaaaaaaaaaaaaaaaaaaaaaaaaaaaaaaaaaaaaaaaaaaaaaaaaaaaaaaaaaaaaaaaaaaaaaaaaaaaaaaaaaaaaaaaaaaaaaaaaaaaaaaaaaaaaaaaaaaaaaaaaaaaaaaaaaaaaaaaaaaaaaaaaaaaaaaaaaaaaaaaaaaaaaaaaaaaaaaaaaaaaaaaaaaaaaaaaaaaaaaaaaaaaaaaaaaaaaaaaaaaaaaaaaaaaaaaaaaaaaaaaaaaaaaaaaaaaaaaaaaaaaaaaaaaaaaaaaaaaaaaaaaaaaaaaaaaaaaaaaaaaaaaaaaaaaaaaaaaaaaaaaaaaaaaaaaaaaaaaaaaaaaaaaaaaaaaaaaaaaaaaaaaaaaaaaaaaaaaaaaaaaaaaaaaaaaaaaaaaaaaaaaaaaaaaaaaaaaaaaaaaaaaaaaaaaaaaaaaaaaaaaaaaaaaaaaaaaaaaaaaaaaaaaaaaaaaaaaaaaaaaaaaaaaaaaaaaaaaaaaaaaaaaaaaaaaaaaaaaaaaaaaaaaaaaaaaaaaaaaaaaaaaaaaaaaaaaaaaaaaaaaaaaaaaaaaaaaaaaaaaaaaaaaaaaaaaaaaaaaaaaaaa",
"aaaaaaaaaaaaaaaaaaaaaaaaaaaaaaaaaaaaaaaaaaaaaaaaaaaaaaaaaaaaaaaaaaaaaaaaaaaaaaaaaaaaaaaaaaaaaaaaaaaaaaaaaaaaaaaaaaaaaaaaaaaaaaaaaaaaaaaaaaaaaaaaaaaaaaaaaaaaaaaaaaaaaaaaaaaaaaaaaaaaaaaaaaaaaaaaaaaaaaaaaaaaaaaaaaaaaaaaaaaaaaaaaaaaaaaaaaaaaaaaaaaaaaaaaaaaaaaaaaaaaaaaaaaaaaaaaaaaaaaaaaaaaaaaaaaaaaaaaaaaaaaaaaaaaaaaaaaaaaaaaaaaaaaaaaaaaaaaaaaaaaaaaaaaaaaaaaaaaaaaaaaaaaaaaaaaaaaaaaaaaaaaaaaaaaaaaaaaaaaaaaaaaaaaaaaaaaaaaaaaaaaaaaaaaaaaaaaaaaaaaaaaaaaaaaaaaaaaaaaaaaaaaaaaaaaaaaaaaaaaaaaaaaaaaaaaaaaaaaaaaaaaaaaaaaaaaaaaaaaaaaaaaaaaaaaaaaaaaaaaaaaaaaaaaaaaaaaaaaaaaaaaaaaaaaaaaaaaaaaaaaaaaaaaaaaaaaaaaaaaaaaaaaaaaaaaaaaaaaaaaaaaaaaaaaaaaaaaaaaaaaaaaaaaaaaaaaaaaaaaaaaaaaaaaaaaaaaaaaaaaaaaaaaaaaaaaaaaaaaaaaaaaaaaaaaaaaaaaaaaaaaaaaaaaaaaaaaaaaaaaaaaaaaaaaaaaaaaaaaaaaaaaaaaaaaaaaaaaaaaaaaaaaaaaaaaaaaaaaaa",
"aaaaaaaaaaaaaaaaaaaaaaaaaaaaaaaaaaaaaaaaaaaaaaaaaaaaaaaaaaaaaaaaaaaaaaaaaaaaaaaaaaaaaaaaaaaaaaaaaaaaaaaaaaaaaaaaaaaaaaaaaaaaaaaaaaaaaaaaaaaaaaaaaaaaaaaaaaaaaaaaaaaaaaaaaaaaaaaaaaaaaaaaaaaaaaaaaaaaaaaaaaaaaaaaaaaaaaaaaaaaaaaaaaaaaaaaaaaaaaaaaaaaaaaaaaaaaaaaaaaaaaaaaaaaaaaaaaaaaaaaaaaaaaaaaaaaaaaaaaaaaaaaaaaaaaaaaaaaaaaaaaaaaaaaaaaaaaaaaaaaaaaaaaaaaaaaaaaaaaaaaaaaaaaaaaaaaaaaaaaaaaaaaaaaaaaaaaaaaaaaaaaaaaaaaaaaaaaaaaaaaaaaaaaaaaaaaaaaaaaaaaaaaaaaaaaaaaaaaaaaaaaaaaaaaaaaaaaaaaaaaaaaaaaaaaaaaaaaaaaaaaaaaaaaaaaaaaaaaaaaaaaaaaaaaaaaaaaaaaaaaaaaaaaaaaaaaaaaaaaaaaaaaaaaaaaaaaaaaaaaaaaaaaaaaaaaaaaaaaaaaaaaaaaaaaaaaaaaaaaaaaaaaaaaaaaaaaaaaaaaaaaaaaaaaaaaaaaaaaaaaaaaaaaaaaaaaaaaaaaaaaaaaaaaaaaaaaaaaaaaaaaaaaaaaaaaaaaaaaaaaaaaaaaaaaaaaaaaaaaaaaaaaaaaaaaaaaaaaaaaaaaaaaaaaaaaaaaaaaaaaaaaaaaaaaaaaaaaaaaa",
"aaaaaaaaaaaaaaaaaaaaaaaaaaaaaaaaaaaaaaaaaaaaaaaaaaaaaaaaaaaaaaaaaaaaaaaaaaaaaaaaaaaaaaaaaaaaaaaaaaaaaaaaaaaaaaaaaaaaaaaaaaaaaaaaaaaaaaaaaaaaaaaaaaaaaaaaaaaaaaaaaaaaaaaaaaaaaaaaaaaaaaaaaaaaaaaaaaaaaaaaaaaaaaaaaaaaaaaaaaaaaaaaaaaaaaaaaaaaaaaaaaaaaaaaaaaaaaaaaaaaaaaaaaaaaaaaaaaaaaaaaaaaaaaaaaaaaaaaaaaaaaaaaaaaaaaaaaaaaaaaaaaaaaaaaaaaaaaaaaaaaaaaaaaaaaaaaaaaaaaaaaaaaaaaaaaaaaaaaaaaaaaaaaaaaaaaaaaaaaaaaaaaaaaaaaaaaaaaaaaaaaaaaaaaaaaaaaaaaaaaaaaaaaaaaaaaaaaaaaaaaaaaaaaaaaaaaaaaaaaaaaaaaaaaaaaaaaaaaaaaaaaaaaaaaaaaaaaaaaaaaaaaaaaaaaaaaaaaaaaaaaaaaaaaaaaaaaaaaaaaaaaaaaaaaaaaaaaaaaaaaaaaaaaaaaaaaaaaaaaaaaaaaaaaaaaaaaaaaaaaaaaaaaaaaaaaaaaaaaaaaaaaaaaaaaaaaaaaaaaaaaaaaaaaaaaaaaaaaaaaaaaaaaaaaaaaaaaaaaaaaaaaaaaaaaaaaaaaaaaaaaaaaaaaaaaaaaaaaaaaaaaaaaaaaaaaaaaaaaaaaaaaaaaaaaaaaaaaaaaaaaaaaaaaaaaaaaaaaaaa",
"aaaaaaaaaaaaaaaaaaaaaaaaaaaaaaaaaaaaaaaaaaaaaaaaaaaaaaaaaaaaaaaaaaaaaaaaaaaaaaaaaaaaaaaaaaaaaaaaaaaaaaaaaaaaaaaaaaaaaaaaaaaaaaaaaaaaaaaaaaaaaaaaaaaaaaaaaaaaaaaaaaaaaaaaaaaaaaaaaaaaaaaaaaaaaaaaaaaaaaaaaaaaaaaaaaaaaaaaaaaaaaaaaaaaaaaaaaaaaaaaaaaaaaaaaaaaaaaaaaaaaaaaaaaaaaaaaaaaaaaaaaaaaaaaaaaaaaaaaaaaaaaaaaaaaaaaaaaaaaaaaaaaaaaaaaaaaaaaaaaaaaaaaaaaaaaaaaaaaaaaaaaaaaaaaaaaaaaaaaaaaaaaaaaaaaaaaaaaaaaaaaaaaaaaaaaaaaaaaaaaaaaaaaaaaaaaaaaaaaaaaaaaaaaaaaaaaaaaaaaaaaaaaaaaaaaaaaaaaaaaaaaaaaaaaaaaaaaaaaaaaaaaaaaaaaaaaaaaaaaaaaaaaaaaaaaaaaaaaaaaaaaaaaaaaaaaaaaaaaaaaaaaaaaaaaaaaaaaaaaaaaaaaaaaaaaaaaaaaaaaaaaaaaaaaaaaaaaaaaaaaaaaaaaaaaaaaaaaaaaaaaaaaaaaaaaaaaaaaaaaaaaaaaaaaaaaaaaaaaaaaaaaaaaaaaaaaaaaaaaaaaaaaaaaaaaaaaaaaaaaaaaaaaaaaaaaaaaaaaaaaaaaaaaaaaaaaaaaaaaaaaaaaaaaaaaaaaaaaaaaaaaaaaaaaaaaaaaaaaaa",
"aaaaaaaaaaaaaaaaaaaaaaaaaaaaaaaaaaaaaaaaaaaaaaaaaaaaaaaaaaaaaaaaaaaaaaaaaaaaaaaaaaaaaaaaaaaaaaaaaaaaaaaaaaaaaaaaaaaaaaaaaaaaaaaaaaaaaaaaaaaaaaaaaaaaaaaaaaaaaaaaaaaaaaaaaaaaaaaaaaaaaaaaaaaaaaaaaaaaaaaaaaaaaaaaaaaaaaaaaaaaaaaaaaaaaaaaaaaaaaaaaaaaaaaaaaaaaaaaaaaaaaaaaaaaaaaaaaaaaaaaaaaaaaaaaaaaaaaaaaaaaaaaaaaaaaaaaaaaaaaaaaaaaaaaaaaaaaaaaaaaaaaaaaaaaaaaaaaaaaaaaaaaaaaaaaaaaaaaaaaaaaaaaaaaaaaaaaaaaaaaaaaaaaaaaaaaaaaaaaaaaaaaaaaaaaaaaaaaaaaaaaaaaaaaaaaaaaaaaaaaaaaaaaaaaaaaaaaaaaaaaaaaaaaaaaaaaaaaaaaaaaaaaaaaaaaaaaaaaaaaaaaaaaaaaaaaaaaaaaaaaaaaaaaaaaaaaaaaaaaaaaaaaaaaaaaaaaaaaaaaaaaaaaaaaaaaaaaaaaaaaaaaaaaaaaaaaaaaaaaaaaaaaaaaaaaaaaaaaaaaaaaaaaaaaaaaaaaaaaaaaaaaaaaaaaaaaaaaaaaaaaaaaaaaaaaaaaaaaaaaaaaaaaaaaaaaaaaaaaaaaaaaaaaaaaaaaaaaaaaaaaaaaaaaaaaaaaaaaaaaaaaaaaaaaaaaaaaaaaaaaaaaaaaaaaaaaaaaaaaa",
"aaaaaaaaaaaaaaaaaaaaaaaaaaaaaaaaaaaaaaaaaaaaaaaaaaaaaaaaaaaaaaaaaaaaaaaaaaaaaaaaaaaaaaaaaaaaaaaaaaaaaaaaaaaaaaaaaaaaaaaaaaaaaaaaaaaaaaaaaaaaaaaaaaaaaaaaaaaaaaaaaaaaaaaaaaaaaaaaaaaaaaaaaaaaaaaaaaaaaaaaaaaaaaaaaaaaaaaaaaaaaaaaaaaaaaaaaaaaaaaaaaaaaaaaaaaaaaaaaaaaaaaaaaaaaaaaaaaaaaaaaaaaaaaaaaaaaaaaaaaaaaaaaaaaaaaaaaaaaaaaaaaaaaaaaaaaaaaaaaaaaaaaaaaaaaaaaaaaaaaaaaaaaaaaaaaaaaaaaaaaaaaaaaaaaaaaaaaaaaaaaaaaaaaaaaaaaaaaaaaaaaaaaaaaaaaaaaaaaaaaaaaaaaaaaaaaaaaaaaaaaaaaaaaaaaaaaaaaaaaaaaaaaaaaaaaaaaaaaaaaaaaaaaaaaaaaaaaaaaaaaaaaaaaaaaaaaaaaaaaaaaaaaaaaaaaaaaaaaaaaaaaaaaaaaaaaaaaaaaaaaaaaaaaaaaaaaaaaaaaaaaaaaaaaaaaaaaaaaaaaaaaaaaaaaaaaaaaaaaaaaaaaaaaaaaaaaaaaaaaaaaaaaaaaaaaaaaaaaaaaaaaaaaaaaaaaaaaaaaaaaaaaaaaaaaaaaaaaaaaaaaaaaaaaaaaaaaaaaaaaaaaaaaaaaaaaaaaaaaaaaaaaaaaaaaaaaaaaaaaaaaaaaaaaaaaaaaaaaaaa",
"aaaaaaaaaaaaaaaaaaaaaaaaaaaaaaaaaaaaaaaaaaaaaaaaaaaaaaaaaaaaaaaaaaaaaaaaaaaaaaaaaaaaaaaaaaaaaaaaaaaaaaaaaaaaaaaaaaaaaaaaaaaaaaaaaaaaaaaaaaaaaaaaaaaaaaaaaaaaaaaaaaaaaaaaaaaaaaaaaaaaaaaaaaaaaaaaaaaaaaaaaaaaaaaaaaaaaaaaaaaaaaaaaaaaaaaaaaaaaaaaaaaaaaaaaaaaaaaaaaaaaaaaaaaaaaaaaaaaaaaaaaaaaaaaaaaaaaaaaaaaaaaaaaaaaaaaaaaaaaaaaaaaaaaaaaaaaaaaaaaaaaaaaaaaaaaaaaaaaaaaaaaaaaaaaaaaaaaaaaaaaaaaaaaaaaaaaaaaaaaaaDaDafafaaaaaaaaaaaaaaaaaaaaaaaaaaaaaaaaaaaaaaaaaaaaaaaaaaaaaaaaaaaaaaaaaaaaaaaaaaaaaaaaaaaaaaaaaaaaaaaaaaaaaaaaaaaaaaaaaaaaaaaaaaaaaaaaaaaaaaaaaaaaaaaaaaaaaaaaaaaaaaaaaaaaaaaaaaaaaaaaaaaaaaaaaaaaaaaaaaaaaaaaaaaaaaaaaaaaaaaaaaaaaaaaaaaaaaaaaaaaaaaaaaaaaaaaaaaaaaaaaaaaaaaaaaaaaaaaaaaaaaaaaaaaaaaaaaaaaaaaaaaaaaaaaaaaaaaaaaaaaaaaaaaaaaaaaaaaaaaaaaaaaaaaaaaaaaaaaaaaaaaaaaaaaaaaaaaaaaaaaaaaaaaaaaaaaaaa",
"aaaaaaaaaaaaaaaaaaaaaaaaaaaaaaaaaaaaaaaaaaaaaaaaaaaaaaaaaaaaaaaaaaaaaaaaaaaaaaaaaaaaaaaaaaaaaaaaaaaaaaaaaaaaaaaaaaaaaaaaaaaaaaaaaaaaaaaaaaaaaaaaaaaaaaaaaaaaaaaaaaaaaaaaaaaaaaaaaaaaaaaaaaaaaaaaaaaaaaaaaaaaaaaaaaaaaaaaaaaaaaaaaaaaaaaaaaaaaaaaaaaaaaaaaaaaaaaaaaaaaaaaaaaaaaaaaaaaaaaaaaaaaaaaaaaaaaaaaaaaaaaaaaaaaaaaaaaaaaaaaaaaaaaaaaaaaaaaaaaaaaaaaaaaaaaaaaaaaaaaaaaaaaaaaaaaaaaaaaaaaaaaaaaaaaaaaaaaaaaaaDaDafafaaaaaaaaaaaaaaaaaaaaaaaaaaaaaaaaaaaaaaaaaaaaaaaaaaaaaaaaaaaaaaaaaaaaaaaaaaaaaaaaaaaaaaaaaaaaaaaaaaaaaaaaaaaaaaaaaaaaaaaaaaaaaaaaaaaaaaaaaaaaaaaaaaaaaaaaaaaaaaaaaaaaaaaaaaaaaaaaaaaaaaaaaaaaaaaaaaaaaaaaaaaaaaaaaaaaaaaaaaaaaaaaaaaaaaaaaaaaaaaaaaaaaaaaaaaaaaaaaaaaaaaaaaaaaaaaaaaaaaaaaaaaaaaaaaaaaaaaaaaaaaaaaaaaaaaaaaaaaaaaaaaaaaaaaaaaaaaaaaaaaaaaaaaaaaaaaaaaaaaaaaaaaaaaaaaaaaaaaaaaaaaaaaaaaaaa",
"aaaaaaaaaaaaaaaaaaaaaaaaaaaaaaaaaaaaaaaaaaaaaaaaaaaaaaaaaaaaaaaaaaaaaaaaaaaaaaaaaaaaaaaaaaaaaaaaaaaaaaaaaaaaaaaaaaaaaaaaaaaaaaaaaaaaaaaaaaaaaaaaaaaaaaaaaaaaaaaaaaaaaaaaaaaaaaaaaaaaaaaaaaaaaaaaaaaaaaaaaaaaaaaaaaaaaaaaaaaaaaaaaaaaaaaaaaaaaaaaaaaaaaaaaaaaaaaaaaaaaaaaaaaaaaaaaaaaaaaaaaaaaaaaaaaaaaaaaaaaaaaaaaaaaaaaaaaaaaaaaaaaaaaaaaaaaaaaaaaaaaaaaaaaaaaaaaaaaaaaaaaaaaaaaaaaaaaaaaaaaaaaaKaKaaaaaaaaaaaaaMaMaeaeaaaaararayayaaaaaaaaaaaaaaaaaaaaaaaaaaaaaaaaaaaaaaaaaaaaaaaaaaaaaaaaaaaaaaaaaaaaaaaaaaaaaaaaaaaaaaaaaaaaaaaaaaaaaaaaaaaaaaaaaaaaaaaaaaaaaaaaaaaaaaaaaaaaaaaaaaaaaaaaaaaaaaaaaaaaaaaaaaaaaaaaaaaaaaaaaaaaaaaaaaaaaaaaaaaaaaaaaaaaaaaaaaaaaaaaaaaaaaaaaaaaaaaaaaaaaaaaaaaaaaaaaaaaaaaaaaaaaaaaaaaaaaaaaaaaaaaaaaaaaaaaaaaaaaaaaaaaaaaaaaaaaaaaaaaaaaaaaaaaaaaaaaaaaaaaaaaaaaaaaaaaaaaaaaaaaaaaaaaaaaaaaaaa",
"aaaaaaaaaaaaaaaaaaaaaaaaaaaaaaaaaaaaaaaaaaaaaaaaaaaaaaaaaaaaaaaaaaaaaaaaaaaaaaaaaaaaaaaaaaaaaaaaaaaaaaaaaaaaaaaaaaaaaaaaaaaaaaaaaaaaaaaaaaaaaaaaaaaaaaaaaaaaaaaaaaaaaaaaaaaaaaaaaaaaaaaaaaaaaaaaaaaaaaaaaaaaaaaaaaaaaaaaaaaaaaaaaaaaaaaaaaaaaaaaaaaaaaaaaaaaaaaaaaaaaaaaaaaaaaaaaaaaaaaaaaaaaaaaaaaaaaaaaaaaaaaaaaaaaaaaaaaaaaaaaaaaaaaaaaaaaaaaaaaaaaaaaaaaaaaaaaaaaaaaaaaaaaaaaaaaaaaaaaaaaaaaaKaKaaaaaaaaaaaaaMaMaeaeaaaaararayayaaaaaaaaaaaaaaaaaaaaaaaaaaaaaaaaaaaaaaaaaaaaaaaaaaaaaaaaaaaaaaaaaaaaaaaaaaaaaaaaaaaaaaaaaaaaaaaaaaaaaaaaaaaaaaaaaaaaaaaaaaaaaaaaaaaaaaaaaaaaaaaaaaaaaaaaaaaaaaaaaaaaaaaaaaaaaaaaaaaaaaaaaaaaaaaaaaaaaaaaaaaaaaaaaaaaaaaaaaaaaaaaaaaaaaaaaaaaaaaaaaaaaaaaaaaaaaaaaaaaaaaaaaaaaaaaaaaaaaaaaaaaaaaaaaaaaaaaaaaaaaaaaaaaaaaaaaaaaaaaaaaaaaaaaaaaaaaaaaaaaaaaaaaaaaaaaaaaaaaaaaaaaaaaaaaaaaaaaaaa",
"aaaaaaaaaaaaaaaaaaaaaaaaaaaaaaaaaaaaaaaaaaaaaaaaaaaaaaaaaaaaaaaaaaaaaaaaaaaaaaaaaaaaaaaaaaaaaaaaaaaaaaaaaaaaaaaaaaaaaaaaaaaaaaaaaaaaaaaaaaaaaaaaaaaaaaaaaaaaaaaaaaaaaaaaaaaaaaaaaaaaaaaaaaaaaaaaaaaaaaaaaaaaaaaaaaaaaaaaaaaaaaaaaaaaaaaaaaaaaaaaaaaaaaaaaaaaaaaaaaaaaaaaaaaaaaaaaaaaaaaaaaaaaaaaaaaaaaaaaaaaaaaaaaaaaaaaaaaaaaaaaaaaaaaaaaaaaaaaaaaaaaaaaaaaaaaaaaaaaaaaaaaaaaaaaaaaaxaxaaaaaaaaaxaxaaaaaaaaaaaaajajavavaaaaaUaUaaaaaaaaaaaaaaaaaaaaaaaaaaaaaaaaaaaaaaaaaaaaaaaaaaaaaaaaaaaaaaaaaaaaaaaaaaaaaaaaaaaaaaaaaaaaaaaaaaaaaaaaaaaaaaaaaaaaaaaaaaaaaaaaaaaaaaaaaaaaaaaaaaaaaaaaaaaaaaaaaaaaaaaaaaaaaaaaaaaaaaaaaaaaaaaaaaaaaaaaaaaaaaaaaaaaaaaaaaaaaaaaaaaaaaaaaaaaaaaaaaaaaaaaaaaaaaaaaaaaaaaaaaaaaaaaaaaaaaaaaaaaaaaaaaaaaaaaaaaaaaaaaaaaaaaaaaaaaaaaaaaaaaaaaaaaaaaaaaaaaaaaaaaaaaaaaaaaaaaaaaaaaaaaaaaaaaaaaaaaaaaa",
"aaaaaaaaaaaaaaaaaaaaaaaaaaaaaaaaaaaaaaaaaaaaaaaaaaaaaaaaaaaaaaaaaaaaaaaaaaaaaaaaaaaaaaaaaaaaaaaaaaaaaaaaaaaaaaaaaaaaaaaaaaaaaaaaaaaaaaaaaaaaaaaaaaaaaaaaaaaaaaaaaaaaaaaaaaaaaaaaaaaaaaaaaaaaaaaaaaaaaaaaaaaaaaaaaaaaaaaaaaaaaaaaaaaaaaaaaaaaaaaaaaaaaaaaaaaaaaaaaaaaaaaaaaaaaaaaaaaaaaaaaaaaaaaaaaaaaaaaaaaaaaaaaaaaaaaaaaaaaaaaaaaaaaaaaaaaaaaaaaaaaaaaaaaaaaaaaaaaaaaaaaaaaaaaaaaaaxaxaaaaaaaaaxaxaaaaaaaaaaaaajajavavaaaaaUaUaaaaaaaaaaaaaaaaaaaaaaaaaaaaaaaaaaaaaaaaaaaaaaaaaaaaaaaaaaaaaaaaaaaaaaaaaaaaaaaaaaaaaaaaaaaaaaaaaaaaaaaaaaaaaaaaaaaaaaaaaaaaaaaaaaaaaaaaaaaaaaaaaaaaaaaaaaaaaaaaaaaaaaaaaaaaaaaaaaaaaaaaaaaaaaaaaaaaaaaaaaaaaaaaaaaaaaaaaaaaaaaaaaaaaaaaaaaaaaaaaaaaaaaaaaaaaaaaaaaaaaaaaaaaaaaaaaaaaaaaaaaaaaaaaaaaaaaaaaaaaaaaaaaaaaaaaaaaaaaaaaaaaaaaaaaaaaaaaaaaaaaaaaaaaaaaaaaaaaaaaaaaaaaaaaaaaaaaaaaaaaaa",
"aaaaaaaaaaaaaaaaaaaaaaaaaaaaaaaaaaaaaaaaaaaaaaaaaaaaaaaaaaaaaaaaaaaaaaaaaaaaaaaaaaaaaaaaaaaaaaaaaaaaaaaaaaaaaaaaaaaaaaaaaaaaaaaaaaaaaaaaaaaaaaaaaaaaaaaaaaaaaaaaaaaaaaaaaaaaaaaaaaaaaaaaaaaaaaaaaaaaaaaaaaaaaaaaaaaaaaaaaaaaaaaaaaaaaaaaaaaaaaaaaaaaaaaaaaaaaaaaaaaaaaaaaaaaaaaaaaaaaaaaaaaaaaaaaaaaaaaaaaaaaaaaaaaaaaaaaaaaaaaaaaaaaaaaaaaaaaaaaaaaaaaaaaaaaaaaaaaaalalakakaaaaaaaaaUaUbmbmaaaababaaxaxaaaaaaaaalalaaaaaaaaaxaxaaaaaaaaaaaaaaaaaaaaaaaaaaaaaaaaaaaaaaaaaaaaaaaaaaaaaaaaaaaaaaaaaaaaaaaaaaaaaaaaaaaaaaaaaaaaaaaaaaaaaaaaaaaaaaaaaaaaaaaaaaaaaaaaaaaaaaaaaaaaaaaaaaaaaaaaaaaaaaaaaaaaaaaaaaaaaaaaaaaaaaaaaaaaaaaaaaaaaaaaaMaMaaaaaaaaaaaaaaaaaaaaaaaaaaaaaaaaaaaaaaaaaaaaaaaaaaaaaaaaaaaaaaaaaaaaaaaaaaaaaaaaaaaaaaaaaaaaaaaaaaaaaaaaaaaaaaaaaaaaaaaaaaaaaaaaaaaaaaaaaaaaaaaaaaaaaaaaaaaaaaaaaaaaaaaaaaaaaaaaaaaa",
"aaaaaaaaaaaaaaaaaaaaaaaaaaaaaaaaaaaaaaaaaaaaaaaaaaaaaaaaaaaaaaaaaaaaaaaaaaaaaaaaaaaaaaaaaaaaaaaaaaaaaaaaaaaaaaaaaaaaaaaaaaaaaaaaaaaaaaaaaaaaaaaaaaaaaaaaaaaaaaaaaaaaaaaaaaaaaaaaaaaaaaaaaaaaaaaaaaaaaaaaaaaaaaaaaaaaaaaaaaaaaaaaaaaaaaaaaaaaaaaaaaaaaaaaaaaaaaaaaaaaaaaaaaaaaaaaaaaaaaaaaaaaaaaaaaaaaaaaaaaaaaaaaaaaaaaaaaaaaaaaaaaaaaaaaaaaaaaaaaaaaaaaaaaaaaaaaaaaalalakakaaaaaaaaaUaUbmbmaaaababaaxaxaaaaaaaaalalaaaaaaaaaxaxaaaaaaaaaaaaaaaaaaaaaaaaaaaaaaaaaaaaaaaaaaaaaaaaaaaaaaaaaaaaaaaaaaaaaaaaaaaaaaaaaaaaaaaaaaaaaaaaaaaaaaaaaaaaaaaaaaaaaaaaaaaaaaaaaaaaaaaaaaaaaaaaaaaaaaaaaaaaaaaaaaaaaaaaaaaaaaaaaaaaaaaaaaaaaaaaaaaaaaaaaMaMaaaaaaaaaaaaaaaaaaaaaaaaaaaaaaaaaaaaaaaaaaaaaaaaaaaaaaaaaaaaaaaaaaaaaaaaaaaaaaaaaaaaaaaaaaaaaaaaaaaaaaaaaaaaaaaaaaaaaaaaaaaaaaaaaaaaaaaaaaaaaaaaaaaaaaaaaaaaaaaaaaaaaaaaaaaaaaaaaaaa",
"aaaaaaaaaaaaaaaaaaaaaaaaaaaaaaaaaaaaaaaaaaaaaaaaaaaaaaaaaaaaaaaaaaaaaaaaaaaaaaaaaaaaaaaaaaaaaaaaaaaaaaaaaaaaaaaaaaaaaaaaaaaaaaaaaaaaaaaaaaaaaaaaaaaaaaaaaaaaaaaaaaaaaaaaaaaaaaaaaaaaaaaaaaaaaaaaaaaaaaaaaaaaaaaaaaaaaaaaaaaaaaaaaaaaaaaaaaaaaaaaaaaaaaaaaaaaaaaaaaaaaaaaaaaaaaaaaaaaaaaaaaaaaaaaaaaaaaaaaaaaaaaaaaaaaaaaaaaaaaaaaaaaaaaaaaaaaaaaaaaaaaaaaaaaaaaaaaaaalalajajaaaaaaaaaaaaauauajajaaaaaeaeayayaaaaavavaaaaajajavavaaaaaaaaaaaaalalaaaaaaaaaaaaaaaaaaaaaaaaaaaaaaaaaaaaaaaaaaaaaaaaaaaaaaaaaaaaaaaaaaaaaaaaaaaaaaaaaaaaaaaaaaaaaaaaaaaaaaaaaaaaaaaaaaaaaaaaaaaaaaaaaaaaaaaaaaaaaaaaaaaaaaaaaaaaaFaFaKaKaaaaaaaaaaaaaaaaaoaoaxaxaaaaaaaaaaaaaaaaaaaaaaaaaaaaaaaaaaaaaaaaaaaaaaaaaaaaaaaaaaaaaaaaaaaaaaaaaaaaaaaaaaaaaaaaaaaaaaaaaaaaaaaaaaaaaaaaaaaaaaaaaaaaaaaaaaaaaaaaaaaaaaaaaaaaaaaaaaaaaaaaaaaaaaaaaaaaaaaaaaaa",
"aaaaaaaaaaaaaaaaaaaaaaaaaaaaaaaaaaaaaaaaaaaaaaaaaaaaaaaaaaaaaaaaaaaaaaaaaaaaaaaaaaaaaaaaaaaaaaaaaaaaaaaaaaaaaaaaaaaaaaaaaaaaaaaaaaaaaaaaaaaaaaaaaaaaaaaaaaaaaaaaaaaaaaaaaaaaaaaaaaaaaaaaaaaaaaaaaaaaaaaaaaaaaaaaaaaaaaaaaaaaaaaaaaaaaaaaaaaaaaaaaaaaaaaaaaaaaaaaaaaaaaaaaaaaaaaaaaaaaaaaaaaaaaaaaaaaaaaaaaaaaaaaaaaaaaaaaaaaaaaaaaaaaaaaaaaaaaaaaaaaaaaaaaaaaaaaaaaaalalajajaaaaaaaaaaaaauauajajaaaaaeaeayayaaaaavavaaaaajajavavaaaaaaaaaaaaalalaaaaaaaaaaaaaaaaaaaaaaaaaaaaaaaaaaaaaaaaaaaaaaaaaaaaaaaaaaaaaaaaaaaaaaaaaaaaaaaaaaaaaaaaaaaaaaaaaaaaaaaaaaaaaaaaaaaaaaaaaaaaaaaaaaaaaaaaaaaaaaaaaaaaaaaaaaaaaFaFaKaKaaaaaaaaaaaaaaaaaoaoaxaxaaaaaaaaaaaaaaaaaaaaaaaaaaaaaaaaaaaaaaaaaaaaaaaaaaaaaaaaaaaaaaaaaaaaaaaaaaaaaaaaaaaaaaaaaaaaaaaaaaaaaaaaaaaaaaaaaaaaaaaaaaaaaaaaaaaaaaaaaaaaaaaaaaaaaaaaaaaaaaaaaaaaaaaaaaaaaaaaaaaa",
"aaaaaaaaaaaaaaaaaaaaaaaaaaaaaaaaaaaaaaaaaaaaaaaaaaaaaaaaaaaaaaaaaaaaaaaaaaaaaaaaaaaaaaaaaaaaaaaaaaaaaaaaaaaaaaaaaaaaaaaaaaaaaaaaaaaaaaaaaaaaaaaaaaaaaaaaaaaaaaaaaaaaaaaaaaaaaaaaaaaaaaaaaaaaaaaaaaaaaaaaaaaaaaaaaaaaaaaaaaaaaaaaaaaaaaaaaaaaaaaaaaaaaaaaaaaaaaaaaaaaaaaaaaaaaaaaaaaaaaaaaaaaaaaaaaaaaaaaaaaaaaaaaaaaaaaaaaaaaaaaaaaaaaaaaaaaaaaaaaaaaaaaaaaaaaaaaaaaaaaaaaaaayayajajaaaaavavbwbwaaaaavavalalaaaaalalaaaaadadaoaoaaaaaaaaaUaUaMaMaaaaaaaaalalaaaaaaaaaaaaaaaaaaaaaaaaaaaaaaaaaaaaaaaaaaaaaaaaaaaaaaaaaaaaaaaaaaaaaaaaaaaaaaaaaaaaaaaaaaaaaaaaaaaaaaaaaaaaaaaaaaaaaaaaaaaaaaaaaeaeaaaaaaaaaaaaaLaLagagaFaFaaaaaaaaaaaaaaaaaxaxaaaaaaaaaaaaalalakakaaaaaaaaaLaLadadaaaaaaaaaaaaaaaaaaaaaaaaaaaaaaaaaaaaaaaaaaaaaaaaaaaaaaaaaaaaaaaaaaaaaaaaaaaaaaaaaaaaaaaaaaaaaaaaaaaaaaaaaaaaaaaaaaaaaaaaaaaaaaaaaaaaaaaaaaaaaaaa",
"aaaaaaaaaaaaaaaaaaaaaaaaaaaaaaaaaaaaaaaaaaaaaaaaaaaaaaaaaaaaaaaaaaaaaaaaaaaaaaaaaaaaaaaaaaaaaaaaaaaaaaaaaaaaaaaaaaaaaaaaaaaaaaaaaaaaaaaaaaaaaaaaaaaaaaaaaaaaaaaaaaaaaaaaaaaaaaaaaaaaaaaaaaaaaaaaaaaaaaaaaaaaaaaaaaaaaaaaaaaaaaaaaaaaaaaaaaaaaaaaaaaaaaaaaaaaaaaaaaaaaaaaaaaaaaaaaaaaaaaaaaaaaaaaaaaaaaaaaaaaaaaaaaaaaaaaaaaaaaaaaaaaaaaaaaaaaaaaaaaaaaaaaaaaaaaaaaaaaaaaaaaaayayajajaaaaavavbwbwaaaaavavalalaaaaalalaaaaadadaoaoaaaaaaaaaUaUaMaMaaaaaaaaalalaaaaaaaaaaaaaaaaaaaaaaaaaaaaaaaaaaaaaaaaaaaaaaaaaaaaaaaaaaaaaaaaaaaaaaaaaaaaaaaaaaaaaaaaaaaaaaaaaaaaaaaaaaaaaaaaaaaaaaaaaaaaaaaaaeaeaaaaaaaaaaaaaLaLagagaFaFaaaaaaaaaaaaaaaaaxaxaaaaaaaaaaaaalalakakaaaaaaaaaLaLadadaaaaaaaaaaaaaaaaaaaaaaaaaaaaaaaaaaaaaaaaaaaaaaaaaaaaaaaaaaaaaaaaaaaaaaaaaaaaaaaaaaaaaaaaaaaaaaaaaaaaaaaaaaaaaaaaaaaaaaaaaaaaaaaaaaaaaaaaaaaaaaaa",
"aaaaaaaaaaaaaaaaaaaaaaaaaaaaaaaaaaaaaaaaaaaaaaaaaaaaaaaaaaaaaaaaaaaaaaaaaaaaaaaaaaaaaaaaaaaaaaaaaaaaaaaaaaaaaaaaaaaaaaaaaaaaaaaaaaaaaaaaaaaaaaaaaaaaaaaaaaaaaaaaaaaaaaaaaaaaaaaaaoaoaaaaaaaaalalaKaKaaaaaaaaaaaabcbcapapaaaaaaaaaaaaaaaaaaaaaaaaaaaaaaaaaaaaaaaaaaaaaaaaaaaaaaaaaaaaaaaaaaaaaaaaaaaaaaaaaaaaaaaaaaaaaaaaaaaaaaaaaaaaaaaaaaaaaaaaaaaaajajakakaaaaaaaaaaaaaaaaaaaaadadaoaoaaaaauaua1a1akakalalaaaaavavaaaaavavaqaqaaaaaKaKaFaFaaaaavavaaaaakakaaaaaoaoafafaaaaaaaaaaaaaaaaaaaaaaaaaaaaaaaaaaaaaaaaaaaaaaaaaaaaaaaaaaaaaaaaaaaaaaaaaaaaaaaaaaaaaaaaaaaaaaaaaaaaaaaaaaaaaaaaaaaaajajaxaxaaaaaaaaaaaaaUaUaoaoaaaaaaaaaaaaakakaUaUaaaaaaaaaaaabpbpafafaaaaaLaLbcbcaFaFaaaaaaaaaaaaaaaaaaaaaaaaaaaaaaaaaaaaaaaaaaaaaaaaaaaaaaaaaaaaaaaaaaaaaaaaaaaaaaaaaaaaaaaaaaaaaaaaaaaaaaaaaaaaaaaaaaaaaaaaaaaaaaaaaaaaaaaaaaaaaaaa",
"aaaaaaaaaaaaaaaaaaaaaaaaaaaaaaaaaaaaaaaaaaaaaaaaaaaaaaaaaaaaaaaaaaaaaaaaaaaaaaaaaaaaaaaaaaaaaaaaaaaaaaaaaaaaaaaaaaaaaaaaaaaaaaaaaaaaaaaaaaaaaaaaaaaaaaaaaaaaaaaaaaaaaaaaaaaaaaaaaoaoaaaaaaaaalalaKaKaaaaaaaaaaaabcbcapapaaaaaaaaaaaaaaaaaaaaaaaaaaaaaaaaaaaaaaaaaaaaaaaaaaaaaaaaaaaaaaaaaaaaaaaaaaaaaaaaaaaaaaaaaaaaaaaaaaaaaaaaaaaaaaaaaaaaaaaaaaaaajajakakaaaaaaaaaaaaaaaaaaaaadadaoaoaaaaauaua1a1akakalalaaaaavavaaaaavavaqaqaaaaaKaKaFaFaaaaavavaaaaakakaaaaaoaoafafaaaaaaaaaaaaaaaaaaaaaaaaaaaaaaaaaaaaaaaaaaaaaaaaaaaaaaaaaaaaaaaaaaaaaaaaaaaaaaaaaaaaaaaaaaaaaaaaaaaaaaaaaaaaaaaaaaaaajajaxaxaaaaaaaaaaaaaUaUaoaoaaaaaaaaaaaaakakaUaUaaaaaaaaaaaabpbpafafaaaaaLaLbcbcaFaFaaaaaaaaaaaaaaaaaaaaaaaaaaaaaaaaaaaaaaaaaaaaaaaaaaaaaaaaaaaaaaaaaaaaaaaaaaaaaaaaaaaaaaaaaaaaaaaaaaaaaaaaaaaaaaaaaaaaaaaaaaaaaaaaaaaaaaaaaaaaaaaa",
"aaaaaaaaaaaaaaaaaaaaaaaaaaaaaaaaaaaaaaaaaaaaaaaaaaaaaaaaaaaaaaaaaaaaaaaaaaaaaaaaaaaaaaaaaaaaaaaaaaaaaaaaaaaaaaaaaaaaaaaaaaaaaaaaaaaaaaaaaaaaaaaaaaaaaaaaaaaaaFaFaLaLaaaaaaaaaLaLadadaaaaaaaaalalaKaKaaaaaaaaaaaaadadaKaKaaaaaaaaaaaaalalaaaaaaaaaaaaaaaaaaaaaaaaaaaaaaaaaaaaaaaaaaaaaaaaaaaaaaaaaaaaaaaaaaaaaaaaaaaaaaaaaaaaaaaaaaaaaaaaaaaaaaaaaaaaaLaLaxaxadadaaaaaaaaakakakakaaaaaxaxaFaFajajaFaFavavaLaLakakaeaeaaaaavavbabaaMaMaxaxaUaUajajbwbwaUaUadadayayajajalalaaaaaaaaaaaaaaaaaaaaaaaaaaaaaaaaaaaaaaaaaaaaaaaaaaaaaaaaaaaaaaaaaaaaaaaaaaaaaaaaaaaaaaaaaaaaaaaaaaaaaaaaaaaaaaaaaaaaaaaaadadafafaaaaaaaaaUaUaKaKaaaaaaaaaaaabcbcaaaaaaaaaaaaaUaUaKaKaaaaaeaebpbpaFaFaaaaaaaaaaaaaaaaaaaaaaaaaaaaaaaaaaaaaaaaaaaaaaaaaaaaaaaaaaaaaaaaaaaaaaaaaaaaaaaaaaaaaaaaaaaaaaaaaaaaaaaaaaaaaaaaaaaaaaaaaaaaaaaaaaaaaaaaaaaaaaaaaaaa",
"aaaaaaaaaaaaaaaaaaaaaaaaaaaaaaaaaaaaaaaaaaaaaaaaaaaaaaaaaaaaaaaaaaaaaaaaaaaaaaaaaaaaaaaaaaaaaaaaaaaaaaaaaaaaaaaaaaaaaaaaaaaaaaaaaaaaaaaaaaaaaaaaaaaaaaaaaaaaaFaFaLaLaaaaaaaaaLaLadadaaaaaaaaalalaKaKaaaaaaaaaaaaadadaKaKaaaaaaaaaaaaalalaaaaaaaaaaaaaaaaaaaaaaaaaaaaaaaaaaaaaaaaaaaaaaaaaaaaaaaaaaaaaaaaaaaaaaaaaaaaaaaaaaaaaaaaaaaaaaaaaaaaaaaaaaaaaLaLaxaxadadaaaaaaaaakakakakaaaaaxaxaFaFajajaFaFavavaLaLakakaeaeaaaaavavbabaaMaMaxaxaUaUajajbwbwaUaUadadayayajajalalaaaaaaaaaaaaaaaaaaaaaaaaaaaaaaaaaaaaaaaaaaaaaaaaaaaaaaaaaaaaaaaaaaaaaaaaaaaaaaaaaaaaaaaaaaaaaaaaaaaaaaaaaaaaaaaaaaaaaaaaadadafafaaaaaaaaaUaUaKaKaaaaaaaaaaaabcbcaaaaaaaaaaaaaUaUaKaKaaaaaeaebpbpaFaFaaaaaaaaaaaaaaaaaaaaaaaaaaaaaaaaaaaaaaaaaaaaaaaaaaaaaaaaaaaaaaaaaaaaaaaaaaaaaaaaaaaaaaaaaaaaaaaaaaaaaaaaaaaaaaaaaaaaaaaaaaaaaaaaaaaaaaaaaaaaaaaaaaaa",
"aaaaaaaaaaaaaaaaaaaaaaaaaaaaaaaaaaaaaaaaaaaaaaaaaaaaaaaaaaaaaaaaaaaaaaaaaaaaaaaaaaaaaaaaaaaaaaaaaaaaaaaaaaaaaaaaaaaaaaaaaaaaaaaaaaaaaaaaaaaaaaaaaaaaaaaaaaaaaaaaaxaxalalaaaaavavbmbmaaaaaaaaalalaUaUaaaaaaaaaaaabmbmaFaFaaaaaaaaaxaxalalaaaaaaaaaxaxaaaaaaaaaaaaaaaaaaaaaaaaaaaaaaaaaaaaaaaaaaaaaaaaaaaaaaaaaaaaaaaaaaaaaaaaaaaaaaaaaaaaaaaaaaaaaaaaaaaaaaaaaKaKadadaaaaaoaoaxaxararajajaLaLaaaaavavafafaMaMbwbwaoaoaqaqaiaibabaalalaFaFakakaxaxaaaaaxaxaKaKaMaMaaaaaaaaaaaaaaaaaaaaaaaaaaaaaaaaaaaaaaaaaaaaaaaaaaaaaaaaaaaaaaaaaaaaaaaaaaaaaaaaaaaaaaaaaaaaaaaaaaaaaaaaaaaaaaaaaaaaaaaaaaaaaaaaakakadadaaaaaaaaaaaaadadaaaaafafaJaJbdbdaaaaaaaaaaaaadadararaeaebpbpaoaoaaaaaeaebcbcaxaxaaaaaaaaaaaaaaaaaaaaaaaaaaaaaaaaaaaaaaaaaaaaaaaaaaaaaaaaaaaaaaaaaaaaaaaaaaaaaaaaaaaaaaaaaaaaaaaaaaaaaaaaaaaaaaaaaaaaaaaaaaaaaaaaaaaaaaaa",
"aaaaaaaaaaaaaaaaaaaaaaaaaaaaaaaaaaaaaaaaaaaaaaaaaaaaaaaaaaaaaaaaaaaaaaaaaaaaaaaaaaaaaaaaaaaaaaaaaaaaaaaaaaaaaaaaaaaaaaaaaaaaaaaaaaaaaaaaaaaaaaaaaaaaaaaaaaaaaaaaaxaxalalaaaaavavbmbmaaaaaaaaalalaUaUaaaaaaaaaaaabmbmaFaFaaaaaaaaaxaxalalaaaaaaaaaxaxaaaaaaaaaaaaaaaaaaaaaaaaaaaaaaaaaaaaaaaaaaaaaaaaaaaaaaaaaaaaaaaaaaaaaaaaaaaaaaaaaaaaaaaaaaaaaaaaaaaaaaaaaKaKadadaaaaaoaoaxaxararajajaLaLaaaaavavafafaMaMbwbwaoaoaqaqaiaibabaalalaFaFakakaxaxaaaaaxaxaKaKaMaMaaaaaaaaaaaaaaaaaaaaaaaaaaaaaaaaaaaaaaaaaaaaaaaaaaaaaaaaaaaaaaaaaaaaaaaaaaaaaaaaaaaaaaaaaaaaaaaaaaaaaaaaaaaaaaaaaaaaaaaaaaaaaaaaakakadadaaaaaaaaaaaaadadaaaaafafaJaJbdbdaaaaaaaaaaaaadadararaeaebpbpaoaoaaaaaeaebcbcaxaxaaaaaaaaaaaaaaaaaaaaaaaaaaaaaaaaaaaaaaaaaaaaaaaaaaaaaaaaaaaaaaaaaaaaaaaaaaaaaaaaaaaaaaaaaaaaaaaaaaaaaaaaaaaaaaaaaaaaaaaaaaaaaaaaaaaaaaaa",
"aaaaaaaaaaaaaaaaaaaaaaaaaaaaaaaaaaaaaaaaaaaaaaaaaaaaaaaaaaaaaaaaaaaaaaaaaaaaaaaaaaaaaaaaaaaaaaaaaaaaaaaaaaaaaaaaaaaaaaaaaaaaaaaaaaaaaaaaaaaaaaaaaaaaaaaaaiaiaFaFaMaMbGbGayayacacaGaGafafaaaaaeaeaKaKaaaaaFaFaaaabcbcafafaaaaaeaeahahaUaUalalapapararaaaaaoaoaaaaaaaaaaaaaaaaaaaaaaaaaaaaaaaaaaaaaaaaaaaaaaaaaaaaaaaaaaaaaaaaaaaaaaaaaaaaaaaaaaaaaaaaaaaaaaaaaaaaararavavbabaayaybcbcaaaaaVaVaMaMaoaoaiaiaiaibmbmbabaaDaDbabababaaLaLaqaqaeaebabaakakaxaxaFaFaaaaaaaaaaaaaaaaaaaaaaaaaaaaaaaaaaaaaaaaaaaaaaaaaaaaaaaaaaaaaaaaaaaaaaaaaaaaaaaaaaaaaaaaaaaaaaaaaaaaadadbcbcakakaaaaaaaaaeaeajajaaaaaaaaaxaxafafaaaaaaaaaxaxaaaaayayakakaxaxaaaaaaaabdbdbdbdaaaaadadaUaUaaaaaeaebpbpbcbcbabaajajaxaxaeaeaaaaaaaaaaaaaaaaaaaaaaaaaaaaaaaaaaaaaaaaaaaaaaaaaaaaaaaaaaaaaaaaaaaaaaaaaaaaaaaaaaaaaaaaaaaaaaaaaaaaaaaaaaaaaaaaaaaaaaaaaaaa",
"aaaaaaaaaaaaaaaaaaaaaaaaaaaaaaaaaaaaaaaaaaaaaaaaaaaaaaaaaaaaaaaaaaaaaaaaaaaaaaaaaaaaaaaaaaaaaaaaaaaaaaaaaaaaaaaaaaaaaaaaaaaaaaaaaaaaaaaaaaaaaaaaaaaaaaaaaiaiaFaFaMaMbGbGayayacacaGaGafafaaaaaeaeaKaKaaaaaFaFaaaabcbcafafaaaaaeaeahahaUaUalalapapararaaaaaoaoaaaaaaaaaaaaaaaaaaaaaaaaaaaaaaaaaaaaaaaaaaaaaaaaaaaaaaaaaaaaaaaaaaaaaaaaaaaaaaaaaaaaaaaaaaaaaaaaaaaaararavavbabaayaybcbcaaaaaVaVaMaMaoaoaiaiaiaibmbmbabaaDaDbabababaaLaLaqaqaeaebabaakakaxaxaFaFaaaaaaaaaaaaaaaaaaaaaaaaaaaaaaaaaaaaaaaaaaaaaaaaaaaaaaaaaaaaaaaaaaaaaaaaaaaaaaaaaaaaaaaaaaaaaaaaaaaaadadbcbcakakaaaaaaaaaeaeajajaaaaaaaaaxaxafafaaaaaaaaaxaxaaaaayayakakaxaxaaaaaaaabdbdbdbdaaaaadadaUaUaaaaaeaebpbpbcbcbabaajajaxaxaeaeaaaaaaaaaaaaaaaaaaaaaaaaaaaaaaaaaaaaaaaaaaaaaaaaaaaaaaaaaaaaaaaaaaaaaaaaaaaaaaaaaaaaaaaaaaaaaaaaaaaaaaaaaaaaaaaaaaaaaaaaaaaa",
"aaaaaaaaaaaaaaaaaaaaaaaaaaaaaaaaaaaaaaaaaaaaaaaaaaaaaaaaaaaaaaaaaaaaaaaaaaaaaaaaaaaaaaaaaaaaaaaaaaaaaaaaaaaaaaaaaaaaaaaaaaaaaaaaaaaaaaaaakakaeaeaaaaaaaaaxaxbzbzaoaoaxaxbzbzbabaacacaKaKaaaaalalaeaeaaaaadadalalacacaaaaaaaaadadafafalalaxaxafafakakaxaxababaMaMaaaaaKaKaoaoaaaaaaaaaaaaaaaaaaaaaaaaaaaaaaaaaaaaaaaaaaaaaaaaaaaaaaaaaaaaaaaaaqaqakakajajaaaaaaaaaaaaaUaUaUaUbabaayayararaoaoajajbabaajajbabaadadbabaaFaFararaiaiaFaFakakaqaqayayaVaVaaaaaaaaaaaaaaaaajajaMaMaaaaaaaaaaaaaaaaaaaaaaaaaaaaaaaaaaaaaaaaaaaaaaaaaaaaaaaaaaaaaaaaaaaaaaaaaaaaaaaaaaaaaaaaaLaLbpbpakakaaaaaaaaadadajajaaaaayayaKaKaaaaaaaaadadaaaaaUaUalalakakaaaaaaaabdbda8a8a3a3bcbcaxaxaUaUbpbpbabaaMaMbdbdbcbcaaaaaaaaaaaaaaaaaaaaaaaaaaaaaaaaaaaaaaaaaaaaaaaaaaaaaaaaaaaaaaaaaaaaaaaaaaaaaaaaaaaaaaaaaaaaaaaaaaaaaaaaaaaaaaaaaaaaaaaaaaaaaaaaaaaa",
"aaaaaaaaaaaaaaaaaaaaaaaaaaaaaaaaaaaaaaaaaaaaaaaaaaaaaaaaaaaaaaaaaaaaaaaaaaaaaaaaaaaaaaaaaaaaaaaaaaaaaaaaaaaaaaaaaaaaaaaaaaaaaaaaaaaaaaaaakakaeaeaaaaaaaaaxaxbzbzaoaoaxaxbzbzbabaacacaKaKaaaaalalaeaeaaaaadadalalacacaaaaaaaaadadafafalalaxaxafafakakaxaxababaMaMaaaaaKaKaoaoaaaaaaaaaaaaaaaaaaaaaaaaaaaaaaaaaaaaaaaaaaaaaaaaaaaaaaaaaaaaaaaaaqaqakakajajaaaaaaaaaaaaaUaUaUaUbabaayayararaoaoajajbabaajajbabaadadbabaaFaFararaiaiaFaFakakaqaqayayaVaVaaaaaaaaaaaaaaaaajajaMaMaaaaaaaaaaaaaaaaaaaaaaaaaaaaaaaaaaaaaaaaaaaaaaaaaaaaaaaaaaaaaaaaaaaaaaaaaaaaaaaaaaaaaaaaaLaLbpbpakakaaaaaaaaadadajajaaaaayayaKaKaaaaaaaaadadaaaaaUaUalalakakaaaaaaaabdbda8a8a3a3bcbcaxaxaUaUbpbpbabaaMaMbdbdbcbcaaaaaaaaaaaaaaaaaaaaaaaaaaaaaaaaaaaaaaaaaaaaaaaaaaaaaaaaaaaaaaaaaaaaaaaaaaaaaaaaaaaaaaaaaaaaaaaaaaaaaaaaaaaaaaaaaaaaaaaaaaaaaaaaaaaa",
"aaaaaaaaaaaaaaaaaaaaaaaaaaaaaaaaaaaaaaaaaaaaaaaaaaaaaaaaaaaaaaaaaaaaaaaaaaaaaaaaaaaaaaaaaaaaaaaaaaaaaaaaaaaaaaaaaaaaaaaaaaaaaaaaaaaaaaaaakakaxaxaUaUaaaaaaaaafafbmbmaoaobwbwaeaebababcbcaaaaaLaLaeaeaaaaadadaeaeavavaaaabmbmaEaEaoaoaGaGbmbmakakaGaGbzbzaLaLbmbmbmbmaxaxaiaiaaaaaaaaaaaaaaaaaaaaaaaaaaaaaaaaaaaaaaaaaaaaaaaaaaaaaaaaaaaaaaaaaqaqakakakakavavalalaeaealalbabaaeaebabaaiaibabaavavararafafaqaqbmbmaaaaaxaxaeaeararaaaaaaaaalalakakaaaaaaaaaaaaadadalalajajaMaMaaaaaaaaaaaaaaaaaaaaaaaaaaaaaaaaaaaaaaaaaaaaaaaaaaaaaaaaaaaaaaaaaaaaaaaaaaaaaaaaaaaaaaaaaaaaaiaibpbpajajaaaaayaybpbpafafaaaaaKaKafafaaaaajajajajaVaVaIaIalalaaaaaiaiakaka6a6bdbdbabaaLaLbpbpbabaalalbpbpaLaLaaaaaaaaaaaaaaaaaaaaaaaaaaaaaaaaaaaaaaaaaaaaaaaaaaaaaaaaaaaaaaaaaaaaaaaaaaaaaaaaaaaaaaaaaaaaaaaaaaaaaaaaaaaaaaaaaaaaaaaaaaaaaaaaaaaaaaaa",
"aaaaaaaaaaaaaaaaaaaaaaaaaaaaaaaaaaaaaaaaaaaaaaaaaaaaaaaaaaaaaaaaaaaaaaaaaaaaaaaaaaaaaaaaaaaaaaaaaaaaaaaaaaaaaaaaaaaaaaaaaaaaaaaaaaaaaaaaakakaxaxaUaUaaaaaaaaafafbmbmaoaobwbwaeaebababcbcaaaaaLaLaeaeaaaaadadaeaeavavaaaabmbmaEaEaoaoaGaGbmbmakakaGaGbzbzaLaLbmbmbmbmaxaxaiaiaaaaaaaaaaaaaaaaaaaaaaaaaaaaaaaaaaaaaaaaaaaaaaaaaaaaaaaaaaaaaaaaaqaqakakakakavavalalaeaealalbabaaeaebabaaiaibabaavavararafafaqaqbmbmaaaaaxaxaeaeararaaaaaaaaalalakakaaaaaaaaaaaaadadalalajajaMaMaaaaaaaaaaaaaaaaaaaaaaaaaaaaaaaaaaaaaaaaaaaaaaaaaaaaaaaaaaaaaaaaaaaaaaaaaaaaaaaaaaaaaaaaaaaaaiaibpbpajajaaaaayaybpbpafafaaaaaKaKafafaaaaajajajajaVaVaIaIalalaaaaaiaiakaka6a6bdbdbabaaLaLbpbpbabaalalbpbpaLaLaaaaaaaaaaaaaaaaaaaaaaaaaaaaaaaaaaaaaaaaaaaaaaaaaaaaaaaaaaaaaaaaaaaaaaaaaaaaaaaaaaaaaaaaaaaaaaaaaaaaaaaaaaaaaaaaaaaaaaaaaaaaaaaaaaaaaaaa",
"aaaaaaaaaaaaaaaaaaaaaaaaaaaaaaaaaaaaaaaaaaaaaaaaaaaaaaaaaaaaaaaaaaaaaaaaaaaaaaaaaaaaaaaaaaaaaaaaaaaaaaaaaaaaaaaaaaaaaaaaaaaaaaaaaaaaaaaaaaaaaaaaalalbzbzafafaqaqacacavavaoaoaGaGayayaxaxararakakalalaaaabmbmauauaeaeaqaqbwbwararbmbmbzbzbababmbmahahbabaalalahahajajaaaaaaaaaaaaaaaaaaaaaaaaaaaaaaaaaaaaaaaaaaaaaaaaaaaaaaaaaaaaaaaaaaaaararbabaaKaKaMaMbGbGaUaUaUaUaKaKbabaararafafaqaqaiaiaFaFaaaaaiaiaMaMbmbmavavaKaKbabaaaaababaafafaVaVaaaaaaaaaLaLaKaKakakaiaiaaaaaUaUaxaxalalaaaaaaaaaaaaaaaaaaaaaaaaaaaaaaaaaaaaaaaaaaaaaaaaaaaaaaaaaaaaaaaaaaaaaaaaaaaaaaaaa7a7a8a8a6a6bpbpakakaaaaaVaVbpbpa6a6afafaeaeaxaxaLaLaLaLaIaIaJaJalalaaaaaVaVa7a7aKaKaKaKaaaaadada$a$a3a3awawa6a6aaaaa3a3aVaVaaaaaaaaaaaaaaaaaaaaaaaaaaaaaaaaaaaaaaaaaaaaaaaaaaaaaaaaaaaaaaaaaaaaaaaaaaaaaaaaaaaaaaaaaaaaaaaaaaaaaaaaaaaaaaaaaaaaaaaaaaaaaaaa",
"aaaaaaaaaaaaaaaaaaaaaaaaaaaaaaaaaaaaaaaaaaaaaaaaaaaaaaaaaaaaaaaaaaaaaaaaaaaaaaaaaaaaaaaaaaaaaaaaaaaaaaaaaaaaaaaaaaaaaaaaaaaaaaaaaaaaaaaaaaaaaaaaalalbzbzafafaqaqacacavavaoaoaGaGayayaxaxararakakalalaaaabmbmauauaeaeaqaqbwbwararbmbmbzbzbababmbmahahbabaalalahahajajaaaaaaaaaaaaaaaaaaaaaaaaaaaaaaaaaaaaaaaaaaaaaaaaaaaaaaaaaaaaaaaaaaaaararbabaaKaKaMaMbGbGaUaUaUaUaKaKbabaararafafaqaqaiaiaFaFaaaaaiaiaMaMbmbmavavaKaKbabaaaaababaafafaVaVaaaaaaaaaLaLaKaKakakaiaiaaaaaUaUaxaxalalaaaaaaaaaaaaaaaaaaaaaaaaaaaaaaaaaaaaaaaaaaaaaaaaaaaaaaaaaaaaaaaaaaaaaaaaaaaaaaaaa7a7a8a8a6a6bpbpakakaaaaaVaVbpbpa6a6afafaeaeaxaxaLaLaLaLaIaIaJaJalalaaaaaVaVa7a7aKaKaKaKaaaaadada$a$a3a3awawa6a6aaaaa3a3aVaVaaaaaaaaaaaaaaaaaaaaaaaaaaaaaaaaaaaaaaaaaaaaaaaaaaaaaaaaaaaaaaaaaaaaaaaaaaaaaaaaaaaaaaaaaaaaaaaaaaaaaaaaaaaaaaaaaaaaaaaaaaaaaaaa",
"aaaaaaaaaaaaaaaaaaaaaaaaaaaaaaaaaaaaaaaaaaaaaaaaaaaaaaaaaaaaaaaaaaaaaaaaaaaaaaaaaaaaaaaaaaaaaaaaaaaaaaaaaaaaaaaaaaaaaaaaaaaaaaaaaaaaajajahahalalaaaaaeaeahahbwbwavavaeaeaaaaaeaeauauadadaqaqakakaeaeaaaabzbzbvbvaoaobwbwaeaeaaaabzbzaqaqbababmbmbmbmalalahahaMaMaaaaaiaiaaaaaaaaaaaaaaaaaaaaaaaaaaaaaaaaaaaaaaaaaaaaaaaaaaaaaaaaaaaaaUaUadadaxaxalalauauavavaMaMaaaababaaxaxajajajajaaaaaaaaaxaxajajbabaaFaFauaubzbzajajaaaaavavaKaKaqaqbabaaxaxakakaLaLajajbabaalalaeaeaaaaaaaaaaaaaaaaaaaaaaaaaaaaaaaaaaaaaaaaaaaaaaaaaaaaaaaaaaaaaaaaaaaaajajaxaxadadakakararaaaaaVaVbpbpa6a6a6a6bpbpakakaaaaaeaea3a3a7a7aLaLaxaxaLaLayayaIaIaIaIajajafafajaja8a8a3a3aaaaayaybabaa3a3bpbpa6a6a6a6bpbpbdbdaaaaaaaaaLaLaaaaaxaxaeaeaaaaaaaaaaaaaaaaaaaaaaaaaaaaaaaaaaaaaaaaaaaaaaaaaaaaaaaaaaaaaaaaaaaaaaaaaaaaaaaaaaaaaaaaaaaaaaaaaaaaaaaaaaaa",
"aaaaaaaaaaaaaaaaaaaaaaaaaaaaaaaaaaaaaaaaaaaaaaaaaaaaaaaaaaaaaaaaaaaaaaaaaaaaaaaaaaaaaaaaaaaaaaaaaaaaaaaaaaaaaaaaaaaaaaaaaaaaaaaaaaaaajajahahalalaaaaaeaeahahbwbwavavaeaeaaaaaeaeauauadadaqaqakakaeaeaaaabzbzbvbvaoaobwbwaeaeaaaabzbzaqaqbababmbmbmbmalalahahaMaMaaaaaiaiaaaaaaaaaaaaaaaaaaaaaaaaaaaaaaaaaaaaaaaaaaaaaaaaaaaaaaaaaaaaaUaUadadaxaxalalauauavavaMaMaaaababaaxaxajajajajaaaaaaaaaxaxajajbabaaFaFauaubzbzajajaaaaavavaKaKaqaqbabaaxaxakakaLaLajajbabaalalaeaeaaaaaaaaaaaaaaaaaaaaaaaaaaaaaaaaaaaaaaaaaaaaaaaaaaaaaaaaaaaaaaaaaaaaajajaxaxadadakakararaaaaaVaVbpbpa6a6a6a6bpbpakakaaaaaeaea3a3a7a7aLaLaxaxaLaLayayaIaIaIaIajajafafajaja8a8a3a3aaaaayaybabaa3a3bpbpa6a6a6a6bpbpbdbdaaaaaaaaaLaLaaaaaxaxaeaeaaaaaaaaaaaaaaaaaaaaaaaaaaaaaaaaaaaaaaaaaaaaaaaaaaaaaaaaaaaaaaaaaaaaaaaaaaaaaaaaaaaaaaaaaaaaaaaaaaaaaaaaaaaa",
"aaaaaaaaaaaaaaaaaaaaaaaaaaaaaaaaaaaaaaaaaaaaaaaaaaaaaaaaaaaaaaaaaaaaaaaaaaaaaaaaaaaaaaaaaaaaaaaaaaaaaaaaaaaaaaaaaaaaaoaoaKaKaaaaaaaaaaaaakakbmbmalalaaaaavavaEaEavavavavavavbwbwaLaLbzbzaaaaayayaVaVaaaaaEaEavavaaaaadadbababwbwaxaxaaaabmbmaiaiayayahahararaaaabmbmbcbcaaaaaaaaaxaxbmbmaoaoaaaaaaaaaaaaaaaaaaaaaaaaaaaaaaaaaaaaaaaaaaaaaaaaaaaaaMaMavavavavalalaVaVajajaaaaaaaaaxaxaUaUaaaaaaaaapapalalbabaa1a1bwbwbabaavavbGbGaaaaaFaFaUaUalalafafakakaVaVbabaaFaFaaaaaqaqajajaaaaaaaaaaaaaaaaaaaaaaaaaaaaaaaaaaaaaaaaaaaaaaaaaaaaaaaaaaaaaaaaaaaaaxaxbpbpadadajajaaaaaVaVawawafafaiaibpbpakaka7a7adada$a$aJaJafafaaaaaeaeaIaIaIaIaaaaaMaMakaka6a6aJaJa7a7ajajakakbpbpaoaoafafbpbpalalaaaaalalaKaKaxaxaoaoaaaaaaaaaaaaaaaaaaaaaaaaaaaaaaaaaaaaaaaaaaaaaaaaaaaaaaaaaaaaaaaaaaaaaaaaaaaaaaaaaaaaaaaaaaaaaaaaaaaaaaaaaaaaaaaaaaaa",
"aaaaaaaaaaaaaaaaaaaaaaaaaaaaaaaaaaaaaaaaaaaaaaaaaaaaaaaaaaaaaaaaaaaaaaaaaaaaaaaaaaaaaaaaaaaaaaaaaaaaaaaaaaaaaaaaaaaaaoaoaKaKaaaaaaaaaaaaakakbmbmalalaaaaavavaEaEavavavavavavbwbwaLaLbzbzaaaaayayaVaVaaaaaEaEavavaaaaadadbababwbwaxaxaaaabmbmaiaiayayahahararaaaabmbmbcbcaaaaaaaaaxaxbmbmaoaoaaaaaaaaaaaaaaaaaaaaaaaaaaaaaaaaaaaaaaaaaaaaaaaaaaaaaMaMavavavavalalaVaVajajaaaaaaaaaxaxaUaUaaaaaaaaapapalalbabaa1a1bwbwbabaavavbGbGaaaaaFaFaUaUalalafafakakaVaVbabaaFaFaaaaaqaqajajaaaaaaaaaaaaaaaaaaaaaaaaaaaaaaaaaaaaaaaaaaaaaaaaaaaaaaaaaaaaaaaaaaaaaxaxbpbpadadajajaaaaaVaVawawafafaiaibpbpakaka7a7adada$a$aJaJafafaaaaaeaeaIaIaIaIaaaaaMaMakaka6a6aJaJa7a7ajajakakbpbpaoaoafafbpbpalalaaaaalalaKaKaxaxaoaoaaaaaaaaaaaaaaaaaaaaaaaaaaaaaaaaaaaaaaaaaaaaaaaaaaaaaaaaaaaaaaaaaaaaaaaaaaaaaaaaaaaaaaaaaaaaaaaaaaaaaaaaaaaaaaaaaaaa",
"aaaaaaaaaaaaaaaaaaaaaaaaaaaaaaaaaaaaaaaaaaaaaaaaaaaaaaaaaaaaaaaaaaaaaaaaaaaaaaaaaaaaaaaaaaaaaaaaaaaaaaaaaaaaaaaaaaaaaFaFaLaLaxaxaxaxaaaaaaaaaaaaaeaebmbmbmbmauauaEaEbzbzafafavavavavbmbmbabaafafbcbcaiaibzbzavavavavadadavavbmbmaaaaadadauauavavahahavavbcbcbmbmaGaGadadalalbzbzalalaeaeaaaaaaaaaaaaaaaaaaaaaaaaaaaaaaaaaaaaaaaaaaaaaaaaaaaaaaaaaaaaaaaaaaaaaaaaaiaiaFaFayayakakaaaaaeaeadadaoaoaeaebcbcaaaaaiaibmbmaoaobGbGakakaiaiacacaxaxajajbabababaajajalalaFaFbabababaaMaMaaaaaaaaaaaaaaaaaaaaaaaaaaaaaaaaaaaaaaaaaaaaaaaaaaaaaaaaaaaaaaaaaiaiadadajajajajadadaxaxa7a7aMaMaKaKafafaoaobdbdaaaaaoaoa3a3a$a$ajaja6a6aIaIaIaIaIaIa8a8akaka$a$a3a3a6a6ajajaaaaalala6a6a6a6bnbnaiaia6a6adadalalajajaaaaaaaaaaaaaaaaaaaaaaaaaaaaaaaaaaaaaaaaaaaaaaaaaaaaaaaaaaaaaaaaaaaaaaaaaaaaaaaaaaaaaaaaaaaaaaaaaaaaaaaaaaaaaaaaaaaaaaaaaaaa",
"aaaaaaaaaaaaaaaaaaaaaaaaaaaaaaaaaaaaaaaaaaaaaaaaaaaaaaaaaaaaaaaaaaaaaaaaaaaaaaaaaaaaaaaaaaaaaaaaaaaaaaaaaaaaaaaaaaaaaFaFaLaLaxaxaxaxaaaaaaaaaaaaaeaebmbmbmbmauauaEaEbzbzafafavavavavbmbmbabaafafbcbcaiaibzbzavavavavadadavavbmbmaaaaadadauauavavahahavavbcbcbmbmaGaGadadalalbzbzalalaeaeaaaaaaaaaaaaaaaaaaaaaaaaaaaaaaaaaaaaaaaaaaaaaaaaaaaaaaaaaaaaaaaaaaaaaaaaaiaiaFaFayayakakaaaaaeaeadadaoaoaeaebcbcaaaaaiaibmbmaoaobGbGakakaiaiacacaxaxajajbabababaajajalalaFaFbabababaaMaMaaaaaaaaaaaaaaaaaaaaaaaaaaaaaaaaaaaaaaaaaaaaaaaaaaaaaaaaaaaaaaaaaiaiadadajajajajadadaxaxa7a7aMaMaKaKafafaoaobdbdaaaaaoaoa3a3a$a$ajaja6a6aIaIaIaIaIaIa8a8akaka$a$a3a3a6a6ajajaaaaalala6a6a6a6bnbnaiaia6a6adadalalajajaaaaaaaaaaaaaaaaaaaaaaaaaaaaaaaaaaaaaaaaaaaaaaaaaaaaaaaaaaaaaaaaaaaaaaaaaaaaaaaaaaaaaaaaaaaaaaaaaaaaaaaaaaaaaaaaaaaaaaaaaaaa",
"aaaaaaaaaaaaaaaaaaaaaaaaaaaaaaaaaaaaaaaaaaaaaaaaaaaaaaaaaaaaaaaaaaaaaaaaaaaaaaaaaaaaaaaaaaaaaaaaaaaaaaaaaaaaaaaaaaaaaaaaaaaaaiaiahahahahaUaUaaaaajajababahahbabaaeaebzbzauauajajavavauauadadaFaFacacakakbzbzafafalalavavbwbwakakararadadavavahahbabaaLaLahahahahahahbzbzalalaoaoaaaaaaaaaaaaaaaaaaaaaaaaaaaaaaaaaaaaaaaaaaaaaaaaaVaVaxaxaxaxalalaKaKaxaxavavaLaLayaybabaaaaaadadalalaaaaajajaeaeaaaaaeaeaxaxaaaaaMaMacacavavaDaDbcbcaeaeaaaaaaaababababababaaaaababaavavajajadadayayaaaaaaaaaaaaaaaaaaaaaaaaaaaaaaaaaaaaaaaaaaaaaaaaaxaxaxaxaUaUaUaUajaja8a8aaaaa$a$aeaeadada$a$aaaaaUaUaMaMa7a7akakaaaaaxaxakaka6a6aJaJaJaJaIaIaJaJa8a8akakajajaJaJa7a7a3a3ajaja$a$a6a6aUaUa7a7a6a6bpbpaeaeaaaaaaaaaMaMalalbdbdbdbdadadararaaaaaaaaaaaaaaaaaaaaaaaaaaaaaaaaaaaaaaaaaaaaaaaaaaaaaaaaaaaaaaaaaaaaaaaaaaaaaaaaaaaaaaaaaaaaaaaaaaaa",
"aaaaaaaaaaaaaaaaaaaaaaaaaaaaaaaaaaaaaaaaaaaaaaaaaaaaaaaaaaaaaaaaaaaaaaaaaaaaaaaaaaaaaaaaaaaaaaaaaaaaaaaaaaaaaaaaaaaaaaaaaaaaaiaiahahahahaUaUaaaaajajababahahbabaaeaebzbzauauajajavavauauadadaFaFacacakakbzbzafafalalavavbwbwakakararadadavavahahbabaaLaLahahahahahahbzbzalalaoaoaaaaaaaaaaaaaaaaaaaaaaaaaaaaaaaaaaaaaaaaaaaaaaaaaVaVaxaxaxaxalalaKaKaxaxavavaLaLayaybabaaaaaadadalalaaaaajajaeaeaaaaaeaeaxaxaaaaaMaMacacavavaDaDbcbcaeaeaaaaaaaababababababaaaaababaavavajajadadayayaaaaaaaaaaaaaaaaaaaaaaaaaaaaaaaaaaaaaaaaaaaaaaaaaxaxaxaxaUaUaUaUajaja8a8aaaaa$a$aeaeadada$a$aaaaaUaUaMaMa7a7akakaaaaaxaxakaka6a6aJaJaJaJaIaIaJaJa8a8akakajajaJaJa7a7a3a3ajaja$a$a6a6aUaUa7a7a6a6bpbpaeaeaaaaaaaaaMaMalalbdbdbdbdadadararaaaaaaaaaaaaaaaaaaaaaaaaaaaaaaaaaaaaaaaaaaaaaaaaaaaaaaaaaaaaaaaaaaaaaaaaaaaaaaaaaaaaaaaaaaaaaaaaaaaa",
"aaaaaaaaaaaaaaaaaaaaaaaaaaaaaaaaaaaaaaaaaaaaaaaaaaaaaaaaaaaaaaaaaaaaaaaaaaaaaaaaaaaaaaaaaaaaaaaaaaaaaaaaaaaaaaaaacacalalacacajajaxaxadadbmbmacacaeaeadadadadacacaaaaayaybwbwauauavavavavauauaaaaaxaxayayalalbababmbmafafbmbmaaaabcbcaUaUauauafafajajahahaLaLbmbmaxaxaaaaaaaaaaaaaaaaaaaaaaaaaaaaaaaaaaaaaaaaaaaaaaaaaaaaaaaaaaaaaaaaaaaaaFaFaeaeaaaaaaaaaaaaaaaaaaaaapapakakalalaGaGbzbzalalakakaaaaaMaMacacaiaialalaeaeaaaaaeaeaaaaaaaaajajajajakakalalaLaLayayalalararaaaaaaaaalalalalaaaaaaaaaaaaaaaaaaaaaaaaaaaaaaaaaaaaaaaaaaaaaaaaaaaaajajaKaKaxaxbdbda3a3a6a6aaaaaVaVadada6a6aaaaalala6a6akakaiaia8a8bdbdaIaIa6a6afafaIaIaJaJaJaJaLaLa6a6a8a8a3a3awawaoaoa6a6akakaaaaafafbdbdaLaLaaaaaiaiakakbdbdaeaeaaaaaaaaaaaaaaaaaaaaaaaaaaaaaaaaaaaaaaaaaaaaaaaaaaaaaaaaaaaaaaaaaaaaaaaaaaaaaaaaaaaaaaaaaaaaaaaaaaaaaaaaaaaaaaaaaaaa",
"aaaaaaaaaaaaaaaaaaaaaaaaaaaaaaaaaaaaaaaaaaaaaaaaaaaaaaaaaaaaaaaaaaaaaaaaaaaaaaaaaaaaaaaaaaaaaaaaaaaaaaaaaaaaaaaaacacalalacacajajaxaxadadbmbmacacaeaeadadadadacacaaaaayaybwbwauauavavavavauauaaaaaxaxayayalalbababmbmafafbmbmaaaabcbcaUaUauauafafajajahahaLaLbmbmaxaxaaaaaaaaaaaaaaaaaaaaaaaaaaaaaaaaaaaaaaaaaaaaaaaaaaaaaaaaaaaaaaaaaaaaaFaFaeaeaaaaaaaaaaaaaaaaaaaaapapakakalalaGaGbzbzalalakakaaaaaMaMacacaiaialalaeaeaaaaaeaeaaaaaaaaajajajajakakalalaLaLayayalalararaaaaaaaaalalalalaaaaaaaaaaaaaaaaaaaaaaaaaaaaaaaaaaaaaaaaaaaaaaaaaaaaajajaKaKaxaxbdbda3a3a6a6aaaaaVaVadada6a6aaaaalala6a6akakaiaia8a8bdbdaIaIa6a6afafaIaIaJaJaJaJaLaLa6a6a8a8a3a3awawaoaoa6a6akakaaaaafafbdbdaLaLaaaaaiaiakakbdbdaeaeaaaaaaaaaaaaaaaaaaaaaaaaaaaaaaaaaaaaaaaaaaaaaaaaaaaaaaaaaaaaaaaaaaaaaaaaaaaaaaaaaaaaaaaaaaaaaaaaaaaaaaaaaaaaaaaaaaaa",
"aaaaaaaaaaaaaaaaaaaaaaaaaaaaaaaaaaaaaaaaaaaaaaaaaaaaaaaaaaaaaaaaaaaaaaaaaaaaaaaaaaaaaaaaaaaaaaaaaaaaaaaaaaaaaaaaalalaUaUalalaKaKalalaaaaaaaaalalaGaGafafaaaaaUaUaeaeaaaaavavbvbvadadaiaibmbmaaaaaeaeajajavavavavauauaeaeakakaaaaajajauauaiaiajajbzbzauauaxaxararaaaaaaaaaaaaaaaaaeaebmbmaxaxbmbmaeaeaaaaaaaaaaaaaaaaaaaaaaaaaaaaaaaaaaaaajajaLaLaxaxaxaxaeaeayayadada#a#aLaLaaaaavavavavaUaUbcbcaxaxaaaaaxaxalalbzbzbabababaaUaUaxaxbcbcaeaeajajayayaeaeaeaeaeaeaeaeaqaqaaaaaaaaaaaaaaaaaaaaaaaaaaaaaaaaaaaaaaaaaaaaaaaaaaaaaaaaaaaaaFaFaKaKaeaeaIaIaaaaa6a6ayaybdbdalala8a8ajajayayalala$a$akakakakakaka8a8aUaUawawa6a6a7a7aJaJaKaKbnbna6a6aaaaalalawawaoaoaoaoajaja8a8aJaJajajaaaaa8a8alalajaja6a6aaaaaaaaaaaaa6a6aaaaaaaaaaaaaaaaaaaaaaaaaaaaaaaaaaaaaaaaaaaaaaaaaaaaaaaaaaaaaaaaaaaaaaaaaaaaaaaaaaaaaaaaaaaaaaaaaaaaaaaaaaaa",
"aaaaaaaaaaaaaaaaaaaaaaaaaaaaaaaaaaaaaaaaaaaaaaaaaaaaaaaaaaaaaaaaaaaaaaaaaaaaaaaaaaaaaaaaaaaaaaaaaaaaaaaaaaaaaaaaalalaUaUalalaKaKalalaaaaaaaaalalaGaGafafaaaaaUaUaeaeaaaaavavbvbvadadaiaibmbmaaaaaeaeajajavavavavauauaeaeakakaaaaajajauauaiaiajajbzbzauauaxaxararaaaaaaaaaaaaaaaaaeaebmbmaxaxbmbmaeaeaaaaaaaaaaaaaaaaaaaaaaaaaaaaaaaaaaaaajajaLaLaxaxaxaxaeaeayayadada#a#aLaLaaaaavavavavaUaUbcbcaxaxaaaaaxaxalalbzbzbabababaaUaUaxaxbcbcaeaeajajayayaeaeaeaeaeaeaeaeaqaqaaaaaaaaaaaaaaaaaaaaaaaaaaaaaaaaaaaaaaaaaaaaaaaaaaaaaaaaaaaaaFaFaKaKaeaeaIaIaaaaa6a6ayaybdbdalala8a8ajajayayalala$a$akakakakakaka8a8aUaUawawa6a6a7a7aJaJaKaKbnbna6a6aaaaalalawawaoaoaoaoajaja8a8aJaJajajaaaaa8a8alalajaja6a6aaaaaaaaaaaaa6a6aaaaaaaaaaaaaaaaaaaaaaaaaaaaaaaaaaaaaaaaaaaaaaaaaaaaaaaaaaaaaaaaaaaaaaaaaaaaaaaaaaaaaaaaaaaaaaaaaaaaaaaaaaaa",
"aaaaaaaaaaaaaaaaaaaaaaaaaaaaaaaaaaaaaaaaaaaaaaaaaaaaaaaaaaaaaaaaaaaaaaaaaaaaaaaaaaaaaaaaaaaaaaaaaaaaaaaaaaaaaaaaaaaaaaaaaKaKaKaKakakaUaUararaaaaalalafafbabaaaaaaxaxaeaeaaaabwbwbGbGbzbzavavakakalalakakavavajajafafbmbmaaaaaKaKajajararajajbzbzalalaeaeaxaxakakaaaaakakbmbmbmbmbmbmaLaLaLaLalalaiaiaaaaaaaaaaaaaaaaaaaaaaaaacacaxaxaxaxaiaiaFaFafafakakajajaiaiayayaLaLaUaUaiaiaiaiaFaFaFaFaFaFajajaqaqaFaFbabaaDaDaFaFajajaUaUaeaeajajbabababaaiaiaFaFaFaFaDaDaFaFaeaeaxaxadadaoaoaaaaaaaaaaaaaaaaaaaaaaaaaaaaaaaaaaaaaaaaaaaaaaaaaaaaaiaiafafadadbdbdaKaKa3a3aiaia3a3axaxa$a$aaaaalalafafa8a8a$a$a8a8a8a8a$a$adadakakaaaaaJaJbnbnaIaIaaaaaLaLawawa6a6a6a6ajajaaaaaUaUbcbcafafa8a8aLaLajajayayaLaLaeaea3a3axaxadadaxaxaKaKaeaeaaaaaaaaaaaaaaaaaaaaaaaaaaaaaaaaaaaaaaaaaaaaaaaaaaaaaaaaaaaaaaaaaaaaaaaaaaaaaaaaaaaaaaaaaaaaaaaa",
"aaaaaaaaaaaaaaaaaaaaaaaaaaaaaaaaaaaaaaaaaaaaaaaaaaaaaaaaaaaaaaaaaaaaaaaaaaaaaaaaaaaaaaaaaaaaaaaaaaaaaaaaaaaaaaaaaaaaaaaaaKaKaKaKakakaUaUararaaaaalalafafbabaaaaaaxaxaeaeaaaabwbwbGbGbzbzavavakakalalakakavavajajafafbmbmaaaaaKaKajajararajajbzbzalalaeaeaxaxakakaaaaakakbmbmbmbmbmbmaLaLaLaLalalaiaiaaaaaaaaaaaaaaaaaaaaaaaaacacaxaxaxaxaiaiaFaFafafakakajajaiaiayayaLaLaUaUaiaiaiaiaFaFaFaFaFaFajajaqaqaFaFbabaaDaDaFaFajajaUaUaeaeajajbabababaaiaiaFaFaFaFaDaDaFaFaeaeaxaxadadaoaoaaaaaaaaaaaaaaaaaaaaaaaaaaaaaaaaaaaaaaaaaaaaaaaaaaaaaiaiafafadadbdbdaKaKa3a3aiaia3a3axaxa$a$aaaaalalafafa8a8a$a$a8a8a8a8a$a$adadakakaaaaaJaJbnbnaIaIaaaaaLaLawawa6a6a6a6ajajaaaaaUaUbcbcafafa8a8aLaLajajayayaLaLaeaea3a3axaxadadaxaxaKaKaeaeaaaaaaaaaaaaaaaaaaaaaaaaaaaaaaaaaaaaaaaaaaaaaaaaaaaaaaaaaaaaaaaaaaaaaaaaaaaaaaaaaaaaaaaaaaaaaaaa",
"aaaaaaaaaaaaaaaaaaaaaaaaaaaaaaaaaaaaaaaaaaaaaaaaaaaaaaaaaaaaaaaaaaaaaaaaaaaaaaaaaaaaaaaaaaaaaaaaaaaaaaaaaaaaaUaUbcbcbcbcbzbzbzbzadadaLaLajajafafbcbcaLaLaxaxakakaaaaaKaKayaybababmbmaEaEavavajajaiaiaiaiavavbmbmalalaaaaaUaUapapaFaFaFaFbzbzajajakakaaaaaFaFbwbwadadaeaeakakaLaLalaladadadadbmbmaaaaaaaaaaaaaaaaaaaaaaaaaaaaaxaxaaaaaaaaaaaaaFaFaFaFaaaaaLaLaLaLafafajajajajakakavavaVaVaMaMaqaqadadbzbzaeaeaaaaaaaaaaaaaFaFajajaoaobabaajajaVaVafafafafafafalalaMaMaaaaaaaaajajaUaUaqaqararaaaaaaaaaaaaaaaaaaaaaaaaaaaaaaaaaFaFafafaiaia6a6a6a6a6a6a6a6akakaUaUaeaeaIaIaFaFaeaealalajajaMaMaaaaa7a7akaka6a6aaaaaJaJaxaxaaaaaiaiadada7a7aaaaaUaUaVaVa8a8aMaMa$a$aUaUaUaUajajakaka7a7ayayaUaUbdbdaIaIaIaIaIaIaJaJaaaaaaaaaaaaaMaMayayaaaaaaaaaaaaaaaaaaaaaaaaaaaaaaaaaaaaaaaaaaaaaaaaaaaaaaaaaaaaaaaaaaaaaaaaaaaaaaaaaaaaaaaaaaaa",
"aaaaaaaaaaaaaaaaaaaaaaaaaaaaaaaaaaaaaaaaaaaaaaaaaaaaaaaaaaaaaaaaaaaaaaaaaaaaaaaaaaaaaaaaaaaaaaaaaaaaaaaaaaaaaUaUbcbcbcbcbzbzbzbzadadaLaLajajafafbcbcaLaLaxaxakakaaaaaKaKayaybababmbmaEaEavavajajaiaiaiaiavavbmbmalalaaaaaUaUapapaFaFaFaFbzbzajajakakaaaaaFaFbwbwadadaeaeakakaLaLalaladadadadbmbmaaaaaaaaaaaaaaaaaaaaaaaaaaaaaxaxaaaaaaaaaaaaaFaFaFaFaaaaaLaLaLaLafafajajajajakakavavaVaVaMaMaqaqadadbzbzaeaeaaaaaaaaaaaaaFaFajajaoaobabaajajaVaVafafafafafafalalaMaMaaaaaaaaajajaUaUaqaqararaaaaaaaaaaaaaaaaaaaaaaaaaaaaaaaaaFaFafafaiaia6a6a6a6a6a6a6a6akakaUaUaeaeaIaIaFaFaeaealalajajaMaMaaaaa7a7akaka6a6aaaaaJaJaxaxaaaaaiaiadada7a7aaaaaUaUaVaVa8a8aMaMa$a$aUaUaUaUajajakaka7a7ayayaUaUbdbdaIaIaIaIaIaIaJaJaaaaaaaaaaaaaMaMayayaaaaaaaaaaaaaaaaaaaaaaaaaaaaaaaaaaaaaaaaaaaaaaaaaaaaaaaaaaaaaaaaaaaaaaaaaaaaaaaaaaaaaaaaaaaa",
"aaaaaaaaaaaaaaaaaaaaaaaaaaaaaaaaaaaaaaaaaaaaaaaaaaaaaaaaaaaaaaaaaaaaaaaaaaaaaaaaaaaaaaaaaaaaaaaaaaaaaaaaaaaaaaaaaaaaaaaaaaaaaoaoaLaLbcbcacacacacajajaaaaaaaaahahajajaaaaaeaeakakararbmbmaEaEaMaMafafararbmbmbzbzaFaFalalaGaGaiaiaFaFbmbmajajaaaaalalalalaMaMauaualaladadbcbcaxaxalalaaaaaaaaaaaaaaaaaaaaaaaaaaaaaaaaaaaaaaaaaaaaaaaaalalalalaeaeaKaKaaaaaaaaaaaaaqaqbababcbcbzbzaKaKadadaxaxararaqaqaaaabmbmaLaLaiaiararbcbcaxaxaxaxaxaxaeaeaUaUalalaLaLalaladadavavafafajajaaaaaaaaaaaaakakaaaaaaaaaaaaaaaaaaaaaaaaaaaaaaaaakakaeaeaeaeaeaealaladadaKaKaIaIaJaJaaaaa7a7aUaUaMaMa6a6aKaKbnbnajaja3a3axaxacacakaka8a8aUaUa8a8afafalala8a8aeaeakakaaaaa$a$babaaLaLaIaIaaaaaaaaaaaaa7a7aeaeaeaeaLaLaeaeaeaeaeaeadadakakaaaaaaaaaaaaaaaaaaaaaaaaaaaaaaaaaaaaaaaaaaaaaaaaaaaaaaaaaaaaaaaaaaaaaaaaaaaaaaaaaaaaaaaaaaaaaaaaaaaaaaaaaaaa",
"aaaaaaaaaaaaaaaaaaaaaaaaaaaaaaaaaaaaaaaaaaaaaaaaaaaaaaaaaaaaaaaaaaaaaaaaaaaaaaaaaaaaaaaaaaaaaaaaaaaaaaaaaaaaaaaaaaaaaaaaaaaaaoaoaLaLbcbcacacacacajajaaaaaaaaahahajajaaaaaeaeakakararbmbmaEaEaMaMafafararbmbmbzbzaFaFalalaGaGaiaiaFaFbmbmajajaaaaalalalalaMaMauaualaladadbcbcaxaxalalaaaaaaaaaaaaaaaaaaaaaaaaaaaaaaaaaaaaaaaaaaaaaaaaalalalalaeaeaKaKaaaaaaaaaaaaaqaqbababcbcbzbzaKaKadadaxaxararaqaqaaaabmbmaLaLaiaiararbcbcaxaxaxaxaxaxaeaeaUaUalalaLaLalaladadavavafafajajaaaaaaaaaaaaakakaaaaaaaaaaaaaaaaaaaaaaaaaaaaaaaaakakaeaeaeaeaeaealaladadaKaKaIaIaJaJaaaaa7a7aUaUaMaMa6a6aKaKbnbnajaja3a3axaxacacakaka8a8aUaUa8a8afafalala8a8aeaeakakaaaaa$a$babaaLaLaIaIaaaaaaaaaaaaa7a7aeaeaeaeaLaLaeaeaeaeaeaeadadakakaaaaaaaaaaaaaaaaaaaaaaaaaaaaaaaaaaaaaaaaaaaaaaaaaaaaaaaaaaaaaaaaaaaaaaaaaaaaaaaaaaaaaaaaaaaaaaaaaaaaaaaaaaaa",
"aaaaaaaaaaaaaaaaaaaaaaaaaaaaaaaaaaaaaaaaaaaaaaaaaaaaaaaaaaaaaaaaaaaaaaaaaaaaaaaaaaaaaaaaaaaaaaaaaaaaaaaaaaaaaaaaaaaaaaaaaaaaaaaaaaaaaaaaararafafaeaeadadararalalahahadadbabaaLaLaoaoavavbGbGbmbmaDaDararbvbvauauaaaaacacaMaMaiaiauauararaaaaaeaeaGaGaVaVajajbmbmalalalalbabaaaaaararbcbcadadbcbcaUaUaaaaaaaaaaaaaaaaaaaaaaaaararacacaxaxajajaaaaaaaaaLaLalalakakbabababaaeaebabaaaaaaFaFbabaaUaUaxaxajajaxaxaFaFalalaxaxaiaiaiaiaaaaaMaMalalaLaLaaaaaaaaaaaaaiaiaeaeajajaeaeaKaKafafaaaaaaaaaaaaaaaaaaaaaaaaaaaaaaaaaaaaaaaaaaaaaaaaaaaaaaaaaaaaa6a6aJaJajajbdbda3a3aeaeajajaiaia7a7a8a8aJaJbnbna3a3aaaaajajaUaUafafa3a3a8a8ajaja6a6a8a8axaxa$a$aaaaaaaaa7a7a$a$aaaaa3a3bdbdaKaKa8a8a7a7alala8a8aaaaaaaaaaaaafafajajaaaaaaaaaaaaaaaaaaaaaaaaaaaaaaaaaaaaaaaaaaaaaaaaaaaaaaaaaaaaaaaaaaaaaaaaaaaaaaaaaaaaaaaaaaaaaaaaaaaaaaaaaaaa",
"aaaaaaaaaaaaaaaaaaaaaaaaaaaaaaaaaaaaaaaaaaaaaaaaaaaaaaaaaaaaaaaaaaaaaaaaaaaaaaaaaaaaaaaaaaaaaaaaaaaaaaaaaaaaaaaaaaaaaaaaaaaaaaaaaaaaaaaaararafafaeaeadadararalalahahadadbabaaLaLaoaoavavbGbGbmbmaDaDararbvbvauauaaaaacacaMaMaiaiauauararaaaaaeaeaGaGaVaVajajbmbmalalalalbabaaaaaararbcbcadadbcbcaUaUaaaaaaaaaaaaaaaaaaaaaaaaararacacaxaxajajaaaaaaaaaLaLalalakakbabababaaeaebabaaaaaaFaFbabaaUaUaxaxajajaxaxaFaFalalaxaxaiaiaiaiaaaaaMaMalalaLaLaaaaaaaaaaaaaiaiaeaeajajaeaeaKaKafafaaaaaaaaaaaaaaaaaaaaaaaaaaaaaaaaaaaaaaaaaaaaaaaaaaaaaaaaaaaaa6a6aJaJajajbdbda3a3aeaeajajaiaia7a7a8a8aJaJbnbna3a3aaaaajajaUaUafafa3a3a8a8ajaja6a6a8a8axaxa$a$aaaaaaaaa7a7a$a$aaaaa3a3bdbdaKaKa8a8a7a7alala8a8aaaaaaaaaaaaafafajajaaaaaaaaaaaaaaaaaaaaaaaaaaaaaaaaaaaaaaaaaaaaaaaaaaaaaaaaaaaaaaaaaaaaaaaaaaaaaaaaaaaaaaaaaaaaaaaaaaaaaaaaaaaa",
"aaaaaaaaaaaaaaaaaaaaaaaaaaaaaaaaaaaaaaaaaaaaaaaaaaaaaaaaaaaaaaaaaaaaaaaaaaaaaaaaaaaaaaaaaaaaaaaaaoaoaoaoaeaebzbzbcbcbcbcbwbwbwbwauaualalaDaDaaaaaaaaaDaDaxaxaMaMaiaiadadacacaaaabababababmbmbmbmbababababmbmavavaxaxakakaaaaaoaobabaaFaFacacbmbmavavadadaeaeararbabababababaaeaeadadbcbcaLaLafafaoaoaaaaaaaaaaaaaaaaaaaaaaaaaaaaaiaiaaaababaararaaaaaFaFararaaaaaaaaaiaialalaaaaaaaaalalacacavavavavbGbGakakaeaebabaaKaKalalbabaayayaMaMaaaaaaaaaDaDakakaMaMaiaiaaaaaaaaaaaaaFaFaLaLaKaKaFaFaaaaaaaaaaaaaaaaaaaaaaaaaaaaaaaaaaaaaFaFaoaoaFaFaFaFa7a7a$a$a8a8a6a6a$a$akakaeaeayayaJaJajaja8a8a6a6aUaUaUaUa7a7aaaaa3a3afafaaaaajajajajbdbdaJaJaaaaadadbcbcaaaaakakadadaxaxararaoaoa6a6aaaaa8a8a7a7aJaJaUaUa3a3aIaIaLaLaxaxaUaUaKaKbdbdakakaaaaaaaaaaaaaaaaaaaaaaaaaaaaaaaaaaaaaaaaaaaaaaaaaaaaaaaaaaaaaaaaaaaaaaaaaaaaaaaaaaaaaaaa",
"aaaaaaaaaaaaaaaaaaaaaaaaaaaaaaaaaaaaaaaaaaaaaaaaaaaaaaaaaaaaaaaaaaaaaaaaaaaaaaaaaaaaaaaaaaaaaaaaaoaoaoaoaeaebzbzbcbcbcbcbwbwbwbwauaualalaDaDaaaaaaaaaDaDaxaxaMaMaiaiadadacacaaaabababababmbmbmbmbababababmbmavavaxaxakakaaaaaoaobabaaFaFacacbmbmavavadadaeaeararbabababababaaeaeadadbcbcaLaLafafaoaoaaaaaaaaaaaaaaaaaaaaaaaaaaaaaiaiaaaababaararaaaaaFaFararaaaaaaaaaiaialalaaaaaaaaalalacacavavavavbGbGakakaeaebabaaKaKalalbabaayayaMaMaaaaaaaaaDaDakakaMaMaiaiaaaaaaaaaaaaaFaFaLaLaKaKaFaFaaaaaaaaaaaaaaaaaaaaaaaaaaaaaaaaaaaaaFaFaoaoaFaFaFaFa7a7a$a$a8a8a6a6a$a$akakaeaeayayaJaJajaja8a8a6a6aUaUaUaUa7a7aaaaa3a3afafaaaaajajajajbdbdaJaJaaaaadadbcbcaaaaakakadadaxaxararaoaoa6a6aaaaa8a8a7a7aJaJaUaUa3a3aIaIaLaLaxaxaUaUaKaKbdbdakakaaaaaaaaaaaaaaaaaaaaaaaaaaaaaaaaaaaaaaaaaaaaaaaaaaaaaaaaaaaaaaaaaaaaaaaaaaaaaaaaaaaaaaaa",
"aaaaaaaaaaaaaaaaaaaaaaaaaaaaaaaaaaaaaaaaaaaaaaaaaaaaaaaaaaaaaaaaaaaaaaaaaaaaaaaaaaaaaaaaaaaaaaaaadadbcbcalalaaaaaaaaaaaaaaaaaaaaadadbmbmbmbmbcbcavavajajaaaaaxaxaxaxaFaFauaubzbzaMaMaaaaavavbvbvaeaeaaaaauaubabaaxaxbabaaLaLaxaxajajbmbmaeaeaoaoavavaaaababaakakaxaxadadaiaiaaaaaaaaaaaaaaaaaaaaaaaaaaaaaaaaaaaaaaaaaaaaaaaaaaaaaaaaaoaoaxaxayayaaaaaaaaaaaaayayaVaVakakbabaaaaaakakbcbcaLaLbabaauauadadaaaaadadakakafafbGbGayayaaaaalalaGaGajajaaaababaajajaeaeaVaVaaaaaaaaaaaaaaaaaqaqaUaUaaaaaaaaaaaaaaaaaaaaaaaaaaaaaxaxadadaKaKaKaKaKaKaKaKaeaeayayaVaVakaka6a6a6a6aiaiajajadadbdbdaxaxaJaJa$a$ajajaeaea6a6aaaaalalaiaiaaaabdbdbdbdaaaaakakaDaDaaaaajajalala$a$a$a$a6a6a6a6aiaiajajaLaLaLaLa3a3a3a3a6a6aaaaaaaaaaaaaaaaaaaaaMaMaxaxalalaaaaaaaaaaaaaaaaaaaaaaaaaaaaaaaaaaaaaaaaaaaaaaaaaaaaaaaaaaaaaaaaaaaaaaaaaaaaaaaaaaaa",
"aaaaaaaaaaaaaaaaaaaaaaaaaaaaaaaaaaaaaaaaaaaaaaaaaaaaaaaaaaaaaaaaaaaaaaaaaaaaaaaaaaaaaaaaaaaaaaaaadadbcbcalalaaaaaaaaaaaaaaaaaaaaadadbmbmbmbmbcbcavavajajaaaaaxaxaxaxaFaFauaubzbzaMaMaaaaavavbvbvaeaeaaaaauaubabaaxaxbabaaLaLaxaxajajbmbmaeaeaoaoavavaaaababaakakaxaxadadaiaiaaaaaaaaaaaaaaaaaaaaaaaaaaaaaaaaaaaaaaaaaaaaaaaaaaaaaaaaaoaoaxaxayayaaaaaaaaaaaaayayaVaVakakbabaaaaaakakbcbcaLaLbabaauauadadaaaaadadakakafafbGbGayayaaaaalalaGaGajajaaaababaajajaeaeaVaVaaaaaaaaaaaaaaaaaqaqaUaUaaaaaaaaaaaaaaaaaaaaaaaaaaaaaxaxadadaKaKaKaKaKaKaKaKaeaeayayaVaVakaka6a6a6a6aiaiajajadadbdbdaxaxaJaJa$a$ajajaeaea6a6aaaaalalaiaiaaaabdbdbdbdaaaaakakaDaDaaaaajajalala$a$a$a$a6a6a6a6aiaiajajaLaLaLaLa3a3a3a3a6a6aaaaaaaaaaaaaaaaaaaaaMaMaxaxalalaaaaaaaaaaaaaaaaaaaaaaaaaaaaaaaaaaaaaaaaaaaaaaaaaaaaaaaaaaaaaaaaaaaaaaaaaaaaaaaaaaaa",
"aaaaaaaaaaaaaaaaaaaaaaaaaaaaaaaaaaaaaaaaaaaaaaaaaaaaaaaaaaaaaaaaaaaaaaaaaaaaaaaaaaaaaaaaaaaaaaaaaaaaaaaaaaaaaaaaaaaaaaaaaaaaaaaaaaaaaaaaaaaaakakalaladadbmbmajajaDaDaiaiaFaFaeaeaUaUaxaxaaaaauauaeaeaaaaavavbzbzavavauauaZaZayayauauafafaaaaaaaaavavaxaxbzbzbmbmaaaaaaaaayayayayaKaKbmbmbmbmbmbmaxaxadadaaaaaaaaaaaaaaaaaaaaaaaaajajaeaeaaaaaaaaaaaaaeaeaUaUaUaUaqaqaaaaaaaaalaladadaaaaaFaFbzbzaoaoaeaeararaxaxaiaiaaaaajajbGbGavavaaaaaLaLaGaGakakaaaaaFaFaaaaaUaUaKaKaxaxayayaaaaaaaaaaaaaaaaaaaaaaaaaaaaaaaaaaaaaaaaaeaeaaaaaaaaaaaaaaaaaaaaaaaaaaaaaaaaaaaaajajajajaJaJa6a6aaaaaaaaafafa3a3aKaKaaaaaaaaa6a6aaaaafafalala$a$aUaUa7a7alala$a$aaaaayayaoaoaaaaaaaaa7a7ajajaJaJajaja6a6aaaaaaaaaaaaaaaaaaaaaaaaaaaaaaaaaaaaaaaaaaaaaaaaaaaaaaaaaaaaaaaaaaaaaaaaaaaaaaaaaaaaaaaaaaaaaaaaaaaaaaaaaaaaaaaaaaaaaaaaaaaaaaaaaaaaaaaa",
"aaaaaaaaaaaaaaaaaaaaaaaaaaaaaaaaaaaaaaaaaaaaaaaaaaaaaaaaaaaaaaaaaaaaaaaaaaaaaaaaaaaaaaaaaaaaaaaaaaaaaaaaaaaaaaaaaaaaaaaaaaaaaaaaaaaaaaaaaaaaakakalaladadbmbmajajaDaDaiaiaFaFaeaeaUaUaxaxaaaaauauaeaeaaaaavavbzbzavavauauaZaZayayauauafafaaaaaaaaavavaxaxbzbzbmbmaaaaaaaaayayayayaKaKbmbmbmbmbmbmaxaxadadaaaaaaaaaaaaaaaaaaaaaaaaajajaeaeaaaaaaaaaaaaaeaeaUaUaUaUaqaqaaaaaaaaalaladadaaaaaFaFbzbzaoaoaeaeararaxaxaiaiaaaaajajbGbGavavaaaaaLaLaGaGakakaaaaaFaFaaaaaUaUaKaKaxaxayayaaaaaaaaaaaaaaaaaaaaaaaaaaaaaaaaaaaaaaaaaeaeaaaaaaaaaaaaaaaaaaaaaaaaaaaaaaaaaaaaajajajajaJaJa6a6aaaaaaaaafafa3a3aKaKaaaaaaaaa6a6aaaaafafalala$a$aUaUa7a7alala$a$aaaaayayaoaoaaaaaaaaa7a7ajajaJaJajaja6a6aaaaaaaaaaaaaaaaaaaaaaaaaaaaaaaaaaaaaaaaaaaaaaaaaaaaaaaaaaaaaaaaaaaaaaaaaaaaaaaaaaaaaaaaaaaaaaaaaaaaaaaaaaaaaaaaaaaaaaaaaaaaaaaaaaaaaaaa",
"aaaaaaaaaaaaaaaaaaaaaaaaaaaaaaaaaaaaaaaaaaaaaaaaaaaaaaaaaaaaaaaaaaaaaaaaaaaaaaaaaaaaaaaaaaaaaaaaaaaaaaaaaaaaaUaUbcbcadadbmbmbmbmadadbmbmaKaKaiaiafafajajajajbzbzadadbmbmajajaFaFaKaKbwbwbmbmaMaMbcbcbabaaMaMbcbcbabaacacaVaVbmbmaiaiaaaaauaubmbmbybybzbzbzbzbmbmadadadadbmbmadadacacajajaLaLayayaVaVaVaVadadadadaaaaaaaaaaaaaaaaaFaFaaaaaaaaakakadadakakaiaiaaaaaaaaaoaoacacaKaKaaaaaaaaaKaKaKaKaaaaafafavavbmbmaoaoaiaiaaaaajajbcbcaqaqaaaaaLaLapapajajaaaaalalaaaaaFaFaLaLararaaaaaaaaaaaaaaaaaaaaaaaaaaaaaaaaaaaaaaaaaaaaaaaaaaaaaaaaaVaVaxaxaKaKaxaxalalakakaaaaaaaaaVaVaeaeaeaeaJaJaaaaa$a$aFaFaKaKbcbcaKaKakaka7a7aoaoaiaiaMaMbabaaVaVaLaLadadafafaaaaa7a7a8a8aaaaa7a7aIaIakakakakaLaLaVaValalaxaxaKaKaUaUaKaKbdbda6a6aaaaaaaaaaaaaaaaaaaaaaaaaaaaaaaaaaaaaaaaaaaaaaaaaaaaaaaaaaaaaaaaaaaaaaaaaaaaaaaaaaaaaaaaaaaaaaaaaaaa",
"aaaaaaaaaaaaaaaaaaaaaaaaaaaaaaaaaaaaaaaaaaaaaaaaaaaaaaaaaaaaaaaaaaaaaaaaaaaaaaaaaaaaaaaaaaaaaaaaaaaaaaaaaaaaaUaUbcbcadadbmbmbmbmadadbmbmaKaKaiaiafafajajajajbzbzadadbmbmajajaFaFaKaKbwbwbmbmaMaMbcbcbabaaMaMbcbcbabaacacaVaVbmbmaiaiaaaaauaubmbmbybybzbzbzbzbmbmadadadadbmbmadadacacajajaLaLayayaVaVaVaVadadadadaaaaaaaaaaaaaaaaaFaFaaaaaaaaakakadadakakaiaiaaaaaaaaaoaoacacaKaKaaaaaaaaaKaKaKaKaaaaafafavavbmbmaoaoaiaiaaaaajajbcbcaqaqaaaaaLaLapapajajaaaaalalaaaaaFaFaLaLararaaaaaaaaaaaaaaaaaaaaaaaaaaaaaaaaaaaaaaaaaaaaaaaaaaaaaaaaaVaVaxaxaKaKaxaxalalakakaaaaaaaaaVaVaeaeaeaeaJaJaaaaa$a$aFaFaKaKbcbcaKaKakaka7a7aoaoaiaiaMaMbabaaVaVaLaLadadafafaaaaa7a7a8a8aaaaa7a7aIaIakakakakaLaLaVaValalaxaxaKaKaUaUaKaKbdbda6a6aaaaaaaaaaaaaaaaaaaaaaaaaaaaaaaaaaaaaaaaaaaaaaaaaaaaaaaaaaaaaaaaaaaaaaaaaaaaaaaaaaaaaaaaaaaaaaaaaaaa",
"aaaaaaaaaaaaaaaaaaaaaaaaaaaaaaaaaaaaaaaaaaaaaaaaaaaaaaaaaaaaaaaaaaaaaaaaaaaaaaaaaaaaaaaaaaaaaaaaafafbcbcbcbcayayaaaaaMaMalalavavavavavavavavaUaUavavaMaMadadbwbwbwbwbmbmaxaxadadaiaiaaaabzbzaxaxalalaiaiaMaMaLaLbabaaqaqaaaaaFaFaFaFauaubmbmauauavavavava2a2bwbwalalajajafafafafajajaaaaaaaaaaaaaaaaaaaaaaaaaaaaaaaaaaaaaaaaaaaaaaaaaaaaaDaDbcbcalalbabaavavaaaaaiaiadadaDaDararaaaaaMaMacacaMaMbabaauauaiaiadadaMaMaFaFajajaiaialalaMaMajajaaaaaFaFaaaaaaaaaMaMalalaqaqadadaoaoalalaoaoaaaaaaaaaaaaaaaaaaaaaaaaaaaaaaaaaaaaaqaqafafafafakakaVaVajajaIaIaMaMajajadadaxaxalala7a7aJaJayayajaja6a6aaaaaiaia6a6a6a6aaaaaMaMa$a$babaaaaaaFaFajajbabaa7a7aLaLaeaealalalalajajakaka6a6a8a8a8a8aaaaaaaaa8a8a7a7a8a8a6a6a7a7a3a3bdbdaeaebcbcaKaKaiaiaaaaaaaaaaaaaaaaaaaaaaaaaaaaaaaaaaaaaaaaaaaaaaaaaaaaaaaaaaaaaaaaaaaaaaaaaaaaaaaaaaaa",
"aaaaaaaaaaaaaaaaaaaaaaaaaaaaaaaaaaaaaaaaaaaaaaaaaaaaaaaaaaaaaaaaaaaaaaaaaaaaaaaaaaaaaaaaaaaaaaaaafafbcbcbcbcayayaaaaaMaMalalavavavavavavavavaUaUavavaMaMadadbwbwbwbwbmbmaxaxadadaiaiaaaabzbzaxaxalalaiaiaMaMaLaLbabaaqaqaaaaaFaFaFaFauaubmbmauauavavavava2a2bwbwalalajajafafafafajajaaaaaaaaaaaaaaaaaaaaaaaaaaaaaaaaaaaaaaaaaaaaaaaaaaaaaDaDbcbcalalbabaavavaaaaaiaiadadaDaDararaaaaaMaMacacaMaMbabaauauaiaiadadaMaMaFaFajajaiaialalaMaMajajaaaaaFaFaaaaaaaaaMaMalalaqaqadadaoaoalalaoaoaaaaaaaaaaaaaaaaaaaaaaaaaaaaaaaaaaaaaqaqafafafafakakaVaVajajaIaIaMaMajajadadaxaxalala7a7aJaJayayajaja6a6aaaaaiaia6a6a6a6aaaaaMaMa$a$babaaaaaaFaFajajbabaa7a7aLaLaeaealalalalajajakaka6a6a8a8a8a8aaaaaaaaa8a8a7a7a8a8a6a6a7a7a3a3bdbdaeaebcbcaKaKaiaiaaaaaaaaaaaaaaaaaaaaaaaaaaaaaaaaaaaaaaaaaaaaaaaaaaaaaaaaaaaaaaaaaaaaaaaaaaaaaaaaaaaa",
"aaaaaaaaaaaaaaaaaaaaaaaaaaaaaaaaaaaaaaaaaaaaaaaaaaaaaaaaaaaaaaaaaaaaaaaaaaaaaaaaaaaaaaaaaaaaaaaaaKaKaaaaaaaaaaaaaaaaaFaFaxaxalalalalaeaealalaeaeaeaealalaeaeafafaMaMafafaqaqaUaUbmbmalalaaaaaUaUalalaFaFaaaaaMaMadadadadaUaUaeaealalavavararaaaaaaaaaaaaaaaaa1a1alalalalalalalalaUaUaxaxaUaUalalaaaaaaaaaaaaaaaaaaaaaaaaaaaaaaaaaaaaaaaaaaaaakakaUaUavavaaaaafafadadaaaaavavalalbabaacacaxaxaaaaaiaiadadaaaabwbwaFaFbabaavavbabababaaqaqaUaUararakakaaaaaaaaaaaaajajbcbcalalaeaeaaaaaaaaaaaaaaaaaaaaaaaaaaaaaaaaaaaaaaaaaFaFadadaxaxaUaUaeaeaUaUajajajajajajakaka3a3aaaaaaaaa8a8aaaaaaaaajajayayaLaLalalaaaaaaaaajaja$a$aaaaaaaaaaaaajajaaaaaaaaa6a6a6a6a6a6afafaeaeaxaxaxaxaFaFafafakakajajajajajaja8a8aVaVaaaaaaaaaaaaaaaaaaaaaoaoaUaUacacaaaaaaaaaaaaaaaaaaaaaaaaaaaaaaaaaaaaaaaaaaaaaaaaaaaaaaaaaaaaaaaaaaaaaaaaaaaaaaaaaaaa",
"aaaaaaaaaaaaaaaaaaaaaaaaaaaaaaaaaaaaaaaaaaaaaaaaaaaaaaaaaaaaaaaaaaaaaaaaaaaaaaaaaaaaaaaaaaaaaaaaaKaKaaaaaaaaaaaaaaaaaFaFaxaxalalalalaeaealalaeaeaeaealalaeaeafafaMaMafafaqaqaUaUbmbmalalaaaaaUaUalalaFaFaaaaaMaMadadadadaUaUaeaealalavavararaaaaaaaaaaaaaaaaa1a1alalalalalalalalaUaUaxaxaUaUalalaaaaaaaaaaaaaaaaaaaaaaaaaaaaaaaaaaaaaaaaaaaaakakaUaUavavaaaaafafadadaaaaavavalalbabaacacaxaxaaaaaiaiadadaaaabwbwaFaFbabaavavbabababaaqaqaUaUararakakaaaaaaaaaaaaajajbcbcalalaeaeaaaaaaaaaaaaaaaaaaaaaaaaaaaaaaaaaaaaaaaaaFaFadadaxaxaUaUaeaeaUaUajajajajajajakaka3a3aaaaaaaaa8a8aaaaaaaaajajayayaLaLalalaaaaaaaaajaja$a$aaaaaaaaaaaaajajaaaaaaaaa6a6a6a6a6a6afafaeaeaxaxaxaxaFaFafafakakajajajajajaja8a8aVaVaaaaaaaaaaaaaaaaaaaaaoaoaUaUacacaaaaaaaaaaaaaaaaaaaaaaaaaaaaaaaaaaaaaaaaaaaaaaaaaaaaaaaaaaaaaaaaaaaaaaaaaaaaaaaaaaaa",
"aaaaaaaaaaaaaaaaaaaaaaaaaaaaaaaaaaaaaaaaaaaaaaaaaaaaaaaaaaaaaaaaaaaaaaaaaaaaaaaaaaaaaaaaaaaaaaaaaaaaaaaaaaaaaaaaaaaaaFaFbmbmaxaxaLaLakakayayavavaLaLalalbabaaiaiaMaMaiaiararaaaaaaaabzbzbcbcaeaeaFaFaaaaaMaMacacaUaUaeaebzbzalalaaaaajajavavavavalaladadadadbmbmavavavavavavayayajajauauaGaGahahadadakakaaaaaaaaaaaaaaaaaaaaaaaaaaaaaaaaaaaaaFaFaLaLaaaaafafadadbabaafafaMaMaaaaaiaibmbmaiaiaaaaajajafafaaaaadadafafajajavavafafakakayayaFaFakakbabaavavaaaaaaaaaaaaaoaobcbcaLaLaaaaaaaaaaaaaaaaaaaaaaaaaaaaaaaaaaaaaaaaaFaFaiaiaaaaa$a$aIaIajajakakakakakakajajaMaMajaja8a8aaaaaMaMaxaxbcbcayayaMaMaaaaa$a$adadalala$a$ajajaaaaaaaaaaaaakakaVaVa6a6aJaJa3a3bdbdalalaaaaaaaaaaaaafafakakajajafafayayaeaebcbcbdbdaLaLaaaaaaaaaaaaaaaaaaaaaFaFaaaaaaaaaaaaaaaaaaaaaaaaaaaaaaaaaaaaaaaaaaaaaaaaaaaaaaaaaaaaaaaaaaaaaaaaaaaaaaaaaaaa",
"aaaaaaaaaaaaaaaaaaaaaaaaaaaaaaaaaaaaaaaaaaaaaaaaaaaaaaaaaaaaaaaaaaaaaaaaaaaaaaaaaaaaaaaaaaaaaaaaaaaaaaaaaaaaaaaaaaaaaFaFbmbmaxaxaLaLakakayayavavaLaLalalbabaaiaiaMaMaiaiararaaaaaaaabzbzbcbcaeaeaFaFaaaaaMaMacacaUaUaeaebzbzalalaaaaajajavavavavalaladadadadbmbmavavavavavavayayajajauauaGaGahahadadakakaaaaaaaaaaaaaaaaaaaaaaaaaaaaaaaaaaaaaFaFaLaLaaaaafafadadbabaafafaMaMaaaaaiaibmbmaiaiaaaaajajafafaaaaadadafafajajavavafafakakayayaFaFakakbabaavavaaaaaaaaaaaaaoaobcbcaLaLaaaaaaaaaaaaaaaaaaaaaaaaaaaaaaaaaaaaaaaaaFaFaiaiaaaaa$a$aIaIajajakakakakakakajajaMaMajaja8a8aaaaaMaMaxaxbcbcayayaMaMaaaaa$a$adadalala$a$ajajaaaaaaaaaaaaakakaVaVa6a6aJaJa3a3bdbdalalaaaaaaaaaaaaafafakakajajafafayayaeaebcbcbdbdaLaLaaaaaaaaaaaaaaaaaaaaaFaFaaaaaaaaaaaaaaaaaaaaaaaaaaaaaaaaaaaaaaaaaaaaaaaaaaaaaaaaaaaaaaaaaaaaaaaaaaaaaaaaaaaa",
"aaaaaaaaaaaaaaaaaaaaaaaaaaaaaaaaaaaaaaaaaaaaaaaaaaaaaaaaaaaaaaaaaaaaaaaaaaaaaaaaaaaaaaaaaaaaaaaaaaaaaoaoararadadacacadadayayaFaFararavavajajajajararaqaqbababwbwbmbmbcbcaqaqayayacacbzbzavavaMaMbabaaaaaaqaqaMaMaaaaaaaaaaaaararaDaDajajaMaMaiaiaqaqalalbzbzbzbzbzbzafafajajajajakakajajaqaqaFaFauaubzbzbcbcaFaFaaaaaaaaaaaaaaaaaaaaaaaaaaaaalalaaaaaFaFacacalalaoaoararaMaMaFaFalalaiaiaaaababaavavaoaoaMaMadadaMaMajajbabaalalbabaalalaDaDajajavavajajaiaiaaaaaaaaaaaaararadadayayaaaaaaaaaaaaaaaaaaaaaaaaaaaaaaaaaaaaaaaaalaladadbdbdalalaiaia7a7a6a6afafa6a6a7a7afafaxaxbdbdadadaeaeaFaFaaaaaaaaaaaaadadaUaUaaaaa$a$afafajajaaaaa$a$aFaFaVaVadada6a6a8a8a8a8axaxaKaKaKaKbdbda7a7aaaaaaaaa$a$a$a$aMaMa8a8aiaibdbdbdbdbdbda6a6aaaaaaaaaaaaaaaaaaaaaaaaaaaaaaaaaaaaaaaaaaaaaaaaaaaaaaaaaaaaaaaaaaaaaaaaaaaaaaaaaaaaaaaaaaaaaaaa",
"aaaaaaaaaaaaaaaaaaaaaaaaaaaaaaaaaaaaaaaaaaaaaaaaaaaaaaaaaaaaaaaaaaaaaaaaaaaaaaaaaaaaaaaaaaaaaaaaaaaaaoaoararadadacacadadayayaFaFararavavajajajajararaqaqbababwbwbmbmbcbcaqaqayayacacbzbzavavaMaMbabaaaaaaqaqaMaMaaaaaaaaaaaaararaDaDajajaMaMaiaiaqaqalalbzbzbzbzbzbzafafajajajajakakajajaqaqaFaFauaubzbzbcbcaFaFaaaaaaaaaaaaaaaaaaaaaaaaaaaaalalaaaaaFaFacacalalaoaoararaMaMaFaFalalaiaiaaaababaavavaoaoaMaMadadaMaMajajbabaalalbabaalalaDaDajajavavajajaiaiaaaaaaaaaaaaararadadayayaaaaaaaaaaaaaaaaaaaaaaaaaaaaaaaaaaaaaaaaalaladadbdbdalalaiaia7a7a6a6afafa6a6a7a7afafaxaxbdbdadadaeaeaFaFaaaaaaaaaaaaadadaUaUaaaaa$a$afafajajaaaaa$a$aFaFaVaVadada6a6a8a8a8a8axaxaKaKaKaKbdbda7a7aaaaaaaaa$a$a$a$aMaMa8a8aiaibdbdbdbdbdbda6a6aaaaaaaaaaaaaaaaaaaaaaaaaaaaaaaaaaaaaaaaaaaaaaaaaaaaaaaaaaaaaaaaaaaaaaaaaaaaaaaaaaaaaaaaaaaaaaaa",
"aaaaaaaaaaaaaaaaaaaaaaaaaaaaaaaaaaaaaaaaaaaaaaaaaaaaaaaaaaaaaaaaaaaaaaaaaaaaaaaaaaaaaaaaaaaaaMaMapapbcbcbcbcacacadadaMaMaUaUakakayayaxaxaKaKalalajajajajbcbcbwbwbwbwajajaaaabcbcaUaUaaaaaaaaalalbabaaqaqaqaqaeaeaeaealalavavavavavavaeaeacacahahakakaaaaaaaaaaaababaaLaLakakaLaLaeaeadadaLaLaGaGbcbcaaaababaaxaxaaaaaaaaaaaaaaaaaaaaaaaaaaaaaaaaaaaaaxaxaaaaaoaoavavaiaiakakaoaoadadbabaajajaiaiajajavavayayaaaaaFaFajajaaaaadadaaaaakakajajbabaaeaebabaaxaxaaaaaaaaaaaaaaaaaaaaaaaaaaaaaaaaaaaaaaaaaaaaaaaaaaaaaaaaaaaaadadaiaiaaaaaaaaaeaeaiaiaoaoakakaeaealalalalbcbcadada$a$a$a$a6a6akakaaaaa7a7a7a7aaaaaaaaalalarara7a7akaka7a7aaaaaFaFalala8a8alala8a8a6a6aaaaaaaaakakaKaKadadaeaea6a6ajajaUaUaKaKa3a3ajaja6a6aaaabcbcadadaxaxaaaaaaaaaaaaaaaaaaaaaaaaaaaaaaaaaaaaaaaaaaaaaaaaaaaaaaaaaaaaaaaaaaaaaaaaaaaaaaaaaaaaaaaaaaaa",
"aaaaaaaaaaaaaaaaaaaaaaaaaaaaaaaaaaaaaaaaaaaaaaaaaaaaaaaaaaaaaaaaaaaaaaaaaaaaaaaaaaaaaaaaaaaaaMaMapapbcbcbcbcacacadadaMaMaUaUakakayayaxaxaKaKalalajajajajbcbcbwbwbwbwajajaaaabcbcaUaUaaaaaaaaalalbabaaqaqaqaqaeaeaeaealalavavavavavavaeaeacacahahakakaaaaaaaaaaaababaaLaLakakaLaLaeaeadadaLaLaGaGbcbcaaaababaaxaxaaaaaaaaaaaaaaaaaaaaaaaaaaaaaaaaaaaaaxaxaaaaaoaoavavaiaiakakaoaoadadbabaajajaiaiajajavavayayaaaaaFaFajajaaaaadadaaaaakakajajbabaaeaebabaaxaxaaaaaaaaaaaaaaaaaaaaaaaaaaaaaaaaaaaaaaaaaaaaaaaaaaaaaaaaaaaaadadaiaiaaaaaaaaaeaeaiaiaoaoakakaeaealalalalbcbcadada$a$a$a$a6a6akakaaaaa7a7a7a7aaaaaaaaalalarara7a7akaka7a7aaaaaFaFalala8a8alala8a8a6a6aaaaaaaaakakaKaKadadaeaea6a6ajajaUaUaKaKa3a3ajaja6a6aaaabcbcadadaxaxaaaaaaaaaaaaaaaaaaaaaaaaaaaaaaaaaaaaaaaaaaaaaaaaaaaaaaaaaaaaaaaaaaaaaaaaaaaaaaaaaaaaaaaaaaaa",
"aaaaaaaaaaaaaaaaaaaaaaaaaaaaaaaaaaaaaaaaaaaaaaaaaaaaaaaaaaaaaaaaaaaaaaaaaaaaaaaaaaaaaaaaaaaaaLaLaxaxaaaaaaaaaaaaaaaaaUaUbcbcbcbcalalaaaaaaaaaeaeababacacaUaUaoaoaaaaaaaaaDaDbabaaaaaaaaaaxaxavavajajbmbmbabaaaaaayayadadbzbzaaaaavavavavakakauauacacbabaalalaqaqaaaaalalaLaLalalaeaeaeaebwbwaUaUaeaeaxaxaeaeaaaaaaaaaaaaaaaaaaaaaaaaaaaaaaaaaaaaaaaaaaaaaaaaaxaxaiaiaeaeaaaabcbcajajaaaaajajaMaMaiaialalaUaUaaaaajajaeaebabaalalakakaaaaaeaeaaaaalalalalafafavavaaaaaaaaaaaaaaaaaaaaaaaaaaaaaaaaaaaaaaaaaaaaaaaaaaaaaaaaaaaaaaaaaaaaaaaaalalalalalalajajaaaaa$a$alalaaaaaaaaajajajajajajaaaaaLaLalalararaaaaaUaUakakaaaaakakaJaJajajakakaaaaafafaeaeaVaVa7a7ajajayayaMaMaaaaaaaaa$a$adadaKaKalalaaaaa7a7aLaLa3a3adadalalaUaUbabaaeaeaFaFaaaaaaaaaaaaaaaaaaaaaaaaaaaaaaaaaaaaaaaaaaaaaaaaaaaaaaaaaaaaaaaaaaaaaaaaaaaaaaaaaaaaaaaa",
"aaaaaaaaaaaaaaaaaaaaaaaaaaaaaaaaaaaaaaaaaaaaaaaaaaaaaaaaaaaaaaaaaaaaaaaaaaaaaaaaaaaaaaaaaaaaaLaLaxaxaaaaaaaaaaaaaaaaaUaUbcbcbcbcalalaaaaaaaaaeaeababacacaUaUaoaoaaaaaaaaaDaDbabaaaaaaaaaaxaxavavajajbmbmbabaaaaaayayadadbzbzaaaaavavavavakakauauacacbabaalalaqaqaaaaalalaLaLalalaeaeaeaebwbwaUaUaeaeaxaxaeaeaaaaaaaaaaaaaaaaaaaaaaaaaaaaaaaaaaaaaaaaaaaaaaaaaxaxaiaiaeaeaaaabcbcajajaaaaajajaMaMaiaialalaUaUaaaaajajaeaebabaalalakakaaaaaeaeaaaaalalalalafafavavaaaaaaaaaaaaaaaaaaaaaaaaaaaaaaaaaaaaaaaaaaaaaaaaaaaaaaaaaaaaaaaaaaaaaaaaalalalalalalajajaaaaa$a$alalaaaaaaaaajajajajajajaaaaaLaLalalararaaaaaUaUakakaaaaakakaJaJajajakakaaaaafafaeaeaVaVa7a7ajajayayaMaMaaaaaaaaa$a$adadaKaKalalaaaaa7a7aLaLa3a3adadalalaUaUbabaaeaeaFaFaaaaaaaaaaaaaaaaaaaaaaaaaaaaaaaaaaaaaaaaaaaaaaaaaaaaaaaaaaaaaaaaaaaaaaaaaaaaaaaaaaaaaaaa",
"aaaaaaaaaaaaaaaaaaaaaaaaaaaaaaaaaaaaaaaaaaaaaaaaaaaaaaaaaaaaaaaaaaaaaaaaaaaaaaaaaaaaaaaaaaaaaaaaaaaaaaaaaLaLbzbzbmbmadadbcbcaaaaaFaFbwbwbcbcbmbmajajararaaaaaaaaaaaaayaybmbmbabaalalbzbzalalaaaaauaualalbabaaiaiajajalalakakafafaMaMbmbmaKaKararaoaobabaaiaiauauaxaxakakajajaLaLbGbGaLaLauauauaubzbzbcbcaMaMaaaaaaaaaaaaaaaaaaaaaaaaaaaaaaaaaaaaaaaaaaaaakakaLaLaoaoafafaaaaaFaFaFaFafafaiaiaMaMaiaialalaeaeaaaaavavauauaFaFaiaiaxaxaaaaauaua1a1ajajaiaiaaaaadadaDaDaaaaaaaaaaaaaaaaaaaaaaaaaaaaaaaaaaaaaaaaaaaaaaaaaaaaaaaaaaaaaaaaadadaxaxajajaaaaaaaaaLaLalalaaaaaaaaaLaLajajbabaaMaMaeaeakaka7a7aaaaaeaeaKaKa$a$aVaVaeaea7a7a6a6aUaUa8a8a8a8ajajadadaaaaaaaaajajbdbdaKaKaoaoaaaaaaaaa7a7ayayadadaIaIaUaUbcbcaMaMbdbdaKaKaLaLaaaaaaaaaaaaaaaaaaaaaaaaaaaaaaaaaaaaaaaaaaaaaaaaaaaaaaaaaaaaaaaaaaaaaaaaaaaaaaaaaaaaaaaaaaaaaaaa",
"aaaaaaaaaaaaaaaaaaaaaaaaaaaaaaaaaaaaaaaaaaaaaaaaaaaaaaaaaaaaaaaaaaaaaaaaaaaaaaaaaaaaaaaaaaaaaaaaaaaaaaaaaLaLbzbzbmbmadadbcbcaaaaaFaFbwbwbcbcbmbmajajararaaaaaaaaaaaaayaybmbmbabaalalbzbzalalaaaaauaualalbabaaiaiajajalalakakafafaMaMbmbmaKaKararaoaobabaaiaiauauaxaxakakajajaLaLbGbGaLaLauauauaubzbzbcbcaMaMaaaaaaaaaaaaaaaaaaaaaaaaaaaaaaaaaaaaaaaaaaaaakakaLaLaoaoafafaaaaaFaFaFaFafafaiaiaMaMaiaialalaeaeaaaaavavauauaFaFaiaiaxaxaaaaauaua1a1ajajaiaiaaaaadadaDaDaaaaaaaaaaaaaaaaaaaaaaaaaaaaaaaaaaaaaaaaaaaaaaaaaaaaaaaaaaaaaaaaadadaxaxajajaaaaaaaaaLaLalalaaaaaaaaaLaLajajbabaaMaMaeaeakaka7a7aaaaaeaeaKaKa$a$aVaVaeaea7a7a6a6aUaUa8a8a8a8ajajadadaaaaaaaaajajbdbdaKaKaoaoaaaaaaaaa7a7ayayadadaIaIaUaUbcbcaMaMbdbdaKaKaLaLaaaaaaaaaaaaaaaaaaaaaaaaaaaaaaaaaaaaaaaaaaaaaaaaaaaaaaaaaaaaaaaaaaaaaaaaaaaaaaaaaaaaaaaaaaaaaaaa",
"aaaaaaaaaaaaaaaaaaaaaaaaaaaaaaaaaaaaaaaaaaaaaaaaaaaaaaaaaaaaaaaaaaaaaaaaaaaaaaaaaaaaaaaaaaaaaaaaaaaaalalaKaKaoaoaaaaaaaaaMaMbcbcacacaxaxaaaaaFaFaiaiaKaKaiaiajajadadayayaaaaakakahahaVaVbabaajajadadafafaFaFaLaLbababmbmauauafafaFaFararajajauaubmbmadadararbabaafafauaubzbzacacaaaaaaaaaaaaaFaFalalbzbzajajaFaFaaaaaaaaaaaaaaaaaaaaaaaaaaaaaaaaaaaaaaaabcbcbabaaeaeadadaaaaaaaaalalaaaaavavaMaMavavaLaLaeaeaaaaavavauaua2a2ajajaKaKaaaaalalaTaTaaaaaaaaadadavavaeaeaaaaaaaaaaaaaaaaaaaaaaaaaaaaaaaaaaaaaaaaaaaaaaaaaaaaaaaaaaaaaeaea6a6aaaaaaaaajajaeaeaeaea7a7aiaialalajajaaaaakakbdbda6a6aaaaaaaaaxaxaxaxa$a$aaaaaKaKaLaLa6a6a6a6a3a3a3a3aaaaaaaaajajadadbabaaaaababaaeaeawawaaaaa7a7a8a8aaaaajajbcbcaeaeajajaaaaaxaxbdbdbpbpalalaaaaaaaaaaaaaaaaaaaaaaaaaaaaaaaaaaaaaaaaaaaaaaaaaaaaaaaaaaaaaaaaaaaaaaaaaaaaaaaaaaaaaaaaaaaa",
"aaaaaaaaaaaaaaaaaaaaaaaaaaaaaaaaaaaaaaaaaaaaaaaaaaaaaaaaaaaaaaaaaaaaaaaaaaaaaaaaaaaaaaaaaaaaaaaaaaaaalalaKaKaoaoaaaaaaaaaMaMbcbcacacaxaxaaaaaFaFaiaiaKaKaiaiajajadadayayaaaaakakahahaVaVbabaajajadadafafaFaFaLaLbababmbmauauafafaFaFararajajauaubmbmadadararbabaafafauaubzbzacacaaaaaaaaaaaaaFaFalalbzbzajajaFaFaaaaaaaaaaaaaaaaaaaaaaaaaaaaaaaaaaaaaaaabcbcbabaaeaeadadaaaaaaaaalalaaaaavavaMaMavavaLaLaeaeaaaaavavauaua2a2ajajaKaKaaaaalalaTaTaaaaaaaaadadavavaeaeaaaaaaaaaaaaaaaaaaaaaaaaaaaaaaaaaaaaaaaaaaaaaaaaaaaaaaaaaaaaaeaea6a6aaaaaaaaajajaeaeaeaea7a7aiaialalajajaaaaakakbdbda6a6aaaaaaaaaxaxaxaxa$a$aaaaaKaKaLaLa6a6a6a6a3a3a3a3aaaaaaaaajajadadbabaaaaababaaeaeawawaaaaa7a7a8a8aaaaajajbcbcaeaeajajaaaaaxaxbdbdbpbpalalaaaaaaaaaaaaaaaaaaaaaaaaaaaaaaaaaaaaaaaaaaaaaaaaaaaaaaaaaaaaaaaaaaaaaaaaaaaaaaaaaaaaaaaaaaaa",
"aaaaaaaaaaaaaaaaaaaaaaaaaaaaaaaaaaaaaaaaaaaaaaaaaaaaaaaaaaaaaaaaaaaaaaaaaaaaaaaaaaaaaaaaaaaaaaaaaaaaaKaKaaaaaaaaayayadadacacbmbmaaaababaaUaUalalajajaqaqacacadadaaaaaaaaakakahahakakaqaqalalalalacacbabaaqaqaxaxararaaaabzbzbcbcaoaoavavakakaaaaavavaKaKacacauauaaaaaaaaalalaxaxalalaMaMaaaaaaaaaaaaaaaaaxaxadadakakaaaaaaaaaaaaaaaaaaaaaaaaaaaaaaaaalalaoaoalalajajaaaaaaaaaaaaaKaKaaaaalalavavaxaxaoaoafafaaaaavavauaua2a2aMaMaUaUaaaaaaaaauauayayaaaaaaaaaiaiaUaUaaaaaaaaaaaaaaaaaaaaaaaaaaaaaaaaaaaaaaaaaaaaaaaaaaaaaoaoaxaxaUaUaaaaaoaoawawaKaKaaaaa7a7aVaVaKaKajajaaaaalalbpbpaiaiaaaaajajararbpbpaJaJaIaIaaaaadada$a$aiaiaJaJa6a6adadbabaa$a$bababpbpalala7a7a8a8aaaaaUaUalalaFaFalalajajaaaaaaaaayaybcbcaiaiaaaaaxaxadadbdbdaUaUaaaaaaaaaaaaaaaaaaaaaaaaaaaaaaaaaaaaaaaaaaaaaaaaaaaaaaaaaaaaaaaaaaaaaaaaaaaaaaaaaaaaaaaa",
"aaaaaaaaaaaaaaaaaaaaaaaaaaaaaaaaaaaaaaaaaaaaaaaaaaaaaaaaaaaaaaaaaaaaaaaaaaaaaaaaaaaaaaaaaaaaaaaaaaaaaKaKaaaaaaaaayayadadacacbmbmaaaababaaUaUalalajajaqaqacacadadaaaaaaaaakakahahakakaqaqalalalalacacbabaaqaqaxaxararaaaabzbzbcbcaoaoavavakakaaaaavavaKaKacacauauaaaaaaaaalalaxaxalalaMaMaaaaaaaaaaaaaaaaaxaxadadakakaaaaaaaaaaaaaaaaaaaaaaaaaaaaaaaaalalaoaoalalajajaaaaaaaaaaaaaKaKaaaaalalavavaxaxaoaoafafaaaaavavauaua2a2aMaMaUaUaaaaaaaaauauayayaaaaaaaaaiaiaUaUaaaaaaaaaaaaaaaaaaaaaaaaaaaaaaaaaaaaaaaaaaaaaaaaaaaaaoaoaxaxaUaUaaaaaoaoawawaKaKaaaaa7a7aVaVaKaKajajaaaaalalbpbpaiaiaaaaajajararbpbpaJaJaIaIaaaaadada$a$aiaiaJaJa6a6adadbabaa$a$bababpbpalala7a7a8a8aaaaaUaUalalaFaFalalajajaaaaaaaaayaybcbcaiaiaaaaaxaxadadbdbdaUaUaaaaaaaaaaaaaaaaaaaaaaaaaaaaaaaaaaaaaaaaaaaaaaaaaaaaaaaaaaaaaaaaaaaaaaaaaaaaaaaaaaaaaaaa",
"aaaaaaaaaaaaaaaaaaaaaaaaaaaaaaaaaaaaaaaaaaaaaaaaaaaaaaaaaaaaaaaaaaaaaaaaaaaaaaaaaaaaaaaaaaaaaaaaaaaaaaaaaaaaaeaeaxaxaKaKaaaaaaaaauauauauaUaUaeaeaxaxacacbmbmaaaaaaaaalalahahakakaaaaaeaeaFaFalalaeaeajajaoaobmbmaeaeaaaaaoaobzbzbcbcaaaaauauadadaaaaaaaaauaubzbzadadalalaaaaaaaaaUaUaKaKaiaiaaaaaaaaaaaaaaaaaaaaakakaaaaaaaaaaaaaaaaaaaaaaaaaaaaaaaaadadaaaaaeaeakakaaaaaaaabababcbcaaaaauauavavaqaqaMaMajajaaaaavavauauaDaDafafaxaxaaaaaaaaafafalalaaaaaaaaaaaaaeaeavavaaaaaaaaaaaaaaaaaaaaaaaaaaaaaaaaaaaaaaaaaaaaaaaaafafararalalalalaUaUalalaaaaa6a6bcbcalalaaaaaaaaalalbpbpaiaiaaaaaLaLa6a6aKaKbdbda$a$a6a6a6a6bcbcaaaaayayajaja6a6bpbpa6a6ajaja$a$a6a6a6a6aJaJafafaaaaaaaaayayaaaaaFaFaLaLakakaaaaaaaaaVaVbdbdaeaeaaaaaaaaa7a7aLaLaaaaaaaaaaaaaaaaaaaaaaaaaaaaaaaaaaaaaaaaaaaaaaaaaaaaaaaaaaaaaaaaaaaaaaaaaaaaaaaaaaaaaaaa",
"aaaaaaaaaaaaaaaaaaaaaaaaaaaaaaaaaaaaaaaaaaaaaaaaaaaaaaaaaaaaaaaaaaaaaaaaaaaaaaaaaaaaaaaaaaaaaaaaaaaaaaaaaaaaaeaeaxaxaKaKaaaaaaaaauauauauaUaUaeaeaxaxacacbmbmaaaaaaaaalalahahakakaaaaaeaeaFaFalalaeaeajajaoaobmbmaeaeaaaaaoaobzbzbcbcaaaaauauadadaaaaaaaaauaubzbzadadalalaaaaaaaaaUaUaKaKaiaiaaaaaaaaaaaaaaaaaaaaakakaaaaaaaaaaaaaaaaaaaaaaaaaaaaaaaaadadaaaaaeaeakakaaaaaaaabababcbcaaaaauauavavaqaqaMaMajajaaaaavavauauaDaDafafaxaxaaaaaaaaafafalalaaaaaaaaaaaaaeaeavavaaaaaaaaaaaaaaaaaaaaaaaaaaaaaaaaaaaaaaaaaaaaaaaaafafararalalalalaUaUalalaaaaa6a6bcbcalalaaaaaaaaalalbpbpaiaiaaaaaLaLa6a6aKaKbdbda$a$a6a6a6a6bcbcaaaaayayajaja6a6bpbpa6a6ajaja$a$a6a6a6a6aJaJafafaaaaaaaaayayaaaaaFaFaLaLakakaaaaaaaaaVaVbdbdaeaeaaaaaaaaa7a7aLaLaaaaaaaaaaaaaaaaaaaaaaaaaaaaaaaaaaaaaaaaaaaaaaaaaaaaaaaaaaaaaaaaaaaaaaaaaaaaaaaaaaaaaaaa",
"aaaaaaaaaaaaaaaaaaaaaaaaaaaaaaaaaaaaaaaaaaaaaaaaaaaaaaaaaaaaaaaaaaaaaaaaaaaaaaaaaaaaaaaaaaaaaaaaaaaaaaaaaUaUaKaKaaaaaaaaaaaabmbmadadauaubcbcacacajajaoaoajajbabaaaaaadadadadaaaaakakakakaaaaaUaUauauaeaeaoaoaeaeaeaeaaaaaxaxaFaFbzbzadadaaaaaUaUbmbmbabaaaaabmbmauauauauaeaeaaaaaaaaalalbzbzaFaFaaaaaaaaaaaaaaaaaaaaaaaaaaaaaaaaaaaaaaaaaaaaaaaaaaaaaaaaaaaaaqaqaaaaaaaaaaaaajajafafaaaaauaualalaoaoaMaMaiaibababmbmavava2a2avavadadaaaaa1a1afafaaaaaaaaaaaaaaaaaaaaaaaaaaaaaaaaaaaaaaaaaaaaaaaaaaaaaaaaaaaaaaaaaaaaaaaaaaaaaaaaaxaxaeaeaKaKaoaoa6a6bcbcaLaLaaaaaaaaajaja3a3a6a6aaaaaLaLaxaxa8a8a7a7a8a8ajajaaaabdbdalalaaaaaeaeaLaLaaaaayayaJaJa3a3a7a7aaaaaaaaaaaaaUaUafafaaaaajaja8a8aaaaaaaaaMaMaxaxaMaMaaaaararaUaUbdbda7a7aaaaaaaaaaaaaaaaaaaaaaaaaaaaaaaaaaaaaaaaaaaaaaaaaaaaaaaaaaaaaaaaaaaaaaaaaaaaaaaaaaaaaaaaaaaaaaaa",
"aaaaaaaaaaaaaaaaaaaaaaaaaaaaaaaaaaaaaaaaaaaaaaaaaaaaaaaaaaaaaaaaaaaaaaaaaaaaaaaaaaaaaaaaaaaaaaaaaaaaaaaaaUaUaKaKaaaaaaaaaaaabmbmadadauaubcbcacacajajaoaoajajbabaaaaaadadadadaaaaakakakakaaaaaUaUauauaeaeaoaoaeaeaeaeaaaaaxaxaFaFbzbzadadaaaaaUaUbmbmbabaaaaabmbmauauauauaeaeaaaaaaaaalalbzbzaFaFaaaaaaaaaaaaaaaaaaaaaaaaaaaaaaaaaaaaaaaaaaaaaaaaaaaaaaaaaaaaaqaqaaaaaaaaaaaaajajafafaaaaauaualalaoaoaMaMaiaibababmbmavava2a2avavadadaaaaa1a1afafaaaaaaaaaaaaaaaaaaaaaaaaaaaaaaaaaaaaaaaaaaaaaaaaaaaaaaaaaaaaaaaaaaaaaaaaaaaaaaaaaxaxaeaeaKaKaoaoa6a6bcbcaLaLaaaaaaaaajaja3a3a6a6aaaaaLaLaxaxa8a8a7a7a8a8ajajaaaabdbdalalaaaaaeaeaLaLaaaaayayaJaJa3a3a7a7aaaaaaaaaaaaaUaUafafaaaaajaja8a8aaaaaaaaaMaMaxaxaMaMaaaaararaUaUbdbda7a7aaaaaaaaaaaaaaaaaaaaaaaaaaaaaaaaaaaaaaaaaaaaaaaaaaaaaaaaaaaaaaaaaaaaaaaaaaaaaaaaaaaaaaaaaaaaaaaa",
"aaaaaaaaaaaaaaaaaaaaaaaaaaaaaaaaaaaaaaaaaaaaaaaaaaaaaaaaaaaaaaaaaaaaaaaaaaaaaaaaaaaaaaaaaaaaaaaaaaaaafafaKaKaaaaaaaaafafbcbcavavaLaLbcbcaLaLaaaaaiaiaqaqaaaaajajaaaaaFaFaiaialalalalaMaMakakaLaLalalaUaUavavajajbzbzaqaqaoaoajajbmbmbzbzalalaaaaaoaoadadajajaaaabmbmauauaUaUaeaeaoaoaaaaaaaabcbcbzbzaaaaaaaaaaaaaaaaaaaaaaaaaaaaaaaaaaaaaaaaaaaaaaaaaaaaaaaaaaaaaaaaaaaaaaaaauauaoaoaaaaalalavavaaaaaaaaaaaaacacadadaaaaauauajajaxaxaaaababaaxaxaaaaaaaaaaaaaaaaaaaaaaaaaaaaaaaaaaaaaaaaaaaaaaaaaaaaaaaaaaaaaaaaaaaaaaaaaaaaaaaaadadajaja7a7akakaUaUa$a$aaaaaaaaajajakakaIaIa8a8alalbdbda7a7alalaaaaaLaLa7a7aMaMacacajajaaaaaUaUalalaaaaaVaVaUaUaJaJa3a3aaaaakakaiaia8a8bdbdakaka8a8aLaLa$a$aaaaaaaaakakacacafafaaaaaaaaa3a3aKaKaaaaaaaaaaaaaaaaaaaaaaaaaaaaaaaaaaaaaaaaaaaaaaaaaaaaaaaaaaaaaaaaaaaaaaaaaaaaaaaaaaaaaaaaaaaaaaaa",
"aaaaaaaaaaaaaaaaaaaaaaaaaaaaaaaaaaaaaaaaaaaaaaaaaaaaaaaaaaaaaaaaaaaaaaaaaaaaaaaaaaaaaaaaaaaaaaaaaaaaafafaKaKaaaaaaaaafafbcbcavavaLaLbcbcaLaLaaaaaiaiaqaqaaaaajajaaaaaFaFaiaialalalalaMaMakakaLaLalalaUaUavavajajbzbzaqaqaoaoajajbmbmbzbzalalaaaaaoaoadadajajaaaabmbmauauaUaUaeaeaoaoaaaaaaaabcbcbzbzaaaaaaaaaaaaaaaaaaaaaaaaaaaaaaaaaaaaaaaaaaaaaaaaaaaaaaaaaaaaaaaaaaaaaaaaauauaoaoaaaaalalavavaaaaaaaaaaaaacacadadaaaaauauajajaxaxaaaababaaxaxaaaaaaaaaaaaaaaaaaaaaaaaaaaaaaaaaaaaaaaaaaaaaaaaaaaaaaaaaaaaaaaaaaaaaaaaaaaaaaaaadadajaja7a7akakaUaUa$a$aaaaaaaaajajakakaIaIa8a8alalbdbda7a7alalaaaaaLaLa7a7aMaMacacajajaaaaaUaUalalaaaaaVaVaUaUaJaJa3a3aaaaakakaiaia8a8bdbdakaka8a8aLaLa$a$aaaaaaaaakakacacafafaaaaaaaaa3a3aKaKaaaaaaaaaaaaaaaaaaaaaaaaaaaaaaaaaaaaaaaaaaaaaaaaaaaaaaaaaaaaaaaaaaaaaaaaaaaaaaaaaaaaaaaaaaaaaaaa",
"aaaaaaaaaaaaaaaaaaaaaaaaaaaaaaaaaaaaaaaaaaaaaaaaaaaaaaaaaaaaaaaaaaaaaaaaaaaaaaaaaaaaaaaaaaaaaaaaaaaaaaaaaaaaaaaaaaaaaaaaaaaaaEaEauauaaaaaaaaalalacacafafayaybmbmauaubmbmajajajajaxaxaqaqakakaaaaaaaaadadaxaxaaaabmbmajajaqaqalalaMaMakakajajaxaxaaaaaqaqacacbmbmaaaaaiaiaxaxbmbmaEaEaoaoaaaaaaaabwbwbzbzaaaaaaaaaaaaaaaaaaaaaaaaaaaaaoaoaaaaaaaaaaaaaaaaaaaaaaaaaaaaaaaaaaaaaxaxafafaaaaalalakakaaaaaaaaaaaaacacbwbwaaaaadadaUaUaFaFaaaaaaaaakakaaaaaaaaaaaaaaaaaaaaaaaaaaaaaaaaaaaaaaaaaaaaaaaaaaaaaaaaaaaaaaaaaaaaaaaaaaaaaaaaaaaaalalalalbpbpaaaaaaaaaaaaajajajajaVaVa7a7a$a$bcbca7a7aMaMaaaaa6a6akaka6a6aMaMajajafafaJaJaeaeaLaLaaaaalalaKaKaaaaadadaaaaaaaaajajaMaMa6a6bpbpaVaVa7a7aeaebabaaaaaaaaaakakbpbpajajaaaaaaaaacacaeaeaaaaaaaaaaaaaaaaaaaaaaaaaaaaaaaaaaaaaaaaaaaaaaaaaaaaaaaaaaaaaaaaaaaaaaaaaaaaaaaaaaaaaaaaaaaa",
"aaaaaaaaaaaaaaaaaaaaaaaaaaaaaaaaaaaaaaaaaaaaaaaaaaaaaaaaaaaaaaaaaaaaaaaaaaaaaaaaaaaaaaaaaaaaaaaaaaaaaaaaaaaaaaaaaaaaaaaaaaaaaEaEauauaaaaaaaaalalacacafafayaybmbmauaubmbmajajajajaxaxaqaqakakaaaaaaaaadadaxaxaaaabmbmajajaqaqalalaMaMakakajajaxaxaaaaaqaqacacbmbmaaaaaiaiaxaxbmbmaEaEaoaoaaaaaaaabwbwbzbzaaaaaaaaaaaaaaaaaaaaaaaaaaaaaoaoaaaaaaaaaaaaaaaaaaaaaaaaaaaaaaaaaaaaaxaxafafaaaaalalakakaaaaaaaaaaaaacacbwbwaaaaadadaUaUaFaFaaaaaaaaakakaaaaaaaaaaaaaaaaaaaaaaaaaaaaaaaaaaaaaaaaaaaaaaaaaaaaaaaaaaaaaaaaaaaaaaaaaaaaaaaaaaaaalalalalbpbpaaaaaaaaaaaaajajajajaVaVa7a7a$a$bcbca7a7aMaMaaaaa6a6akaka6a6aMaMajajafafaJaJaeaeaLaLaaaaalalaKaKaaaaadadaaaaaaaaajajaMaMa6a6bpbpaVaVa7a7aeaebabaaaaaaaaaakakbpbpajajaaaaaaaaacacaeaeaaaaaaaaaaaaaaaaaaaaaaaaaaaaaaaaaaaaaaaaaaaaaaaaaaaaaaaaaaaaaaaaaaaaaaaaaaaaaaaaaaaaaaaaaaaa",
"aaaaaaaaaaaaaaaaaaaaaaaaaaaaaaaaaaaaaaaaaaaaaaaaaaaaaaaaaaaaaaaaaaaaaaaaaaaaaaaaaaaaaaaaaaaaaaaaaaaaaaaaaaaaaaaaaaaaaoaoaEaEaeaeaaaaaaaaaeaeacacararaVaVauaubabaaZaZavavaaaaaxaxaFaFalalararaiaiaaaabcbcadadaaaaadadaMaMararbabaauauaiaiaLaLaKaKbcbcaaaababaacacaxaxajajadadbabaaeaeaEaEaoaoaaaaaaaabwbwbzbzaaaaaaaaaaaaaaaaaaaaafafaxaxaaaaaaaaaaaaaaaaaaaaaaaaaaaaaaaaaaaaaoaoaaaaaaaaaeaeakakaaaaaaaaalalaeaeafafaaaaaiaibmbmaaaaaaaaaaaaaaaaaaaaaaaaaaaaaaaaaaaaaaaaaaaaaaaaaaaaaaaaa1a1avavararaaaaaaaaaaaaaaaaaaaaaaaaaaaaaaaaaFaFayaybcbcaFaFaaaaajajajajakaka$a$aaaaaUaUaqaqafafakakaaaaayayaoaoa$a$alalaaaaa$a$aiaiaeaeaxaxaaaaa7a7a6a6a$a$bnbnaJaJaaaaaaaaakakaFaFa6a6bpbpalalararaeaeaaaaaaaaaaaaajajbcbcafafaaaaaLaLaDaDaaaaaaaaaaaaaaaaaaaaaaaaaaaaaaaaaaaaaaaaaaaaaaaaaaaaaaaaaaaaaaaaaaaaaaaaaaaaaaaaaaaaaaaaaaaa",
"aaaaaaaaaaaaaaaaaaaaaaaaaaaaaaaaaaaaaaaaaaaaaaaaaaaaaaaaaaaaaaaaaaaaaaaaaaaaaaaaaaaaaaaaaaaaaaaaaaaaaaaaaaaaaaaaaaaaaoaoaEaEaeaeaaaaaaaaaeaeacacararaVaVauaubabaaZaZavavaaaaaxaxaFaFalalararaiaiaaaabcbcadadaaaaadadaMaMararbabaauauaiaiaLaLaKaKbcbcaaaababaacacaxaxajajadadbabaaeaeaEaEaoaoaaaaaaaabwbwbzbzaaaaaaaaaaaaaaaaaaaaafafaxaxaaaaaaaaaaaaaaaaaaaaaaaaaaaaaaaaaaaaaoaoaaaaaaaaaeaeakakaaaaaaaaalalaeaeafafaaaaaiaibmbmaaaaaaaaaaaaaaaaaaaaaaaaaaaaaaaaaaaaaaaaaaaaaaaaaaaaaaaaa1a1avavararaaaaaaaaaaaaaaaaaaaaaaaaaaaaaaaaaFaFayaybcbcaFaFaaaaajajajajakaka$a$aaaaaUaUaqaqafafakakaaaaayayaoaoa$a$alalaaaaa$a$aiaiaeaeaxaxaaaaa7a7a6a6a$a$bnbnaJaJaaaaaaaaakakaFaFa6a6bpbpalalararaeaeaaaaaaaaaaaaajajbcbcafafaaaaaLaLaDaDaaaaaaaaaaaaaaaaaaaaaaaaaaaaaaaaaaaaaaaaaaaaaaaaaaaaaaaaaaaaaaaaaaaaaaaaaaaaaaaaaaaaaaaaaaaa",
"aaaaaaaaaaaaaaaaaaaaaaaaaaaaaaaaaaaaaaaaaaaaaaaaaaaaaaaaaaaaaaaaaaaaaaaaaaaaaaaaaaaaaaaaaaaaaaaaaaaaaaaaaaaaaaaaaFaFaEaEauauaaaaaaaaaUaUaKaKaaaaaeaebmbmaaaabzbzahahavavaFaFaKaKaFaFaxaxaFaFayayaaaaacacbcbcaaaaaqaqbcbcaqaqaaaabcbcararaFaFbabaadadaoaoaaaaaaaabzbzadadaqaqaaaaaaaaauauaEaEaDaDaaaaaaaaadadaaaaaaaaaaaaaaaaaaaaajajaUaUaaaaaaaaaaaaaaaaaaaaaaaaaaaaaaaaaaaaaaaaaaaaaaaaaaaaaaaaaaaaaaaaaaaaaaaaaaaaaaaaaaaaalalaaaaaaaaaaaaaaaaaaaaaaaaaaaaaaaaaaaaaaaaaaaaaaaaaaaaa1a1avavauauaFaFaaaaaaaaaaaaaaaaaaaaaaaaaaaaaaaabcbcalalaaaaaaaaakakakakaeaealalbabaaxaxaiaiaaaaaUaUa6a6a8a8adadaMaMa7a7ajajaoaoaFaFajaja$a$ayaya6a6afafakaka6a6ajajbdbdaIaIa6a6aaaaalala6a6a6a6awawajaja7a7aLaLaKaKayayaaaaacacakakaaaaaaaaaaaaaaaaaaaaaaaaaaaaaaaaaaaaaaaaaaaaaaaaaaaaaaaaaaaaaaaaaaaaaaaaaaaaaaaaaaaaaaaaaaaaaaaaaaaaaaaa",
"aaaaaaaaaaaaaaaaaaaaaaaaaaaaaaaaaaaaaaaaaaaaaaaaaaaaaaaaaaaaaaaaaaaaaaaaaaaaaaaaaaaaaaaaaaaaaaaaaaaaaaaaaaaaaaaaaFaFaEaEauauaaaaaaaaaUaUaKaKaaaaaeaebmbmaaaabzbzahahavavaFaFaKaKaFaFaxaxaFaFayayaaaaacacbcbcaaaaaqaqbcbcaqaqaaaabcbcararaFaFbabaadadaoaoaaaaaaaabzbzadadaqaqaaaaaaaaauauaEaEaDaDaaaaaaaaadadaaaaaaaaaaaaaaaaaaaaajajaUaUaaaaaaaaaaaaaaaaaaaaaaaaaaaaaaaaaaaaaaaaaaaaaaaaaaaaaaaaaaaaaaaaaaaaaaaaaaaaaaaaaaaaalalaaaaaaaaaaaaaaaaaaaaaaaaaaaaaaaaaaaaaaaaaaaaaaaaaaaaa1a1avavauauaFaFaaaaaaaaaaaaaaaaaaaaaaaaaaaaaaaabcbcalalaaaaaaaaakakakakaeaealalbabaaxaxaiaiaaaaaUaUa6a6a8a8adadaMaMa7a7ajajaoaoaFaFajaja$a$ayaya6a6afafakaka6a6ajajbdbdaIaIa6a6aaaaalala6a6a6a6awawajaja7a7aLaLaKaKayayaaaaacacakakaaaaaaaaaaaaaaaaaaaaaaaaaaaaaaaaaaaaaaaaaaaaaaaaaaaaaaaaaaaaaaaaaaaaaaaaaaaaaaaaaaaaaaaaaaaaaaaaaaaaaaaa",
"aaaaaaaaaaaaaaaaaaaaaaaaaaaaaaaaaaaaaaaaaaaaaaaaaaaaaaaaaaaaaaaaaaaaaaaaaaaaaaaaaaaaaaaaaaaaaaaaaaaaaaaaaoaoaLaLaEaEaUaUaaaaaaaaajajaaaaaaaaaeaeaxaxaaaaaMaMaEaEalalaaaaadadbabaaeaeaiaiararaeaeaLaLbzbzbmbmaFaFaiaiadadalalaeaeaeaeajajakakaeaebabaadadbabaajajauaubGbGayayaaaaaaaaajajaEaEaEaEajajaaaaaaaaaaaaaaaaaaaaaaaaaaaaaaaaaaaaaaaaaaaaaaaaaaaaaaaaaaaaaaaaaaaaaaaaaaaaaaaaaaaaaaaaaaaaaaaaaaaaaaaaaaaaavavaoaoaaaaaaaaaaaaaaaaaaaaaaaaaaaaaaaaaaaaaaaaaaaaaaaaaaaaaaaaaaaaaaaaaaaaaaaaaaaaaaaaaaaaaaaaaaaaaaaaaaaaaaaaararbcbcafafaaaaakakaFaFa3a3bdbdaaaaaeaeadadaaaaaMaMbdbda7a7ajajbcbcafafayayaaaaafafaoaoakakaaaaakakaJaJakakalalaLaLaJaJbdbdaKaKa6a6aaaaafafaLaLaaaaalalbdbdaaaaaFaFalalaaaaaaaaaaaaaaaaaaaaaaaaaaaaaaaaaaaaaaaaaaaaaaaaaaaaaaaaaaaaaaaaaaaaaaaaaaaaaaaaaaaaaaaaaaaaaaaaaaaaaaaaaaaaaaaaaaaaaaaa",
"aaaaaaaaaaaaaaaaaaaaaaaaaaaaaaaaaaaaaaaaaaaaaaaaaaaaaaaaaaaaaaaaaaaaaaaaaaaaaaaaaaaaaaaaaaaaaaaaaaaaaaaaaoaoaLaLaEaEaUaUaaaaaaaaajajaaaaaaaaaeaeaxaxaaaaaMaMaEaEalalaaaaadadbabaaeaeaiaiararaeaeaLaLbzbzbmbmaFaFaiaiadadalalaeaeaeaeajajakakaeaebabaadadbabaajajauaubGbGayayaaaaaaaaajajaEaEaEaEajajaaaaaaaaaaaaaaaaaaaaaaaaaaaaaaaaaaaaaaaaaaaaaaaaaaaaaaaaaaaaaaaaaaaaaaaaaaaaaaaaaaaaaaaaaaaaaaaaaaaaaaaaaaaaavavaoaoaaaaaaaaaaaaaaaaaaaaaaaaaaaaaaaaaaaaaaaaaaaaaaaaaaaaaaaaaaaaaaaaaaaaaaaaaaaaaaaaaaaaaaaaaaaaaaaaaaaaaaaaararbcbcafafaaaaakakaFaFa3a3bdbdaaaaaeaeadadaaaaaMaMbdbda7a7ajajbcbcafafayayaaaaafafaoaoakakaaaaakakaJaJakakalalaLaLaJaJbdbdaKaKa6a6aaaaafafaLaLaaaaalalbdbdaaaaaFaFalalaaaaaaaaaaaaaaaaaaaaaaaaaaaaaaaaaaaaaaaaaaaaaaaaaaaaaaaaaaaaaaaaaaaaaaaaaaaaaaaaaaaaaaaaaaaaaaaaaaaaaaaaaaaaaaaaaaaaaaaa",
"aaaaaaaaaaaaaaaaaaaaaaaaaaaaaaaaaaaaaaaaaaaaaaaaaaaaaaaaaaaaaaaaaaaaaaaaaaaaaaaaaaaaaaaaaaaaaaaaaaaaaaaaaKaKababalalaaaaaaaaaKaKaxaxadadadadaKaKaaaaaMaMbzbzbzbzaaaaaLaLaLaLbababcbcaFaFararaeaeaLaLajajbmbmaqaqaFaFbcbcayayaUaUaaaabzbzaaaaadadaDaDajajacacaKaKbabaaxaxbcbcbabaaaaaaaaaaMaMbmbmbcbcaaaaaaaaaaaaaaaaaaaaaaaaaaaaaaaaaaaaaaaaaaaaaaaaaaaaaaaaaaaaaaaaaaaaaaaaaaaaaaaaaaaaaaaaaaaaaaaaaaaaaaaaaaaabwbwaUaUaaaaaaaaaaaaaaaaaaaaaaaaaaaaaaaaaaaaaaaaaaaaaaaaaaaaaaaaaaaaaaaaaaaaaaaaaaaaaaaaaaaaaaaaaaaaaaaaaaaaaaaaaaaaafafaaaaaaaaaUaUararbcbca8a8a7a7bpbpaMaMaaaabdbdaIaIaaaabnbnaUaUaaaaaLaLaaaaaMaMa6a6aJaJa8a8ajajaiaiayayararbdbda6a6aiaiaUaUaLaLaaaaa6a6bdbdaLaLa$a$bnbnaKaKaaaaa6a6aLaLaaaaaaaaaaaaaaaaaaaaafafaiaiaaaaaaaaaaaaaaaaaaaaaaaaaaaaaaaaaaaaaaaaaaaaaaaaaaaaaaaaaaaaaaaaaaaaaaaaaaaaaaaaaaaaaaaa",
"aaaaaaaaaaaaaaaaaaaaaaaaaaaaaaaaaaaaaaaaaaaaaaaaaaaaaaaaaaaaaaaaaaaaaaaaaaaaaaaaaaaaaaaaaaaaaaaaaaaaaaaaaKaKababalalaaaaaaaaaKaKaxaxadadadadaKaKaaaaaMaMbzbzbzbzaaaaaLaLaLaLbababcbcaFaFararaeaeaLaLajajbmbmaqaqaFaFbcbcayayaUaUaaaabzbzaaaaadadaDaDajajacacaKaKbabaaxaxbcbcbabaaaaaaaaaaMaMbmbmbcbcaaaaaaaaaaaaaaaaaaaaaaaaaaaaaaaaaaaaaaaaaaaaaaaaaaaaaaaaaaaaaaaaaaaaaaaaaaaaaaaaaaaaaaaaaaaaaaaaaaaaaaaaaaaabwbwaUaUaaaaaaaaaaaaaaaaaaaaaaaaaaaaaaaaaaaaaaaaaaaaaaaaaaaaaaaaaaaaaaaaaaaaaaaaaaaaaaaaaaaaaaaaaaaaaaaaaaaaaaaaaaaaafafaaaaaaaaaUaUararbcbca8a8a7a7bpbpaMaMaaaabdbdaIaIaaaabnbnaUaUaaaaaLaLaaaaaMaMa6a6aJaJa8a8ajajaiaiayayararbdbda6a6aiaiaUaUaLaLaaaaa6a6bdbdaLaLa$a$bnbnaKaKaaaaa6a6aLaLaaaaaaaaaaaaaaaaaaaaafafaiaiaaaaaaaaaaaaaaaaaaaaaaaaaaaaaaaaaaaaaaaaaaaaaaaaaaaaaaaaaaaaaaaaaaaaaaaaaaaaaaaaaaaaaaaa",
"aaaaaaaaaaaaaaaaaaaaaaaaaaaaaaaaaaaaaaaaaaaaaaaaaaaaaaaaaaaaaaaaaaaaaaaaaaaaaaaaaaaaaaaaaaaaaaaaaaaaaaaaaaaaaMaMaaaababababaafafaoaoababaxaxaaaaaiaibzbzbzbzajajaaaabmbmajajadadbmbmararararaeaeaLaLavavbmbmararararajajaeaeaUaUajajavavaUaUaDaDbmbmaaaaadadavavaaaaacacaGaGaMaMafafaUaUaaaaaaaaadadaaaaaaaaaaaaaaaaaaaaaaaaaaaaaaaaaaaaaaaaaaaaaLaLaeaeaaaaaaaaaaaaaaaaaaaaaaaaaaaaaaaaaaaaaaaaaaaaaaaaaaaaaaaaajajaeaeaaaaaaaaaaaaaaaaaaaaaaaaaaaaaaaaaaaaaaaaaaaaaaaaaaaaaaaaaaaaaaaaaaaaaaaaaaaaaaaaaaaaaaaaaaaaaaaaaaaaaaaaaaaaaaaaaaaaalala$a$aLaLaeaeaxaxa3a3bdbdaqaqaJaJbdbdbabaaIaIbdbdaUaUaaaaadadaaaaaeaeakakaKaKaaaaaVaVaoaoalalaaaaaeaeaJaJajajaqaqadadaaaaalala3a3aUaUa8a8a$a$adada6a6aaaaayayararaaaaaaaaaaaaaaaaaUaUaeaeaaaaayayalalaaaaaaaaaaaaaaaaaaaaaaaaaaaaaaaaaaaaaaaaaaaaaaaaaaaaaaaaaaaaaaaaaaaaaaaaaaaa",
"aaaaaaaaaaaaaaaaaaaaaaaaaaaaaaaaaaaaaaaaaaaaaaaaaaaaaaaaaaaaaaaaaaaaaaaaaaaaaaaaaaaaaaaaaaaaaaaaaaaaaaaaaaaaaMaMaaaababababaafafaoaoababaxaxaaaaaiaibzbzbzbzajajaaaabmbmajajadadbmbmararararaeaeaLaLavavbmbmararararajajaeaeaUaUajajavavaUaUaDaDbmbmaaaaadadavavaaaaacacaGaGaMaMafafaUaUaaaaaaaaadadaaaaaaaaaaaaaaaaaaaaaaaaaaaaaaaaaaaaaaaaaaaaaLaLaeaeaaaaaaaaaaaaaaaaaaaaaaaaaaaaaaaaaaaaaaaaaaaaaaaaaaaaaaaaajajaeaeaaaaaaaaaaaaaaaaaaaaaaaaaaaaaaaaaaaaaaaaaaaaaaaaaaaaaaaaaaaaaaaaaaaaaaaaaaaaaaaaaaaaaaaaaaaaaaaaaaaaaaaaaaaaaaaaaaaaalala$a$aLaLaeaeaxaxa3a3bdbdaqaqaJaJbdbdbabaaIaIbdbdaUaUaaaaadadaaaaaeaeakakaKaKaaaaaVaVaoaoalalaaaaaeaeaJaJajajaqaqadadaaaaalala3a3aUaUa8a8a$a$adada6a6aaaaayayararaaaaaaaaaaaaaaaaaUaUaeaeaaaaayayalalaaaaaaaaaaaaaaaaaaaaaaaaaaaaaaaaaaaaaaaaaaaaaaaaaaaaaaaaaaaaaaaaaaaaaaaaaaaa",
"aaaaaaaaaaaaaaaaaaaaaaaaaaaaaaaaaaaaaaaaaaaaaaaaaaaaaaaaaaaaaaaaaaaaaaaaaaaaaaaaaaaaaaaaaqaqaaaaaaaaaaaaakakafafaaaaayayaeaeaaaaakakaxaxaaaaadadbibibzbzbvbvaaaaaoaobmbmaoaobzbzbzbzafafaFaFalalalalaVaVauauaeaeavavbabaauauayaybzbzavavauauaaaaacacararauaubzbzaMaMaaaaauaubcbcajajababakakaaaaaaaaaaaaaaaaaaaaaaaaaaaaaaaaaaaaaaaaaaaaaaaaaMaMaxaxaeaeaaaaaaaaaaaaaaaaaaaaaaaaaaaaaaaaaaaaaaaaaaaaaaaaaaaaaaaaaaaaaaaaaaaaa7a7araraaaaaaaaaaaaaaaaaaaaaaaaaaaaaaaaaaaaaaaaaaaaaaaaaaaaaaaaaaaaaaaaaaaaaaaaaaaaaaaaaaaaaaaaaaaaaaaaaaaaaaaaaaaaajajaUaUaaaaaaaabpbpafafaxaxbdbdbdbdaaaaaAaAbdbdaaaaakakbdbdaaaaaUaUaVaVbdbdaaaaaUaUaoaoaUaUafafaeaea8a8aIaIaJaJadadaaaaaaaaaeaeaiaia3a3aaaaaUaUbpbpaxaxaaaabcbcaxaxaaaaaaaaaaaaaxaxakakaaaabcbcafafaaaaaaaaaaaaaaaaaaaaaaaaaaaaaaaaaaaaaaaaaaaaaaaaaaaaaaaaaaaaaaaaaaaaaaaaaaaa",
"aaaaaaaaaaaaaaaaaaaaaaaaaaaaaaaaaaaaaaaaaaaaaaaaaaaaaaaaaaaaaaaaaaaaaaaaaaaaaaaaaaaaaaaaaqaqaaaaaaaaaaaaakakafafaaaaayayaeaeaaaaakakaxaxaaaaadadbibibzbzbvbvaaaaaoaobmbmaoaobzbzbzbzafafaFaFalalalalaVaVauauaeaeavavbabaauauayaybzbzavavauauaaaaacacararauaubzbzaMaMaaaaauaubcbcajajababakakaaaaaaaaaaaaaaaaaaaaaaaaaaaaaaaaaaaaaaaaaaaaaaaaaMaMaxaxaeaeaaaaaaaaaaaaaaaaaaaaaaaaaaaaaaaaaaaaaaaaaaaaaaaaaaaaaaaaaaaaaaaaaaaaa7a7araraaaaaaaaaaaaaaaaaaaaaaaaaaaaaaaaaaaaaaaaaaaaaaaaaaaaaaaaaaaaaaaaaaaaaaaaaaaaaaaaaaaaaaaaaaaaaaaaaaaaaaaaaaaaajajaUaUaaaaaaaabpbpafafaxaxbdbdbdbdaaaaaAaAbdbdaaaaakakbdbdaaaaaUaUaVaVbdbdaaaaaUaUaoaoaUaUafafaeaea8a8aIaIaJaJadadaaaaaaaaaeaeaiaia3a3aaaaaUaUbpbpaxaxaaaabcbcaxaxaaaaaaaaaaaaaxaxakakaaaabcbcafafaaaaaaaaaaaaaaaaaaaaaaaaaaaaaaaaaaaaaaaaaaaaaaaaaaaaaaaaaaaaaaaaaaaaaaaaaaaa",
"aaaaaaaaaaaaaaaaaaaaaaaaaaaaaaaaaaaaaaaaaaaaaaaaaaaaaaaaaaaaaaaaaaaaaaaaarara6a6aLaLaMaMaKaKaaaaaaaaaaaaakakayayaaaaaxaxacacbabaaoaoadadaaaaa1a1bvbvbvbvavavaaaaaeaeaeaeaaaaajajbmbmauauajajalalalalavavadadavavauauaFaFaxaxaaaabmbmavavbwbwbabaaxaxbmbmaMaMbwbwbzbzaaaaaaaaaaaaaUaUadadafafaaaaaaaaaaaaaaaaaaaaaaaaaaaaaaaaaaaaaaaaaaaaaaaaaaaaaaaaaaaaaaaaaaaaaaaaaaaaaaaaaaaaaaaaaaaaaaaaaaaaaaaaaaaaaaaaaaaaaaaaaaaaaaaaaKaKadadakakaaaaaaaaaaaaaaaaaaaaaaaaaaaaaaaaaaaaaaaaaaaaaaaaaaaaaaaaaaaaaaaaaaaaaaaaaaaaaaaaa7a7a7a7aaaaaaaaaaaaaaaabdbdajajaaaaalalbdbdaaaaaaaabdbdaIaIaJaJbebebdbdaaaaaeaea6a6aaaaaUaUaVaVaxaxaaaaaxaxaqaqa6a6ajajaUaUaIaIaIaIaJaJaLaLajajaaaaakakaUaUbdbdaqaqaaaabcbcadadaKaKajajakakbcbcaUaUaVaVaUaUaaaaaFaFaeaeaaaaaaaaaaaaaiaiafafaaaaaaaaaaaaaaaaaaaaaaaaaaaaaaaaaaaaaaaaaaaaaaaaaaaaaaaaaaaa",
"aaaaaaaaaaaaaaaaaaaaaaaaaaaaaaaaaaaaaaaaaaaaaaaaaaaaaaaaaaaaaaaaaaaaaaaaarara6a6aLaLaMaMaKaKaaaaaaaaaaaaakakayayaaaaaxaxacacbabaaoaoadadaaaaa1a1bvbvbvbvavavaaaaaeaeaeaeaaaaajajbmbmauauajajalalalalavavadadavavauauaFaFaxaxaaaabmbmavavbwbwbabaaxaxbmbmaMaMbwbwbzbzaaaaaaaaaaaaaUaUadadafafaaaaaaaaaaaaaaaaaaaaaaaaaaaaaaaaaaaaaaaaaaaaaaaaaaaaaaaaaaaaaaaaaaaaaaaaaaaaaaaaaaaaaaaaaaaaaaaaaaaaaaaaaaaaaaaaaaaaaaaaaaaaaaaaaKaKadadakakaaaaaaaaaaaaaaaaaaaaaaaaaaaaaaaaaaaaaaaaaaaaaaaaaaaaaaaaaaaaaaaaaaaaaaaaaaaaaaaaa7a7a7a7aaaaaaaaaaaaaaaabdbdajajaaaaalalbdbdaaaaaaaabdbdaIaIaJaJbebebdbdaaaaaeaea6a6aaaaaUaUaVaVaxaxaaaaaxaxaqaqa6a6ajajaUaUaIaIaIaIaJaJaLaLajajaaaaakakaUaUbdbdaqaqaaaabcbcadadaKaKajajakakbcbcaUaUaVaVaUaUaaaaaFaFaeaeaaaaaaaaaaaaaiaiafafaaaaaaaaaaaaaaaaaaaaaaaaaaaaaaaaaaaaaaaaaaaaaaaaaaaaaaaaaaaa",
"aaaaaaaaaaaaaaaaaaaaaaaaaaaaaaaaaaaaaaaaaaaaaaaaaaaaaaaaaaaaaaaaaaaaaaaaaMaMadadaeaeadadayayaiaiaxaxaiaiaKaKa6a6babaaxaxaeaeadadaxaxaiaiaaaaauaubvbvbmbmararaaaaaUaUauauajajalalauauajajavavaeaealalajajafafaiaibvbvajajaxaxaaaabwbwbibibmbmayayaaaaaEaEaMaMauaubzbzaaaaaaaaaFaFbcbcaaaaaaaaaaaaaaaaajajaUaUaLaLaaaaaaaaaaaaaaaaaaaaaaaaaaaaaaaaaaaaaaaaaaaaaaaaaaaaaaaaaaaaaaaaaaaaaaaaaaaaaaaaaaaaaaaaaaaaaaaaaaaaaaaaaaaaa6a6aiaiaaaaaaaaaaaaaaaaaaaaaaaaaaaaaaaaaaaaaaaaaaaaaaaaaaaaaaaaaeaeararaaaaaaaaaaaaaaaaaaaaaUaUa6a6aaaaaaaaaaaaaaaaaKaKaaaaaaaabdbdafafaaaaaaaabnbnaaaaa3a3bpbpaIaIaaaabdbdaJaJa$a$adadakakbdbdaaaabdbda6a6aiaiakakaJaJbdbdaIaIbdbda7a7aKaKaaaaa$a$bcbcaUaUbpbpbabaalalalalaxaxajajaxaxadadaxaxbabaaxaxakakbabaaKaKaaaaaaaaaFaFadadaFaFaaaaaaaaaaaaaaaaaaaaaaaaaaaaaaaaaaaaaaaaaaaaaaaaaaaaaaaaaaaa",
"aaaaaaaaaaaaaaaaaaaaaaaaaaaaaaaaaaaaaaaaaaaaaaaaaaaaaaaaaaaaaaaaaaaaaaaaaMaMadadaeaeadadayayaiaiaxaxaiaiaKaKa6a6babaaxaxaeaeadadaxaxaiaiaaaaauaubvbvbmbmararaaaaaUaUauauajajalalauauajajavavaeaealalajajafafaiaibvbvajajaxaxaaaabwbwbibibmbmayayaaaaaEaEaMaMauaubzbzaaaaaaaaaFaFbcbcaaaaaaaaaaaaaaaaajajaUaUaLaLaaaaaaaaaaaaaaaaaaaaaaaaaaaaaaaaaaaaaaaaaaaaaaaaaaaaaaaaaaaaaaaaaaaaaaaaaaaaaaaaaaaaaaaaaaaaaaaaaaaaaaaaaaaaa6a6aiaiaaaaaaaaaaaaaaaaaaaaaaaaaaaaaaaaaaaaaaaaaaaaaaaaaaaaaaaaaeaeararaaaaaaaaaaaaaaaaaaaaaUaUa6a6aaaaaaaaaaaaaaaaaKaKaaaaaaaabdbdafafaaaaaaaabnbnaaaaa3a3bpbpaIaIaaaabdbdaJaJa$a$adadakakbdbdaaaabdbda6a6aiaiakakaJaJbdbdaIaIbdbda7a7aKaKaaaaa$a$bcbcaUaUbpbpbabaalalalalaxaxajajaxaxadadaxaxbabaaxaxakakbabaaKaKaaaaaaaaaFaFadadaFaFaaaaaaaaaaaaaaaaaaaaaaaaaaaaaaaaaaaaaaaaaaaaaaaaaaaaaaaaaaaa",
"aaaaaaaaaaaaaaaaaaaaaaaaaaaaaaaaaaaaaaaaaaaaaaaaaaaaaaaaaaaaaUaUajajaaaaaaaaayayaxaxaFaFaiaiadadafafaMaMaUaUaaaaaiaiaUaUaaaaadadalalaxaxbababvbvbybyauauaaaaaaaaaUaUaKaKaLaLalalaxaxavavavavauauavavajajaaaaaiaibmbmbabaalalaeaebmbmbvbvavavaKaKaaaaahahauaua2a2bzbzauauaaaaaaaaaaaaaaaaaaaaaaaaaaaaayayadadaqaqaaaaaaaaaaaaaaaaaaaaaaaaaaaaaaaaaaaaaaaaaaaaaaaaaaaaaaaaaaaaaaaaaaaaakakaoaoaaaaaaaaaaaaaaaaaaaaaaaaaaaaaaaaaaaaaaaaaaaaaaaaaaaaalalaeaeaaaaaaaaaaaaaaaaaaaaaaaaaaaaakakaKaKayayaaaaaaaaaaaaaaaaaaaaa7a7aKaKa6a6aaaaaaaaaaaaaUaUaUaUaaaaaaaabdbdaaaaaaaaaeaeacacbdbdbdbdbnbnaaaaaaaabdbda6a6a7a7adadajajaxaxaaaabdbda6a6akakaLaLbdbdbdbda$a$bdbdakakaeaeaaaababaaKaKalalaxaxaxaxaeaeaxaxaaaaadadbabaaUaUaFaFbabaalalbabaadadajajaaaaaqaqadadaaaaaaaaafafadadaaaaaaaaaaaaaaaaaaaaaaaaaaaaaaaaaaaaaaaaaaaaaaaaaaaa",
"aaaaaaaaaaaaaaaaaaaaaaaaaaaaaaaaaaaaaaaaaaaaaaaaaaaaaaaaaaaaaUaUajajaaaaaaaaayayaxaxaFaFaiaiadadafafaMaMaUaUaaaaaiaiaUaUaaaaadadalalaxaxbababvbvbybyauauaaaaaaaaaUaUaKaKaLaLalalaxaxavavavavauauavavajajaaaaaiaibmbmbabaalalaeaebmbmbvbvavavaKaKaaaaahahauaua2a2bzbzauauaaaaaaaaaaaaaaaaaaaaaaaaaaaaayayadadaqaqaaaaaaaaaaaaaaaaaaaaaaaaaaaaaaaaaaaaaaaaaaaaaaaaaaaaaaaaaaaaaaaaaaaaakakaoaoaaaaaaaaaaaaaaaaaaaaaaaaaaaaaaaaaaaaaaaaaaaaaaaaaaaaalalaeaeaaaaaaaaaaaaaaaaaaaaaaaaaaaaakakaKaKayayaaaaaaaaaaaaaaaaaaaaa7a7aKaKa6a6aaaaaaaaaaaaaUaUaUaUaaaaaaaabdbdaaaaaaaaaeaeacacbdbdbdbdbnbnaaaaaaaabdbda6a6a7a7adadajajaxaxaaaabdbda6a6akakaLaLbdbdbdbda$a$bdbdakakaeaeaaaababaaKaKalalaxaxaxaxaeaeaxaxaaaaadadbabaaUaUaFaFbabaalalbabaadadajajaaaaaqaqadadaaaaaaaaafafadadaaaaaaaaaaaaaaaaaaaaaaaaaaaaaaaaaaaaaaaaaaaaaaaaaaaa",
"aaaaaaaaaaaaaaaaaaaaaaaaaaaaaaaaaaaaaaaaaaaaaaaaaaaaaaaaaaaaaaaaaeaeaeaeaaaaaaaaaKaKaFaFaaaaaeaeaFaFa6a6aLaLakakadadaVaVaaaaaFaFadadakakajajbzbzbzbzbmbmaaaababaaxaxaLaLalalalalaxaxavavavavauauavavajajaaaaaaaabmbmbabaaLaLaKaKavavbzbzalalbcbcbabaajajbzbzbabaauaubcbcaaaaaaaaaaaaaaaaaaaaaaaaaaaaaaaaaaaaaaaaaaaaaaaaaaaaaaaaaaaaaaaaaaaaaaaaaaaaaaaaaaaaaaaaaaaaaaaaaaaaaaaaaaaaaaaaaaaaaaaaaaaaaaaaaaaaaaaaaaaaaaaaaaaaaaaaaaaaaaaaaaaaaaaaaeaeababaFaFaaaaaaaaaaaaaaaaaaaaaaaaaaaaaaaaaaaaaaaaaaaaaaaaaaaaaaaaaaaaaaaaaaaaaaaaaaaaaaaaaLaLaaaaaaaaaaaaaeaeaaaaafafbcbca$a$a8a8bebebpbpaaaaaiaibnbna8a8aMaMafafaaaabdbdaaaaaeaeaaaaaiaiaeaeaaaabdbdaaaabdbdayayadadayayaaaaakakadadaMaMaVaVacacaKaKaaaaaKaKbabaaUaUaMaMbabaajajaaaaalalaaaaaaaabcbcadadaMaMaUaUadadaaaaaaaaakakaFaFaaaaaaaaaaaaaaaaaaaaaaaaaaaaaaaaaaaaaaaa",
"aaaaaaaaaaaaaaaaaaaaaaaaaaaaaaaaaaaaaaaaaaaaaaaaaaaaaaaaaaaaaaaaaeaeaeaeaaaaaaaaaKaKaFaFaaaaaeaeaFaFa6a6aLaLakakadadaVaVaaaaaFaFadadakakajajbzbzbzbzbmbmaaaababaaxaxaLaLalalalalaxaxavavavavauauavavajajaaaaaaaabmbmbabaaLaLaKaKavavbzbzalalbcbcbabaajajbzbzbabaauaubcbcaaaaaaaaaaaaaaaaaaaaaaaaaaaaaaaaaaaaaaaaaaaaaaaaaaaaaaaaaaaaaaaaaaaaaaaaaaaaaaaaaaaaaaaaaaaaaaaaaaaaaaaaaaaaaaaaaaaaaaaaaaaaaaaaaaaaaaaaaaaaaaaaaaaaaaaaaaaaaaaaaaaaaaaaaeaeababaFaFaaaaaaaaaaaaaaaaaaaaaaaaaaaaaaaaaaaaaaaaaaaaaaaaaaaaaaaaaaaaaaaaaaaaaaaaaaaaaaaaaLaLaaaaaaaaaaaaaeaeaaaaafafbcbca$a$a8a8bebebpbpaaaaaiaibnbna8a8aMaMafafaaaabdbdaaaaaeaeaaaaaiaiaeaeaaaabdbdaaaabdbdayayadadayayaaaaakakadadaMaMaVaVacacaKaKaaaaaKaKbabaaUaUaMaMbabaajajaaaaalalaaaaaaaabcbcadadaMaMaUaUadadaaaaaaaaakakaFaFaaaaaaaaaaaaaaaaaaaaaaaaaaaaaaaaaaaaaaaa",
"aaaaaaaaaaaaaaaaaaaaaaaaaaaaaaaaaaaaaaaaaaaaaaaaaaaaaaaaaaaaaaaaaaaaaeaeaLaLaaaaafafaKaKaaaaalalaFaFa6a6ayayalaladadaaaaaaaaaxaxayayaaaaaLaLbzbzaeaeajajaaaaajajadadaaaaaUaUaeaeaxaxauaualalauauaxaxalalaLaLaaaabcbcararavavauauaFaFaZaZauaualalaiaibababzbzavavaaaaahahalalaaaaaiaiakakaaaaaaaaaaaaaaaaaaaaaaaaaaaaaaaaaaaaaaaaaaaaaaaaaaaaaaaaaaaaaaaaaaaaaaaaaaaaaaaaaaaaaaaaaaaaaaaaaaaaaaaaaaaaaaaaaaaaaaaaaaaaaaaaaaaaaaaaaaaaaaaaaaaaaaaaafafaxaxaaaaaaaaaaaaaaaaaaaaaaaaaaaaaaaaaaaaaaaaaaaaaaaaaaaaaaaaaaaaaaaaaaaaaaaaaaaaaaaaaaaaaaaaaaaaaaaaaaaaaaaaaaaaakakbcbca$a$a8a8bdbdaeaeaaaaa6a6adadaaaaajajayayaaaabcbcaxaxaaaaaaaabcbcaLaLaaaabdbda$a$aUaUakakadadbcbcadadaqaqaxaxaUaUajajbabaaxaxaoaoaMaMalalalalafafaxaxaiaiaaaaalalaaaaaaaaaVaVaxaxaUaUalalaaaaaoaoacacaeaeafafaaaaaaaaaaaaaaaaaaaaaaaaaaaaaaaaaaaaaaaa",
"aaaaaaaaaaaaaaaaaaaaaaaaaaaaaaaaaaaaaaaaaaaaaaaaaaaaaaaaaaaaaaaaaaaaaeaeaLaLaaaaafafaKaKaaaaalalaFaFa6a6ayayalaladadaaaaaaaaaxaxayayaaaaaLaLbzbzaeaeajajaaaaajajadadaaaaaUaUaeaeaxaxauaualalauauaxaxalalaLaLaaaabcbcararavavauauaFaFaZaZauaualalaiaibababzbzavavaaaaahahalalaaaaaiaiakakaaaaaaaaaaaaaaaaaaaaaaaaaaaaaaaaaaaaaaaaaaaaaaaaaaaaaaaaaaaaaaaaaaaaaaaaaaaaaaaaaaaaaaaaaaaaaaaaaaaaaaaaaaaaaaaaaaaaaaaaaaaaaaaaaaaaaaaaaaaaaaaaaaaaaaaaafafaxaxaaaaaaaaaaaaaaaaaaaaaaaaaaaaaaaaaaaaaaaaaaaaaaaaaaaaaaaaaaaaaaaaaaaaaaaaaaaaaaaaaaaaaaaaaaaaaaaaaaaaaaaaaaaaakakbcbca$a$a8a8bdbdaeaeaaaaa6a6adadaaaaajajayayaaaabcbcaxaxaaaaaaaabcbcaLaLaaaabdbda$a$aUaUakakadadbcbcadadaqaqaxaxaUaUajajbabaaxaxaoaoaMaMalalalalafafaxaxaiaiaaaaalalaaaaaaaaaVaVaxaxaUaUalalaaaaaoaoacacaeaeafafaaaaaaaaaaaaaaaaaaaaaaaaaaaaaaaaaaaaaaaa",
"aaaaaaaaaaaaaaaaaaaaaaaaaaaaaaaaaaaaaaaaaaaaayayaxaxaFaFaaaaajajayayaaaaalalaVaVaaaaaxaxaaaaaeaeaoaoaiaiaeaeaaaaajajaaaaalalayayaaaaa8a8aaaabcbcararajajadadafafadadaaaaadadaoaoaaaabmbmajajaaaaaxaxaLaLadadaaaabcbcaFaFavavauauaaaaahahauaualalavavaaaaaxaxavavaaaaahahalalaaaaalaladadaaaaaaaaaaaaaaaaaaaaaaaaaaaaaaaaaaaaaaaaaaaaaaaaaaaaaaaaaaaaaaaaaaaaaaaaaaaaaaaaaaaaaaaaaaaaaaaaaaaaakakalalaaaaaaaaaaaaaaaaaaaaaaaaaaaaaaaaaaaaaaaaaaaaaaaaaaaaaaaaaaaaaaaaaaaaaaaaaaaaaaaaaaaaaaaaaaaaaaaaaaaaaaaaaaaaaaaaaaaaaaaaaaaaaaaaaaaaaaaaaaaaaaaaaaaaaaaaaaaaaaaaaaaaarara8a8a8a8bebeaoaoaaaaalalaeaeaaaaalalaeaeaaaaadadaxaxakakaaaaaxaxalalaaaaadada6a6ayayaiaiaFaFaaaaadadbcbcaKaKaFaFadadaaaaakakaxaxaoaoaKaKalalayayadadaUaUalalbabaaqaqaaaaaaaaalalaLaLbabaaKaKaKaKadadajajaaaaaaaaaaaaaaaaaaaaaaaaaaaaaaaaaaaaaaaaaaaa",
"aaaaaaaaaaaaaaaaaaaaaaaaaaaaaaaaaaaaaaaaaaaaayayaxaxaFaFaaaaajajayayaaaaalalaVaVaaaaaxaxaaaaaeaeaoaoaiaiaeaeaaaaajajaaaaalalayayaaaaa8a8aaaabcbcararajajadadafafadadaaaaadadaoaoaaaabmbmajajaaaaaxaxaLaLadadaaaabcbcaFaFavavauauaaaaahahauaualalavavaaaaaxaxavavaaaaahahalalaaaaalaladadaaaaaaaaaaaaaaaaaaaaaaaaaaaaaaaaaaaaaaaaaaaaaaaaaaaaaaaaaaaaaaaaaaaaaaaaaaaaaaaaaaaaaaaaaaaaaaaaaaaaakakalalaaaaaaaaaaaaaaaaaaaaaaaaaaaaaaaaaaaaaaaaaaaaaaaaaaaaaaaaaaaaaaaaaaaaaaaaaaaaaaaaaaaaaaaaaaaaaaaaaaaaaaaaaaaaaaaaaaaaaaaaaaaaaaaaaaaaaaaaaaaaaaaaaaaaaaaaaaaaaaaaaaaaarara8a8a8a8bebeaoaoaaaaalalaeaeaaaaalalaeaeaaaaadadaxaxakakaaaaaxaxalalaaaaadada6a6ayayaiaiaFaFaaaaadadbcbcaKaKaFaFadadaaaaakakaxaxaoaoaKaKalalayayadadaUaUalalbabaaqaqaaaaaaaaalalaLaLbabaaKaKaKaKadadajajaaaaaaaaaaaaaaaaaaaaaaaaaaaaaaaaaaaaaaaaaaaa",
"aaaaaaaaaaaaaaaaaaaaaaaaaaaaaaaaaaaaaaaaaaaaaqaqaUaUadadaoaoaaaaaeaeaMaMaqaqaUaUbabaaoaoalalavavajajaxaxakakaaaababaaaaaaKaKaMaMa7a7aLaLaaaaaDaDajajakakbabaaLaLadadaaaabzbzaaaaaaaaadadaiaiaaaaadadalalbmbmaaaabcbcaqaqakakbmbmbabaajajbmbmaqaqaUaUadadacacaMaMaaaaalalalalaaaaajajaUaUaaaaaaaaaaaaaaaaaaaaaaaaaaaaaaaaaaaaaaaaaaaaaaaaaaaaaaaaaaaaaaaaaaaaaaaaaaaaaaaaaaaaaaaaaaaaaaaaaaaaaaaaaeaeajajaaaaaaaaaaaaaaaaaVaVaeaeaaaaaaaaaaaaaaaaaaaaaaaaaaaaaaaaaaaaaaaaaaaaaaaaaaaaaaaaaaaaaaaaaaaaaaaaaaaaaaaaaaaaaaaaaaaaaaaaaaaaaaaaaaaaaaaaaaaaaKaKa6a6aaaaaaaaaaaaaaaaa6a6aJaJa3a3aMaMaaaaaUaUakakaaaaalalalalaaaaaaaaaVaVaVaVaaaaakakaUaUaaaaajajaLaLayayadadaaaaaqaqakakakakaKaKaaaaadadbcbcaaaaaeaeaiaiaiaiaiaiafafaKaKaUaUalalaqaqararaFaFaqaqalalaaaaaxaxadadaaaaaaaaaaaaaaaaaaaaaaaaaaaaaaaaaaaaaaaaaaaaaaaaaaaaaaaa",
"aaaaaaaaaaaaaaaaaaaaaaaaaaaaaaaaaaaaaaaaaaaaaqaqaUaUadadaoaoaaaaaeaeaMaMaqaqaUaUbabaaoaoalalavavajajaxaxakakaaaababaaaaaaKaKaMaMa7a7aLaLaaaaaDaDajajakakbabaaLaLadadaaaabzbzaaaaaaaaadadaiaiaaaaadadalalbmbmaaaabcbcaqaqakakbmbmbabaajajbmbmaqaqaUaUadadacacaMaMaaaaalalalalaaaaajajaUaUaaaaaaaaaaaaaaaaaaaaaaaaaaaaaaaaaaaaaaaaaaaaaaaaaaaaaaaaaaaaaaaaaaaaaaaaaaaaaaaaaaaaaaaaaaaaaaaaaaaaaaaaaeaeajajaaaaaaaaaaaaaaaaaVaVaeaeaaaaaaaaaaaaaaaaaaaaaaaaaaaaaaaaaaaaaaaaaaaaaaaaaaaaaaaaaaaaaaaaaaaaaaaaaaaaaaaaaaaaaaaaaaaaaaaaaaaaaaaaaaaaaaaaaaaaaKaKa6a6aaaaaaaaaaaaaaaaa6a6aJaJa3a3aMaMaaaaaUaUakakaaaaalalalalaaaaaaaaaVaVaVaVaaaaakakaUaUaaaaajajaLaLayayadadaaaaaqaqakakakakaKaKaaaaadadbcbcaaaaaeaeaiaiaiaiaiaiafafaKaKaUaUalalaqaqararaFaFaqaqalalaaaaaxaxadadaaaaaaaaaaaaaaaaaaaaaaaaaaaaaaaaaaaaaaaaaaaaaaaaaaaaaaaa",
"aaaaaaaaaaaaaaaaaaaaaaaaaaaaaaaaaaaaaaaaaaaaaaaaaaaaakakaeaeaoaoaaaaadadajajaiaiafafaqaqakakavavavavaeaeaaaaa$a$aaaaajajaLaLaaaaakakaoaoaFaFaxaxaVaVaaaaaaaabzbzararaaaabwbwaqaqaaaaadadaiaiaaaaalalajajadadaaaaaeaeaUaUaaaabmbmalalaaaaaUaUaeaeaaaaauauaaaaaaaaaaaaaaaaaaaaaaaaaaaaaaaaaaaaaaaaaaaaaaaaaaaaaaaaaaaaaaaaaaaaaaaaaaaaaeaeaaaaaaaaaaaaaaaaaaaaaaaaaaaaaaaaaaaaaaaaaaaaaaaaaaaaaaaaaaaaaaaaaaaaaaaaaaaaaaaaaiaiajajaaaaaaaaaaaaaaaaaaaaaaaaaaaaaaaaararaaaaaaaaaaaaaaaaaaaaaaaaaaaaaaaaaaaaaaaaaaaaaaaaaaaaaaaaaaaaaaaaaaaaaaaaaaaaa7a7bdbda6a6aaaaaaaaaaaaaaaaa7a7a3a3aaaaaaaaaaaaaeaeaVaVaaaaa3a3alalaaaaaaaaaLaLakakaaaaalalaUaUaaaaaaaaaaaaaeaebpbpaLaLaxaxbcbcaaaaaaaaalalaMaMaxaxafafaiaiaMaMbabaaMaMbabaaKaKaaaaajajajajaiaiaqaqaxaxbabaalalaKaKaaaaaaaaaaaaaaaaaLaLaeaeaFaFaaaaaaaaaaaaaaaaaaaaaaaaaaaaaaaa",
"aaaaaaaaaaaaaaaaaaaaaaaaaaaaaaaaaaaaaaaaaaaaaaaaaaaaakakaeaeaoaoaaaaadadajajaiaiafafaqaqakakavavavavaeaeaaaaa$a$aaaaajajaLaLaaaaakakaoaoaFaFaxaxaVaVaaaaaaaabzbzararaaaabwbwaqaqaaaaadadaiaiaaaaalalajajadadaaaaaeaeaUaUaaaabmbmalalaaaaaUaUaeaeaaaaauauaaaaaaaaaaaaaaaaaaaaaaaaaaaaaaaaaaaaaaaaaaaaaaaaaaaaaaaaaaaaaaaaaaaaaaaaaaaaaeaeaaaaaaaaaaaaaaaaaaaaaaaaaaaaaaaaaaaaaaaaaaaaaaaaaaaaaaaaaaaaaaaaaaaaaaaaaaaaaaaaaiaiajajaaaaaaaaaaaaaaaaaaaaaaaaaaaaaaaaararaaaaaaaaaaaaaaaaaaaaaaaaaaaaaaaaaaaaaaaaaaaaaaaaaaaaaaaaaaaaaaaaaaaaaaaaaaaaa7a7bdbda6a6aaaaaaaaaaaaaaaaa7a7a3a3aaaaaaaaaaaaaeaeaVaVaaaaa3a3alalaaaaaaaaaLaLakakaaaaalalaUaUaaaaaaaaaaaaaeaebpbpaLaLaxaxbcbcaaaaaaaaalalaMaMaxaxafafaiaiaMaMbabaaMaMbabaaKaKaaaaajajajajaiaiaqaqaxaxbabaalalaKaKaaaaaaaaaaaaaaaaaLaLaeaeaFaFaaaaaaaaaaaaaaaaaaaaaaaaaaaaaaaa",
"aaaaaaaaaaaaaaaaaaaaaaaaaaaaaaaaaaaaaaaaaaaaaaaaaaaaaaaaaaaaalalaFaFajajadadaaaaajaja$a$babaaUaUajajaeaeaaaaaaaababaajajararakaka6a6aiaialalafafaaaaaaaaaaaaadadaaaaaaaaadadaqaqaaaaadadaoaoaaaaaaaaaaaaadadakakaMaMbzbzaaaaadadaLaLaaaaaKaKalalbababcbcaaaaaaaaaaaaaaaaaaaaaaaaaaaaaaaaaaaaaaaaaaaaaaaaaaaaaaaaaaaaaaaaaaaaaqaqaUaUajajaaaaaaaaaaaaaaaaaaaaaaaaaaaaaaaaaaaaaaaaaaaaaaaaaaaaaaaaaaaaaaaaaaaaaaaaaaaaaaaaaaaaaaaaaaaaaaaaaaaaaaaaaaaaaaaaaaaaaMaMaxaxayayaaaaaaaaaaaaaaaaaaaaaaaaaaaaaaaaaaaaaaaaaaaaaaaaaaaaaaaaaaaaaaaaaaaaaaaaaaaaa3a3afafaaaaaaaaaaaaaaaaaUaUaUaUaaaaaaaaaaaaaUaUayayaaaaayayaLaLaaaaaaaaayayajajaaaaafafakakaaaaaaaaakakbcbcaLaLayayaUaUaKaKaxaxajajbabaalalaoaoaMaMaqaqaLaLbabaajajararaKaKaaaaadadaMaMakakaaaaararaUaUalalaUaUararaDaDbcbcaoaoakakalalararaaaaaaaaaaaaaaaaaaaaaaaaaaaaaaaa",
"aaaaaaaaaaaaaaaaaaaaaaaaaaaaaaaaaaaaaaaaaaaaaaaaaaaaaaaaaaaaalalaFaFajajadadaaaaajaja$a$babaaUaUajajaeaeaaaaaaaababaajajararakaka6a6aiaialalafafaaaaaaaaaaaaadadaaaaaaaaadadaqaqaaaaadadaoaoaaaaaaaaaaaaadadakakaMaMbzbzaaaaadadaLaLaaaaaKaKalalbababcbcaaaaaaaaaaaaaaaaaaaaaaaaaaaaaaaaaaaaaaaaaaaaaaaaaaaaaaaaaaaaaaaaaaaaaqaqaUaUajajaaaaaaaaaaaaaaaaaaaaaaaaaaaaaaaaaaaaaaaaaaaaaaaaaaaaaaaaaaaaaaaaaaaaaaaaaaaaaaaaaaaaaaaaaaaaaaaaaaaaaaaaaaaaaaaaaaaaaMaMaxaxayayaaaaaaaaaaaaaaaaaaaaaaaaaaaaaaaaaaaaaaaaaaaaaaaaaaaaaaaaaaaaaaaaaaaaaaaaaaaaa3a3afafaaaaaaaaaaaaaaaaaUaUaUaUaaaaaaaaaaaaaUaUayayaaaaayayaLaLaaaaaaaaayayajajaaaaafafakakaaaaaaaaakakbcbcaLaLayayaUaUaKaKaxaxajajbabaalalaoaoaMaMaqaqaLaLbabaajajararaKaKaaaaadadaMaMakakaaaaararaUaUalalaUaUararaDaDbcbcaoaoakakalalararaaaaaaaaaaaaaaaaaaaaaaaaaaaaaaaa",
"aaaaaaaaaaaaaaaaaaaaaaaaaaaaaaaaaaaaajajalalakakaaaaa7a7aMaMaaaaaVaVbabaafafalalbabaafafaqaqaLaLararaUaUaaaaaKaKafafaMaMaaaaa$a$aMaMaeaebabaaaaaa8a8araraFaFacacaxaxaaaabcbcaqaqaaaaadadaoaoaaaaaaaaararbmbmaUaUaeaeaxaxaaaaaxaxayayaaaaaeaeacacaMaMbmbmaaaaaaaaaaaaaaaaaaaaaaaaaaaaaaaaaaaaaaaaaaaaaaaaaaaaararaaaaaaaaaaaaaaaaaqaqaaaaaaaaaaaaaaaaaaaaaaaaaaaaaaaaaaaaaaaaaaaaaaaaaaaaaaaaaaaaaaaaaaaaaaaaaaaaaaaaaaaaaaaaaaaaaaaaaaaaaaaaaaaaaaaaaaaaaaaaaaaaayaybdbdaaaaaaaaaaaaaaaaaaaaaaaaavavaKaKaaaaaaaaaaaaaaaaaaaaaaaaaaaaaaaaaaaaaaaaaaaaaaaaaaaaaaaaaaaaaaaaaaaaadada3a3aaaaaaaaaaaaaaaaaaaaaaaaalalbcbcaaaaaaaaaVaVajajaaaaaaaaaaaaaaaaaqaqaMaMadadbabaaaaaaaaaaqaqaVaVbcbcaiaiaqaqaLaLaeaeaFaFaFaFaaaaakakafafaeaeaLaLaeaeaaaaaaaaalalaxaxaUaUaaaaaMaMadadaUaUajajaFaFaFaFaxaxadadayayaaaaaaaaaaaaaaaaaaaaaaaaaaaa",
"aaaaaaaaaaaaaaaaaaaaaaaaaaaaaaaaaaaaajajalalakakaaaaa7a7aMaMaaaaaVaVbabaafafalalbabaafafaqaqaLaLararaUaUaaaaaKaKafafaMaMaaaaa$a$aMaMaeaebabaaaaaa8a8araraFaFacacaxaxaaaabcbcaqaqaaaaadadaoaoaaaaaaaaararbmbmaUaUaeaeaxaxaaaaaxaxayayaaaaaeaeacacaMaMbmbmaaaaaaaaaaaaaaaaaaaaaaaaaaaaaaaaaaaaaaaaaaaaaaaaaaaaararaaaaaaaaaaaaaaaaaqaqaaaaaaaaaaaaaaaaaaaaaaaaaaaaaaaaaaaaaaaaaaaaaaaaaaaaaaaaaaaaaaaaaaaaaaaaaaaaaaaaaaaaaaaaaaaaaaaaaaaaaaaaaaaaaaaaaaaaaaaaaaaaayaybdbdaaaaaaaaaaaaaaaaaaaaaaaaavavaKaKaaaaaaaaaaaaaaaaaaaaaaaaaaaaaaaaaaaaaaaaaaaaaaaaaaaaaaaaaaaaaaaaaaaaadada3a3aaaaaaaaaaaaaaaaaaaaaaaaalalbcbcaaaaaaaaaVaVajajaaaaaaaaaaaaaaaaaqaqaMaMadadbabaaaaaaaaaaqaqaVaVbcbcaiaiaqaqaLaLaeaeaFaFaFaFaaaaakakafafaeaeaLaLaeaeaaaaaaaaalalaxaxaUaUaaaaaMaMadadaUaUajajaFaFaFaFaxaxadadayayaaaaaaaaaaaaaaaaaaaaaaaaaaaa",
"aaaaaaaaaaaaaaaaaaaaaaaaaaaaaaaaaaaaaaaaaaaaa6a6aeaealalaKaKalalbabaakakararaMaMaoaoaiaiaaaaaoaoaoaoalalayayakakaaaaaaaaaaaaajajaUaUaaaaaaaaaMaMakakaxaxararaxaxaMaMaiaibcbcbabaaaaaadadaoaoaaaaaaaaaqaqbwbwaaaaaaaaaaaaaaaaaaaaaaaaaaaaaaaaadadalaladadaaaaaaaaaaaaaaaaaaaaaaaaaaaaaaaaaaaaaaaaaaaaaaaaaaaaaaaaaaaaaaaaaaaaaaaaaaaaaaaaaaaaaaaaaaaaaaaaaaaaaaaaaaaaaaaaaaaaaaaaaaaaaaaaaaaaaaaaaaaaaaaaaaaaaaaaaaaaaaaaaaaaaaaaaaaaaaaaaaaaaaaaaaaaaaaaaaaaaaaaaaaaaaaaaaaaaaaaaaaaaaaaaaaaaaaaaaaaaeaeauauaMaMaaaaaaaaaaaaaaaaaaaaaMaMaaaaaaaaaaaaaaaaaaaaaaaaaaaaaaaaaaaaa3a3a3a3aaaaaaaaaaaaaaaaaaaaaaaaaaaaaxaxajajaaaaaaaaaaaaaaaaaaaaaaaaaaaaaUaUaKaKaKaKaxaxaKaKakakajajaaaaaqaqaeaealalaLaLararaaaaadadaMaMafafaiaiayayaxaxakakaaaaaxaxalalajajaaaababaaeaeajajajajaiaiaLaLalalaaaaaaaaaaaaaaaaaaaaaaaaaaaaaaaaaaaaaaaa",
"aaaaaaaaaaaaaaaaaaaaaaaaaaaaaaaaaaaaaaaaaaaaa6a6aeaealalaKaKalalbabaakakararaMaMaoaoaiaiaaaaaoaoaoaoalalayayakakaaaaaaaaaaaaajajaUaUaaaaaaaaaMaMakakaxaxararaxaxaMaMaiaibcbcbabaaaaaadadaoaoaaaaaaaaaqaqbwbwaaaaaaaaaaaaaaaaaaaaaaaaaaaaaaaaadadalaladadaaaaaaaaaaaaaaaaaaaaaaaaaaaaaaaaaaaaaaaaaaaaaaaaaaaaaaaaaaaaaaaaaaaaaaaaaaaaaaaaaaaaaaaaaaaaaaaaaaaaaaaaaaaaaaaaaaaaaaaaaaaaaaaaaaaaaaaaaaaaaaaaaaaaaaaaaaaaaaaaaaaaaaaaaaaaaaaaaaaaaaaaaaaaaaaaaaaaaaaaaaaaaaaaaaaaaaaaaaaaaaaaaaaaaaaaaaaaaeaeauauaMaMaaaaaaaaaaaaaaaaaaaaaMaMaaaaaaaaaaaaaaaaaaaaaaaaaaaaaaaaaaaaa3a3a3a3aaaaaaaaaaaaaaaaaaaaaaaaaaaaaxaxajajaaaaaaaaaaaaaaaaaaaaaaaaaaaaaUaUaKaKaKaKaxaxaKaKakakajajaaaaaqaqaeaealalaLaLararaaaaadadaMaMafafaiaiayayaxaxakakaaaaaxaxalalajajaaaababaaeaeajajajajaiaiaLaLalalaaaaaaaaaaaaaaaaaaaaaaaaaaaaaaaaaaaaaaaa",
"aaaaaaaaaaaaaaaaaaaaaaaaaaaaakakalalaLaLaFaFbabaaaaaaaaaaVaVaKaKaeaeaaaaaFaFaqaqaqaqalalaaaaakakaMaMaeaeakakayayaaaaararajajaLaLaaaaaaaaalalaeaeajaja$a$ajajaeaeakakakakakakaaaaaaaaaFaFaaaaaaaaaaaaaaaabcbcaaaaaaaaaaaaaaaaaaaaaaaaaaaaaaaaalalaiaialalaFaFaaaaaaaaaaaaayayaiaiaaaaaaaaaaaaaaaaaaaaaaaaaaaaaaaaaaaaaaaaaaaaaaaaaaaaaaaaaaaaaaaaaaaaaaaaaaaaaaaaaaaaaaaaaaaaaaaaaaaaaaaaaaaaaaaaaaaaaaaaaaaaaaaaaaaaaaaaaaaaaaaaaaaaa6a6aVaVaaaaaaaaaaaaaaaaaaaaaaaaaaaaaaaaaaaaaaaaaaaaaaaaaaaaaaaaaaaaaaaaaaaaaaaaaaaaaaaaaaaaaaaaacacadadaaaaaaaaaaaaaaaaaaaaaaaaaaaaaaaaaaaaaaaaaaaaaaaaaaaaaaaaaaaaaaaaaaaaaLaLaoaoaaaaaaaaaaaaaaaaaaaaaaaaaaaaaaaaaaaaaaaaaLaLaUaUalalaUaUaKaKakakaaaaaaaaadadayayaaaababaadadayaybabaajajbcbcaaaaaUaUalalaaaaaFaFadadaxaxaVaVakakakakayayajajalalaeaeaUaUaaaaaaaaaaaaaaaaaaaaaaaaaaaaaaaa",
"aaaaaaaaaaaaaaaaaaaaaaaaaaaaakakalalaLaLaFaFbabaaaaaaaaaaVaVaKaKaeaeaaaaaFaFaqaqaqaqalalaaaaakakaMaMaeaeakakayayaaaaararajajaLaLaaaaaaaaalalaeaeajaja$a$ajajaeaeakakakakakakaaaaaaaaaFaFaaaaaaaaaaaaaaaabcbcaaaaaaaaaaaaaaaaaaaaaaaaaaaaaaaaalalaiaialalaFaFaaaaaaaaaaaaayayaiaiaaaaaaaaaaaaaaaaaaaaaaaaaaaaaaaaaaaaaaaaaaaaaaaaaaaaaaaaaaaaaaaaaaaaaaaaaaaaaaaaaaaaaaaaaaaaaaaaaaaaaaaaaaaaaaaaaaaaaaaaaaaaaaaaaaaaaaaaaaaaaaaaaaaaa6a6aVaVaaaaaaaaaaaaaaaaaaaaaaaaaaaaaaaaaaaaaaaaaaaaaaaaaaaaaaaaaaaaaaaaaaaaaaaaaaaaaaaaaaaaaaaaacacadadaaaaaaaaaaaaaaaaaaaaaaaaaaaaaaaaaaaaaaaaaaaaaaaaaaaaaaaaaaaaaaaaaaaaaLaLaoaoaaaaaaaaaaaaaaaaaaaaaaaaaaaaaaaaaaaaaaaaaLaLaUaUalalaUaUaKaKakakaaaaaaaaadadayayaaaababaadadayaybabaajajbcbcaaaaaUaUalalaaaaaFaFadadaxaxaVaVakakakakayayajajalalaeaeaUaUaaaaaaaaaaaaaaaaaaaaaaaaaaaaaaaa",
"aaaaaaaaaaaaaaaaaaaaaaaaaaaaaMaMaMaMafafaeaeaUaUaKaKaxaxaaaababaararbabaalalaaaaaaaaalalaVaVaVaVaiaiaMaMalalbabaaoaoadadaFaFaaaaaiaialalajajakakakaka7a7afafaMaMaaaaaaaaaaaaaaaaaaaaaaaaaaaaaaaaaaaaaaaaaiaiaaaaaaaaaaaaaaaaaaaaaaaaaaaaaaaaaaaaaaaaakakaKaKaaaaaaaaaaaaadadaeaeaaaaaaaaaaaaaaaaaaaaaaaaaaaaaaaaaaaaaaaaaaaaaaaaaaaaaaaaaaaaaaaaaaaaaaaaaaaaaaaaaaaaaaaaaaaaaaaaaaaaaaaaaaaaaaaaaaaaaaaaaaaaaaaaaaaaaaaaaaaaaaaaa6a6bdbdaIaIaaaaaaaaaaaaaaaaaaaaaaaaaaaaaaaaaxaxaMaMaaaaaaaaaaaaaaaaaaaaaaaaaaaaaaaaaaaaaaaaaaaaaaaaaiaiajajaaaaaaaaaaaaaaaaaaaaaFaFaxaxaFaFaaaaaaaaaaaaaaaaaaaaaaaaaaaaaaaaaaaaajajararaaaaaaaaaaaaaaaaaaaaaaaaaaaaaxaxaLaLalalaaaaafafalalaaaaayayaoaoakakaDaDaaaaaUaUalalaaaaayayaxaxaaaaakakaxaxaaaaacacaaaaajajbcbcaeaeaoaoaqaqbabaaeaeaLaLafafaVaVakakaLaLaaaaaaaaaaaaaaaaaaaaaaaaaaaaaaaa",
"aaaaaaaaaaaaaaaaaaaaaaaaaaaaaMaMaMaMafafaeaeaUaUaKaKaxaxaaaababaararbabaalalaaaaaaaaalalaVaVaVaVaiaiaMaMalalbabaaoaoadadaFaFaaaaaiaialalajajakakakaka7a7afafaMaMaaaaaaaaaaaaaaaaaaaaaaaaaaaaaaaaaaaaaaaaaiaiaaaaaaaaaaaaaaaaaaaaaaaaaaaaaaaaaaaaaaaaakakaKaKaaaaaaaaaaaaadadaeaeaaaaaaaaaaaaaaaaaaaaaaaaaaaaaaaaaaaaaaaaaaaaaaaaaaaaaaaaaaaaaaaaaaaaaaaaaaaaaaaaaaaaaaaaaaaaaaaaaaaaaaaaaaaaaaaaaaaaaaaaaaaaaaaaaaaaaaaaaaaaaaaaa6a6bdbdaIaIaaaaaaaaaaaaaaaaaaaaaaaaaaaaaaaaaxaxaMaMaaaaaaaaaaaaaaaaaaaaaaaaaaaaaaaaaaaaaaaaaaaaaaaaaiaiajajaaaaaaaaaaaaaaaaaaaaaFaFaxaxaFaFaaaaaaaaaaaaaaaaaaaaaaaaaaaaaaaaaaaaajajararaaaaaaaaaaaaaaaaaaaaaaaaaaaaaxaxaLaLalalaaaaafafalalaaaaayayaoaoakakaDaDaaaaaUaUalalaaaaayayaxaxaaaaakakaxaxaaaaacacaaaaajajbcbcaeaeaoaoaqaqbabaaeaeaLaLafafaVaVakakaLaLaaaaaaaaaaaaaaaaaaaaaaaaaaaaaaaa",
"aaaaaaaaaaaaaaaaaaaaaaaaaaaaaaaaaaaaaaaaaaaaaaaaaaaaaaaaaKaKalalbabaaaaaayayaKaKaqaqbabaaKaKbabaaaaaaMaMaeaeaaaaaeaebabaaaaaadadaxaxbabaaaaaa$a$aMaMaMaMaUaUaeaeaxaxaoaoaaaaaaaaaaaaaaaaaaaaaeaeaKaKaaaaaaaaaaaaaaaaaaaaaaaaaaaaaaaaaaaaaaaaaaaaaaaaaLaLaxaxaaaaaaaaaaaaaaaaaaaaaaaaaaaaaaaaaaaaaaaaaaaaaaaaaaaaaaaaaaaaaaaaaaaaaaaaaaaaaaaaaaaaaaaaaaaaaaaaafafaaaaaaaaaaaaaaaaaaaaaFaFaaaaaaaaaaaaaaaaaaaaaaaaaaaaaaaaaaaaaaaaaaaaa7a7aaaaaaaaaaaaaaaaaaaaaaaaaaaaaaaaaaaaavavaxaxaaaaaaaaaaaaaaaaaaaaaaaaaaaaaaaaaaaaaaaaaaaaaaaaaaaaaaaaaaaaaaaaaaaaaaaaaaaaaaaaaKaKakakaaaaaaaaaaaaaaaaaaaaaaaaaaaaaaaaaaaaaeaeaMaMaaaaaaaaaaaaaaaaaaaaaaaaaeaeadadadadadadalalaUaUaxaxaeaealalaVaVararadadaoaoaaaaaFaFajajaFaFaxaxalalaaaababaaxaxaxaxaMaMaxaxaFaFaaaaaaaaararararbabaaaaaaaaaafafalalaxaxadadafafaaaaaaaaaaaaaaaaaaaaaaaa",
"aaaaaaaaaaaaaaaaaaaaaaaaaaaaaaaaaaaaaaaaaaaaaaaaaaaaaaaaaKaKalalbabaaaaaayayaKaKaqaqbabaaKaKbabaaaaaaMaMaeaeaaaaaeaebabaaaaaadadaxaxbabaaaaaa$a$aMaMaMaMaUaUaeaeaxaxaoaoaaaaaaaaaaaaaaaaaaaaaeaeaKaKaaaaaaaaaaaaaaaaaaaaaaaaaaaaaaaaaaaaaaaaaaaaaaaaaLaLaxaxaaaaaaaaaaaaaaaaaaaaaaaaaaaaaaaaaaaaaaaaaaaaaaaaaaaaaaaaaaaaaaaaaaaaaaaaaaaaaaaaaaaaaaaaaaaaaaaaafafaaaaaaaaaaaaaaaaaaaaaFaFaaaaaaaaaaaaaaaaaaaaaaaaaaaaaaaaaaaaaaaaaaaaa7a7aaaaaaaaaaaaaaaaaaaaaaaaaaaaaaaaaaaaavavaxaxaaaaaaaaaaaaaaaaaaaaaaaaaaaaaaaaaaaaaaaaaaaaaaaaaaaaaaaaaaaaaaaaaaaaaaaaaaaaaaaaaKaKakakaaaaaaaaaaaaaaaaaaaaaaaaaaaaaaaaaaaaaeaeaMaMaaaaaaaaaaaaaaaaaaaaaaaaaeaeadadadadadadalalaUaUaxaxaeaealalaVaVararadadaoaoaaaaaFaFajajaFaFaxaxalalaaaababaaxaxaxaxaMaMaxaxaFaFaaaaaaaaararararbabaaaaaaaaaafafalalaxaxadadafafaaaaaaaaaaaaaaaaaaaaaaaa",
"aaaaaaaaaaaaaaaaaaaaaaaaaiaiajajajajajajajajakakajajakakajajaaaaakakaVaVaaaaaqaqaxaxaiaiaiaiaxaxbabaaFaFaVaVaxaxaMaMbabaadadaxaxaaaababaaiaiaiaialalaLaLa6a6aMaMafafaLaLaaaaaaaaaaaaaaaaaaaaakakaVaVaaaaaaaaaaaaacacajajaaaaaaaaaaaaaaaaaaaaaaaaaaaaalalaxaxaaaaaaaaaaaaaaaaaaaaaaaaaaaaaaaaaaaaaaaaaaaaaaaaaaaaaaaaaaaaaaaaaaaaaaaaaaaaaaaaaaaaaaaaaaaaaFaFapapaxaxaVaVaaaaaaaaaeaeagagbcbcaaaaaaaaakakaaaaaaaaaaaaaaaaaaaaaaaaaaaaaaaaaaaaaaaaaaaaaaaaaaaaaaaaaaaaaaaaaaaaaaaaaaaaauaubmbmauauauauauauauauauauauauauaubmbmbmbmauaubmbmbmbmaaaaaaaaaaaaaaaaaaaaaaaaakakaoaoaaaaaaaaaaaaaaaaaaaaaaaaaaaaaaaaaaaaaaaaaaaaaaaaaUaUalalaaaaaaaaaaaaaaaaaaaaaaaaaaaaaaaaaaaaaaaaaaaaaaaaaoaoaMaMalala#a#bcbcalalaeaeajajaDaDadadaqaqaKaKaUaUakakaFaFaaaaaMaMajajajajajajajajaLaLaLaLalalaaaaaaaaaaaaafafadadaLaLaaaaaaaaaaaaaaaaaaaa",
"aaaaaaaaaaaaaaaaaaaaaaaaaiaiajajajajajajajajakakajajakakajajaaaaakakaVaVaaaaaqaqaxaxaiaiaiaiaxaxbabaaFaFaVaVaxaxaMaMbabaadadaxaxaaaababaaiaiaiaialalaLaLa6a6aMaMafafaLaLaaaaaaaaaaaaaaaaaaaaakakaVaVaaaaaaaaaaaaacacajajaaaaaaaaaaaaaaaaaaaaaaaaaaaaalalaxaxaaaaaaaaaaaaaaaaaaaaaaaaaaaaaaaaaaaaaaaaaaaaaaaaaaaaaaaaaaaaaaaaaaaaaaaaaaaaaaaaaaaaaaaaaaaaaFaFapapaxaxaVaVaaaaaaaaaeaeagagbcbcaaaaaaaaakakaaaaaaaaaaaaaaaaaaaaaaaaaaaaaaaaaaaaaaaaaaaaaaaaaaaaaaaaaaaaaaaaaaaaaaaaaaaaauaubmbmauauauauauauauauauauauauauaubmbmbmbmauaubmbmbmbmaaaaaaaaaaaaaaaaaaaaaaaaakakaoaoaaaaaaaaaaaaaaaaaaaaaaaaaaaaaaaaaaaaaaaaaaaaaaaaaUaUalalaaaaaaaaaaaaaaaaaaaaaaaaaaaaaaaaaaaaaaaaaaaaaaaaaoaoaMaMalala#a#bcbcalalaeaeajajaDaDadadaqaqaKaKaUaUakakaFaFaaaaaMaMajajajajajajajajaLaLaLaLalalaaaaaaaaaaaaafafadadaLaLaaaaaaaaaaaaaaaaaaaa",
"aaaaaaaaaaaaaaaaaaaaaaaaaoaoajajaMaMajajakakaVaVakakakakaVaVakakaaaabcbcaKaKaiaibabaaVaVaqaqaKaKadadaaaaakakaUaUaaaaayayaLaLaaaaaaaababaaoaoaFaFaaaaaaaaa$a$ajajakakalalaVaVaVaVaFaFaaaaaaaaaaaaaaaaaaaaaaaaaaaaakakaaaaaaaaaaaaaaaaaaaaaaaaaaaaaaaaaoaoaMaMaaaaaaaaaaaaaaaaaaaaaaaaaaaaaaaaaaaaaaaaaaaaaaaaaaaaaaaaaaaaaaaaaaaaaaaaaaaaaaaaaxaxaLaLaaaaaaaaaxaxababa#a#aaaaaaaaaKaKababababaLaLadada#a#aVaVaaaaaaaaaaaaaaaaaaaaaaaaaaaaaaaaaaaaaaaaaaaaaaaaaaaaaaaaaaaaaFaFbvbvbvbvbvbvbvbvbvbvbvbvbvbvbvbvbububububvbvbvbvbvbvbvbvbububybybvbvauauaaaaaaaaaaaaaaaaaaaaaaaaaaaaaaaaaaaaaaaaaaaaaaaaaaaaaaaaaaaaaaaaaaaaaaaaakakajajaaaaaaaaaaaaaaaaaaaaakakakakaKaKaxaxaKaKaUaUaMaMaeaeaaaaaaaaaVaValalaeaebcbcajajbabaaxaxaLaLadadaaaaaLaLaUaUaUaUboboasasajajajajajajalalalalalalaMaMaUaUaaaaaaaaaaaaaaaaaaaaaaaaaaaaaaaaaaaa",
"aaaaaaaaaaaaaaaaaaaaaaaaaoaoajajaMaMajajakakaVaVakakakakaVaVakakaaaabcbcaKaKaiaibabaaVaVaqaqaKaKadadaaaaakakaUaUaaaaayayaLaLaaaaaaaababaaoaoaFaFaaaaaaaaa$a$ajajakakalalaVaVaVaVaFaFaaaaaaaaaaaaaaaaaaaaaaaaaaaaakakaaaaaaaaaaaaaaaaaaaaaaaaaaaaaaaaaoaoaMaMaaaaaaaaaaaaaaaaaaaaaaaaaaaaaaaaaaaaaaaaaaaaaaaaaaaaaaaaaaaaaaaaaaaaaaaaaaaaaaaaaxaxaLaLaaaaaaaaaxaxababa#a#aaaaaaaaaKaKababababaLaLadada#a#aVaVaaaaaaaaaaaaaaaaaaaaaaaaaaaaaaaaaaaaaaaaaaaaaaaaaaaaaaaaaaaaaFaFbvbvbvbvbvbvbvbvbvbvbvbvbvbvbvbvbububububvbvbvbvbvbvbvbvbububybybvbvauauaaaaaaaaaaaaaaaaaaaaaaaaaaaaaaaaaaaaaaaaaaaaaaaaaaaaaaaaaaaaaaaaaaaaaaaaakakajajaaaaaaaaaaaaaaaaaaaaakakakakaKaKaxaxaKaKaUaUaMaMaeaeaaaaaaaaaVaValalaeaebcbcajajbabaaxaxaLaLadadaaaaaLaLaUaUaUaUboboasasajajajajajajalalalalalalaMaMaUaUaaaaaaaaaaaaaaaaaaaaaaaaaaaaaaaaaaaa",
"aaaaaaaaaaaaaaaaaaaaaaaaaaaaaaaaaaaaaaaaaaaaaaaaaaaaaaaaaaaaaaaaaaaaaFaFbcbcaKaKayayakakajajajajadadajajaUaUaaaaayayaqaqaqaqaLaLaKaKaUaUalalaeaeaUaUaeaeaeaeaaaaaaaaaaaaaaaaakakakakaaaaaaaaaaaaaaaaaaaaaaaaaaaaaaaaaaaaaaaaaaaaaaaaaaaaaaaaaaaaaaaaaaaaaaaaaaaaaaaaaaaaaaaaaaaaaaaaaaaaaaaaaaaaaaaaaaaaaaaaaaaaaaaaaaaaaaaaaaaaaaaaaaaabcbcababapapaMaMararajajakakaiaiaaaaaaaaaaaaapapadadbabaagagababaKaKaaaaaaaaaaaaaaaaaaaaaaaaaaaaaaaaaaaaa2a2aMaMaMaMa2a2aaaaaoaobzbzauaubibia)a)a)a)a)a)a)a)a)a)a)a)a)a)a)a)a)a)a)a)a)a)a)a)a)a)a)a)a)a)bvbvbmbmaaaaaaaaararafafa2a2a2a2aaaaaaaaaaaaaaaaaaaabmbmaoaoaaaaaaaaaaaaaaaaaaaaaaaaaaaaaaaaayayaxaxalalaVaVbabaaoaoakakakakakakaFaFaLaLajajaoaoaqaqaaaaaaaababaaFaFaoaobabababababaaFaFaqaqaUaUaeaebabababababaaFaFajajaMaMaiaiaiaiaiaibcbcadadaFaFaaaaaaaaaaaaaaaaaaaaaaaaaaaa",
"aaaaaaaaaaaaaaaaaaaaaaaaaaaaaaaaaaaaaaaaaaaaaaaaaaaaaaaaaaaaaaaaaaaaaFaFbcbcaKaKayayakakajajajajadadajajaUaUaaaaayayaqaqaqaqaLaLaKaKaUaUalalaeaeaUaUaeaeaeaeaaaaaaaaaaaaaaaaakakakakaaaaaaaaaaaaaaaaaaaaaaaaaaaaaaaaaaaaaaaaaaaaaaaaaaaaaaaaaaaaaaaaaaaaaaaaaaaaaaaaaaaaaaaaaaaaaaaaaaaaaaaaaaaaaaaaaaaaaaaaaaaaaaaaaaaaaaaaaaaaaaaaaaaabcbcababapapaMaMararajajakakaiaiaaaaaaaaaaaaapapadadbabaagagababaKaKaaaaaaaaaaaaaaaaaaaaaaaaaaaaaaaaaaaaa2a2aMaMaMaMa2a2aaaaaoaobzbzauaubibia)a)a)a)a)a)a)a)a)a)a)a)a)a)a)a)a)a)a)a)a)a)a)a)a)a)a)a)a)a)bvbvbmbmaaaaaaaaararafafa2a2a2a2aaaaaaaaaaaaaaaaaaaabmbmaoaoaaaaaaaaaaaaaaaaaaaaaaaaaaaaaaaaayayaxaxalalaVaVbabaaoaoakakakakakakaFaFaLaLajajaoaoaqaqaaaaaaaababaaFaFaoaobabababababaaFaFaqaqaUaUaeaebabababababaaFaFajajaMaMaiaiaiaiaiaibcbcadadaFaFaaaaaaaaaaaaaaaaaaaaaaaaaaaa",
"aaaaaaaaaaaaaaaaaaaaaaaaararararaKaKaeaeaUaUalalalalalalaaaaaFaFaoaoaqaqbabaararaoaoalalaiaiaaaaaeaeajajayayaaaaaiaiaxaxaKaKaUaUbabaaaaaaqaqaFaFaiaiaMaMafafafafafafajajaaaaaaaaaaaaaaaaaaaaaaaaaaaaaaaaaaaaaaaaaaaaaaaaaaaaaaaaaaaaaaaaaaaaaaaaaaaaaaaaalalajajaaaaaaaaaaaaaaaaaaaaaaaaaaaaaaaaaaaaaaaaaaaaaaaaaaaaaaaaaaaaaaaaaaaaaaaaaMaMacacalalaoaoamamababafafaaaaafafapapababakakaaaaaaaaapapadadaaaaaaaaaaaaaaaaaaaaaaaaaaaaaaaaaaaabmbmaEaEbzbzbzbzbvbvararbabaahahbvbva)a)bibia)a)aTaTa)a)aTaTa)a)aTaTaTaTaTaTaTaTaTaTaTaTa)a)bibia)a)bybybybyaaaaaMaMbmbmbzbzbzbzaEaEadadaaaaaaaaaaaaaaaaauauaEaEafafaaaaaaaaaaaaaaaaaaaaaaaaafafaxaxaiaiaaaababaajajaMaMaLaLakakakakalalakakaoaoayayalalaeaeaoaoaqaqajajadadajajaaaababaaaaaararaMaMakakaoaoajajaxaxaKaKakakakakayayayayaaaaaaaabababcbcadadaFaFaaaaaaaaaaaaaaaaaaaa",
"aaaaaaaaaaaaaaaaaaaaaaaaararararaKaKaeaeaUaUalalalalalalaaaaaFaFaoaoaqaqbabaararaoaoalalaiaiaaaaaeaeajajayayaaaaaiaiaxaxaKaKaUaUbabaaaaaaqaqaFaFaiaiaMaMafafafafafafajajaaaaaaaaaaaaaaaaaaaaaaaaaaaaaaaaaaaaaaaaaaaaaaaaaaaaaaaaaaaaaaaaaaaaaaaaaaaaaaaaalalajajaaaaaaaaaaaaaaaaaaaaaaaaaaaaaaaaaaaaaaaaaaaaaaaaaaaaaaaaaaaaaaaaaaaaaaaaaMaMacacalalaoaoamamababafafaaaaafafapapababakakaaaaaaaaapapadadaaaaaaaaaaaaaaaaaaaaaaaaaaaaaaaaaaaabmbmaEaEbzbzbzbzbvbvararbabaahahbvbva)a)bibia)a)aTaTa)a)aTaTa)a)aTaTaTaTaTaTaTaTaTaTaTaTa)a)bibia)a)bybybybyaaaaaMaMbmbmbzbzbzbzaEaEadadaaaaaaaaaaaaaaaaauauaEaEafafaaaaaaaaaaaaaaaaaaaaaaaaafafaxaxaiaiaaaababaajajaMaMaLaLakakakakalalakakaoaoayayalalaeaeaoaoaqaqajajadadajajaaaababaaaaaararaMaMakakaoaoajajaxaxaKaKakakakakayayayayaaaaaaaabababcbcadadaFaFaaaaaaaaaaaaaaaaaaaa",
"aaaaaaaaaaaaaaaaaMaMalalbcbcbcbcaaaaaaaaaaaaakakakakajajayaybcbcaeaeaoaoaiaiajajaMaMaaaaayayalalaaaaaaaaa$a$aFaFaFaFararaaaaaaaaaoaoakakaiaiaFaFaoaoajajakakaLaLaLaLalalaLaLafafaaaaaaaaaaaaaaaaaaaaaaaaaaaaaiaiaoaoaaaaaaaaaaaaaaaaaaaaaaaaaaaaaaaaaaaaaeaeajajaaaaaaaaaaaaaaaaaaaaaxaxaFaFaaaaaaaaaaaaaaaaaaaaaaaaaaaaaaaaaaaaaaaaaaaaaaaaaaaaaFaFaiaiapapaxaxadadaxaxaUaUaxaxaxaxaxaxakakaxaxacacaaaaaaaaalalaaaaaaaaaaaaaaaaaaaaaaaabibiaEaEauaubabaa2a2bmbmbzbzaFaFbibia*a*a(a(a(a(bzbzaKaKbmbmbmbmbmbmbmbmbmbmbmbmauauauauauaubvbvahahaEaEbybya)a)avavaZaZbvbvbabaa2a2auauahahalalaaaaaaaaaaaaaaaaauauaeaeaaaaaaaaaaaaaaaaaaaaaaaaaaaaaLaLaFaFalalaeaeaKaKaeaeaaaababaakakaiaiaFaFacacadadaKaKbcbcaeaeararaiaiaaaabcbcaMaMaiaibababmbmalalaKaKbzbzaKaKaoaoajajaKaKaUaUalalaeaealalafafaaaaalalaFaFakakaaaaaaaaaaaaaaaaaaaa",
"aaaaaaaaaaaaaaaaaMaMalalbcbcbcbcaaaaaaaaaaaaakakakakajajayaybcbcaeaeaoaoaiaiajajaMaMaaaaayayalalaaaaaaaaa$a$aFaFaFaFararaaaaaaaaaoaoakakaiaiaFaFaoaoajajakakaLaLaLaLalalaLaLafafaaaaaaaaaaaaaaaaaaaaaaaaaaaaaiaiaoaoaaaaaaaaaaaaaaaaaaaaaaaaaaaaaaaaaaaaaeaeajajaaaaaaaaaaaaaaaaaaaaaxaxaFaFaaaaaaaaaaaaaaaaaaaaaaaaaaaaaaaaaaaaaaaaaaaaaaaaaaaaaFaFaiaiapapaxaxadadaxaxaUaUaxaxaxaxaxaxakakaxaxacacaaaaaaaaalalaaaaaaaaaaaaaaaaaaaaaaaabibiaEaEauaubabaa2a2bmbmbzbzaFaFbibia*a*a(a(a(a(bzbzaKaKbmbmbmbmbmbmbmbmbmbmbmbmauauauauauaubvbvahahaEaEbybya)a)avavaZaZbvbvbabaa2a2auauahahalalaaaaaaaaaaaaaaaaauauaeaeaaaaaaaaaaaaaaaaaaaaaaaaaaaaaLaLaFaFalalaeaeaKaKaeaeaaaababaakakaiaiaFaFacacadadaKaKbcbcaeaeararaiaiaaaabcbcaMaMaiaibababmbmalalaKaKbzbzaKaKaoaoajajaKaKaUaUalalaeaealalafafaaaaalalaFaFakakaaaaaaaaaaaaaaaaaaaa",
"aaaaaaaaaaaaaaaaaFaFararajajaLaLajajadadaKaKaMaMaiaiafafaMaMaoaoaVaValalaeaeaeaeaFaFakakajajajajaxaxbabaararaiaiaiaiakakaxaxaiaiararalalaUaUaFaFalalaLaLaMaMaaaaaaaaaaaaaiaialalalalaaaaaaaaaaaaaaaaaaaaaaaaaKaKaeaeaaaaaaaaaaaaaaaaaaaaaaaaaaaaaaaaaaaaaeaeajajaaaaaaaaaaaaaaaaacacacacaaaaaaaaaaaaaaaaaaaaaaaaaaaaaaaaaeaeaaaaaaaaaaaaafafaxaxbababcbcaLaLaaaaaVaVababababaKaKaaaaaaaaadadababababaUaUalalababaaaaaaaaaaaaaaaaaaaabibiaEaEauauaaaaaaaaaaaaa1a1bvbvbibibibibibibhbhbhbha(a(ahahaEaEaEaEaEaEaEaEaEaEaEaEaEaEa(a(aEaEbybya)a)bibiblblbibibvbvblblafafaaaaaaaaa1a1bmbmbzbzaFaFaaaaaaaaaaaaaaaaaaaaaaaaaaaaaaaaaaaaaaaaaaaaaaaaajajaxaxayayararaaaaaaaaadadadadakakararaoaoalalaaaababababababaaxaxaVaValalaeaeaFaFaeaeaLaLararajajbabaararaxaxbcbcaaaaaaaaaqaqaxaxaeaeaxaxaLaLbcbcaaaaaaaaaaaaaaaaaaaaaaaaaaaaaaaa",
"aaaaaaaaaaaaaaaaaFaFararajajaLaLajajadadaKaKaMaMaiaiafafaMaMaoaoaVaValalaeaeaeaeaFaFakakajajajajaxaxbabaararaiaiaiaiakakaxaxaiaiararalalaUaUaFaFalalaLaLaMaMaaaaaaaaaaaaaiaialalalalaaaaaaaaaaaaaaaaaaaaaaaaaKaKaeaeaaaaaaaaaaaaaaaaaaaaaaaaaaaaaaaaaaaaaeaeajajaaaaaaaaaaaaaaaaacacacacaaaaaaaaaaaaaaaaaaaaaaaaaaaaaaaaaeaeaaaaaaaaaaaaafafaxaxbababcbcaLaLaaaaaVaVababababaKaKaaaaaaaaadadababababaUaUalalababaaaaaaaaaaaaaaaaaaaabibiaEaEauauaaaaaaaaaaaaa1a1bvbvbibibibibibibhbhbhbha(a(ahahaEaEaEaEaEaEaEaEaEaEaEaEaEaEa(a(aEaEbybya)a)bibiblblbibibvbvblblafafaaaaaaaaa1a1bmbmbzbzaFaFaaaaaaaaaaaaaaaaaaaaaaaaaaaaaaaaaaaaaaaaaaaaaaaaajajaxaxayayararaaaaaaaaadadadadakakararaoaoalalaaaababababababaaxaxaVaValalaeaeaFaFaeaeaLaLararajajbabaararaxaxbcbcaaaaaaaaaqaqaxaxaeaeaxaxaLaLbcbcaaaaaaaaaaaaaaaaaaaaaaaaaaaaaaaa",
"aaaaaaaaaaaaaaaaaaaaaaaaaFaFaxaxalalbabaararaqaqaoaoaFaFaoaoaFaFadadaMaMaFaFaMaMbabaafafaFaFaiaiaeaeararaFaFafafaVaVaoaobabaayayakakajajbabaaaaaaiaiajajalalaUaUaLaLaiaiadadaaaaaaaaaaaaaaaaaaaaaaaaaaaaaxaxaaaaaaaaaaaaaaaaaaaaaaaaaaaaaaaaaaaaaaaaaaaaaaaaauauaqaqaaaaaaaaaaaaaoaoaaaaaaaaaaaaaaaaaaaaaaaaaaaaaaaaaaaaadadaxaxaaaaaaaaaaaaaUaUacacababadadaoaoararalalacacapapaVaVaMaMaMaMbcbcacacalalamamapapaoaoaaaaaaaaaaaaaaaabmbmaEaEa1a1aaaaaaaabcbca1a1bvbvavava*a*bCbCbububububibibibibhbha)a)bhbha)a)bhbhbhbhbhbhbhbha)a)bhbhbububhbhbubublblblblbibiaaaababaaaaaaaaaavava(a(avavaaaaaaaaaaaaaaaaaaaaaaaaaaaaaFaFaLaLaaaaaaaaaaaaaaaaaoaoaaaababaaUaUadadaFaFaxaxayaybabaaxaxaMaMbabababaaUaUacacaFaFaeaebcbcaFaFaLaLbababcbcaiaibabaaxaxajajaqaqaaaaalalayaybabaajajaFaFaaaaaeaeaxaxaKaKadadaaaaaaaaaaaaaaaaaaaaaaaa",
"aaaaaaaaaaaaaaaaaaaaaaaaaFaFaxaxalalbabaararaqaqaoaoaFaFaoaoaFaFadadaMaMaFaFaMaMbabaafafaFaFaiaiaeaeararaFaFafafaVaVaoaobabaayayakakajajbabaaaaaaiaiajajalalaUaUaLaLaiaiadadaaaaaaaaaaaaaaaaaaaaaaaaaaaaaxaxaaaaaaaaaaaaaaaaaaaaaaaaaaaaaaaaaaaaaaaaaaaaaaaaauauaqaqaaaaaaaaaaaaaoaoaaaaaaaaaaaaaaaaaaaaaaaaaaaaaaaaaaaaadadaxaxaaaaaaaaaaaaaUaUacacababadadaoaoararalalacacapapaVaVaMaMaMaMbcbcacacalalamamapapaoaoaaaaaaaaaaaaaaaabmbmaEaEa1a1aaaaaaaabcbca1a1bvbvavava*a*bCbCbububububibibibibhbha)a)bhbha)a)bhbhbhbhbhbhbhbha)a)bhbhbububhbhbubublblblblbibiaaaababaaaaaaaaaavava(a(avavaaaaaaaaaaaaaaaaaaaaaaaaaaaaaFaFaLaLaaaaaaaaaaaaaaaaaoaoaaaababaaUaUadadaFaFaxaxayaybabaaxaxaMaMbabababaaUaUacacaFaFaeaebcbcaFaFaLaLbababcbcaiaibabaaxaxajajaqaqaaaaalalayaybabaajajaFaFaaaaaeaeaxaxaKaKadadaaaaaaaaaaaaaaaaaaaaaaaa",
"aaaaaaaaaaaaaaaaaaaaaaaaaaaaaaaaaaaaajajajajaUaUaKaKaoaoaaaaaaaaaoaoaFaFaoaoaaaaakakaUaUaLaLaUaUaMaMaLaLaFaFakakaaaaayayajajafafaaaababaararaFaFaaaaalalaUaUaUaUaUaUaxaxakakaaaaaaaaaaaaaaaaaaaaaaaaaaaaaaaaaaaaaaaaaaaaaaaaaaaaaaaaaaaaaaaaaaaaaaaaaaaaaaaaaxaxaDaDaaaaaaaaaaaaaaaaaaaaaaaaaaaaaaaaaaaaaaaaaaaaaaaaaaaaaaaaaxaxafafaaaaaaaaaaaaacacacacaaaaadadababapapaaaaaaaaaqaqababababajajaaaaaaaaaxaxaLaLararaaaaaaaaaaaaaaaabmbma(a(babaaaaaaaaabwbwbmbmbvbva2a2bubububububua*a*aZaZaEaEaEaEa*a*a*a*bFbFbFbFa*a*bxbxa*a*a*a*bububububhbhbubububuaTaTbvbvbmbmbcbcbabaaaaaaTaTaXaXavavaaaaaaaaaaaaaaaaararaaaaaaaaaMaMaeaeaaaaaaaaaaaaaaaaaaaaaeaeacacaiaiaaaaaaaaaMaMaxaxaLaLararbabaaaaaaKaKalalaaaaaMaMacacaLaLaaaaboboararalalapapajajaaaaaxaxbcbcajajaxaxaxaxaaaaaMaMaeaeayayaaaaaaaaaaaaaMaMalalaaaaaaaaaaaaaaaaaaaa",
"aaaaaaaaaaaaaaaaaaaaaaaaaaaaaaaaaaaaajajajajaUaUaKaKaoaoaaaaaaaaaoaoaFaFaoaoaaaaakakaUaUaLaLaUaUaMaMaLaLaFaFakakaaaaayayajajafafaaaababaararaFaFaaaaalalaUaUaUaUaUaUaxaxakakaaaaaaaaaaaaaaaaaaaaaaaaaaaaaaaaaaaaaaaaaaaaaaaaaaaaaaaaaaaaaaaaaaaaaaaaaaaaaaaaaxaxaDaDaaaaaaaaaaaaaaaaaaaaaaaaaaaaaaaaaaaaaaaaaaaaaaaaaaaaaaaaaxaxafafaaaaaaaaaaaaacacacacaaaaadadababapapaaaaaaaaaqaqababababajajaaaaaaaaaxaxaLaLararaaaaaaaaaaaaaaaabmbma(a(babaaaaaaaaabwbwbmbmbvbva2a2bubububububua*a*aZaZaEaEaEaEa*a*a*a*bFbFbFbFa*a*bxbxa*a*a*a*bububububhbhbubububuaTaTbvbvbmbmbcbcbabaaaaaaTaTaXaXavavaaaaaaaaaaaaaaaaararaaaaaaaaaMaMaeaeaaaaaaaaaaaaaaaaaaaaaeaeacacaiaiaaaaaaaaaMaMaxaxaLaLararbabaaaaaaKaKalalaaaaaMaMacacaLaLaaaaboboararalalapapajajaaaaaxaxbcbcajajaxaxaxaxaaaaaMaMaeaeayayaaaaaaaaaaaaaMaMalalaaaaaaaaaaaaaaaaaaaa",
"aaaaaaaaaaaaaaaaaaaaaaaaaaaaaaaaaxaxaKaKakakaaaaaaaaaaaaaeaealalaiaiaFaFaaaaaKaKaUaUaaaaayayaxaxaaaaaUaUbabaaxaxaUaUaaaaaLaLadadaLaLaaaaaiaiaiaiayayaiaiaaaaadadalalaaaaafafayayaMaMaaaaaaaaaaaaaaaaaaaaaaaaaaaaaaaaaaaaaaaaaaaaaaaaaaaaaaaaaaaaaaaaaaaaaaaaauauaqaqaaaaaaaaaaaaaaaaaaaaaaaaaaaaaaaaaaaaaaaaaaaaaaaaaaaaaaaaaaaaaaaaaaaaaaaaaaaaayayaaaaaaaaaFaFapapaKaKayaybcbcadadaUaUaKaKadadadadbcbcalalaFaFaaaaaaaaaaaaaaaaaaaabmbma(a(a1a1aaaaaaaaaLaLauaua2a2aaaabvbvbubububua*a*a(a(aEaEbmbmbububFbFa0a0bFbFa0a0bFbFbububCbCbububububhbhbububvbvaaaaavavaeaealalaqaqaaaaaTaTa*a*avavaaaaaaaaaaaaaFaFaeaeaaaaaaaaaaaaaoaoaaaaaaaaaaaaaaaaalalaUaUaoaoaaaaaaaaaaaaakakararaaaaaaaaaaaaaxaxalalaaaaakakadadaaaaaVaVaDaDboboatataaaaaLaLaxaxaMaMaaaaaaaaaLaLaaaaaKaKaeaeaaaaakakaeaeaxaxaKaKaaaaaaaaaaaaaaaaaaaaaaaaaaaaaaaa",
"aaaaaaaaaaaaaaaaaaaaaaaaaaaaaaaaaxaxaKaKakakaaaaaaaaaaaaaeaealalaiaiaFaFaaaaaKaKaUaUaaaaayayaxaxaaaaaUaUbabaaxaxaUaUaaaaaLaLadadaLaLaaaaaiaiaiaiayayaiaiaaaaadadalalaaaaafafayayaMaMaaaaaaaaaaaaaaaaaaaaaaaaaaaaaaaaaaaaaaaaaaaaaaaaaaaaaaaaaaaaaaaaaaaaaaaaauauaqaqaaaaaaaaaaaaaaaaaaaaaaaaaaaaaaaaaaaaaaaaaaaaaaaaaaaaaaaaaaaaaaaaaaaaaaaaaaaaayayaaaaaaaaaFaFapapaKaKayaybcbcadadaUaUaKaKadadadadbcbcalalaFaFaaaaaaaaaaaaaaaaaaaabmbma(a(a1a1aaaaaaaaaLaLauaua2a2aaaabvbvbubububua*a*a(a(aEaEbmbmbububFbFa0a0bFbFa0a0bFbFbububCbCbububububhbhbububvbvaaaaavavaeaealalaqaqaaaaaTaTa*a*avavaaaaaaaaaaaaaFaFaeaeaaaaaaaaaaaaaoaoaaaaaaaaaaaaaaaaalalaUaUaoaoaaaaaaaaaaaaakakararaaaaaaaaaaaaaxaxalalaaaaakakadadaaaaaVaVaDaDboboatataaaaaLaLaxaxaMaMaaaaaaaaaLaLaaaaaKaKaeaeaaaaakakaeaeaxaxaKaKaaaaaaaaaaaaaaaaaaaaaaaaaaaaaaaa",
"aaaaaaaaaaaaaaaaaaaaaaaaaaaaalalaiaiaaaaaaaaaaaaaVaVaxaxajajaDaDaaaababaalalaoaobabaaKaKaqaqbabaaaaaaxaxafafbababcbcalalaaaababaadadaLaLaaaaaaaaaiaialalaxaxaaaaaaaaaaaaaaaaaaaaaaaaaaaaaaaaaaaaaaaaaaaaaaaaaaaaakakaqaqaaaaajajaeaeaaaaaaaaaaaaaaaaaaaaaaaaaxaxaDaDaaaaaaaaaaaaaaaaaaaaaaaaaaaaaaaaaaaaaaaaaaaaaaaaaaaaaaaaaaaaaaaaaaaaaaaaaaaaaaaaaaaaajajacacaLaLaaaaararacacababadadaaaaajaja#a#ababaKaKaaaaaaaaaaaaaaaaaaaaaaaabmbma(a(a1a1aaaaaaaaaaaaaaaaaaaaaaaaa(a(a*a*bububybyahahbvbvbvbvbibibFbFa0a0bFbFbCbCa*a*a*a*brbra*a*bububhbhbububmbmaaaaaaaaaaaaaaaaaaaaaaaaa2a2a(a(avavaaaaaaaaaaaaaaaaaaaaaaaaaaaaaaaaaaaaaaaaaaaaaaaaaaaaaoaoaaaaaaaaakakaxaxaaaaaDaDaVaVaaaaayaybcbcakakaaaaafafacacaiaiaaaaaVaVajajbmbmaFaFaFaFaaaaaMaMbcbcaFaFaaaaaaaaaaaaaaaaaeaeaLaLaxaxbcbcafafaxaxadadaaaaaaaaaaaaaaaaaaaaaaaaaaaa",
"aaaaaaaaaaaaaaaaaaaaaaaaaaaaalalaiaiaaaaaaaaaaaaaVaVaxaxajajaDaDaaaababaalalaoaobabaaKaKaqaqbabaaaaaaxaxafafbababcbcalalaaaababaadadaLaLaaaaaaaaaiaialalaxaxaaaaaaaaaaaaaaaaaaaaaaaaaaaaaaaaaaaaaaaaaaaaaaaaaaaaakakaqaqaaaaajajaeaeaaaaaaaaaaaaaaaaaaaaaaaaaxaxaDaDaaaaaaaaaaaaaaaaaaaaaaaaaaaaaaaaaaaaaaaaaaaaaaaaaaaaaaaaaaaaaaaaaaaaaaaaaaaaaaaaaaaaajajacacaLaLaaaaararacacababadadaaaaajaja#a#ababaKaKaaaaaaaaaaaaaaaaaaaaaaaabmbma(a(a1a1aaaaaaaaaaaaaaaaaaaaaaaaa(a(a*a*bububybyahahbvbvbvbvbibibFbFa0a0bFbFbCbCa*a*a*a*brbra*a*bububhbhbububmbmaaaaaaaaaaaaaaaaaaaaaaaaa2a2a(a(avavaaaaaaaaaaaaaaaaaaaaaaaaaaaaaaaaaaaaaaaaaaaaaaaaaaaaaoaoaaaaaaaaakakaxaxaaaaaDaDaVaVaaaaayaybcbcakakaaaaafafacacaiaiaaaaaVaVajajbmbmaFaFaFaFaaaaaMaMbcbcaFaFaaaaaaaaaaaaaaaaaeaeaLaLaxaxbcbcafafaxaxadadaaaaaaaaaaaaaaaaaaaaaaaaaaaa",
"aaaaaaaaaaaaaaaaaaaaaaaaaaaaaaaaaaaaaaaaafafaxaxayayaiaiaaaaaaaaaUaUaeaebabaaaaaaKaKaxaxaaaaaFaFa6a6aeaeafafaaaaa$a$adadaeaeaaaaaqaqadadaeaeaaaaajajaaaaaaaaaaaaaaaaajajaaaaaaaaaaaaaaaaaaaaaaaaaaaaaaaaaaaaaaaaauaubjbjaqaqaeaeararaaaaaaaaaaaaaaaaaaaaaaaaaLaLaaaaaaaaaaaaaaaaaaaaajajaxaxaaaaaaaaaaaaaaaaaaaaaaaaaaaaaaaaaaaaaaaaaaaaaaaaaaaaaaaaararagagababaUaUaaaaaaaaaUaUacacacacaMaMararaFaFalalaaaaaaaaaaaaaaaaaaaaaaaaaaaabibibybya2a2aaaaaaaaaaaaaaaaaaaaaaaabvbva*a*bububzbzbzbzbybybzbzbibibFbFa0a0a0a0bCbCa*a*a*a*blblbibia)a)bhbhbububvbvaaaaaaaaaaaaaaaaaaaababaavavbybyaMaMaaaaaaaaaaaaaaaaaaaaaaaaaaaaaaaaaaaaaaaaaaaaaaaaaaaaaaaaaaaaajajbcbcbabaayayalalaaaaalalaxaxaiaiafafbabaaKaKbzbzaFaFaqaqalalaoaobmbmbabaararajajakakaeaeayayalalaxaxaaaaaaaaaaaaaLaLbcbcaaaaaaaaaFaFaKaKadadaaaaaaaaaaaaaaaaaaaaaaaa",
"aaaaaaaaaaaaaaaaaaaaaaaaaaaaaaaaaaaaaaaaafafaxaxayayaiaiaaaaaaaaaUaUaeaebabaaaaaaKaKaxaxaaaaaFaFa6a6aeaeafafaaaaa$a$adadaeaeaaaaaqaqadadaeaeaaaaajajaaaaaaaaaaaaaaaaajajaaaaaaaaaaaaaaaaaaaaaaaaaaaaaaaaaaaaaaaaauaubjbjaqaqaeaeararaaaaaaaaaaaaaaaaaaaaaaaaaLaLaaaaaaaaaaaaaaaaaaaaajajaxaxaaaaaaaaaaaaaaaaaaaaaaaaaaaaaaaaaaaaaaaaaaaaaaaaaaaaaaaaararagagababaUaUaaaaaaaaaUaUacacacacaMaMararaFaFalalaaaaaaaaaaaaaaaaaaaaaaaaaaaabibibybya2a2aaaaaaaaaaaaaaaaaaaaaaaabvbva*a*bububzbzbzbzbybybzbzbibibFbFa0a0a0a0bCbCa*a*a*a*blblbibia)a)bhbhbububvbvaaaaaaaaaaaaaaaaaaaababaavavbybyaMaMaaaaaaaaaaaaaaaaaaaaaaaaaaaaaaaaaaaaaaaaaaaaaaaaaaaaaaaaaaaaajajbcbcbabaayayalalaaaaalalaxaxaiaiafafbabaaKaKbzbzaFaFaqaqalalaoaobmbmbabaararajajakakaeaeayayalalaxaxaaaaaaaaaaaaaLaLbcbcaaaaaaaaaFaFaKaKadadaaaaaaaaaaaaaaaaaaaaaaaa",
"aaaaaaaaaaaaaaaaaaaaaaaaaaaaaaaaaaaaaxaxayayaaaaakakajajbabaaeaeaeaebabaaaaaaFaFadadbabababaayaya6a6alalafafakakaaaaaMaMaxaxajajaaaaaaaaaLaLaxaxaaaaalalaaaaaaaaaeaeaUaUaxaxaaaaaaaaaaaaaaaaaaaaaaaaaaaaaaaaaaaaavavavavaaaaaaaaaaaaaaaaaaaaaaaaaaaaaaaaaaaaaaaaaaaaaaaaaaaaaaaaaaaaaaaaaaaaaaaaaaaaaaaaaaaaaaaaa6a6aaaaaaaaaaaaaaaaaaaaaaaaaaaaaaaaaaaaacacadadaeaeaaaaaaaaaaaaaaaaaKaKaxaxaaaaaaaaaaaaaaaaaaaaaaaaaaaaaaaaaaaaaaaaaaaabvbvbibiaaaaaaaaaaaaaaaaaaaaaaaaa2a2a*a*bibibzbzbibibvbvavavbybybFbFbFbFbFbFbCbCbFbFbhbhbubublblbibia)a)bububibiaaaaaaaaaaaaaaaaaaaabababzbzauauaaaaaaaaaaaaaaaaaaaaaaaaaaaaaaaaaaaaaaaaaaaaaKaKaaaaaaaaaaaaaaaaaaaaaaaaakakajajaaaaaLaLaxaxaaaaaKaKaUaUaiaiapapaMaMbcbcaUaUaxaxaaaaadadaqaqararalalaaaaadadakakajajbabaakakaaaaaaaaaaaaaaaaaaaabcbcayayaaaaaUaUajajaaaaaaaaaaaaaaaaaaaa",
"aaaaaaaaaaaaaaaaaaaaaaaaaaaaaaaaaaaaaxaxayayaaaaakakajajbabaaeaeaeaebabaaaaaaFaFadadbabababaayaya6a6alalafafakakaaaaaMaMaxaxajajaaaaaaaaaLaLaxaxaaaaalalaaaaaaaaaeaeaUaUaxaxaaaaaaaaaaaaaaaaaaaaaaaaaaaaaaaaaaaaavavavavaaaaaaaaaaaaaaaaaaaaaaaaaaaaaaaaaaaaaaaaaaaaaaaaaaaaaaaaaaaaaaaaaaaaaaaaaaaaaaaaaaaaaaaaa6a6aaaaaaaaaaaaaaaaaaaaaaaaaaaaaaaaaaaaacacadadaeaeaaaaaaaaaaaaaaaaaKaKaxaxaaaaaaaaaaaaaaaaaaaaaaaaaaaaaaaaaaaaaaaaaaaabvbvbibiaaaaaaaaaaaaaaaaaaaaaaaaa2a2a*a*bibibzbzbibibvbvavavbybybFbFbFbFbFbFbCbCbFbFbhbhbubublblbibia)a)bububibiaaaaaaaaaaaaaaaaaaaabababzbzauauaaaaaaaaaaaaaaaaaaaaaaaaaaaaaaaaaaaaaaaaaaaaaKaKaaaaaaaaaaaaaaaaaaaaaaaaakakajajaaaaaLaLaxaxaaaaaKaKaUaUaiaiapapaMaMbcbcaUaUaxaxaaaaadadaqaqararalalaaaaadadakakajajbabaakakaaaaaaaaaaaaaaaaaaaabcbcayayaaaaaUaUajajaaaaaaaaaaaaaaaaaaaa",
"aaaaaaaaaaaaaaaaaaaaaaaaaaaaaaaaaaaaafafaaaaalalaFaFaaaaaeaeaoaoaqaqaDaDaaaaaeaeaKaKaaaaakakaUaUa8a8aKaKbabababaaiaiaFaFbabaaFaFalalaFaFa7a7ayayaaaaaaaaaaaaaUaUayayaaaaakakaaaaaaaaaaaaaaaaaaaaaaaaaaaaaaaaaaaaaaaaaaaaaaaaaaaaaaaaaaaaaaaaaaaaaaaaaaaaaaaaaaaaaaaaaaaaaaaaaaaaaaaaaaaaaaaaaaaaaaaaaaaaaaaaalalayayaaaaaaaaaaaaaaaaaaaaaaaaaaaaaaaaaaaaaiaiaaaaaaaaaaaaaaaaaaaaaaaaaaaaayayaaaaaaaaaaaaaaaaaaaaaaaaaaaaaaaaaaaaaaaaaaaaavavbvbvaMaMaaaaaaaaaaaaaaaaaaaaaiaibybyaTaTbibibvbvbvbvaEaEa*a*bxbxa0a0bFbFbCbCbFbFbubububuaXaXbhbhbhbhbibia1a1aaaaaaaaa8a8aaaaaaaaavavbvbvaoaoaaaaaaaaaaaaaaaaaaaaaaaaaaaaaaaaaaaaaaaaaaaaaFaFaaaaaaaaaaaaaaaaaaaaaaaaayayaeaeakakaKaKaaaaakakaDaDaaaaalaladadalalaiaialalaFaFbabaaxaxajajajajaoaoaeaeaMaMaxaxaaaaaVaVaeaeaxaxaaaaaaaaaaaaaaaaajajaaaaaaaaaaaaaaaaaaaaaaaaaaaaaaaaaaaa",
"aaaaaaaaaaaaaaaaaaaaaaaaaaaaaaaaaaaaafafaaaaalalaFaFaaaaaeaeaoaoaqaqaDaDaaaaaeaeaKaKaaaaakakaUaUa8a8aKaKbabababaaiaiaFaFbabaaFaFalalaFaFa7a7ayayaaaaaaaaaaaaaUaUayayaaaaakakaaaaaaaaaaaaaaaaaaaaaaaaaaaaaaaaaaaaaaaaaaaaaaaaaaaaaaaaaaaaaaaaaaaaaaaaaaaaaaaaaaaaaaaaaaaaaaaaaaaaaaaaaaaaaaaaaaaaaaaaaaaaaaaaalalayayaaaaaaaaaaaaaaaaaaaaaaaaaaaaaaaaaaaaaiaiaaaaaaaaaaaaaaaaaaaaaaaaaaaaayayaaaaaaaaaaaaaaaaaaaaaaaaaaaaaaaaaaaaaaaaaaaaavavbvbvaMaMaaaaaaaaaaaaaaaaaaaaaiaibybyaTaTbibibvbvbvbvaEaEa*a*bxbxa0a0bFbFbCbCbFbFbubububuaXaXbhbhbhbhbibia1a1aaaaaaaaa8a8aaaaaaaaavavbvbvaoaoaaaaaaaaaaaaaaaaaaaaaaaaaaaaaaaaaaaaaaaaaaaaaFaFaaaaaaaaaaaaaaaaaaaaaaaaayayaeaeakakaKaKaaaaakakaDaDaaaaalaladadalalaiaialalaFaFbabaaxaxajajajajaoaoaeaeaMaMaxaxaaaaaVaVaeaeaxaxaaaaaaaaaaaaaaaaajajaaaaaaaaaaaaaaaaaaaaaaaaaaaaaaaaaaaa",
"aaaaaaaaaaaaaaaaaaaaaaaaaaaaaaaaaaaaaaaaaeaeaFaFaaaaaUaUaFaFaFaFakakbabaa6a6axaxbabaaaaaaLaLayayaaaaaKaKaFaFaFaFaxaxaaaaaLaLaDaDajajaUaUalalaiaiaaaaaaaaaaaaaiaiakakaaaaaaaaaaaaaaaaaaaaakakaFaFaaaaaaaaaaaaaaaaaaaaaaaaaaaaaaaaaaaaaaaaaaaaaaaaaaaaaaaaaaaaaaaaaaaaaaaaaaaaaaaaaaaaaaaaaaaaaaaaaaaaaaaaaaaaaKaKakakaaaaaaaaaaaaaaaaaaaaaaaaaaaaaaaaaaaaaaaaaaaaaaaaaqaqaaaababaaaaaaaaaaaaaaLaLaaaaaaaaaaaaaaaaaaaaaaaaaaaaaaaaaaaaaaaaaaaabzbzauaubabababaaaaaaaaaaaaaaMaMa(a(bibibubublblbmbmbybya*a*aYaYbFbFbFbFbFbFbFbFbFbFbybybvbva)a)bhbhbvbvararaaaaaaaaaaaaaaaaaaaabvbvbvbvaaaaaaaaaaaaaaaaaaaaaaaaaaaaaaaaaaaaaaaaaLaLakakaaaaaaaaaaaaaaaaaaaaaaaaaaaaaaaaaUaUacacaDaDajajbabaaLaLararaxaxaiaiaqaqbabaaMaMakakakakadadajajaMaMaqaqadadaaaabcbcaaaaayayajajaoaoadadaaaaaaaaaaaaaaaaaaaaaaaaaaaaaaaaaaaaaaaaaaaaaaaaaaaa",
"aaaaaaaaaaaaaaaaaaaaaaaaaaaaaaaaaaaaaaaaaeaeaFaFaaaaaUaUaFaFaFaFakakbabaa6a6axaxbabaaaaaaLaLayayaaaaaKaKaFaFaFaFaxaxaaaaaLaLaDaDajajaUaUalalaiaiaaaaaaaaaaaaaiaiakakaaaaaaaaaaaaaaaaaaaaakakaFaFaaaaaaaaaaaaaaaaaaaaaaaaaaaaaaaaaaaaaaaaaaaaaaaaaaaaaaaaaaaaaaaaaaaaaaaaaaaaaaaaaaaaaaaaaaaaaaaaaaaaaaaaaaaaaKaKakakaaaaaaaaaaaaaaaaaaaaaaaaaaaaaaaaaaaaaaaaaaaaaaaaaqaqaaaababaaaaaaaaaaaaaaLaLaaaaaaaaaaaaaaaaaaaaaaaaaaaaaaaaaaaaaaaaaaaabzbzauaubabababaaaaaaaaaaaaaaMaMa(a(bibibubublblbmbmbybya*a*aYaYbFbFbFbFbFbFbFbFbFbFbybybvbva)a)bhbhbvbvararaaaaaaaaaaaaaaaaaaaabvbvbvbvaaaaaaaaaaaaaaaaaaaaaaaaaaaaaaaaaaaaaaaaaLaLakakaaaaaaaaaaaaaaaaaaaaaaaaaaaaaaaaaUaUacacaDaDajajbabaaLaLararaxaxaiaiaqaqbabaaMaMakakakakadadajajaMaMaqaqadadaaaabcbcaaaaayayajajaoaoadadaaaaaaaaaaaaaaaaaaaaaaaaaaaaaaaaaaaaaaaaaaaaaaaaaaaa",
"aaaaaaaaaaaaaaaaaaaaaaaaaaaaaaaaaaaaalalaUaUaaaaaxaxajaja6a6akakaVaVarara7a7aMaMaaaababaajajaaaababaaKaKaoaoaiaiaeaeaFaFakakajajararaUaUaqaqaUaUaoaoaaaaaaaaaaaaafafalalaaaaaaaaaaaaaaaaaiaiaaaaaaaaaaaaaaaaaaaaaaaaaaaaaaaaaaaaaaaaaaaaaaaaaaaaaaaaaaaaaaaaaaaaaaaaaaaaaaaaaaaaaaaaaaaaaaaaaaaaaaaaaaaaaaaaaaaaaaaaaaaaaaaaaaaaaaaaaaaaaaaaaaaaaaaaaaaaaaaaaaaaavavavavavavalalavavaaaaaaaaajajalalaaaaaaaaaaaaaaaaaaaaaaaaaaaaaaaaaaaaaaaaaqaqa(a(avavaaaaaaaaaaaaaaaaa2a2bybybububububibibvbvbvbva*a*bFbFa0a0bFbFbCbCbFbFbububububibibububhbhbmbmbabaaaaaaaaaaaaaaaaaavavbzbza2a2aaaaaaaaaaaaaaaaaaaaaaaaaaaaaaaaaaaaaaaaaaaaaaaaaaaaaaaaaaaaaaaaaaaaaaaaaaaaaaaaadadaVaVafafakakaeaeakakaLaLalalaaaaalalajajaiaiaxaxalalaKaKajajajajaaaaaKaKararaKaKaoaoaMaMakakaaaaadadakakaaaaaaaaaaaaaaaaaaaaaaaaaaaaaaaaaaaaaaaaaaaaaaaa",
"aaaaaaaaaaaaaaaaaaaaaaaaaaaaaaaaaaaaalalaUaUaaaaaxaxajaja6a6akakaVaVarara7a7aMaMaaaababaajajaaaababaaKaKaoaoaiaiaeaeaFaFakakajajararaUaUaqaqaUaUaoaoaaaaaaaaaaaaafafalalaaaaaaaaaaaaaaaaaiaiaaaaaaaaaaaaaaaaaaaaaaaaaaaaaaaaaaaaaaaaaaaaaaaaaaaaaaaaaaaaaaaaaaaaaaaaaaaaaaaaaaaaaaaaaaaaaaaaaaaaaaaaaaaaaaaaaaaaaaaaaaaaaaaaaaaaaaaaaaaaaaaaaaaaaaaaaaaaaaaaaaaaavavavavavavalalavavaaaaaaaaajajalalaaaaaaaaaaaaaaaaaaaaaaaaaaaaaaaaaaaaaaaaaqaqa(a(avavaaaaaaaaaaaaaaaaa2a2bybybububububibibvbvbvbva*a*bFbFa0a0bFbFbCbCbFbFbububububibibububhbhbmbmbabaaaaaaaaaaaaaaaaaavavbzbza2a2aaaaaaaaaaaaaaaaaaaaaaaaaaaaaaaaaaaaaaaaaaaaaaaaaaaaaaaaaaaaaaaaaaaaaaaaaaaaaaaaadadaVaVafafakakaeaeakakaLaLalalaaaaalalajajaiaiaxaxalalaKaKajajajajaaaaaKaKararaKaKaoaoaMaMakakaaaaadadakakaaaaaaaaaaaaaaaaaaaaaaaaaaaaaaaaaaaaaaaaaaaaaaaa",
"aaaaaaaaaaaaaaaaaaaaaaaaaaaaaaaaaaaaaaaaaeaeaxaxadadbabaajajaVaVararaaaaadadalalaqaqaFaFaMaMaoaoaFaFaFaFaiaiararbabaaxaxaaaaaKaKaaaaalalaLaLaaaaaxaxaaaaaaaaaaaaaaaaaiaiararaaaaaaaaaaaaaaaaaaaaaaaaaaaaaaaaaaaaaaaaaaaaaaaaaaaaaaaaaaaaaaaaaaaaaaaaaaaaaaaaaaaaaaaaaaaaaaaaaaaaalalaiaiaaaaaaaaaaaaaaaaaaaaaaaaaaaaaaaaaaaaaaaaaaaaaaaaaaaaaaaaaaaaaaaaaaaaaMaMaTaTbmbmbmbmbwbwajajaaaaaaaaaaaaaxaxalalaaaaaaaaaaaaaaaaaaaaaaaaaaaaaaaaaaaaaaaaauaubzbzaaaaaaaaaaaaaaaaaaaabibia*a*a)a)bmbmbibiauaubibia*a*bFbFbFbFbFbFbububibibububhbha)a)bvbva2a2aaaaa8a8aaaaaaaaavavbzbzalalaaaaaaaaaaaaaaaaaaaaaaaaaaaaaaaaaaaaaaaaaaaaaaaaaaaaaaaaaaaaaaaaaaaaaaaaaaaaaaaaaaaaaaaaaaaaayayajajbcbcaaaaaUaUaFaFajajayayaiaiaoaoaxaxakakaaaaakakafafakakajajalalaaaaaUaUaaaaaoaoaFaFaaaaafafaoaoaaaaaaaaaaaaaaaaaaaaaaaaaaaaaaaaaaaaaaaaaaaa",
"aaaaaaaaaaaaaaaaaaaaaaaaaaaaaaaaaaaaaaaaaeaeaxaxadadbabaajajaVaVararaaaaadadalalaqaqaFaFaMaMaoaoaFaFaFaFaiaiararbabaaxaxaaaaaKaKaaaaalalaLaLaaaaaxaxaaaaaaaaaaaaaaaaaiaiararaaaaaaaaaaaaaaaaaaaaaaaaaaaaaaaaaaaaaaaaaaaaaaaaaaaaaaaaaaaaaaaaaaaaaaaaaaaaaaaaaaaaaaaaaaaaaaaaaaaaalalaiaiaaaaaaaaaaaaaaaaaaaaaaaaaaaaaaaaaaaaaaaaaaaaaaaaaaaaaaaaaaaaaaaaaaaaaMaMaTaTbmbmbmbmbwbwajajaaaaaaaaaaaaaxaxalalaaaaaaaaaaaaaaaaaaaaaaaaaaaaaaaaaaaaaaaaauaubzbzaaaaaaaaaaaaaaaaaaaabibia*a*a)a)bmbmbibiauaubibia*a*bFbFbFbFbFbFbububibibububhbha)a)bvbva2a2aaaaa8a8aaaaaaaaavavbzbzalalaaaaaaaaaaaaaaaaaaaaaaaaaaaaaaaaaaaaaaaaaaaaaaaaaaaaaaaaaaaaaaaaaaaaaaaaaaaaaaaaaaaaaaaaaaaaayayajajbcbcaaaaaUaUaFaFajajayayaiaiaoaoaxaxakakaaaaakakafafakakajajalalaaaaaUaUaaaaaoaoaFaFaaaaafafaoaoaaaaaaaaaaaaaaaaaaaaaaaaaaaaaaaaaaaaaaaaaaaa",
"aaaaaaaaaaaaaaaaaaaaaaaaaaaaaaaaaaaaaaaaaoaoaeaeaaaaajajaiaialalaaaaaUaUajaja$a$akakaoaoaFaFaLaLaMaMaaaaajajaMaMbabaararaaaaa6a6ayaybabaaLaLaaaaajajakakaaaaaaaaaaaaaaaaaaaaaaaaaaaaaaaaaaaaaaaaaaaaaaaaaaaaaaaaaaaaaaaaaaaaaaaaaaaaaaaaaaaaa1a1aTaTaTaTa1a1a1a1a1a1a1a1a1a1aTaTbsbsaTaTaTaTaTaTaTaTaTaTaTaTaTaTavavavavavavaTaTa1a1a1a1babababaaaaaaaaaaaaaa1a1auauauauaEaEauauaaaaaaaaaaaaaaaaayayafafaaaaaaaaaaaaaaaaaaaaaaaaaaaaaaaaaaaaaaaaaaaabzbzbzbzaaaaaaaaaaaaaaaabibia*a*bubuaEaEbubuaEaEbibia*a*bFbFbFbFbububhbha(a(bibibubua)a)bvbvaTaTaaaaaaaaaaaaaMaMaEaEalalaaaaaaaaaaaaaaaaaaaaaaaaaaaaaaaaaaaaaaaaaaaaa7a7aeaea7a7aaaaaaaaaaaaaaaaaaaaaaaaaaaaaaaaajajaLaLaaaaaxaxaoaoaaaaaaaaaLaLaxaxaMaMakakaeaeaKaKaVaVaaaaalalaLaLbmbmakakakakbmbmaeaeaeaeaUaUaaaaaaaaaKaKakakaaaaaaaaaaaaaaaaaaaaaaaaaaaaaaaaaaaaaaaaaaaa",
"aaaaaaaaaaaaaaaaaaaaaaaaaaaaaaaaaaaaaaaaaoaoaeaeaaaaajajaiaialalaaaaaUaUajaja$a$akakaoaoaFaFaLaLaMaMaaaaajajaMaMbabaararaaaaa6a6ayaybabaaLaLaaaaajajakakaaaaaaaaaaaaaaaaaaaaaaaaaaaaaaaaaaaaaaaaaaaaaaaaaaaaaaaaaaaaaaaaaaaaaaaaaaaaaaaaaaaaa1a1aTaTaTaTa1a1a1a1a1a1a1a1a1a1aTaTbsbsaTaTaTaTaTaTaTaTaTaTaTaTaTaTavavavavavavaTaTa1a1a1a1babababaaaaaaaaaaaaaa1a1auauauauaEaEauauaaaaaaaaaaaaaaaaayayafafaaaaaaaaaaaaaaaaaaaaaaaaaaaaaaaaaaaaaaaaaaaabzbzbzbzaaaaaaaaaaaaaaaabibia*a*bubuaEaEbubuaEaEbibia*a*bFbFbFbFbububhbha(a(bibibubua)a)bvbvaTaTaaaaaaaaaaaaaMaMaEaEalalaaaaaaaaaaaaaaaaaaaaaaaaaaaaaaaaaaaaaaaaaaaaa7a7aeaea7a7aaaaaaaaaaaaaaaaaaaaaaaaaaaaaaaaajajaLaLaaaaaxaxaoaoaaaaaaaaaLaLaxaxaMaMakakaeaeaKaKaVaVaaaaalalaLaLbmbmakakakakbmbmaeaeaeaeaUaUaaaaaaaaaKaKakakaaaaaaaaaaaaaaaaaaaaaaaaaaaaaaaaaaaaaaaaaaaa",
"aaaaaaaaaaaaaaaaaaaaaaaaaaaaaaaaaaaaaaaaaaaaaaaaaaaaaaaaaKaKaaaaaaaaajajararajajajajaiaiajajavavaiaiaaaaayayajajajajafafaVaVaaaaaeaeaiaiadadaaaaaFaFaLaLaaaaaaaaaaaaaaaaaaaaaaaaaaaaaaaaavavaaaaaaaaaaaaaaaaaaaaaaaaaaaaaFaFavavavavaTaTaTaTavavbibibibibsbsbibibsbsbsbsbsbsbsbsbvbvbvbvauauauauauauauauauauauauauauauauauauauaua1a1avavavavaoaoaoaoararajajbmbmbvbvavavaZaZauauaaaaaaaaaaaaa3a3bnbnafafaaaaaaaaaaaaaFaFararaFaFaaaaaaaaaaaaaaaaaaaaaaaabmbmbmbmbabaaaaaaaaaavavbvbvbubububublblbibibibibibibubububububububububua*a*bhbhbhbhbvbva1a1aaaababaaMaMbzbzalalaaaaaaaaaaaaaaaaaaaaaaaaaaaaaaaaaaaaaaaaaaaaaVaVaKaKaIaIaaaaaaaaaaaaaaaaaaaaaaaaaaaaaaaaaaaaboboaKaKbabaayayaaaaaaaaararaKaKaqaqaUaUajajaKaKatataMaMaaaaaUaUalalaUaUajajadadaoaoararacacaLaLaaaaaaaaaeaealalaaaaaaaaaaaaaaaaaaaaaaaaaaaaaaaaaaaaaaaaaaaa",
"aaaaaaaaaaaaaaaaaaaaaaaaaaaaaaaaaaaaaaaaaaaaaaaaaaaaaaaaaKaKaaaaaaaaajajararajajajajaiaiajajavavaiaiaaaaayayajajajajafafaVaVaaaaaeaeaiaiadadaaaaaFaFaLaLaaaaaaaaaaaaaaaaaaaaaaaaaaaaaaaaavavaaaaaaaaaaaaaaaaaaaaaaaaaaaaaFaFavavavavaTaTaTaTavavbibibibibsbsbibibsbsbsbsbsbsbsbsbvbvbvbvauauauauauauauauauauauauauauauauauauauaua1a1avavavavaoaoaoaoararajajbmbmbvbvavavaZaZauauaaaaaaaaaaaaa3a3bnbnafafaaaaaaaaaaaaaFaFararaFaFaaaaaaaaaaaaaaaaaaaaaaaabmbmbmbmbabaaaaaaaaaavavbvbvbubububublblbibibibibibibubububububububububua*a*bhbhbhbhbvbva1a1aaaababaaMaMbzbzalalaaaaaaaaaaaaaaaaaaaaaaaaaaaaaaaaaaaaaaaaaaaaaVaVaKaKaIaIaaaaaaaaaaaaaaaaaaaaaaaaaaaaaaaaaaaaboboaKaKbabaayayaaaaaaaaararaKaKaqaqaUaUajajaKaKatataMaMaaaaaUaUalalaUaUajajadadaoaoararacacaLaLaaaaaaaaaeaealalaaaaaaaaaaaaaaaaaaaaaaaaaaaaaaaaaaaaaaaaaaaa",
"aaaaaaaaaaaaaaaaaaaaaaaaaaaaaaaaaaaaaaaaaaaaaaaaaaaaaaaaakakaaaaaaaaaxaxaeaeaFaFajajafafaUaUavavaiaiaaaaayayakakalalaVaVaLaLaaaaaeaebabaalalaaaaaaaaalalaoaoaaaaaaaaaaaaaaaaaaaaaaaaaaaaaFaFaaaaaaaaaaaaaaaaaaaaaaaaaaaaaoaoavavavavaiaiavavbwbwbibiaQaQbsbsavavaTaTaTaTavavavavavavauauajajaqaqaFaFaDaDaFaFaMaMbabaakakaiaiajajayayayayaVaValalavavavavaiaiajajaEaEbvbvauauahahajajaaaaa7a7bdbdbdbdaiaiaaaaaFaFafafaMaMafafafafajajaaaaaaaaaaaaaaaaaaaaaaaaadadbzbzajajaaaaaaaabmbmbubuaXaXbvbvauaubibibibibhbhbibibububibibhbhbibia)a)bububibiaaaaaqaqbvbva(a(avavaaaaaaaaaaaaaaaaaaaaaaaaaaaaaaaaaaaaaaaaaaaaaaaaaaaaafafaaaaaaaaaaaaaaaaaaaaaaaaaaaaaaaaaaaaararaUaUaLaLaKaKaxaxaaaaaaaaaaaaalalaxaxacacafafadadajajaMaMaaaaaeaealalaVaVaoaobzbzararaDaDaLaLaaaaaaaaaaaaaaaaadadaqaqaaaaaaaaaaaaaaaaaaaaaaaaaaaaaaaaaaaaaaaa",
"aaaaaaaaaaaaaaaaaaaaaaaaaaaaaaaaaaaaaaaaaaaaaaaaaaaaaaaaakakaaaaaaaaaxaxaeaeaFaFajajafafaUaUavavaiaiaaaaayayakakalalaVaVaLaLaaaaaeaebabaalalaaaaaaaaalalaoaoaaaaaaaaaaaaaaaaaaaaaaaaaaaaaFaFaaaaaaaaaaaaaaaaaaaaaaaaaaaaaoaoavavavavaiaiavavbwbwbibiaQaQbsbsavavaTaTaTaTavavavavavavauauajajaqaqaFaFaDaDaFaFaMaMbabaakakaiaiajajayayayayaVaValalavavavavaiaiajajaEaEbvbvauauahahajajaaaaa7a7bdbdbdbdaiaiaaaaaFaFafafaMaMafafafafajajaaaaaaaaaaaaaaaaaaaaaaaaadadbzbzajajaaaaaaaabmbmbubuaXaXbvbvauaubibibibibhbhbibibububibibhbhbibia)a)bububibiaaaaaqaqbvbva(a(avavaaaaaaaaaaaaaaaaaaaaaaaaaaaaaaaaaaaaaaaaaaaaaaaaaaaaafafaaaaaaaaaaaaaaaaaaaaaaaaaaaaaaaaaaaaararaUaUaLaLaKaKaxaxaaaaaaaaaaaaalalaxaxacacafafadadajajaMaMaaaaaeaealalaVaVaoaobzbzararaDaDaLaLaaaaaaaaaaaaaaaaadadaqaqaaaaaaaaaaaaaaaaaaaaaaaaaaaaaaaaaaaaaaaa",
"aaaaaaaaaaaaaaaaaaaaaaaaaaaaaaaaaaaaaaaaaaaaaaaaaaaaaeaeaaaaaaaaaaaaaaaaadadaaaaaLaLajajalalavavaMaMaaaaaVaVajajaeaeakakalalaaaaajajajajaaaaaaaaaaaaakakaKaKaaaaaaaaaaaaaaaaaaaaaaaaaiaiavavavavavavakakavavavavayayafafaFaFaoaoararajajaiaiavavbsbsavavaFaFaFaFaMaMaiaiaiaiaoaoaiaialalalalalalalalaeaeaeaeaUaUalalaUaUaxaxadadacacadadbcbcacacaKaKafafavavaoaoaMaMbwbwbwbwauauaaaaaaaabdbdbdbdaIaIaaaaaFaFaeaeafafaLaLalalakakaqaqaiaiaaaaaaaaaaaaaaaaaaaaaaaaaLaLbmbmbmbmaaaaauaua*a*bubuaEaEahahbybyblbla*a*a*a*bububububububibia)a)bubuavavaaaabzbzbybyavavaaaaaaaaaaaaaaaaaaaaaaaaaaaaaaaaaaaaaaaaaaaaaaaaaaaaaaaaaaaaaaaaaaaaaaaaaaaaaaaaaaaaaaaaaaaaaaaaaaaaadadaaaaaxaxaVaVaaaaaaaaaeaeaKaKaoaoadadaMaMajajayayaFaFaFaFaKaKararajajaLaLadadajajaqaqaeaeaaaaaaaaaaaaaaaaaxaxararaaaaaaaaaaaaaaaaaaaaaaaaaaaaaaaaaaaaaaaa",
"aaaaaaaaaaaaaaaaaaaaaaaaaaaaaaaaaaaaaaaaaaaaaaaaaaaaaeaeaaaaaaaaaaaaaaaaadadaaaaaLaLajajalalavavaMaMaaaaaVaVajajaeaeakakalalaaaaajajajajaaaaaaaaaaaaakakaKaKaaaaaaaaaaaaaaaaaaaaaaaaaiaiavavavavavavakakavavavavayayafafaFaFaoaoararajajaiaiavavbsbsavavaFaFaFaFaMaMaiaiaiaiaoaoaiaialalalalalalalalaeaeaeaeaUaUalalaUaUaxaxadadacacadadbcbcacacaKaKafafavavaoaoaMaMbwbwbwbwauauaaaaaaaabdbdbdbdaIaIaaaaaFaFaeaeafafaLaLalalakakaqaqaiaiaaaaaaaaaaaaaaaaaaaaaaaaaLaLbmbmbmbmaaaaauaua*a*bubuaEaEahahbybyblbla*a*a*a*bububububububibia)a)bubuavavaaaabzbzbybyavavaaaaaaaaaaaaaaaaaaaaaaaaaaaaaaaaaaaaaaaaaaaaaaaaaaaaaaaaaaaaaaaaaaaaaaaaaaaaaaaaaaaaaaaaaaaaaaaaaaaaadadaaaaaxaxaVaVaaaaaaaaaeaeaKaKaoaoadadaMaMajajayayaFaFaFaFaKaKararajajaLaLadadajajaqaqaeaeaaaaaaaaaaaaaaaaaxaxararaaaaaaaaaaaaaaaaaaaaaaaaaaaaaaaaaaaaaaaa",
"aaaaaaaaaaaaaaaaaaaaaaaaaaaaaaaaaaaaaaaaaaaaaaaaaaaaaxaxaaaaaaaaaaaaaFaFaKaKaaaaalalakakaeaeakakaMaMaaaaaVaVakakalalajajayayaaaabcbcalalaaaaaaaaaaaaaaaaaeaeaaaaaaaaaaaaaaaaaaaaaaaaalalaMaMaFaFaqaqaFaFararaoaoaFaFaoaoaeaeaqaqajajaeaeavavaFaFavava1a1aMaMaxaxaKaKaxaxaxaxaKaKaxaxaKaKajajaVaVakakajajalalakakaLaLaDaDadadaxaxaxaxadadaUaUbcbcbcbcacacajajavavaFaFayayaeaebabaa3a3aKaKa3a3a3a3a7a7aaaaakakaFaFaUaUadadadadaxaxbabaaFaFaaaaaaaaaaaaaaaaaaaaaaaaaaaaaaaabcbcaxaxbababubububua(a(aEaEbybya*a*a*a*bFbFbFbFbububrbra)a)blblbibibababzbzbmbmaaaaaaaaaaaaaaaaaaaaaaaaaaaaaaaaaaaaaaaaaaaaaaaaaaaaaaaaaaaaaaaaaaaaaaaaaaaaaaaaaaaaaaaaaaaaaaaaaaaaaaaaaaaaaaaaaaaaaaaaaaaaaaaaaaaabmbmaFaFaaaaaKaKararaaaaakakadadaVaVaxaxaaaaaoaoaUaUaUaUaVaVaaaaaVaVafafaaaaaaaaaaaaaaaaaaaaaaaaaaaaaaaaaaaaaaaaaaaaaaaaaaaaaaaaaaaa",
"aaaaaaaaaaaaaaaaaaaaaaaaaaaaaaaaaaaaaaaaaaaaaaaaaaaaaxaxaaaaaaaaaaaaaFaFaKaKaaaaalalakakaeaeakakaMaMaaaaaVaVakakalalajajayayaaaabcbcalalaaaaaaaaaaaaaaaaaeaeaaaaaaaaaaaaaaaaaaaaaaaaalalaMaMaFaFaqaqaFaFararaoaoaFaFaoaoaeaeaqaqajajaeaeavavaFaFavava1a1aMaMaxaxaKaKaxaxaxaxaKaKaxaxaKaKajajaVaVakakajajalalakakaLaLaDaDadadaxaxaxaxadadaUaUbcbcbcbcacacajajavavaFaFayayaeaebabaa3a3aKaKa3a3a3a3a7a7aaaaakakaFaFaUaUadadadadaxaxbabaaFaFaaaaaaaaaaaaaaaaaaaaaaaaaaaaaaaabcbcaxaxbababubububua(a(aEaEbybya*a*a*a*bFbFbFbFbububrbra)a)blblbibibababzbzbmbmaaaaaaaaaaaaaaaaaaaaaaaaaaaaaaaaaaaaaaaaaaaaaaaaaaaaaaaaaaaaaaaaaaaaaaaaaaaaaaaaaaaaaaaaaaaaaaaaaaaaaaaaaaaaaaaaaaaaaaaaaaaaaaaaaaaabmbmaFaFaaaaaKaKararaaaaakakadadaVaVaxaxaaaaaoaoaUaUaUaUaVaVaaaaaVaVafafaaaaaaaaaaaaaaaaaaaaaaaaaaaaaaaaaaaaaaaaaaaaaaaaaaaaaaaaaaaa",
"aaaaaaaaaaaaaaaaaaaaaaaaaaaaaaaaaaaaaaaaaaaaaaaaaaaaakakaaaaaaaaaaaaaeaebcbcaaaaalalakakaeaeaoaoaFaFbabaayayaMaMaVaVajajayayaaaaaMaMalalaaaaaaaaaaaaaaaaaaaaaaaaaaaaaaaaaaaaaaaaaaaaavava1a1aMaMaMaMararaMaMaxaxaUaUbabaajajavavaaaaajajayaybabaavavavavafafaxaxaKaKaKaKaxaxaKaKaKaKaLaLajajakakalalalalakakaUaUaeaeadadbcbcaxaxaxaxaxaxadadaKaKacacaxaxakakaLaLavavaiaia7a7a3a3bdbdaAaAaIaIa$a$aaaaaiaiaiaibababmbmaxaxaxaxaxaxaiaiaiaiaaaaaaaaaaaaaaaaaaaaaaaaaaaaaaaaaaaaalalauaubibibubua*a*aEaEbzbzbxbxa0a0bFbFbCbCbububhbha)a)bububibibvbvbmbmaaaaaaaaaaaaaaaaaaaaaaaaaaaaaaaaaaaaaaaaaaaaavavaqaqaaaaaaaaaaaaaaaaaaaaaaaaaaaaaaaaaaaaaaaaaaaaaaaaaaaaaaaaaaaaaaaaaaaaaaaaaaaaaaaaaaaaadadaaaaaaaaaxaxaFaFaaaaaaaaaaaaajajaKaKaaaaaiaiaUaUaxaxaLaLaaaaafafajajaaaaaaaaaaaaaaaaaaaaaaaaaaaaaaaaaaaaaaaaaaaaaaaaaaaaaaaaaaaa",
"aaaaaaaaaaaaaaaaaaaaaaaaaaaaaaaaaaaaaaaaaaaaaaaaaaaaakakaaaaaaaaaaaaaeaebcbcaaaaalalakakaeaeaoaoaFaFbabaayayaMaMaVaVajajayayaaaaaMaMalalaaaaaaaaaaaaaaaaaaaaaaaaaaaaaaaaaaaaaaaaaaaaavava1a1aMaMaMaMararaMaMaxaxaUaUbabaajajavavaaaaajajayaybabaavavavavafafaxaxaKaKaKaKaxaxaKaKaKaKaLaLajajakakalalalalakakaUaUaeaeadadbcbcaxaxaxaxaxaxadadaKaKacacaxaxakakaLaLavavaiaia7a7a3a3bdbdaAaAaIaIa$a$aaaaaiaiaiaibababmbmaxaxaxaxaxaxaiaiaiaiaaaaaaaaaaaaaaaaaaaaaaaaaaaaaaaaaaaaalalauaubibibubua*a*aEaEbzbzbxbxa0a0bFbFbCbCbububhbha)a)bububibibvbvbmbmaaaaaaaaaaaaaaaaaaaaaaaaaaaaaaaaaaaaaaaaaaaaavavaqaqaaaaaaaaaaaaaaaaaaaaaaaaaaaaaaaaaaaaaaaaaaaaaaaaaaaaaaaaaaaaaaaaaaaaaaaaaaaaaaaaaaaaadadaaaaaaaaaxaxaFaFaaaaaaaaaaaaajajaKaKaaaaaiaiaUaUaxaxaLaLaaaaafafajajaaaaaaaaaaaaaaaaaaaaaaaaaaaaaaaaaaaaaaaaaaaaaaaaaaaaaaaaaaaa",
"aaaaaaaaaaaaaaaaaaaaaaaaaaaaaaaaaaaaaaaaaaaaaaaaaaaaaaaaaaaaaaaaaaaaaKaKaUaUaaaaaeaea6a6alalararaaaaafafaeaeaaaaayayajajakakaaaaaFaFalalaaaaaaaaaaaaaaaaaaaaaiaiaaaaaaaaaaaaaaaaaaaaalala1a1avavavavaaaaaxaxaxaxaxaxaoaoalalaFaFavavaaaaaFaFbababababgbga1a1aMaMaeaeaxaxaxaxaxaxaUaUajajakakajajaLaLaeaeakakaeaeaUaUaeaeaeaeaUaUadadajajaxaxbcbcaUaUaVaVbcbcbcbcalalakakajajaJaJa3a3aIaIa$a$aaaababaaMaMajajaxaxadadaxaxaxaxadadalalaoaoararaaaaaaaaaaaaaaaaaaaaaaaaaaaabmbma2a2bybyaoaoblblbububybyaEaEa*a*bFbFbFbFbCbCbhbhbhbhbvbvbvbvbibia(a(aFaFauauaaaaaaaaaaaaaaaaaaaaaaaaaaaaaaaaaaaaadadacacaFaFaaaaaaaaaaaaaaaaaaaaaaaaaaaaaaaaaaaaaaaaaaaaaaaaaaaaaaaaaaaaaaaaaaaaaaaaaaaaaaaaaaaaadadaaaaaaaaadadaFaFaaaaaaaaakakakakaxaxaaaaaoaoaKaKajajaoaoaaaaaaaaaaaaaaaaaaaaaaaaaaaaaaaaaaaaaaaaaaaaaaaaaaaaaaaaaaaaaaaaaaaaaaaa",
"aaaaaaaaaaaaaaaaaaaaaaaaaaaaaaaaaaaaaaaaaaaaaaaaaaaaaaaaaaaaaaaaaaaaaKaKaUaUaaaaaeaea6a6alalararaaaaafafaeaeaaaaayayajajakakaaaaaFaFalalaaaaaaaaaaaaaaaaaaaaaiaiaaaaaaaaaaaaaaaaaaaaalala1a1avavavavaaaaaxaxaxaxaxaxaoaoalalaFaFavavaaaaaFaFbababababgbga1a1aMaMaeaeaxaxaxaxaxaxaUaUajajakakajajaLaLaeaeakakaeaeaUaUaeaeaeaeaUaUadadajajaxaxbcbcaUaUaVaVbcbcbcbcalalakakajajaJaJa3a3aIaIa$a$aaaababaaMaMajajaxaxadadaxaxaxaxadadalalaoaoararaaaaaaaaaaaaaaaaaaaaaaaaaaaabmbma2a2bybyaoaoblblbububybyaEaEa*a*bFbFbFbFbCbCbhbhbhbhbvbvbvbvbibia(a(aFaFauauaaaaaaaaaaaaaaaaaaaaaaaaaaaaaaaaaaaaadadacacaFaFaaaaaaaaaaaaaaaaaaaaaaaaaaaaaaaaaaaaaaaaaaaaaaaaaaaaaaaaaaaaaaaaaaaaaaaaaaaaaaaaaaaaadadaaaaaaaaadadaFaFaaaaaaaaakakakakaxaxaaaaaoaoaKaKajajaoaoaaaaaaaaaaaaaaaaaaaaaaaaaaaaaaaaaaaaaaaaaaaaaaaaaaaaaaaaaaaaaaaaaaaaaaaa",
"aaaaaaaaaaaaaaaaaaaaaaaaaaaaaaaaaaaaaaaaaaaaaaaaaaaaaaaaaaaaaaaaaaaaaxaxaaaaaaaaalalaaaaafafalalaaaaaMaMaeaeaaaaaeaeaaaaaaaaalalafafalalaaaaaaaaaaaaaaaaaaaaaeaeaaaaaaaaaaaaaaaaaaaaavavaiaiavavaaaaaiaiaLaLalalaMaMajajararbabaafafaLaLbabaarara1a1bsbsavavaFaFaVaVaLaLaLaLaLaLaLaLakakakakakakajajajajakakajajajajajajajajaLaLadadaKaKadadaUaUalalbcbcaKaKakakbcbcaLaLakakafafafafa7a7aaaaaaaababaaMaMavavadadaxaxaxaxaxaxadadalalaoaoaoaoaaaaaaaaaaaaaaaaaaaaaaaaaaaabmbmbmbmavavaaaaavavbvbvbubua(a(a*a*bCbCbFbFa*a*bhbha)a)bzbzavava1a1bmbmbmbmauauaaaaaaaaaaaaaaaaaaaaaaaaaaaaaaaaaaaaaLaLaaaaaaaaaaaaaaaaaaaaaaaaaaaaaaaaaaaaaaaaaaaaaaaaaaaaaaaaaaaaaaaaaaaaaaaaaaaaaaaaaaaaaaaaaaaaaaaaaaaaaaaaaFaFaaaaaaaaaaaaadadaFaFararaaaaaFaFaxaxaaaaaaaaaaaaaaaaaaaaaaaaaaaaaaaaaaaaaaaaaaaaaaaaaaaaaaaaaaaaaaaaaaaaaaaaaaaaaaaa",
"aaaaaaaaaaaaaaaaaaaaaaaaaaaaaaaaaaaaaaaaaaaaaaaaaaaaaaaaaaaaaaaaaaaaaxaxaaaaaaaaalalaaaaafafalalaaaaaMaMaeaeaaaaaeaeaaaaaaaaalalafafalalaaaaaaaaaaaaaaaaaaaaaeaeaaaaaaaaaaaaaaaaaaaaavavaiaiavavaaaaaiaiaLaLalalaMaMajajararbabaafafaLaLbabaarara1a1bsbsavavaFaFaVaVaLaLaLaLaLaLaLaLakakakakakakajajajajakakajajajajajajajajaLaLadadaKaKadadaUaUalalbcbcaKaKakakbcbcaLaLakakafafafafa7a7aaaaaaaababaaMaMavavadadaxaxaxaxaxaxadadalalaoaoaoaoaaaaaaaaaaaaaaaaaaaaaaaaaaaabmbmbmbmavavaaaaavavbvbvbubua(a(a*a*bCbCbFbFa*a*bhbha)a)bzbzavava1a1bmbmbmbmauauaaaaaaaaaaaaaaaaaaaaaaaaaaaaaaaaaaaaaLaLaaaaaaaaaaaaaaaaaaaaaaaaaaaaaaaaaaaaaaaaaaaaaaaaaaaaaaaaaaaaaaaaaaaaaaaaaaaaaaaaaaaaaaaaaaaaaaaaaaaaaaaaaFaFaaaaaaaaaaaaadadaFaFararaaaaaFaFaxaxaaaaaaaaaaaaaaaaaaaaaaaaaaaaaaaaaaaaaaaaaaaaaaaaaaaaaaaaaaaaaaaaaaaaaaaaaaaaaaaa",
"aaaaaaaaaaaaaaaaaaaaaaaaaaaaaaaaaaaaaaaaaaaaaaaaaaaaaaaaaaaaaaaaaaaaalalaaaaaaaaaeaeaDaDaaaaaaaaaaaaaFaFayayaaaaaLaLaaaaajajaxaxaFaFakakaaaaaaaaaaaaaaaaaaaaaaaaaaaaaaaaaaaaaaaaaaaaaiaiaFaFafafaoaoaLaLakakaLaLbabaajajbabaafafaFaFaiaiayaybabaaaaaauauauauaDaDaLaLakakakakakakakakayayaVaVakakajajakakajajakakakakakakajajajajaKaKadadararajajaKaKaLaLaKaKaxaxakakbcbcalalakakaiaiaaaaaaaaaaaaaFaFaMaMaqaqafafaFaFakakaxaxaxaxafafafafararaaaaaaaaaaaaaaaaaaaaaaaaaaaaaaaaaqaqaaaaaaaaaaaaavavbybya*a*aXaXa*a*bFbFbubua)a)bvbvavavaaaaaaaababaafafaaaaaaaaaaaaaaaaaaaaaaaaaaaaaaaaaaaaaaaaaaaaaaaaaaaaaaaaaaaaaaaaaaaaaaaaaaaaaaaaaaaaaaaaaaaaaaaaaaaaaaaaaaaaaaaaaaaaaaaaaaaaaxaxaaaaaaaaaaaaaaaaaaaaaaaaaaaaaaaaaaaaajajaaaaaaaaaaaaaaaaaaaaaaaaaaaaaaaaaaaaaaaaaaaaaaaaaaaaaaaaaaaaaaaaaaaaaaaaaaaaaaaaaaaaaaaaaaaaaaaaaaaa",
"aaaaaaaaaaaaaaaaaaaaaaaaaaaaaaaaaaaaaaaaaaaaaaaaaaaaaaaaaaaaaaaaaaaaalalaaaaaaaaaeaeaDaDaaaaaaaaaaaaaFaFayayaaaaaLaLaaaaajajaxaxaFaFakakaaaaaaaaaaaaaaaaaaaaaaaaaaaaaaaaaaaaaaaaaaaaaiaiaFaFafafaoaoaLaLakakaLaLbabaajajbabaafafaFaFaiaiayaybabaaaaaauauauauaDaDaLaLakakakakakakakakayayaVaVakakajajakakajajakakakakakakajajajajaKaKadadararajajaKaKaLaLaKaKaxaxakakbcbcalalakakaiaiaaaaaaaaaaaaaFaFaMaMaqaqafafaFaFakakaxaxaxaxafafafafararaaaaaaaaaaaaaaaaaaaaaaaaaaaaaaaaaqaqaaaaaaaaaaaaavavbybya*a*aXaXa*a*bFbFbubua)a)bvbvavavaaaaaaaababaafafaaaaaaaaaaaaaaaaaaaaaaaaaaaaaaaaaaaaaaaaaaaaaaaaaaaaaaaaaaaaaaaaaaaaaaaaaaaaaaaaaaaaaaaaaaaaaaaaaaaaaaaaaaaaaaaaaaaaaaaaaaaaaxaxaaaaaaaaaaaaaaaaaaaaaaaaaaaaaaaaaaaaajajaaaaaaaaaaaaaaaaaaaaaaaaaaaaaaaaaaaaaaaaaaaaaaaaaaaaaaaaaaaaaaaaaaaaaaaaaaaaaaaaaaaaaaaaaaaaaaaaaaaa",
"aaaaaaaaaaaaaaaaaaaaaaaaaaaaaaaaaaaaaaaaaaaaaaaaaaaaaaaaaaaaaaaaaaaaaaaaaaaaaaaaajajaaaaaaaaaaaaaaaaaaaaaaaaaaaaaaaaaaaaaaaaaaaaaaaaaaaaafafaLaLaaaaaaaaaaaaaaaaaaaaaaaaa1a1avavavavaoaobabaaqaqalalayayalalakakaFaFafafararaoaoaqaqaaaaaFaFavavaaaaafafauaubabaajajakakayayayayayayayayakakayayakakajajakakajajajajakakajajajajalalaeaeaUaUalalbabaaiaiaxaxbcbcaxaxalalbcbcakakaoaoaoaoaaaaaaaaaeaeaaaaavavbmbmbwbwavavalalavavbabababaafafaaaaaaaaaaaaaaaaaaaaaaaaaaaaaaaaaaaaaaaaaaaaaaaaaaaaavavbvbva*a*a*a*bububhbhbvbvavavaaaaaaaaaaaaaaaaaaaaaaaaaaaaaaaaaaaaaaaaaaaaaaaaaaaaaaaaaaaaaaaaaaaaaaaaaaaaadadajajaaaaaaaaaaaaaaaaayayaUaUaaaaaaaaaaaaaaaaaaaaaaaaaaaaaaaaaaaaadadaaaaaaaaaaaaaaaaaaaaaaaaaaaaaaaaaaaaajajaaaaaaaaaaaaaaaaaaaaaaaaaaaaaaaaaaaaaaaaaaaaaaaaaaaaaaaaaaaaaaaaaaaaaaaaaaaaaaaaaaaaaaaaaaaaaaaaaaaa",
"aaaaaaaaaaaaaaaaaaaaaaaaaaaaaaaaaaaaaaaaaaaaaaaaaaaaaaaaaaaaaaaaaaaaaaaaaaaaaaaaajajaaaaaaaaaaaaaaaaaaaaaaaaaaaaaaaaaaaaaaaaaaaaaaaaaaaaafafaLaLaaaaaaaaaaaaaaaaaaaaaaaaa1a1avavavavaoaobabaaqaqalalayayalalakakaFaFafafararaoaoaqaqaaaaaFaFavavaaaaafafauaubabaajajakakayayayayayayayayakakayayakakajajakakajajajajakakajajajajalalaeaeaUaUalalbabaaiaiaxaxbcbcaxaxalalbcbcakakaoaoaoaoaaaaaaaaaeaeaaaaavavbmbmbwbwavavalalavavbabababaafafaaaaaaaaaaaaaaaaaaaaaaaaaaaaaaaaaaaaaaaaaaaaaaaaaaaaavavbvbva*a*a*a*bububhbhbvbvavavaaaaaaaaaaaaaaaaaaaaaaaaaaaaaaaaaaaaaaaaaaaaaaaaaaaaaaaaaaaaaaaaaaaaaaaaaaaaadadajajaaaaaaaaaaaaaaaaayayaUaUaaaaaaaaaaaaaaaaaaaaaaaaaaaaaaaaaaaaadadaaaaaaaaaaaaaaaaaaaaaaaaaaaaaaaaaaaaajajaaaaaaaaaaaaaaaaaaaaaaaaaaaaaaaaaaaaaaaaaaaaaaaaaaaaaaaaaaaaaaaaaaaaaaaaaaaaaaaaaaaaaaaaaaaaaaaaaaaa",
"aaaaaaaaaaaaaaaaaaaaaaaaaaaaaaaaaaaaaaaaaaaaaaaaaaaaaaaaaaaaaaaaaaaaaaaaaaaaaaaaaaaaaaaaaaaaaaaaaaaaaaaaaaaaaaaaaaaaaaaaaaaaaaaaaaaaaaaaadada#a#aaaaaaaaaaaaaaaaaaaaa1a1aSaSauauavavaMaMaDaDajajafafararaFaFbabaajajaDaDaFaFararavavauauavava2a2babaararbmbmaFaFavavaLaLakakayayaVaVayayayayakakakakakakavavakakajajakakajajakakajajaUaUacacaKaKalalaiaiaaaaaaaaaUaUaFaFalalaUaUafafajajajajaaaaaoaoaFaFavavaTaTauauaTaTarara1a1avavauauauauaaaaaaaaaaaaaaaaaaaaaaaaaaaaaaaaaaaaaaaaaaaaaaaaaaaaaaaaavavbubua)a)aTaTa)a)avavaaaaaaaaaaaaaaaaaaaaaaaaaaaaaaaaaaaaaaaaaaaaaaaaaaaaaaaaaaaaaaaaaaaaaaaaaaaaaaaaajaja6a6aaaaaaaaaaaaaaaaaaaaafafararaaaaaaaaaaaaaaaaaaaaaaaaaaaaaaaaajajaaaaaaaaaaaaaaaaaaaaaaaaaaaaaaaaaaaaaaaaaaaaaaaaaaaaaaaaaaaaaaaaaaaaaaaaaaaaaaaaaaaaaaaaaaaaaaaaaaaaaaaaaaaaaaaaaaaaaaaaaaaaaaaaaaaaaaaaaaaa",
"aaaaaaaaaaaaaaaaaaaaaaaaaaaaaaaaaaaaaaaaaaaaaaaaaaaaaaaaaaaaaaaaaaaaaaaaaaaaaaaaaaaaaaaaaaaaaaaaaaaaaaaaaaaaaaaaaaaaaaaaaaaaaaaaaaaaaaaaadada#a#aaaaaaaaaaaaaaaaaaaaa1a1aSaSauauavavaMaMaDaDajajafafararaFaFbabaajajaDaDaFaFararavavauauavava2a2babaararbmbmaFaFavavaLaLakakayayaVaVayayayayakakakakakakavavakakajajakakajajakakajajaUaUacacaKaKalalaiaiaaaaaaaaaUaUaFaFalalaUaUafafajajajajaaaaaoaoaFaFavavaTaTauauaTaTarara1a1avavauauauauaaaaaaaaaaaaaaaaaaaaaaaaaaaaaaaaaaaaaaaaaaaaaaaaaaaaaaaaavavbubua)a)aTaTa)a)avavaaaaaaaaaaaaaaaaaaaaaaaaaaaaaaaaaaaaaaaaaaaaaaaaaaaaaaaaaaaaaaaaaaaaaaaaaaaaaaaaajaja6a6aaaaaaaaaaaaaaaaaaaaafafararaaaaaaaaaaaaaaaaaaaaaaaaaaaaaaaaajajaaaaaaaaaaaaaaaaaaaaaaaaaaaaaaaaaaaaaaaaaaaaaaaaaaaaaaaaaaaaaaaaaaaaaaaaaaaaaaaaaaaaaaaaaaaaaaaaaaaaaaaaaaaaaaaaaaaaaaaaaaaaaaaaaaaaaaaaaaaa",
"aaaaaaaaaaaaaaaaaaaaaaaaaaaaaaaaaaaaaaaaaaaaaaaaaaaaaaaaaaaaaaaaaaaaaaaaaaaaaaaaaaaaaaaaaaaaaaaaaaaaaaaaaaaaaaaaaaaaaaaaaaaaaaaaaaaaaaaaaaaaaFaFaaaaaaaaaaaaaaaaaaaaaSaSaPaPaPaPaTaTbabababaakakajajaMaMaMaMaFaFbabaaaaaaqaqa1a1auaubsbsbsbsavava1a1babaavavaTaTafafakakajajakakakakajajajajakakaiaia1a1a1a1a1a1a1a1a1a1a1a1a1a1a1a1aMaMa1a1aaaaaiaia1a1a1a1a1a1aaaaa1a1a1a1a1a1a1a1a1a1aFaFaaaaa1a1aDaDaaaaa1a1a1a1avavauaubsbsbsbsbgbgbgbgaoaoaaaaaaaaaaaaaaaaaaaaaaaaaaaaaaaaaaaaaaaaaaaaaaaaaaaaavava(a(a*a*bvbvbmbma1a1aaaaaaaaaaaaaaaaaaaaaaaaaaaaaaaaaaaaaaaaaaaaaaaaaaaaaaaaaaaaaaaaaaaaaaaaaaaaaaaaaaaaaaaaaaaaaaaaaaaaaaaaaaaaaaaaaaaaaaaaaaaaaaaaaaaaaaaaaaaaaaaaaVaVaaaaaaaaaaaaaaaaaaaaaaaaaaaaaaaaaaaaaaaaaaaaaaaaaaaaaaaaaaaaaaaaaaaaaaaaaaaaaaaaaaaaaaaaaaaaaaaaaaaaaaaaaaaaaaaaaaaaaaaaaaaaaaaaaaaaaaaaaaaaaaaa",
"aaaaaaaaaaaaaaaaaaaaaaaaaaaaaaaaaaaaaaaaaaaaaaaaaaaaaaaaaaaaaaaaaaaaaaaaaaaaaaaaaaaaaaaaaaaaaaaaaaaaaaaaaaaaaaaaaaaaaaaaaaaaaaaaaaaaaaaaaaaaaFaFaaaaaaaaaaaaaaaaaaaaaSaSaPaPaPaPaTaTbabababaakakajajaMaMaMaMaFaFbabaaaaaaqaqa1a1auaubsbsbsbsavava1a1babaavavaTaTafafakakajajakakakakajajajajakakaiaia1a1a1a1a1a1a1a1a1a1a1a1a1a1a1a1aMaMa1a1aaaaaiaia1a1a1a1a1a1aaaaa1a1a1a1a1a1a1a1a1a1aFaFaaaaa1a1aDaDaaaaa1a1a1a1avavauaubsbsbsbsbgbgbgbgaoaoaaaaaaaaaaaaaaaaaaaaaaaaaaaaaaaaaaaaaaaaaaaaaaaaaaaaavava(a(a*a*bvbvbmbma1a1aaaaaaaaaaaaaaaaaaaaaaaaaaaaaaaaaaaaaaaaaaaaaaaaaaaaaaaaaaaaaaaaaaaaaaaaaaaaaaaaaaaaaaaaaaaaaaaaaaaaaaaaaaaaaaaaaaaaaaaaaaaaaaaaaaaaaaaaaaaaaaaaaVaVaaaaaaaaaaaaaaaaaaaaaaaaaaaaaaaaaaaaaaaaaaaaaaaaaaaaaaaaaaaaaaaaaaaaaaaaaaaaaaaaaaaaaaaaaaaaaaaaaaaaaaaaaaaaaaaaaaaaaaaaaaaaaaaaaaaaaaaaaaaaaaaa",
"aaaaaaaaaaaaaaaaaaaaaaaaaaaaaaaaaaaaaaaaaaaaaaaaaaaaaaaaaaaaaaaaaaaaaaaaaaaaaaaaaaaaaaaaaaaaaaaaaaaaaaaaaaaaaaaaaaaaaaaaaaaaaaaaaaaaaaaaaaaaaaaaaaaaaaaaaaaaaaaaa2a2aSaSaQaQa^a^aTaTaiaiafafaMaMafafajajajajafafaMaMafafa1a1a1a1aTaTaTaTaTaTaTaTavavaaaaaTaTaQaQa1a1aaaaaqaqbabaa1a1aFaFa1a1aFaFaTaTbibiaPaPaPaPaPaPaPaPaPaPaPaPaPaPaPaPbsbsbsbsbsbsbsbsbsbsbsbsbsbsbsbsbsbsbsbsbsbsbsbsauauavavauauavavaoaoavava1a1a2a2aTaTaTaTavavauauauauaTaTaaaaaaaaaaaaaaaaaaaaaaaaaaaaaaaaaaaaaaaaaaaaaaaaaaaaaaaabibibvbvbubuauauaaaaaaaaaaaaaaaaaaaaaaaaaaaaaaaaaaaaaaaaaaaaaaaaaaaaaaaaaaaaaaaaaaaaaaaaaaaaaaaaaaaaaaaaaaaaaaaaaaaaaaaaaaaaaaaaaaaaaaaaaaaaaUaUbcbcaaaaaaaaaaaaaaaaaVaVaaaaaaaaaaaaaaaaaaaaaaaaaaaaaaaaaaaaaaaaaaaaaaaaaaaaaaaaaaaaaaaaaaaaaaaaaaaaaaaaaaaaaaaaaaaaaaaaaaaaaaaaaaaaaaaaaaaaaaaaaaaaaaaaaaaaaaaaaaaaaaaa",
"aaaaaaaaaaaaaaaaaaaaaaaaaaaaaaaaaaaaaaaaaaaaaaaaaaaaaaaaaaaaaaaaaaaaaaaaaaaaaaaaaaaaaaaaaaaaaaaaaaaaaaaaaaaaaaaaaaaaaaaaaaaaaaaaaaaaaaaaaaaaaaaaaaaaaaaaaaaaaaaaa2a2aSaSaQaQa^a^aTaTaiaiafafaMaMafafajajajajafafaMaMafafa1a1a1a1aTaTaTaTaTaTaTaTavavaaaaaTaTaQaQa1a1aaaaaqaqbabaa1a1aFaFa1a1aFaFaTaTbibiaPaPaPaPaPaPaPaPaPaPaPaPaPaPaPaPbsbsbsbsbsbsbsbsbsbsbsbsbsbsbsbsbsbsbsbsbsbsbsbsauauavavauauavavaoaoavava1a1a2a2aTaTaTaTavavauauauauaTaTaaaaaaaaaaaaaaaaaaaaaaaaaaaaaaaaaaaaaaaaaaaaaaaaaaaaaaaabibibvbvbubuauauaaaaaaaaaaaaaaaaaaaaaaaaaaaaaaaaaaaaaaaaaaaaaaaaaaaaaaaaaaaaaaaaaaaaaaaaaaaaaaaaaaaaaaaaaaaaaaaaaaaaaaaaaaaaaaaaaaaaaaaaaaaaaUaUbcbcaaaaaaaaaaaaaaaaaVaVaaaaaaaaaaaaaaaaaaaaaaaaaaaaaaaaaaaaaaaaaaaaaaaaaaaaaaaaaaaaaaaaaaaaaaaaaaaaaaaaaaaaaaaaaaaaaaaaaaaaaaaaaaaaaaaaaaaaaaaaaaaaaaaaaaaaaaaaaaaaaaaa",
"aaaaaaaaaaaaaaaaaaaaaaaaaaaaaaaaaaaaaaaaaaaaaaaaaaaaaaaaaaaaaaaaaaaaaaaaaaaaaaaaaaaaaaaaaaaaaaaaaaaaaaaaaaaaaaaaaaaaaaaaaaaaaaaaaaaaaaaaaaaaaaaaaaaaaaaaaaaaaaaaa2a2aSaSaQaQa^a^aTaTbsbsbtbta&a&bsbsa&a&a&a&a&a&bsbsbsbsaSaSavava2a2a1a1a1a1a1a1a1a1a1a1aSaSaRaRaTaTa1a1a1a1aQaQbqbqbqbqaRaRaPaPaQaQaNaNaRaRaOaOaNaNaPaPaNaNaNaNaNaNaNaNaRaRbsbsaRaRaRaRbsbsbsbsbsbsbsbsbsbsbsbsbsbsbsbsbsbsbEbEbvbvbibiauaubbbbavavavavaFaFa1a1aTaTa1a1a1a1aMaMaaaaaaaaaaaaaaaaaaaaaaaaaaaaaaaaaaaaaaaaaaaaaaaaaaaaaaaaaTaTbibiaTaTa1a1aaaaaaaaaaaaaaaaaaaaaaaaaaaaaaaaaaaaaaaaaaaaaaaaaaaaaaaaaaaaaaaaaaaaaaaaaaaaaaaaaaaaaaaaaaaaaaaaaaaaaaaaaaaaaaaaaaaaaaaaaaaaagagayayaaaaaaaaaaaaaaaaaxaxaDaDaaaaaaaaaaaaaaaaaaaaaaaaaaaaaaaaaaaaaaaaaaaaaaaaaaaaaaaaaaaaaaaaaaaaaaaaaaaaaaaaaaaaaaaaaaaaaaaaaaaaaaaaaaaaaaaaaaaaaaaaaaaaaaaaaaaaaaaaaaaa",
"aaaaaaaaaaaaaaaaaaaaaaaaaaaaaaaaaaaaaaaaaaaaaaaaaaaaaaaaaaaaaaaaaaaaaaaaaaaaaaaaaaaaaaaaaaaaaaaaaaaaaaaaaaaaaaaaaaaaaaaaaaaaaaaaaaaaaaaaaaaaaaaaaaaaaaaaaaaaaaaaa2a2aSaSaQaQa^a^aTaTbsbsbtbta&a&bsbsa&a&a&a&a&a&bsbsbsbsaSaSavava2a2a1a1a1a1a1a1a1a1a1a1aSaSaRaRaTaTa1a1a1a1aQaQbqbqbqbqaRaRaPaPaQaQaNaNaRaRaOaOaNaNaPaPaNaNaNaNaNaNaNaNaRaRbsbsaRaRaRaRbsbsbsbsbsbsbsbsbsbsbsbsbsbsbsbsbsbsbEbEbvbvbibiauaubbbbavavavavaFaFa1a1aTaTa1a1a1a1aMaMaaaaaaaaaaaaaaaaaaaaaaaaaaaaaaaaaaaaaaaaaaaaaaaaaaaaaaaaaTaTbibiaTaTa1a1aaaaaaaaaaaaaaaaaaaaaaaaaaaaaaaaaaaaaaaaaaaaaaaaaaaaaaaaaaaaaaaaaaaaaaaaaaaaaaaaaaaaaaaaaaaaaaaaaaaaaaaaaaaaaaaaaaaaaaaaaaaaagagayayaaaaaaaaaaaaaaaaaxaxaDaDaaaaaaaaaaaaaaaaaaaaaaaaaaaaaaaaaaaaaaaaaaaaaaaaaaaaaaaaaaaaaaaaaaaaaaaaaaaaaaaaaaaaaaaaaaaaaaaaaaaaaaaaaaaaaaaaaaaaaaaaaaaaaaaaaaaaaaaaaaaa",
"aaaaaaaaaaaaaaaaaaaaaaaaaaaaaaaaaaaaaaaaaaaaaaaaaaaaaaaaaaaaaaaaaaaaaaaaaaaaaaaaaaaaaaaaaaaaaaaaaaaaaaaaaaaaaaaaaaaaaaaaaaaaaaaaaaaaaaaaaaaaaaaaaaaaaaaaaaaaaaaaa2a2aSaSaSaSaTaTaTaTaSaSaTaTaTaTaTaTaPaPaNaNaNaNaPaPaPaPaPaPbsbsaQaQaSaSaSaSbibiaTaTaTaTbsbsbsbsbsbsauaubibiaTaTaTaTaPaPaNaNaPaPaPaPaPaPaNaNaNaNaNaNa&a&aNaNaNaNaNaNaNaNaNaNaNaNaNaNaNaNaPaPaNaNaNaNaNaNaNaNaNaNaNaNaNaNaNaNaRaRaRaRbDbDaRaRaPaPbsbsbsbsbibiavava1a1a2a2avavaTaTaaaaaaaaaaaaaaaaaaaaaaaaaaaaaaaaaaaaaaaaaaaaaaaaaaaaaaaabibibvbva)a)a1a1aaaaaaaaaaaaaaaaaaaaaaaaaaaaaaaaaaaaaaaaaaaaaaaaaaaaaaaaaaaaaaaaaaaaaaaaaaaaaaaaaaaaaaaaaaaaaaaaaaaaaaaaaaaaaaaaaaaaaaaaaaaaaiaiaaaaaaaaaaaaaaaaaaaaafafaaaaaaaaaaaaaaaaaaaaaaaaaaaaaaaaaaaaaaaaaaaaaaaaaaaaaaaaaaaaaaaaaaaaaaaaaaaaaaaaaaaaaaaaaaaaaaaaaaaaaaaaaaaaaaaaaaaaaaaaaaaaaaaaaaaaaaaaaaaaaaaa",
"aaaaaaaaaaaaaaaaaaaaaaaaaaaaaaaaaaaaaaaaaaaaaaaaaaaaaaaaaaaaaaaaaaaaaaaaaaaaaaaaaaaaaaaaaaaaaaaaaaaaaaaaaaaaaaaaaaaaaaaaaaaaaaaaaaaaaaaaaaaaaaaaaaaaaaaaaaaaaaaaa2a2aSaSaSaSaTaTaTaTaSaSaTaTaTaTaTaTaPaPaNaNaNaNaPaPaPaPaPaPbsbsaQaQaSaSaSaSbibiaTaTaTaTbsbsbsbsbsbsauaubibiaTaTaTaTaPaPaNaNaPaPaPaPaPaPaNaNaNaNaNaNa&a&aNaNaNaNaNaNaNaNaNaNaNaNaNaNaNaNaPaPaNaNaNaNaNaNaNaNaNaNaNaNaNaNaNaNaRaRaRaRbDbDaRaRaPaPbsbsbsbsbibiavava1a1a2a2avavaTaTaaaaaaaaaaaaaaaaaaaaaaaaaaaaaaaaaaaaaaaaaaaaaaaaaaaaaaaabibibvbva)a)a1a1aaaaaaaaaaaaaaaaaaaaaaaaaaaaaaaaaaaaaaaaaaaaaaaaaaaaaaaaaaaaaaaaaaaaaaaaaaaaaaaaaaaaaaaaaaaaaaaaaaaaaaaaaaaaaaaaaaaaaaaaaaaaaiaiaaaaaaaaaaaaaaaaaaaaafafaaaaaaaaaaaaaaaaaaaaaaaaaaaaaaaaaaaaaaaaaaaaaaaaaaaaaaaaaaaaaaaaaaaaaaaaaaaaaaaaaaaaaaaaaaaaaaaaaaaaaaaaaaaaaaaaaaaaaaaaaaaaaaaaaaaaaaaaaaaaaaaa",
"aaaaaaaaaaaaaaaaaaaaaaaaaaaaaaaaaaaaaaaaaaaaaaaaaaaaaaaaaaaaaaaaaaaaaaaaaaaaaaaaaaaaaaaaaaaaaaaaaaaaaFaFacacaLaLaaaaaaaaaaaaaaaaaaaaaaaaaaaaaaaaaaaaaaaaaaaaaaaaa1a1aSaSaSaSaTaTa1a1aTaTauauauaubsbsaQaQaQaQaQaQaQaQaPaPaPaPaSaSaSaSaSaSbibiauaua1a1aSaSbibibsbsbsbsbsbsbsbsbsbsbibiaTaTa9a9aQaQaNaNaRaRaPaPaPaPaPaPaSaSbsbsbsbsaRaRaNaNaNaNaNaNaNaNaNaNaNaNaNaNaNaNaNaNaNaNaNaNaNaNaNaNaNaNaNaNaNaNaNaNaNaNaRaRaPaPaRaRbsbsbsbsbwbwauaua9a9aTaTaaaaaaaaaaaaaaaaaaaaaaaaaaaaaaaaaaaaaaaaaaaaaaaaaaaaafafa(a(a*a*bvbvavavaaaaaaaaaaaaaaaaaaaaaaaaaaaaaaaaaaaaaaaaaaaaaaaaaaaaaaaaaaaaaaaaaUaUaUaUaaaaaaaaaaaaaaaaaaaaaaaaaaaaaaaaaaaaaaaaaaaaaaaaaaaaaaaaaaaaaaaaaaaaaaaaaaaaaaaaaaaaaoaoaxaxaeaeaaaaaaaaaaaaaaaaaaaaaaaaaaaaaaaaaaaaaaaaaaaaaaaaaaaaaaaaaaaaaaaaaaaaaaaaaaaaaaaaaaaaaaaaaaaaaaaaaaaaaaaaaaaaaaaaaaaaaaaaaaaaaaaa",
"aaaaaaaaaaaaaaaaaaaaaaaaaaaaaaaaaaaaaaaaaaaaaaaaaaaaaaaaaaaaaaaaaaaaaaaaaaaaaaaaaaaaaaaaaaaaaaaaaaaaaFaFacacaLaLaaaaaaaaaaaaaaaaaaaaaaaaaaaaaaaaaaaaaaaaaaaaaaaaa1a1aSaSaSaSaTaTa1a1aTaTauauauaubsbsaQaQaQaQaQaQaQaQaPaPaPaPaSaSaSaSaSaSbibiauaua1a1aSaSbibibsbsbsbsbsbsbsbsbsbsbibiaTaTa9a9aQaQaNaNaRaRaPaPaPaPaPaPaSaSbsbsbsbsaRaRaNaNaNaNaNaNaNaNaNaNaNaNaNaNaNaNaNaNaNaNaNaNaNaNaNaNaNaNaNaNaNaNaNaNaNaNaRaRaPaPaRaRbsbsbsbsbwbwauaua9a9aTaTaaaaaaaaaaaaaaaaaaaaaaaaaaaaaaaaaaaaaaaaaaaaaaaaaaaaafafa(a(a*a*bvbvavavaaaaaaaaaaaaaaaaaaaaaaaaaaaaaaaaaaaaaaaaaaaaaaaaaaaaaaaaaaaaaaaaaUaUaUaUaaaaaaaaaaaaaaaaaaaaaaaaaaaaaaaaaaaaaaaaaaaaaaaaaaaaaaaaaaaaaaaaaaaaaaaaaaaaaaaaaaaaaoaoaxaxaeaeaaaaaaaaaaaaaaaaaaaaaaaaaaaaaaaaaaaaaaaaaaaaaaaaaaaaaaaaaaaaaaaaaaaaaaaaaaaaaaaaaaaaaaaaaaaaaaaaaaaaaaaaaaaaaaaaaaaaaaaaaaaaaaaa",
"aaaaaaaaaaaaaaaaaaaaaaaaaaaaaaaaaaaaaaaaaaaaaaaaaaaaaaaaaaaaaaaaaaaaaaaaaaaaaaaaaaaaaaaaaaaaaaaaaaaaaaaaakakaGaGaFaFaaaaaaaaaaaaaaaaaaaaaaaaaaaaaaaaaaaaaaaaaaaaaiaiaSaSaTaTa1a1a1a1aSaSa1a1a1a1a1a1aTaTa^a^aSaSaSaSaQaQaSaSaSaSaQaQaSaSaSaSa1a1aTaTaTaTaSaSa^a^a^a^aTaTaPaPbsbsbsbsbDbDbibiavavavava&a&bsbsaNaNaNaNaQaQaTaTaSaSbsbsa&a&aRaRaPaPaNaNaNaNaNaNaNaNaNaNaNaNaNaNaNaNaNaNaNaNaNaNaNaNaNaNaNaNaNaNaPaPaPaPaPaPbsbsbsbsbsbsbEbEavava1a1aaaaaaaaaaaaaaaaaaaaaaaaaaaaaaaaaaaaaaaaaaaaaaaaaFaFbzbza(a(aXaXa*a*a*a*avavaaaaaaaaaaaaaaaaaaaaaaaaaaaaaaaaaaaaaaaaaaaaaaaaaaaaaaaaaaaaavavaeaeaMaMaaaaaaaaaaaaaaaaaaaaaaaaaaaaaaaaaaaaaaaaaaaaaaaaaaaaaaaaaaaaaaaaaaaaaaaaaaaaaaaaararaeaeaaaaaaaaaaaaaaaaaaaaaaaaaaaaaaaaaaaaaaaaaaaaaaaaaaaaaaaaaaaaaaaaaaaaaaaaaaaaaaaaaaaaaaaaaaaaaaaaaaaaaaaaaaaaaaaaaaaaaaaaaaaaaaaaaaaa",
"aaaaaaaaaaaaaaaaaaaaaaaaaaaaaaaaaaaaaaaaaaaaaaaaaaaaaaaaaaaaaaaaaaaaaaaaaaaaaaaaaaaaaaaaaaaaaaaaaaaaaaaaakakaGaGaFaFaaaaaaaaaaaaaaaaaaaaaaaaaaaaaaaaaaaaaaaaaaaaaiaiaSaSaTaTa1a1a1a1aSaSa1a1a1a1a1a1aTaTa^a^aSaSaSaSaQaQaSaSaSaSaQaQaSaSaSaSa1a1aTaTaTaTaSaSa^a^a^a^aTaTaPaPbsbsbsbsbDbDbibiavavavava&a&bsbsaNaNaNaNaQaQaTaTaSaSbsbsa&a&aRaRaPaPaNaNaNaNaNaNaNaNaNaNaNaNaNaNaNaNaNaNaNaNaNaNaNaNaNaNaNaNaNaNaPaPaPaPaPaPbsbsbsbsbsbsbEbEavava1a1aaaaaaaaaaaaaaaaaaaaaaaaaaaaaaaaaaaaaaaaaaaaaaaaaFaFbzbza(a(aXaXa*a*a*a*avavaaaaaaaaaaaaaaaaaaaaaaaaaaaaaaaaaaaaaaaaaaaaaaaaaaaaaaaaaaaaavavaeaeaMaMaaaaaaaaaaaaaaaaaaaaaaaaaaaaaaaaaaaaaaaaaaaaaaaaaaaaaaaaaaaaaaaaaaaaaaaaaaaaaaaaararaeaeaaaaaaaaaaaaaaaaaaaaaaaaaaaaaaaaaaaaaaaaaaaaaaaaaaaaaaaaaaaaaaaaaaaaaaaaaaaaaaaaaaaaaaaaaaaaaaaaaaaaaaaaaaaaaaaaaaaaaaaaaaaaaaaaaaaa",
"aaaaaaaaaaaaaaaaaaaaaaaaaaaaaaaaaaaaaaaaaaaaaaaaaaaaaaaaaaaaaaaaaaaaaaaaaaaaaaaaaaaaaaaaaaaaaaaaaaaaaaaaaaaaajajaqaqaaaaaaaaaaaaaaaaaaaaaaaaaaaaaaaaaaaaaaaaa1a1avavaTaTaaaaaaaaaoaoaSaSaSaSaSaSaSaSaSaSaSaSaSaSa^a^aSaSaSaSaSaSaQaQaSaSaQaQa1a1avavbibia^a^aPaPaRaRaRaRaQaQa^a^aQaQbsbsbwbwbwbwavavavavavavbsbsbsbsbsbsbsbsbibiaTaTaPaPbsbsbsbsbsbsbsbsbsbsbsbsbsbsbsbsbsbsbsbsbsbsbsbsbsbsbsbsbsbsbsbsbsbsbsbsbsbsbsbsaPaPbsbsaTaTa1a1aiaiavavaaaaaaaaaaaaaaaaaaaaaaaaaaaaaaaaaaaaaaaababaafafbmbmaEaEaEaEa*a*bFbFa*a*bubuaTaTaaaaaaaaaaaaaaaaaaaaaaaaaaaaaaaaaaaaaaaaaaaaaaaaaaaaaaaaaaaaaaaaaaaaaaaaaaaaaaaaaaaaaaaaaaaaaeaeaaaaaaaaaaaaaaaaaaaaaaaaaaaaaaaaaaaaaaaaaaaaaaaaaaaaaaaaaaaaaaaaaaaaaaaaaaaaaaaaaaaaaaaaaaaaaaaaaaaaaaaaaaaaaaaaaaaaaaaaaaaaaaaaaaaaaaaaaaaaaaaaaaaaaaaaaaaaaaaaaaaaaaaaaaaaaaaaaaaaaaaaaaaaaaaa",
"aaaaaaaaaaaaaaaaaaaaaaaaaaaaaaaaaaaaaaaaaaaaaaaaaaaaaaaaaaaaaaaaaaaaaaaaaaaaaaaaaaaaaaaaaaaaaaaaaaaaaaaaaaaaajajaqaqaaaaaaaaaaaaaaaaaaaaaaaaaaaaaaaaaaaaaaaaa1a1avavaTaTaaaaaaaaaoaoaSaSaSaSaSaSaSaSaSaSaSaSaSaSa^a^aSaSaSaSaSaSaQaQaSaSaQaQa1a1avavbibia^a^aPaPaRaRaRaRaQaQa^a^aQaQbsbsbwbwbwbwavavavavavavbsbsbsbsbsbsbsbsbibiaTaTaPaPbsbsbsbsbsbsbsbsbsbsbsbsbsbsbsbsbsbsbsbsbsbsbsbsbsbsbsbsbsbsbsbsbsbsbsbsbsbsbsbsaPaPbsbsaTaTa1a1aiaiavavaaaaaaaaaaaaaaaaaaaaaaaaaaaaaaaaaaaaaaaababaafafbmbmaEaEaEaEa*a*bFbFa*a*bubuaTaTaaaaaaaaaaaaaaaaaaaaaaaaaaaaaaaaaaaaaaaaaaaaaaaaaaaaaaaaaaaaaaaaaaaaaaaaaaaaaaaaaaaaaaaaaaaaaeaeaaaaaaaaaaaaaaaaaaaaaaaaaaaaaaaaaaaaaaaaaaaaaaaaaaaaaaaaaaaaaaaaaaaaaaaaaaaaaaaaaaaaaaaaaaaaaaaaaaaaaaaaaaaaaaaaaaaaaaaaaaaaaaaaaaaaaaaaaaaaaaaaaaaaaaaaaaaaaaaaaaaaaaaaaaaaaaaaaaaaaaaaaaaaaaaa",
"aaaaaaaaaaaaaaaaaaaaaaaaaaaaaaaaaaaaaaaaaaaaaaaaaaaaaaaaaaaaaaaaaaaaaaaaaaaaaaaaaaaaaaaaaaaaaaaaaaaaaaaaaaaaaaaaaaaaaaaaaaaaaaaaaaaaaaaaaaaaaaaaaaaaaaaaaaaaa1a1avavaqaqaaaaarara1a1aSaSa^a^a^a^aSaSaSaSaSaSaSaSaSaSaSaSaSaSaSaSaQaQaSaSaQaQa1a1aTaTaPaPaSaSaQaQaPaPbibiaRaRaQaQa^a^aQaQaPaPaSaSa1a1a1a1aaaaaMaMafafafafafafaiaia1a1aTaTaTaTaPaPaPaPaSaSaTaTaMaMaMaMaMaMaMaMaiaiaiaiaFaFa1a1a1a1aMaMaMaMaMaMaMaMaTaTaSaSavavararaxaxacacbcbcadadalalaaaaaaaaaaaaaaaaaaaaaaaaaaaaaaaaaaaaavavbmbmaEaEaEaEbzbzbububububCbCbububibiavavajajaaaaaaaaaaaaaaaaaaaaaaaaaaaaaaaaaaaaaaaaaaaaaaaaaaaaaaaaaaaaaaaaaaaaaaaaaaaaaaaaaaaaaiaiaaaaaaaaaaaaaaaaaaaaaaaaaaaaaaaaaaaaaaaaaaaaaaaaaaaaaaaaaaaaaaaaaaaaaaaaaaaaaaaaaaaaaaaaaaaaaaaaaaaaaaaaaaaaaaaaaaaaaaaaaaaaaaaaaaaaaaaaaaaaaaaaaaaaaaaaaaaaaaaaaaaaaaaaaaaaaaaaaaaaaaaaaaaaaaaa",
"aaaaaaaaaaaaaaaaaaaaaaaaaaaaaaaaaaaaaaaaaaaaaaaaaaaaaaaaaaaaaaaaaaaaaaaaaaaaaaaaaaaaaaaaaaaaaaaaaaaaaaaaaaaaaaaaaaaaaaaaaaaaaaaaaaaaaaaaaaaaaaaaaaaaaaaaaaaaa1a1avavaqaqaaaaarara1a1aSaSa^a^a^a^aSaSaSaSaSaSaSaSaSaSaSaSaSaSaSaSaQaQaSaSaQaQa1a1aTaTaPaPaSaSaQaQaPaPbibiaRaRaQaQa^a^aQaQaPaPaSaSa1a1a1a1aaaaaMaMafafafafafafaiaia1a1aTaTaTaTaPaPaPaPaSaSaTaTaMaMaMaMaMaMaMaMaiaiaiaiaFaFa1a1a1a1aMaMaMaMaMaMaMaMaTaTaSaSavavararaxaxacacbcbcadadalalaaaaaaaaaaaaaaaaaaaaaaaaaaaaaaaaaaaaavavbmbmaEaEaEaEbzbzbububububCbCbububibiavavajajaaaaaaaaaaaaaaaaaaaaaaaaaaaaaaaaaaaaaaaaaaaaaaaaaaaaaaaaaaaaaaaaaaaaaaaaaaaaaaaaaaaaaiaiaaaaaaaaaaaaaaaaaaaaaaaaaaaaaaaaaaaaaaaaaaaaaaaaaaaaaaaaaaaaaaaaaaaaaaaaaaaaaaaaaaaaaaaaaaaaaaaaaaaaaaaaaaaaaaaaaaaaaaaaaaaaaaaaaaaaaaaaaaaaaaaaaaaaaaaaaaaaaaaaaaaaaaaaaaaaaaaaaaaaaaaaaaaaaaaa",
"aaaaaaaaaaaaaaaaaaaaaaaaaaaaaaaaaaaaaaaaaaaaaaaaaaaaaaaaaaaaaaaaaaaaaaaaaaaaaaaaaaaaaaaaaaaaaaaaaaaaaaaaaaaaaaaaaaaaaaaaaaaaaaaaaaaaaaaaaaaaaaaaaaaaaaaaaaaababaavavararaFaFbabaaiaiaPaPaQaQaPaPaQaQaQaQaPaPaQaQa^a^a^a^aSaSa^a^aSaSa^a^aSaSa1a1aTaTaSaSa1a1babaaaaaa1a1avavbsbsaPaPaSaSaTaTa1a1bsbsbybybybybmbmapapacacacacacacacacayayaoaoaTaTaTaTa1a1babaaFaFaDaDararaqaqaaaababaafafaFaFafafaDaDbabababaaFaFaqaqaFaFaTaTajajamamababaGaGbmbmaxaxaaaaaaaaaaaaaaaaaaaaaaaaaaaaaaaaavavbzbzbmbmavavbibiavavbibibibibhbhbhbhbhbhbvbvbvbvararaaaaaaaaaaaaaaaaaaaaaaaaaaaaaaaaaaaaaaaaaaaaaaaaaaaaaaaaaaaaaaaaaaaaaaaaaaaaaaaaaaaaaaaaaaaaaaaaaaaaaaaaaaaaaaaaaaaaaaaaaaaaaaaaaaaaaaaaaaaaaaaaaaaaaaaaaaaaaaaaaaaaaaaaaaaaaaaaaaaaaaaaaaaaaaaaaaaaaaaaaaaaaaaaaaaaaaaaaaaaaaaaaaaaaaaaaaaaaaaaaaaaaaaaaaaaaaaaaaaaaaaaaaaaaaaaaaaa",
"aaaaaaaaaaaaaaaaaaaaaaaaaaaaaaaaaaaaaaaaaaaaaaaaaaaaaaaaaaaaaaaaaaaaaaaaaaaaaaaaaaaaaaaaaaaaaaaaaaaaaaaaaaaaaaaaaaaaaaaaaaaaaaaaaaaaaaaaaaaaaaaaaaaaaaaaaaaababaavavararaFaFbabaaiaiaPaPaQaQaPaPaQaQaQaQaPaPaQaQa^a^a^a^aSaSa^a^aSaSa^a^aSaSa1a1aTaTaSaSa1a1babaaaaaa1a1avavbsbsaPaPaSaSaTaTa1a1bsbsbybybybybmbmapapacacacacacacacacayayaoaoaTaTaTaTa1a1babaaFaFaDaDararaqaqaaaababaafafaFaFafafaDaDbabababaaFaFaqaqaFaFaTaTajajamamababaGaGbmbmaxaxaaaaaaaaaaaaaaaaaaaaaaaaaaaaaaaaavavbzbzbmbmavavbibiavavbibibibibhbhbhbhbhbhbvbvbvbvararaaaaaaaaaaaaaaaaaaaaaaaaaaaaaaaaaaaaaaaaaaaaaaaaaaaaaaaaaaaaaaaaaaaaaaaaaaaaaaaaaaaaaaaaaaaaaaaaaaaaaaaaaaaaaaaaaaaaaaaaaaaaaaaaaaaaaaaaaaaaaaaaaaaaaaaaaaaaaaaaaaaaaaaaaaaaaaaaaaaaaaaaaaaaaaaaaaaaaaaaaaaaaaaaaaaaaaaaaaaaaaaaaaaaaaaaaaaaaaaaaaaaaaaaaaaaaaaaaaaaaaaaaaaaaaaaaaaa",
"aaaaaaaaaaaaaaaaaaaaaaaaaaaaaaaaaaaaaaaaaaaaaaaaaaaaaaaaaaaaaaaaaaaaaaaaaaaaaaaaaaaaaaaaaaaaaaaaaaaaaaaaaaaaaaaaaaaaaaaaaaaaaaaaaaaaaaaaaaaaaaaaaaaaaaaaaaaaaaaaavavararaoaoajaja2a2bibiaPaPaNaNaPaPaPaPaPaPaPaPaPaPaPaPaPaPaPaPaQaQaPaPaPaPa1a1aiaiaiaiaaaaaaaaaaaaaaaaa1a1bibibsbsa^a^aTaTa2a2bvbvaXaXa(a(bmbmapapacacacacacacapapapapbcbca1a1avavararararaqaqaFaFararaqaqararaqaqaxaxababbcbcaFaFaqaqbabaararbabaaFaFa1a1apapacacacacacacbwbwafafaaaaaaaaaaaaaaaaaaaaaaaaaFaFaqaqa2a2bvbvaEaEahahahahaEaEaEaEaEaEa(a(a*a*a*a*bububibia1a1aFaFaaaaaaaaaaaaaaaaaaaaaaaaaaaaaaaaaaaaaaaaaaaaaaaaaaaaaaaaaaaaaaaaaaaaaaaaaaaaaaaaaaaaaaaaaaaaaaaaaaaaaaaaaaaaaaaaaaaaaaaaaaaaaaaaaaaaaaaaaaaaaaaaakaka3a3a6a6aJaJaIaIaaaaaaaaaaaaaaaaaaaaaaaaaaaaaaaaaaaaaaaaaaaaaaaaaaaaaaaaaaaaaaaaaaaaaaaaaaaaaaaaaaaaaaaaaaaaaaaaaaaaaaaaaaaa",
"aaaaaaaaaaaaaaaaaaaaaaaaaaaaaaaaaaaaaaaaaaaaaaaaaaaaaaaaaaaaaaaaaaaaaaaaaaaaaaaaaaaaaaaaaaaaaaaaaaaaaaaaaaaaaaaaaaaaaaaaaaaaaaaaaaaaaaaaaaaaaaaaaaaaaaaaaaaaaaaaavavararaoaoajaja2a2bibiaPaPaNaNaPaPaPaPaPaPaPaPaPaPaPaPaPaPaPaPaQaQaPaPaPaPa1a1aiaiaiaiaaaaaaaaaaaaaaaaa1a1bibibsbsa^a^aTaTa2a2bvbvaXaXa(a(bmbmapapacacacacacacapapapapbcbca1a1avavararararaqaqaFaFararaqaqararaqaqaxaxababbcbcaFaFaqaqbabaararbabaaFaFa1a1apapacacacacacacbwbwafafaaaaaaaaaaaaaaaaaaaaaaaaaFaFaqaqa2a2bvbvaEaEahahahahaEaEaEaEaEaEa(a(a*a*a*a*bububibia1a1aFaFaaaaaaaaaaaaaaaaaaaaaaaaaaaaaaaaaaaaaaaaaaaaaaaaaaaaaaaaaaaaaaaaaaaaaaaaaaaaaaaaaaaaaaaaaaaaaaaaaaaaaaaaaaaaaaaaaaaaaaaaaaaaaaaaaaaaaaaaaaaaaaaaakaka3a3a6a6aJaJaIaIaaaaaaaaaaaaaaaaaaaaaaaaaaaaaaaaaaaaaaaaaaaaaaaaaaaaaaaaaaaaaaaaaaaaaaaaaaaaaaaaaaaaaaaaaaaaaaaaaaaaaaaaaaaa",
"aaaaaaaaaaaaaaaaaaaaaaaaaaaaaaaaaaaaaaaaaaaaaaaaaaaaaaaaaKaKaaaaaaaaaaaaaaaaaaaaaaaaaaaaaaaaaaaaaaaaaaaaaaaaaaaaaaaaaaaaaaaaaaaaaaaaaaaaaaaaaaaaaaaaaaaaaaaaaaaaajajaFaFaMaMaxaxa1a1aSaSa^a^aSaSaSaSaSaSa^a^aQaQaPaPaPaPaPaPaPaPaPaPaPaPaPaPa1a1aFaFaqaqaaaaararajajaMaMaaaaaTaTaSaSaTaTaTaTa1a1bibibvbvbybybzbzapapapapacacababacacapapacacalalafafavavaqaqbabaararaDaDaqaqaDaDbabaaaaaaLaLaaaababaararbabaaqaqbabaavava1a1akakafafaiaiaiaiavavafafaqaqaaaaaaaaaaaaaaaaaaaaaVaVauauaMaMa2a2avavavavavavavava)a)avavbibia)a)aTaTavavavavavavavavaaaaaaaaaaaaaaaaaaaaaaaaaaaaaaaaaaaaaaaaaaaaaaaaaaaaaaaaaaaaaaaaaaaaaaaaaaaaaaaaaaaaaaaaaJaJaJaJaJaJaUaUa3a3a7a7aaaaaaaaaaaaaaaaaaaaaaaaaaaaaVaVa3a3aHaHaAaAaHaHbebea4a4a6a6aaaaaaaaaaaaaaaaaaaaaaaaaaaaaaaaaaaaaaaaaaaaaaaaaaaaaaaaaaaaaaaaaaaaaaaaaaaaaaaaaaaaaaaaaaaaaaaaaaaa",
"aaaaaaaaaaaaaaaaaaaaaaaaaaaaaaaaaaaaaaaaaaaaaaaaaaaaaaaaaKaKaaaaaaaaaaaaaaaaaaaaaaaaaaaaaaaaaaaaaaaaaaaaaaaaaaaaaaaaaaaaaaaaaaaaaaaaaaaaaaaaaaaaaaaaaaaaaaaaaaaaajajaFaFaMaMaxaxa1a1aSaSa^a^aSaSaSaSaSaSa^a^aQaQaPaPaPaPaPaPaPaPaPaPaPaPaPaPa1a1aFaFaqaqaaaaararajajaMaMaaaaaTaTaSaSaTaTaTaTa1a1bibibvbvbybybzbzapapapapacacababacacapapacacalalafafavavaqaqbabaararaDaDaqaqaDaDbabaaaaaaLaLaaaababaararbabaaqaqbabaavava1a1akakafafaiaiaiaiavavafafaqaqaaaaaaaaaaaaaaaaaaaaaVaVauauaMaMa2a2avavavavavavavava)a)avavbibia)a)aTaTavavavavavavavavaaaaaaaaaaaaaaaaaaaaaaaaaaaaaaaaaaaaaaaaaaaaaaaaaaaaaaaaaaaaaaaaaaaaaaaaaaaaaaaaaaaaaaaaaJaJaJaJaJaJaUaUa3a3a7a7aaaaaaaaaaaaaaaaaaaaaaaaaaaaaVaVa3a3aHaHaAaAaHaHbebea4a4a6a6aaaaaaaaaaaaaaaaaaaaaaaaaaaaaaaaaaaaaaaaaaaaaaaaaaaaaaaaaaaaaaaaaaaaaaaaaaaaaaaaaaaaaaaaaaaaaaaaaaaa",
"aaaaaaaaaaaaaaaaaaaaaaaaaaaaaaaaaaaaaaaaaaaaaaaaaaaaaaaaacacadadaaaaaaaaaaaaaaaaaaaaaaaaaaaaaaaaaaaaaaaaaaaaaaaaaaaaaaaaaaaaaaaaaaaaaaaaaaaaaaaaakakaxaxaaaaaaaaaaaaaaaaaMaMaUaUa1a1aSaSaQaQaQaQaSaSaSaSaSaSaSaSa^a^a^a^a^a^a^a^aSaSa^a^aSaSa1a1aFaFaaaaararaiaiaMaMajajaiaibabaa1a1a1a1a1a1araravavbibibibiauauadadbcbcadadbcbcadadbcbcbcbcaeaea1a1avavaiaiaqaqaMaMaiaiaoaoaoaoaMaMaiaiaDaDaMaMaoaoaFaFafafaoaoa1a1aSaSaSaSaTaTaTaTaTaTaQaQbsbsbsbsavavaaaaaaaaaaaaaaaaaaaaaiaibmbmbmbmbibiavavbibibibiavavbibibibibibibibibibibibiauauauauavavaaaaaaaaaaaaaaaaaaaaaaaaaaaaaaaaaaaaaaaaaaaaaaaaaaaaaaaaaaaaaaaaaaaaaaaaaaaaa7a7aJaJaIaIbdbdbebeazazazazaAaAaHaHaAaAa!a!a6a6aMaMaMaMaMaMaaaaarara3a3aHaHa5a5a5a5a5a5bebebebea7a7aaaaaaaaaaaaaaaaaaaaaaaaaaaaaaaaaaaaaaaaaaaaaaaaaaaaaaaaaaaaaaaaaaaaaaaaaaaaaaaaaaaaaaaaaaaaaaaa",
"aaaaaaaaaaaaaaaaaaaaaaaaaaaaaaaaaaaaaaaaaaaaaaaaaaaaaaaaacacadadaaaaaaaaaaaaaaaaaaaaaaaaaaaaaaaaaaaaaaaaaaaaaaaaaaaaaaaaaaaaaaaaaaaaaaaaaaaaaaaaakakaxaxaaaaaaaaaaaaaaaaaMaMaUaUa1a1aSaSaQaQaQaQaSaSaSaSaSaSaSaSa^a^a^a^a^a^a^a^aSaSa^a^aSaSa1a1aFaFaaaaararaiaiaMaMajajaiaibabaa1a1a1a1a1a1araravavbibibibiauauadadbcbcadadbcbcadadbcbcbcbcaeaea1a1avavaiaiaqaqaMaMaiaiaoaoaoaoaMaMaiaiaDaDaMaMaoaoaFaFafafaoaoa1a1aSaSaSaSaTaTaTaTaTaTaQaQbsbsbsbsavavaaaaaaaaaaaaaaaaaaaaaiaibmbmbmbmbibiavavbibibibiavavbibibibibibibibibibibibiauauauauavavaaaaaaaaaaaaaaaaaaaaaaaaaaaaaaaaaaaaaaaaaaaaaaaaaaaaaaaaaaaaaaaaaaaaaaaaaaaaa7a7aJaJaIaIbdbdbebeazazazazaAaAaHaHaAaAa!a!a6a6aMaMaMaMaMaMaaaaarara3a3aHaHa5a5a5a5a5a5bebebebea7a7aaaaaaaaaaaaaaaaaaaaaaaaaaaaaaaaaaaaaaaaaaaaaaaaaaaaaaaaaaaaaaaaaaaaaaaaaaaaaaaaaaaaaaaaaaaaaaaa",
"aaaaaaaaaaaaaaaaaaaaaaaaaaaaaaaaaaaaaaaaaaaaaaaaaaaaaaaaaFaFaKaKaaaaaaaaaaaaaaaaaaaaaaaaaaaaaaaaaaaaaaaaaaaaaaaaaaaaaaaaa7a7aaaaaaaaaaaaaaaaaaaaaiaiapapaxaxaaaaaaaaaaaaaiaiadada1a1aTaTa^a^a^a^a^a^aTaTaSaSaSaSaSaSaSaSaQaQaSaSaQaQaSaSaSaSa1a1aFaFbabaararakakadadaqaqaLaLaqaqavavaTaTbibibvbvavava1a1aTaTa1a1a1a1a1a1a1a1a1a1a1a1a1a1a1a1a1a1aSaSa^a^aSaSaTaTa1a1a1a1a1a1aiaiaMaMaMaMafafaMaMaMaMaMaMaMaMafafbibibsbsbEbEa&a&bsbsbsbsbsbsbsbsaTaTa1a1aaaaaaaaaaaaaaaaaaaaajajavava1a1avavauaubibibibibibiauaubibibibibibibibibibia2a2avavavavaaaaaaaaaaaaaaaaaaaaaaaaaaaaaaaaaaaaaaaaaaaaaaaaaaaaaaaaaaaaaaaaaaaaa6a6a3a3a3a3aHaHaAaAazazazazaHaHazazaAaAaHaHaHaHaHaHaBaBa6a6ajajakakakakajaja6a6aHaHa5a5a5a5a5a5a5a5aHaHbebea6a6aaaaaaaaaaaaaaaaaaaaaaaaaaaaaaaaaaaaaaaaaaaaaaaaaaaaaaaaaaaaaaaaaaaaaaaaaaaaaaaaaaaaaaaaaaaa",
"aaaaaaaaaaaaaaaaaaaaaaaaaaaaaaaaaaaaaaaaaaaaaaaaaaaaaaaaaFaFaKaKaaaaaaaaaaaaaaaaaaaaaaaaaaaaaaaaaaaaaaaaaaaaaaaaaaaaaaaaa7a7aaaaaaaaaaaaaaaaaaaaaiaiapapaxaxaaaaaaaaaaaaaiaiadada1a1aTaTa^a^a^a^a^a^aTaTaSaSaSaSaSaSaSaSaQaQaSaSaQaQaSaSaSaSa1a1aFaFbabaararakakadadaqaqaLaLaqaqavavaTaTbibibvbvavava1a1aTaTa1a1a1a1a1a1a1a1a1a1a1a1a1a1a1a1a1a1aSaSa^a^aSaSaTaTa1a1a1a1a1a1aiaiaMaMaMaMafafaMaMaMaMaMaMaMaMafafbibibsbsbEbEa&a&bsbsbsbsbsbsbsbsaTaTa1a1aaaaaaaaaaaaaaaaaaaaajajavava1a1avavauaubibibibibibiauaubibibibibibibibibibia2a2avavavavaaaaaaaaaaaaaaaaaaaaaaaaaaaaaaaaaaaaaaaaaaaaaaaaaaaaaaaaaaaaaaaaaaaaa6a6a3a3a3a3aHaHaAaAazazazazaHaHazazaAaAaHaHaHaHaHaHaBaBa6a6ajajakakakakajaja6a6aHaHa5a5a5a5a5a5a5a5aHaHbebea6a6aaaaaaaaaaaaaaaaaaaaaaaaaaaaaaaaaaaaaaaaaaaaaaaaaaaaaaaaaaaaaaaaaaaaaaaaaaaaaaaaaaaaaaaaaaaa",
"aaaaaaaaaaaaaaaaaaaaaaaaaaaaaaaaaaaaaaaaaaaaaaaaaaaaaaaaaaaaaaaaaaaaaaaaaaaaaaaaaaaaaaaaaaaaaaaaajajakakaaaaaaaaaaaaaaaaaLaLaiaiaaaaaaaaaaaaaaaaaaaaaoaoaxaxaaaaaaaaaaaaajajadadaaaaaTaTaTaTaTaTaTaTaTaTaTaTaTaTaTaTaTaTaTaTaTaTaTaTaTaTaSaSa1a1babaararaaaaakakacacaaaaaiaibabaa1a1aTaTa9a9aTaTbibibibibsbsbsbsbsbsbsbsbsbsbsbsbsbsbsbsaRaRaRaRaRaRaRaRaRaRaRaRbsbsbsbsbsbsaTaTaTaTavavavavavavavavavavaTaTbibibibibibibibibibiaSaSaSaSaSaSa^a^aTaTa1a1alalauauauauauaualalaoaoavava2a2bybya(a(a(a(a(a(a(a(a(a(a(a(a(a(a*a*a(a(bybybibiaTaTavavaaaaaaaaaaaaaaaaaaaaaaaaaaaaaaaaaaaaaaaaaaaaaaaaaaaaaaaaa8a8aIaIa3a3aAaAaAaAazazazazaAaAa5a5a5a5aHaHaJaJaAaAa5a5aHaHaHaHa5a5aBaBaFaFalalajajakakajaja6a6aHaHaHaHaHaHaHaHaHaHa5a5bebea7a7aaaaaaaaaaaaaaaaaaaaaaaaaaaaaaaaaaaaaaaaaaaaaaaaaaaaaaaaaaaaaaaaaaaaaaaaaaaaaaaaaaaaaaaa",
"aaaaaaaaaaaaaaaaaaaaaaaaaaaaaaaaaaaaaaaaaaaaaaaaaaaaaaaaaaaaaaaaaaaaaaaaaaaaaaaaaaaaaaaaaaaaaaaaajajakakaaaaaaaaaaaaaaaaaLaLaiaiaaaaaaaaaaaaaaaaaaaaaoaoaxaxaaaaaaaaaaaaajajadadaaaaaTaTaTaTaTaTaTaTaTaTaTaTaTaTaTaTaTaTaTaTaTaTaTaTaTaTaSaSa1a1babaararaaaaakakacacaaaaaiaibabaa1a1aTaTa9a9aTaTbibibibibsbsbsbsbsbsbsbsbsbsbsbsbsbsbsbsaRaRaRaRaRaRaRaRaRaRaRaRbsbsbsbsbsbsaTaTaTaTavavavavavavavavavavaTaTbibibibibibibibibibiaSaSaSaSaSaSa^a^aTaTa1a1alalauauauauauaualalaoaoavava2a2bybya(a(a(a(a(a(a(a(a(a(a(a(a(a(a*a*a(a(bybybibiaTaTavavaaaaaaaaaaaaaaaaaaaaaaaaaaaaaaaaaaaaaaaaaaaaaaaaaaaaaaaaa8a8aIaIa3a3aAaAaAaAazazazazaAaAa5a5a5a5aHaHaJaJaAaAa5a5aHaHaHaHa5a5aBaBaFaFalalajajakakajaja6a6aHaHaHaHaHaHaHaHaHaHa5a5bebea7a7aaaaaaaaaaaaaaaaaaaaaaaaaaaaaaaaaaaaaaaaaaaaaaaaaaaaaaaaaaaaaaaaaaaaaaaaaaaaaaaaaaaaaaaa",
"aaaaaaaaaaaaaaaaaaaaaaaaaaaaaaaaaaaaaaaaaaaaaaaaaaaaaaaaaaaaaaaaaaaaaaaaaaaaaaaaaaaaaaaaaaaaaMaMaxaxaFaFaaaaaaaaaaaaaaaaakakaeaeaaaaaaaaaaaaaaaaaaaaaaaaaaaaaaaaaaaaaaaaajajadadbabaafafaiaiaTaTaoaoaMaMaTaTaTaTaTaTaTaTaTaTaTaTa9a9aTaTaTaTa1a1aqaqaaaaadadajajadadaeaeaUaUaqaqbabaaTaTaTaTa9a9aTaTaSaSaPaPaNaNaPaPaNaNaNaNaNaNaNaNaPaPbibiaPaPaNaNaNaNaNaNaNaNaNaNaNaNaTaTauauacacbcbcacacbzbzacacbzbzbzbzavavaTaTaSaSaSaSaSaSaSaSaTaTavavaTaTavava1a1bybya(a(aXaXa(a(bzbzaoaobibiaTaTa(a(bubububububuaYaYbubua*a*brbrbububububububvbva2a2avavaaaaaaaaaaaaaaaaaaaaaaaaaaaaaaaaaaaaaaaaaaaaaaaaa8a8aJaJaAaAaAaAaAaAaAaAaAaAaAaAaHaHa5a5aHaHaHaHaHaHaHaHa5a5aHaHa5a5aHaHaHaHbfbfaKaKaeaeajajajajakakajaja6a6aAaAa5a5aHaHa5a5aHaHaHaHbdbda6a6aaaaaaaaaaaaaaaaaaaaaaaaaaaaaaaaaaaaaaaaaaaaaaaaaaaaaaaaaaaaaaaaaaaaaaaaaaaaaaaaaaaa",
"aaaaaaaaaaaaaaaaaaaaaaaaaaaaaaaaaaaaaaaaaaaaaaaaaaaaaaaaaaaaaaaaaaaaaaaaaaaaaaaaaaaaaaaaaaaaaMaMaxaxaFaFaaaaaaaaaaaaaaaaakakaeaeaaaaaaaaaaaaaaaaaaaaaaaaaaaaaaaaaaaaaaaaajajadadbabaafafaiaiaTaTaoaoaMaMaTaTaTaTaTaTaTaTaTaTaTaTa9a9aTaTaTaTa1a1aqaqaaaaadadajajadadaeaeaUaUaqaqbabaaTaTaTaTa9a9aTaTaSaSaPaPaNaNaPaPaNaNaNaNaNaNaNaNaPaPbibiaPaPaNaNaNaNaNaNaNaNaNaNaNaNaTaTauauacacbcbcacacbzbzacacbzbzbzbzavavaTaTaSaSaSaSaSaSaSaSaTaTavavaTaTavava1a1bybya(a(aXaXa(a(bzbzaoaobibiaTaTa(a(bubububububuaYaYbubua*a*brbrbububububububvbva2a2avavaaaaaaaaaaaaaaaaaaaaaaaaaaaaaaaaaaaaaaaaaaaaaaaaa8a8aJaJaAaAaAaAaAaAaAaAaAaAaAaAaHaHa5a5aHaHaHaHaHaHaHaHa5a5aHaHa5a5aHaHaHaHbfbfaKaKaeaeajajajajakakajaja6a6aAaAa5a5aHaHa5a5aHaHaHaHbdbda6a6aaaaaaaaaaaaaaaaaaaaaaaaaaaaaaaaaaaaaaaaaaaaaaaaaaaaaaaaaaaaaaaaaaaaaaaaaaaaaaaaaaaa",
"aaaaaaaaaaaaaaaaaaaaaaaaaaaaaaaaaaaaaaaaaaaaaaaaaaaaaaaaaaaaaaaaaaaaaaaaaaaaaaaaaaaaaaaaaaaaaaaaaaaaaaaaaaaaaaaaaaaaaaaaaaaaaaaaaaaaaaaaaaaaaaaaaaaaaaaaaaaaaaaaaaaaaaaaaaaaaLaLaxaxaaaaaaaaaaaaaaaaaaaaaaaaaaaaaaaaaaaaaaaaa1a1arara1a1babaaFaFaiaiaaaabcbcadadaLaLacacaeaeaFaFaqaqaTaTaTaTaTaTaTaTaTaTa^a^aTaTaSaSaTaTa^a^a^a^a^a^a^a^aTaTaTaTaTaTaTaTaSaSaSaSaSaSaSaSa1a1bcbcbcbcadadacacadadbcbcacacapapavava1a1aTaTaTaTaTaTaTaTa1a1babaa1a1babaararbybya*a*a*a*aXaXbvbvaiaibibiaTaTa*a*a*a*bFbFa0a0bFbFbFbFbrbrbubua*a*brbrbubububua1a1avavaaaaaaaaaaaaaaaaaaaaaaaaaaaaaaaaaaaaaaaaaaaaaIaIa3a3bdbdaAaAaAaAaHaHaHaHa5a5a5a5a5a5aHaHaHaHa5a5aHaHa5a5aHaHa5a5a5a5a5a5aHaHbfbfbebea3a3aFaFakakajajakakajaja6a6aHaHa5a5aHaHa5a5a5a5a5a5bebea6a6aaaaaaaaaaaaaaaaaaaaaaaaaaaaaaaaaaaaaaaaaaaaaaaaaaaaaaaaaaaaaaaaaaaaaaaaaaaaaaaa",
"aaaaaaaaaaaaaaaaaaaaaaaaaaaaaaaaaaaaaaaaaaaaaaaaaaaaaaaaaaaaaaaaaaaaaaaaaaaaaaaaaaaaaaaaaaaaaaaaaaaaaaaaaaaaaaaaaaaaaaaaaaaaaaaaaaaaaaaaaaaaaaaaaaaaaaaaaaaaaaaaaaaaaaaaaaaaaLaLaxaxaaaaaaaaaaaaaaaaaaaaaaaaaaaaaaaaaaaaaaaaa1a1arara1a1babaaFaFaiaiaaaabcbcadadaLaLacacaeaeaFaFaqaqaTaTaTaTaTaTaTaTaTaTa^a^aTaTaSaSaTaTa^a^a^a^a^a^a^a^aTaTaTaTaTaTaTaTaSaSaSaSaSaSaSaSa1a1bcbcbcbcadadacacadadbcbcacacapapavava1a1aTaTaTaTaTaTaTaTa1a1babaa1a1babaararbybya*a*a*a*aXaXbvbvaiaibibiaTaTa*a*a*a*bFbFa0a0bFbFbFbFbrbrbubua*a*brbrbubububua1a1avavaaaaaaaaaaaaaaaaaaaaaaaaaaaaaaaaaaaaaaaaaaaaaIaIa3a3bdbdaAaAaAaAaHaHaHaHa5a5a5a5a5a5aHaHaHaHa5a5aHaHa5a5aHaHa5a5a5a5a5a5aHaHbfbfbebea3a3aFaFakakajajakakajaja6a6aHaHa5a5aHaHa5a5a5a5a5a5bebea6a6aaaaaaaaaaaaaaaaaaaaaaaaaaaaaaaaaaaaaaaaaaaaaaaaaaaaaaaaaaaaaaaaaaaaaaaaaaaaaaaa",
"aaaaaaaaaaaaaaaaaaaaaaaaaaaaaaaaaaaaaaaaaaaaaaaaaaaaaaaaaaaaaaaaaaaaaaaaaaaaaaaaaaaaaaaaaaaaaaaaaaaaaaaaaaaaaaaaaaaaaaaaaaaaaaaaaaaaaaaaaaaaaaaaaaaaaaaaaaaaaaaaaaaaaaaaaaaaajajaeaeaaaaaaaaaiaiafafaaaaaaaaaaaaaaaaaaaaaaaaaaaaaMaMararavavaoaoaFaFaaaaaLaLapapadadadadaaaaajajbabaaMaMaTaTaTaTa9a9aTaTaTaTaTaTaDaDaqaqarara1a1a1a1aTaTaTaTaSaSa2a2arararararara2a2a1a1a1a1bcbcacacapapapapacacacacapapababajajaaaaaaaaaFaFauaua1a1aaaaaaaababaaaaaauauaXaXa*a*a*a*aXaXauauaoaobibiaTaTa(a(bubuaYaYbxbxbububrbrbububvbvbibibhbhbububvbva1a1avavaaaaaaaaaaaaaaaaaaaaaaaaaaaaaaaaaaaaaaaaa3a3bdbdaAaAazazaHaHaHaHaHaHaHaHa5a5aHaHaHaHa5a5a5a5aHaHa5a5aHaHaHaHaHaHaHaHaHaHaHaHaHaHaHaHaHaHa3a3a6a6akakajajakakajaja6a6aAaAa5a5a5a5a5a5aHaHa5a5bebea6a6aaaaaaaaaaaaaaaaaaaaaaaaaaaaaaaaaaaaaaaaaaaaaaaaaaaaaaaaaaaaaaaaaaaaaaaaaaaa",
"aaaaaaaaaaaaaaaaaaaaaaaaaaaaaaaaaaaaaaaaaaaaaaaaaaaaaaaaaaaaaaaaaaaaaaaaaaaaaaaaaaaaaaaaaaaaaaaaaaaaaaaaaaaaaaaaaaaaaaaaaaaaaaaaaaaaaaaaaaaaaaaaaaaaaaaaaaaaaaaaaaaaaaaaaaaaajajaeaeaaaaaaaaaiaiafafaaaaaaaaaaaaaaaaaaaaaaaaaaaaaMaMararavavaoaoaFaFaaaaaLaLapapadadadadaaaaajajbabaaMaMaTaTaTaTa9a9aTaTaTaTaTaTaDaDaqaqarara1a1a1a1aTaTaTaTaSaSa2a2arararararara2a2a1a1a1a1bcbcacacapapapapacacacacapapababajajaaaaaaaaaFaFauaua1a1aaaaaaaababaaaaaauauaXaXa*a*a*a*aXaXauauaoaobibiaTaTa(a(bubuaYaYbxbxbububrbrbububvbvbibibhbhbububvbva1a1avavaaaaaaaaaaaaaaaaaaaaaaaaaaaaaaaaaaaaaaaaa3a3bdbdaAaAazazaHaHaHaHaHaHaHaHa5a5aHaHaHaHa5a5a5a5aHaHa5a5aHaHaHaHaHaHaHaHaHaHaHaHaHaHaHaHaHaHa3a3a6a6akakajajakakajaja6a6aAaAa5a5a5a5a5a5aHaHa5a5bebea6a6aaaaaaaaaaaaaaaaaaaaaaaaaaaaaaaaaaaaaaaaaaaaaaaaaaaaaaaaaaaaaaaaaaaaaaaaaaaa",
"aaaaaaaaaaaaaaaaaaaaaaaaaaaaaaaaaaaaaaaaaaaaaaaaaaaaaaaaaaaaaaaaaaaaaaaaaaaaaaaaaaaaaaaaaaaaaaaaaaaaaaaaaaaaaaaaaaaaaaaaaaaaaaaaaaaaaaaaaaaaaaaaaaaaaaaaaaaaaaaaaaaaaaaaaaaaaiaiaFaFararararajajaaaaaaaaaaaaaaaaaaaaaaaaaaaaaaaaaaaaaaaaaaaaaFaFaoaoaaaaaUaUaUaUadadbcbcaLaLaFaFbabaararaTaTaTaTaTaTaTaTaSaSaTaTaaaaaaaaaaaaaaaaaaaaa1a1aTaTbgbgaiaiaaaaaaaaaaaaaaaaaaaaaaaaaVaVadadaKaKaxaxaxaxaxaxaKaKaeaebabaaaaaaoaoauauauauaTaTa2a2avava2a2avavbybya*a*a*a*a*a*bybya1a1avavavavaTaTbvbva(a(a(a(a(a(bybybybybvbvbububububvbvbvbvavava1a1ajajavavaaaaaaaaaaaaaaaaaaaaaaaaaaaaalalaaaabdbda3a3aAaAa5a5aHaHaHaHa5a5aHaHa5a5aHaHa5a5a5a5aHaHaHaHaHaHaHaHaHaHa5a5aHaHaHaHa5a5aHaHa5a5aHaHa5a5aJaJa6a6akakakakajaja7a7aJaJaHaHa5a5a5a5aHaHaHaHbebea3a3aaaaaaaaaaaaaaaaaaaaaaaaaaaaaaaaaaaaaaaaaaaaaaaaaaaaaaaaaaaaaaaaaaaaaaaaaaaa",
"aaaaaaaaaaaaaaaaaaaaaaaaaaaaaaaaaaaaaaaaaaaaaaaaaaaaaaaaaaaaaaaaaaaaaaaaaaaaaaaaaaaaaaaaaaaaaaaaaaaaaaaaaaaaaaaaaaaaaaaaaaaaaaaaaaaaaaaaaaaaaaaaaaaaaaaaaaaaaaaaaaaaaaaaaaaaaiaiaFaFararararajajaaaaaaaaaaaaaaaaaaaaaaaaaaaaaaaaaaaaaaaaaaaaaFaFaoaoaaaaaUaUaUaUadadbcbcaLaLaFaFbabaararaTaTaTaTaTaTaTaTaSaSaTaTaaaaaaaaaaaaaaaaaaaaa1a1aTaTbgbgaiaiaaaaaaaaaaaaaaaaaaaaaaaaaVaVadadaKaKaxaxaxaxaxaxaKaKaeaebabaaaaaaoaoauauauauaTaTa2a2avava2a2avavbybya*a*a*a*a*a*bybya1a1avavavavaTaTbvbva(a(a(a(a(a(bybybybybvbvbububububvbvbvbvavava1a1ajajavavaaaaaaaaaaaaaaaaaaaaaaaaaaaaalalaaaabdbda3a3aAaAa5a5aHaHaHaHa5a5aHaHa5a5aHaHa5a5a5a5aHaHaHaHaHaHaHaHaHaHa5a5aHaHaHaHa5a5aHaHa5a5aHaHa5a5aJaJa6a6akakakakajaja7a7aJaJaHaHa5a5a5a5aHaHaHaHbebea3a3aaaaaaaaaaaaaaaaaaaaaaaaaaaaaaaaaaaaaaaaaaaaaaaaaaaaaaaaaaaaaaaaaaaaaaaaaaaa",
"aaaaaaaaaaaaaaaaaaaaaaaaaaaaaaaaaaaaaaaaaaaaaaaaaaaaaaaaaaaaaaaaaaaaaaaaaaaaaaaaaaaaaaaaaaaaaaaaaaaaaaaaaaaaaaaaaaaaaaaaaaaaaaaaaaaaaaaaaaaaaaaaaaaaaaaaaaaaaaaaaaaaaaaaaaaaaaaaaaaaaaaaaaaaaaaaaaaaaaaaaaaaaaaaaaaaaaaaaaaaaaaaaaaaaaaaaaaaaaaaaaaaaaaaadadadadadadadadaqaqajajaaaababaavavaSaSaTaTaTaTaTaTaQaQaTaTbabababababaa1a1a1a1aTaTaTaTavavaFaFbabababababababababaaaaaaaaaaaaaaaaaaaaaaaaaaaaaararaLaLavavauauavavaTaTaTaTa2a2a9a9a1a1auauaXaXa*a*a*a*a*a*bybyaoaoavava2a2a2a2a2a2avavavavavavavavavavaTaTaTaTaTaTavavaTaTa2a2a2a2avavalalaaaaaaaaaaaaaaaaaaaaaaaaayayararayaya6a6aCaCbebeaHaHa5a5a5a5aHaHaHaHaHaHa5a5aHaHaHaHa5a5aHaHaAaAaHaHaHaHaHaHa5a5a5a5aHaHaHaHa5a5aHaHa5a5aHaHa6a6akakajajajajafafa8a8azaza5a5aHaHa5a5aHaHaHaHbebeaJaJaaaaaaaaaaaaaaaaaaaaaaaaaaaaaaaaaaaaaaaaaaaaaaaaaaaaaaaaaaaaaaaaaaaaaaaa",
"aaaaaaaaaaaaaaaaaaaaaaaaaaaaaaaaaaaaaaaaaaaaaaaaaaaaaaaaaaaaaaaaaaaaaaaaaaaaaaaaaaaaaaaaaaaaaaaaaaaaaaaaaaaaaaaaaaaaaaaaaaaaaaaaaaaaaaaaaaaaaaaaaaaaaaaaaaaaaaaaaaaaaaaaaaaaaaaaaaaaaaaaaaaaaaaaaaaaaaaaaaaaaaaaaaaaaaaaaaaaaaaaaaaaaaaaaaaaaaaaaaaaaaaaadadadadadadadadaqaqajajaaaababaavavaSaSaTaTaTaTaTaTaQaQaTaTbabababababaa1a1a1a1aTaTaTaTavavaFaFbabababababababababaaaaaaaaaaaaaaaaaaaaaaaaaaaaaararaLaLavavauauavavaTaTaTaTa2a2a9a9a1a1auauaXaXa*a*a*a*a*a*bybyaoaoavava2a2a2a2a2a2avavavavavavavavavavaTaTaTaTaTaTavavaTaTa2a2a2a2avavalalaaaaaaaaaaaaaaaaaaaaaaaaayayararayaya6a6aCaCbebeaHaHa5a5a5a5aHaHaHaHaHaHa5a5aHaHaHaHa5a5aHaHaAaAaHaHaHaHaHaHa5a5a5a5aHaHaHaHa5a5aHaHa5a5aHaHa6a6akakajajajajafafa8a8azaza5a5aHaHa5a5aHaHaHaHbebeaJaJaaaaaaaaaaaaaaaaaaaaaaaaaaaaaaaaaaaaaaaaaaaaaaaaaaaaaaaaaaaaaaaaaaaaaaaa",
"aaaaaaaaaaaaaaaaaaaaaaaaaaaaaaaaaaaaaaaaaaaaaaaaaaaaaaaaaaaaaaaaaaaaaaaaaaaaaaaaaaaaaaaaaaaaaaaaaaaaaaaaaaaaaaaaaaaaaaaaaaaaaaaaaaaaaaaaaaaaaaaaaaaaaaaaaaaaaaaaaaaaaaaaaaaaaaaaaaaaaaaaaaaaaaaaaaaaaaaaaaaaaaaaaaaaaaaaaaaaaaaaaaaaaaaaaaaaaaaaaaaaaaaaaxaxagagalaladadbabaaFaFa$a$babaaTaTa^a^a^a^aTaTaTaTaSaSaQaQaSaSaSaSaSaSaQaQaQaQaQaQaTaTaSaSbibibibibibiafafa1a1a1a1araraqaqaqaqaqaqaqaqaqaqaFaFaoaoaoaoaFaFaFaFaqaqbabaaaaaararavavavava(a(a*a*a*a*a*a*aXaXbvbva1a1avavbibiavavauaubibibibibibibibibibibibibibibibibibibibibibibibiauauavavaaaaaaaaaaaaaaaaa7a7aLaLa8a8aiaiaxaxaiaiaJaJbebea5a5aHaHa5a5aHaHa5a5a5a5aHaHaHaHaHaHaHaHaAaAaHaHa5a5a5a5a5a5aHaHa5a5a5a5a5a5aAaAaAaAaAaAaAaAaJaJaaaaakakaLaLakakaoaoa8a8aAaAaHaHaHaHa5a5a5a5bebeaBaBaaaaaaaaaaaaaaaaaaaaaaaaaaaaaaaaaaaaaaaaaaaaaaaaaaaaaaaaaaaaaaaaaaaaaaaa",
"aaaaaaaaaaaaaaaaaaaaaaaaaaaaaaaaaaaaaaaaaaaaaaaaaaaaaaaaaaaaaaaaaaaaaaaaaaaaaaaaaaaaaaaaaaaaaaaaaaaaaaaaaaaaaaaaaaaaaaaaaaaaaaaaaaaaaaaaaaaaaaaaaaaaaaaaaaaaaaaaaaaaaaaaaaaaaaaaaaaaaaaaaaaaaaaaaaaaaaaaaaaaaaaaaaaaaaaaaaaaaaaaaaaaaaaaaaaaaaaaaaaaaaaaaxaxagagalaladadbabaaFaFa$a$babaaTaTa^a^a^a^aTaTaTaTaSaSaQaQaSaSaSaSaSaSaQaQaQaQaQaQaTaTaSaSbibibibibibiafafa1a1a1a1araraqaqaqaqaqaqaqaqaqaqaFaFaoaoaoaoaFaFaFaFaqaqbabaaaaaararavavavava(a(a*a*a*a*a*a*aXaXbvbva1a1avavbibiavavauaubibibibibibibibibibibibibibibibibibibibibibibibiauauavavaaaaaaaaaaaaaaaaa7a7aLaLa8a8aiaiaxaxaiaiaJaJbebea5a5aHaHa5a5aHaHa5a5a5a5aHaHaHaHaHaHaHaHaAaAaHaHa5a5a5a5a5a5aHaHa5a5a5a5a5a5aAaAaAaAaAaAaAaAaJaJaaaaakakaLaLakakaoaoa8a8aAaAaHaHaHaHa5a5a5a5bebeaBaBaaaaaaaaaaaaaaaaaaaaaaaaaaaaaaaaaaaaaaaaaaaaaaaaaaaaaaaaaaaaaaaaaaaaaaaa",
"aaaaaaaaaaaaaaaaaaaaaaaaaaaaaaaaaaaaaaaaaaaaaaaaaaaaaaaaaaaaaaaaaaaaaaaaaaaaaaaaaaaaaaaaaaaaaaaaaaaaaaaaaaaaaaaaaaaaaaaaaaaaaaaaaaaaaaaaaaaaaaaaaaaaaaaaaaaaaaaaaaaaaaaaaaaaaaaaaaaaaaaaaaaaaaaaaaaaaaaaaaaaaaaaaaaaaaaaaaaaaaaaaaaaaaaaaaaaaaaaaaaaaaaaaaaaacacajajaxaxaeaea7a7a$a$aiaibabaa1a1a1a1a1a1a1a1a1a1a1a1a1a1a1a1a1a1a1a1a1a1a1a1a1a1a1a1a1a1a1a1a1a1aTaTavavavavavavavavavavavavavavavavaaaaaaaaaaaaaaaaaaaaaiaiafafbababmbmbybya(a(aXaXa*a*a*a*a*a*aXaXbvbva1a1a1a1a1a1a1a1a1a1a1a1a1a1a1a1a1a1a1a1a1a1a1a1a1a1a1a1a1a1a1a1a1a1a1a1a1a1aaaaaVaVaaaaaaaaaLaLa$a$afafaKaKadadaUaUakakaIaIbdbdaHaHaHaHa5a5a5a5a5a5aHaHa5a5a5a5aAaAaWaWaAaAaAaAaAaAa5a5aAaAaHaHaAaAaAaAaHaHa5a5aHaHaHaHaHaHa3a3aoaoaqaqaoaoaLaLaFaFa6a6a5a5aHaHaHaHa5a5aCaCbdbdaaaaaaaaaaaaaaaaaaaaaaaaaaaaaaaaaaaaaaaaaaaaaaaaaaaaaaaaaaaaaaaaaaaaaaaa",
"aaaaaaaaaaaaaaaaaaaaaaaaaaaaaaaaaaaaaaaaaaaaaaaaaaaaaaaaaaaaaaaaaaaaaaaaaaaaaaaaaaaaaaaaaaaaaaaaaaaaaaaaaaaaaaaaaaaaaaaaaaaaaaaaaaaaaaaaaaaaaaaaaaaaaaaaaaaaaaaaaaaaaaaaaaaaaaaaaaaaaaaaaaaaaaaaaaaaaaaaaaaaaaaaaaaaaaaaaaaaaaaaaaaaaaaaaaaaaaaaaaaaaaaaaaaaacacajajaxaxaeaea7a7a$a$aiaibabaa1a1a1a1a1a1a1a1a1a1a1a1a1a1a1a1a1a1a1a1a1a1a1a1a1a1a1a1a1a1a1a1a1a1aTaTavavavavavavavavavavavavavavavavaaaaaaaaaaaaaaaaaaaaaiaiafafbababmbmbybya(a(aXaXa*a*a*a*a*a*aXaXbvbva1a1a1a1a1a1a1a1a1a1a1a1a1a1a1a1a1a1a1a1a1a1a1a1a1a1a1a1a1a1a1a1a1a1a1a1a1a1aaaaaVaVaaaaaaaaaLaLa$a$afafaKaKadadaUaUakakaIaIbdbdaHaHaHaHa5a5a5a5a5a5aHaHa5a5a5a5aAaAaWaWaAaAaAaAaAaAa5a5aAaAaHaHaAaAaAaAaHaHa5a5aHaHaHaHaHaHa3a3aoaoaqaqaoaoaLaLaFaFa6a6a5a5aHaHaHaHa5a5aCaCbdbdaaaaaaaaaaaaaaaaaaaaaaaaaaaaaaaaaaaaaaaaaaaaaaaaaaaaaaaaaaaaaaaaaaaaaaaa",
"aaaaaaaaaaaaaaaaaaaaaaaaaaaaaaaaaaaaaaaaaaaaaaaaaaaaaaaaaaaaaaaaaaaaaaaaaaaaaaaaaaaaaaaaaaaaaaaaaaaaaaaaaaaaaaaaaaaaaaaaaaaaaxaxaaaaaaaaaaaaaaaaaaaaaaaaalalaeaeaaaaaaaaaaaaaaaaaaaaaaaaaaaaaaaaaaaaaaaaaaaaaaaaaaaaaaaaaaaaaaaaaaaaaaaaaaaaaaaaaaaaaaaaaaaaaeaeadadararakaka7a7a6a6ajajaiaiaaaabibibibibibibibibibibibiauaubibibibibibibibibibibibibibibibibibibubububububububububububububububububuavavaaaababaaaaababababaa1a1bibibubublbla*a*a*a*a*a*a*a*a*a*a*a*bybybibiavavavavavavavavavavavavavavavavavavavavavavavavavavbibibibibibibibiavava1a1bmbmaMaMakaka6a6akakaUaUadadbcbcadadaLaLa6a6a7a7bebeaHaHaHaHa5a5a5a5a5a5aHaHaHaHaAaAaAaAaAaAaHaHaHaHaHaHaAaAazazaAaAbebeaAaAaAaAaAaAaAaAaAaAa4a4a3a3a3a3akakaqaqaIaIaJaJazaza5a5bebeaAaAaIaIa6a6aaaaaaaaaaaaaaaaaaaaaaaaaaaaaaaaaaaaaaaaaaaaaaaaaaaaaaaaaaaaaaaaaaaaaaaa",
"aaaaaaaaaaaaaaaaaaaaaaaaaaaaaaaaaaaaaaaaaaaaaaaaaaaaaaaaaaaaaaaaaaaaaaaaaaaaaaaaaaaaaaaaaaaaaaaaaaaaaaaaaaaaaaaaaaaaaaaaaaaaaxaxaaaaaaaaaaaaaaaaaaaaaaaaalalaeaeaaaaaaaaaaaaaaaaaaaaaaaaaaaaaaaaaaaaaaaaaaaaaaaaaaaaaaaaaaaaaaaaaaaaaaaaaaaaaaaaaaaaaaaaaaaaaeaeadadararakaka7a7a6a6ajajaiaiaaaabibibibibibibibibibibibiauaubibibibibibibibibibibibibibibibibibibubububububububububububububububububuavavaaaababaaaaababababaa1a1bibibubublbla*a*a*a*a*a*a*a*a*a*a*a*bybybibiavavavavavavavavavavavavavavavavavavavavavavavavavavbibibibibibibibiavava1a1bmbmaMaMakaka6a6akakaUaUadadbcbcadadaLaLa6a6a7a7bebeaHaHaHaHa5a5a5a5a5a5aHaHaHaHaAaAaAaAaAaAaHaHaHaHaHaHaAaAazazaAaAbebeaAaAaAaAaAaAaAaAaAaAa4a4a3a3a3a3akakaqaqaIaIaJaJazaza5a5bebeaAaAaIaIa6a6aaaaaaaaaaaaaaaaaaaaaaaaaaaaaaaaaaaaaaaaaaaaaaaaaaaaaaaaaaaaaaaaaaaaaaaa",
"aaaaaaaaaaaaaaaaaaaaaaaaaaaaaaaaaaaaaaaaaaaaaaaaaaaaaaaaaaaaaaaaaaaaaaaaaaaaaaaaaaaaaaaaaaaaaaaaaaaaaaaaaaaaaaaaaaaaaaaaaaaaadadaaaaaaaaaaaaaaaaaaaaafafadadararaaaaaaaaaaaaaaaaaaaaaaaaaaaaaaaaaaaaaaaaaaaaaaaaaaaaaaaaaaaaaaaaaaaaaaaaaaaaaaaaaaaaaaaaaaaaajajayayajajaMaMaaaaafafaMaMararavavbububububububububububububububububububububububububububububububububhbhbhbhbububrbrbrbrbhbhbrbrbhbhbibiblblbibibibibibibibiblblblblbubububua*a*a*a*a*a*aXaXa*a*a*a*a*a*aXaXa*a*bubububububububububububububububububububublblbububvbvbvbvbvbva(a(bvbvbibibabaaFaFakakaoaoalaladadbcbcbcbcalalararaFaFaFaFa7a7aJaJbebea5a5aHaHa5a5aHaHaHaHaWaWaAaAbebeaHaHaAaAaAaAazazaHaHbdbdazaza3a3aJaJa8a8a8a8a8a8a8a8a6a6a3a3a3a3a3a3bdbdaJaJa6a6aJaJazazaJaJaBaBaHaHbdbda3a3aaaaaaaaaaaaaaaaaaaaaaaaaaaaaaaaaaaaaaaaaaaaaaaaaaaaaaaaaaaaaaaaaaaa",
"aaaaaaaaaaaaaaaaaaaaaaaaaaaaaaaaaaaaaaaaaaaaaaaaaaaaaaaaaaaaaaaaaaaaaaaaaaaaaaaaaaaaaaaaaaaaaaaaaaaaaaaaaaaaaaaaaaaaaaaaaaaaadadaaaaaaaaaaaaaaaaaaaaafafadadararaaaaaaaaaaaaaaaaaaaaaaaaaaaaaaaaaaaaaaaaaaaaaaaaaaaaaaaaaaaaaaaaaaaaaaaaaaaaaaaaaaaaaaaaaaaaajajayayajajaMaMaaaaafafaMaMararavavbububububububububububububububububububububububububububububububububhbhbhbhbububrbrbrbrbhbhbrbrbhbhbibiblblbibibibibibibibiblblblblbubububua*a*a*a*a*a*aXaXa*a*a*a*a*a*aXaXa*a*bubububububububububububububububububububublblbububvbvbvbvbvbva(a(bvbvbibibabaaFaFakakaoaoalaladadbcbcbcbcalalararaFaFaFaFa7a7aJaJbebea5a5aHaHa5a5aHaHaHaHaWaWaAaAbebeaHaHaAaAaAaAazazaHaHbdbdazaza3a3aJaJa8a8a8a8a8a8a8a8a6a6a3a3a3a3a3a3bdbdaJaJa6a6aJaJazazaJaJaBaBaHaHbdbda3a3aaaaaaaaaaaaaaaaaaaaaaaaaaaaaaaaaaaaaaaaaaaaaaaaaaaaaaaaaaaaaaaaaaaa",
"aaaaaaaaaaaaaaaaaaaaaaaaaaaaaaaaaaaaaaaaaaaaaaaaaaaaaaaaaaaaaaaaaaaaaaaaaaaaaaaaaaaaaaaaaaaaaaaaaaaaaaaaaaaaaaaaaaaaaaaaaaaaaaaaaaaaaaaaaaaaaaaaaaaaaaaaaaaaaaaaaaaaaaaaaaaaaaaaaaaaaaaaaaaaaaaaaaaaaaaaaaaaaaaaaaaaaaaaaaaaaaaaaaaaaaaaaaaaaaaaaaaaaaaaaaaaaFaFararaaaaaaaaaaaababababaaiaibvbva*a*bububububububububibibibibububrbrbrbrbibiblblbibibibibrbrbubububububububububububububububububububububububububububububua*a*aXaXa*a*a*a*a*a*a*a*a*a*a*a*a*a*aXaXa*a*a*a*aXaXa*a*aXaXa*a*aXaXa*a*a*a*aXaXa*a*a*a*aXaXaXaXbybybybybybybvbvbhbha*a*bvbvararakakaiaialalaUaUaxaxalalaiaiaKaKararararaaaaaxaxa6a6a6a6aCaCaCaCaAaAa5a5aHaHaAaAaHaHaHaHaAaAaAaAaHaHbebeazazaIaIa7a7aaaababaaDaDararbabaa$a$a8a8aJaJazazazazazazaAaAbdbda3a3aHaHbebebebea5a5aHaHa7a7aqaqaaaaaaaaaaaaaaaaaaaaaaaaaaaaaaaaaaaaaaaaaaaaaaaaaaaaaaaaaaaaaaaa",
"aaaaaaaaaaaaaaaaaaaaaaaaaaaaaaaaaaaaaaaaaaaaaaaaaaaaaaaaaaaaaaaaaaaaaaaaaaaaaaaaaaaaaaaaaaaaaaaaaaaaaaaaaaaaaaaaaaaaaaaaaaaaaaaaaaaaaaaaaaaaaaaaaaaaaaaaaaaaaaaaaaaaaaaaaaaaaaaaaaaaaaaaaaaaaaaaaaaaaaaaaaaaaaaaaaaaaaaaaaaaaaaaaaaaaaaaaaaaaaaaaaaaaaaaaaaaaFaFararaaaaaaaaaaaababababaaiaibvbva*a*bububububububububibibibibububrbrbrbrbibiblblbibibibibrbrbubububububububububububububububububububububububububububububua*a*aXaXa*a*a*a*a*a*a*a*a*a*a*a*a*a*aXaXa*a*a*a*aXaXa*a*aXaXa*a*aXaXa*a*a*a*aXaXa*a*a*a*aXaXaXaXbybybybybybybvbvbhbha*a*bvbvararakakaiaialalaUaUaxaxalalaiaiaKaKararararaaaaaxaxa6a6a6a6aCaCaCaCaAaAa5a5aHaHaAaAaHaHaHaHaAaAaAaAaHaHbebeazazaIaIa7a7aaaababaaDaDararbabaa$a$a8a8aJaJazazazazazazaAaAbdbda3a3aHaHbebebebea5a5aHaHa7a7aqaqaaaaaaaaaaaaaaaaaaaaaaaaaaaaaaaaaaaaaaaaaaaaaaaaaaaaaaaaaaaaaaaa",
"aaaaaaaaaaaaaaaaaaaaaaaaaaaaaaaaaaaaaaaaaaaaaaaaaaaaaaaaaaaaaaaaaaaaaaaaaaaaaaaaaaaaaaaaaaaaaaaaaaaaaaaaaaaaaaaaaaaaaaaaaaaaaaaaaaaaaaaaaaaaaaaaaaaaaaaaaaaaaaaaaaaaaaaaaaaaaaaaaaaaaaaaaaaaaaaaaaaaaaaaaaaaaaaaaaaaaaaaaaaaaaaaaaaaaaaaaaaaaaaaaaaaaaaaaaaaaaaaaaaaaaaaaaaaavavavavavavbibibububrbrbububububububDbDa*a*a*a*a*a*a*a*a*a*a*a*bvbvbvbvbvbvbubua*a*aXaXa*a*aXaXaXaXa*a*aXaXaXaXaXaXaXaXaXaXa*a*aXaXaXaXaXaXa*a*a*a*a*a*a*a*a*a*a*a*a*a*a*a*a*a*aXaXa*a*a*a*a*a*aXaXbybyaXaXaXaXaXaXaXaXaXaXa(a(a(a(a*a*bubua*a*bububrbrbrbrbrbra*a*bubuararajajayayaeaealalaaaababababaaKaKakakbabaaUaUaKaKaFaFa7a7a6a6a3a3bebebebeaHaHbebeazazazazbdbda4a4a3a3a8a8aIaIa8a8a7a7aDaDaoaoaFaFararaDaDaaaaaFaFa7a7aJaJazazazazazazazazbebebebeaHaHaAaAaAaAazaza6a6afafaaaaaaaaaaaaaaaaaaaaaaaaaaaaaaaaaaaaaaaaaaaaaaaaaaaaaaaaaaaaaaaa",
"aaaaaaaaaaaaaaaaaaaaaaaaaaaaaaaaaaaaaaaaaaaaaaaaaaaaaaaaaaaaaaaaaaaaaaaaaaaaaaaaaaaaaaaaaaaaaaaaaaaaaaaaaaaaaaaaaaaaaaaaaaaaaaaaaaaaaaaaaaaaaaaaaaaaaaaaaaaaaaaaaaaaaaaaaaaaaaaaaaaaaaaaaaaaaaaaaaaaaaaaaaaaaaaaaaaaaaaaaaaaaaaaaaaaaaaaaaaaaaaaaaaaaaaaaaaaaaaaaaaaaaaaaaaaavavavavavavbibibububrbrbububububububDbDa*a*a*a*a*a*a*a*a*a*a*a*bvbvbvbvbvbvbubua*a*aXaXa*a*aXaXaXaXa*a*aXaXaXaXaXaXaXaXaXaXa*a*aXaXaXaXaXaXa*a*a*a*a*a*a*a*a*a*a*a*a*a*a*a*a*a*aXaXa*a*a*a*a*a*aXaXbybyaXaXaXaXaXaXaXaXaXaXa(a(a(a(a*a*bubua*a*bububrbrbrbrbrbra*a*bubuararajajayayaeaealalaaaababababaaKaKakakbabaaUaUaKaKaFaFa7a7a6a6a3a3bebebebeaHaHbebeazazazazbdbda4a4a3a3a8a8aIaIa8a8a7a7aDaDaoaoaFaFararaDaDaaaaaFaFa7a7aJaJazazazazazazazazbebebebeaHaHaAaAaAaAazaza6a6afafaaaaaaaaaaaaaaaaaaaaaaaaaaaaaaaaaaaaaaaaaaaaaaaaaaaaaaaaaaaaaaaa",
"aaaaaaaaaaaaaaaaaaaaaaaaaaaaaaaaaaaaaaaaaaaaaaaaaaaaaaaaaaaaaaaaaaaaaaaaaaaaaaaaaaaaaaaaaaaaaaaaaaaaalalaaaaaaaaaaaaaaaaaaaaaaaaaaaaaaaaaaaaaaaaaaaaaaaaaaaaaaaaaaaaaaaaaaaaaaaaaaaaaaaaaaaaaaaaaaaaaaaaaaaaaaaaaaaaaaaaaaaaaaaaaaaaaaaaaaaaaaaaaaaaaaaaaaaaaaaaaaaaaaaaaaaabvbva*a*bvbvbububububububububrbrbrbrbubububububua*a*a*a*a(a(a(a(a(a(a(a(a(a(a(a(aXaXaXaXaXaXaXaXaXaXaXaXa(a(aXaXaXaXaXaXaXaXaXaXaXaXaXaXaXaXaXaXaXaXaXaXaXaXaXaXaXaXaXaXaXaXaXaXaXaXaXaXaXaXaXaXa(a(aXaXaXaXa*a*a*a*bubua*a*bububububububrbrbrbrbububububububrbrbCbCbvbvaaaababaaVaValalayayayayaoaoaqaqakakbcbcaxaxaxaxaLaLbabaaFaFaFaFa$a$aIaIaCaCaAaAazazbebea4a4aJaJa8a8a$a$aaaaajaja7a7a6a6ararararaqaqaFaFaFaFararaFaFaFaFa$a$aJaJazazazazbebea5a5aAaAazazazazazazazaza6a6aMaMaaaaaaaaaaaaaaaaaaaaaaaaaaaaaaaaaaaaaaaaaaaaaaaaaaaaaaaaaaaaaaaa",
"aaaaaaaaaaaaaaaaaaaaaaaaaaaaaaaaaaaaaaaaaaaaaaaaaaaaaaaaaaaaaaaaaaaaaaaaaaaaaaaaaaaaaaaaaaaaaaaaaaaaalalaaaaaaaaaaaaaaaaaaaaaaaaaaaaaaaaaaaaaaaaaaaaaaaaaaaaaaaaaaaaaaaaaaaaaaaaaaaaaaaaaaaaaaaaaaaaaaaaaaaaaaaaaaaaaaaaaaaaaaaaaaaaaaaaaaaaaaaaaaaaaaaaaaaaaaaaaaaaaaaaaaaabvbva*a*bvbvbububububububububrbrbrbrbubububububua*a*a*a*a(a(a(a(a(a(a(a(a(a(a(a(aXaXaXaXaXaXaXaXaXaXaXaXa(a(aXaXaXaXaXaXaXaXaXaXaXaXaXaXaXaXaXaXaXaXaXaXaXaXaXaXaXaXaXaXaXaXaXaXaXaXaXaXaXaXaXaXa(a(aXaXaXaXa*a*a*a*bubua*a*bububububububrbrbrbrbububububububrbrbCbCbvbvaaaababaaVaValalayayayayaoaoaqaqakakbcbcaxaxaxaxaLaLbabaaFaFaFaFa$a$aIaIaCaCaAaAazazbebea4a4aJaJa8a8a$a$aaaaajaja7a7a6a6ararararaqaqaFaFaFaFararaFaFaFaFa$a$aJaJazazazazbebea5a5aAaAazazazazazazazaza6a6aMaMaaaaaaaaaaaaaaaaaaaaaaaaaaaaaaaaaaaaaaaaaaaaaaaaaaaaaaaaaaaaaaaa",
"aaaaaaaaaaaaaaaaaaaaaaaaaaaaaaaaaaaaaaaaaaaaaaaaaaaaaaaaaaaaaaaaaaaaaaaaaaaaaaaaaaaaaaaaaaaaa6a6axaxalalaaaaaaaaaaaaaaaaaaaaaaaaaaaaaaaaaaaaaaaaaaaaaaaaaaaaaaaaaaaaaaaaaaaaaaaaaaaaaaaaaaaaaaaaaaaaaaaaararadadaMaMaaaaaaaaaaaaaaaaaaaaaaaaaaaaaaaaaaaaaaaaaaaaaaaaaaaaaaaabubua*a*bububrbrbrbrbubububububububububububububua*a*a*a*a*a*aXaXa(a(a(a(aXaXa*a*a*a*a*a*a*a*a*a*a*a*a*a*a*a*a*a*a*a*a*a*a*a*a*a*a*a*a*a*a*a*a*a*a*a*a*a*a*a*a*a*a*a*a*a*a*a*a*a*a*a*a*a*a*a*a*a*bubububububua*a*a*a*bububububrbrbububububububububububububrbrbrbrbCbCblblaMaMa3a3aaaaajajalalalalalalbabaaUaUaMaMalalaKaKbabababaalaladadadada$a$a6a6a3a3aHaHaBaBaJaJa8a8babababaaaaababaajaja$a$aFaFararaFaFaFaFararbabaa$a$a7a7a8a8aJaJbdbdbebea5a5azazaJaJaBaBazazazazazaza3a3a6a6aaaaaaaaaaaaaaaaaaaaaaaaaaaaaaaaaaaaaaaaaaaaaaaaaaaaaaaaaaaaaaaa",
"aaaaaaaaaaaaaaaaaaaaaaaaaaaaaaaaaaaaaaaaaaaaaaaaaaaaaaaaaaaaaaaaaaaaaaaaaaaaaaaaaaaaaaaaaaaaa6a6axaxalalaaaaaaaaaaaaaaaaaaaaaaaaaaaaaaaaaaaaaaaaaaaaaaaaaaaaaaaaaaaaaaaaaaaaaaaaaaaaaaaaaaaaaaaaaaaaaaaaararadadaMaMaaaaaaaaaaaaaaaaaaaaaaaaaaaaaaaaaaaaaaaaaaaaaaaaaaaaaaaabubua*a*bububrbrbrbrbubububububububububububububua*a*a*a*a*a*aXaXa(a(a(a(aXaXa*a*a*a*a*a*a*a*a*a*a*a*a*a*a*a*a*a*a*a*a*a*a*a*a*a*a*a*a*a*a*a*a*a*a*a*a*a*a*a*a*a*a*a*a*a*a*a*a*a*a*a*a*a*a*a*a*a*bubububububua*a*a*a*bububububrbrbububububububububububububrbrbrbrbCbCblblaMaMa3a3aaaaajajalalalalalalbabaaUaUaMaMalalaKaKbabababaalaladadadada$a$a6a6a3a3aHaHaBaBaJaJa8a8babababaaaaababaajaja$a$aFaFararaFaFaFaFararbabaa$a$a7a7a8a8aJaJbdbdbebea5a5azazaJaJaBaBazazazazazaza3a3a6a6aaaaaaaaaaaaaaaaaaaaaaaaaaaaaaaaaaaaaaaaaaaaaaaaaaaaaaaaaaaaaaaa",
"aaaaaaaaaaaaaaaaaaaaaaaaaaaaaaaaaaaaaaaaaaaaaaaaaaaaaaaaaaaaaaaaaaaaaaaaaaaaaaaaaaaaaaaaaaaaaIaIaLaLaaaaaaaaaaaaaaaaaaaaaaaaaaaaaaaaaaaaaaaaaaaaaaaaaaaaaaaaaaaaaaaaaaaaaaaaaaaaaaaaaaaaaaaaaaaaaaaaaaaaaaaaaLaLaDaDaaaaaaaaaaaaaaaaaaaaaaaaaaaaaaaaaaaaaaaaaaaaaaaaaaaaa1a1bububFbFbububrbrbrbrbububububububububrbrbubububua*a*a*a*a*a*aXaXaXaXaXaXaXaXa*a*bFbFbFbFbFbFbFbFbFbFbFbFbFbFbFbFbFbFbFbFbFbFbCbCbFbFbFbFbFbFbFbFbFbFbFbFbFbFbFbFbFbFbFbFbFbFbFbFbFbFbFbFbFbFbFbFbububrbrbCbCbFbFbFbFbububCbCbububububububububububububububububrbrbCbCblblaJaJbdbda7a7aMaMaLaLalalafafajajajajbabaajajaxaxaFaFaeaeaxaxajajaFaFajaja6a6bdbdaBaBa6a6a7a7a6a6aDaDararbabababaa6a6babaararararaqaqararaFaFaaaaaaaaa6a6aIaIaAaAaAaAa4a4aJaJa6a6a3a3aIaIaBaBazazazazaBaBaIaIaJaJaaaaaaaaaaaaaaaaaaaaaaaaaaaaaaaaaaaaaaaaaaaaaaaaaaaaaaaaaaaa",
"aaaaaaaaaaaaaaaaaaaaaaaaaaaaaaaaaaaaaaaaaaaaaaaaaaaaaaaaaaaaaaaaaaaaaaaaaaaaaaaaaaaaaaaaaaaaaIaIaLaLaaaaaaaaaaaaaaaaaaaaaaaaaaaaaaaaaaaaaaaaaaaaaaaaaaaaaaaaaaaaaaaaaaaaaaaaaaaaaaaaaaaaaaaaaaaaaaaaaaaaaaaaaLaLaDaDaaaaaaaaaaaaaaaaaaaaaaaaaaaaaaaaaaaaaaaaaaaaaaaaaaaaa1a1bububFbFbububrbrbrbrbububububububububrbrbubububua*a*a*a*a*a*aXaXaXaXaXaXaXaXa*a*bFbFbFbFbFbFbFbFbFbFbFbFbFbFbFbFbFbFbFbFbFbFbCbCbFbFbFbFbFbFbFbFbFbFbFbFbFbFbFbFbFbFbFbFbFbFbFbFbFbFbFbFbFbFbFbFbububrbrbCbCbFbFbFbFbububCbCbububububububububububububububububrbrbCbCblblaJaJbdbda7a7aMaMaLaLalalafafajajajajbabaajajaxaxaFaFaeaeaxaxajajaFaFajaja6a6bdbdaBaBa6a6a7a7a6a6aDaDararbabababaa6a6babaararararaqaqararaFaFaaaaaaaaa6a6aIaIaAaAaAaAa4a4aJaJa6a6a3a3aIaIaBaBazazazazaBaBaIaIaJaJaaaaaaaaaaaaaaaaaaaaaaaaaaaaaaaaaaaaaaaaaaaaaaaaaaaaaaaaaaaa",
"aaaaaaaaaaaaaaaaaaaaaaaaaaaaaaaaaaaaaaaaaaaaaaaaaaaaaaaaaaaaaaaaaaaaaaaaaaaaaaaaaaaaaaaaaaaaaaaaaaaaaaaaaaaaaaaaaaaaaaaaaaaaaaaaaaaaaaaaaaaaaaaaaaaaaaaaaaaaaaaaaaaaaaaaaaaaaaaaaaaaaaaaaaaaaaaaaaaaaaaaaaaaaaaaaaaababaaaaaaaaaaaaaaaaaaaaaaaaaaaaaaaaababaa1a1a1a1a1a1a1a1bububFbFbububrbrbrbrbububububububububububrbrbububCbCbCbCa*a*aXaXaXaXaXaXaXaXa*a*a*a*bFbFbCbCbFbFa0a0bFbFa0a0bFbFbFbFbFbFbCbCbCbCbCbCbFbFbFbFbFbFbFbFbFbFbFbFbFbFbFbFbFbFbCbCbCbCbCbCbFbFbFbFa*a*bububrbrbCbCa*a*bFbFbububCbCbububububububububububububububububrbrbCbCblblaJaJbebeazaza6a6aMaMajajajajayayaVaVakakaFaFaKaKbcbcalalaaaaaqaqaiaia6a6bdbdaIaIa7a7a7a7a6a6aDaDararararararbabaaMaMbabaaqaqaFaFararbabaa8a8aIaIa3a3bebea5a5aAaAaBaBaBaBaIaIaJaJa3a3aJaJaJaJazazazazaBaBazaza3a3aaaaaaaaaaaaaaaaaaaaaaaaaaaaaaaaaaaaaaaaaaaaaaaaaaaaaaaaaaaa",
"aaaaaaaaaaaaaaaaaaaaaaaaaaaaaaaaaaaaaaaaaaaaaaaaaaaaaaaaaaaaaaaaaaaaaaaaaaaaaaaaaaaaaaaaaaaaaaaaaaaaaaaaaaaaaaaaaaaaaaaaaaaaaaaaaaaaaaaaaaaaaaaaaaaaaaaaaaaaaaaaaaaaaaaaaaaaaaaaaaaaaaaaaaaaaaaaaaaaaaaaaaaaaaaaaaaababaaaaaaaaaaaaaaaaaaaaaaaaaaaaaaaaababaa1a1a1a1a1a1a1a1bububFbFbububrbrbrbrbububububububububububrbrbububCbCbCbCa*a*aXaXaXaXaXaXaXaXa*a*a*a*bFbFbCbCbFbFa0a0bFbFa0a0bFbFbFbFbFbFbCbCbCbCbCbCbFbFbFbFbFbFbFbFbFbFbFbFbFbFbFbFbFbFbCbCbCbCbCbCbFbFbFbFa*a*bububrbrbCbCa*a*bFbFbububCbCbububububububububububububububububrbrbCbCblblaJaJbebeazaza6a6aMaMajajajajayayaVaVakakaFaFaKaKbcbcalalaaaaaqaqaiaia6a6bdbdaIaIa7a7a7a7a6a6aDaDararararararbabaaMaMbabaaqaqaFaFararbabaa8a8aIaIa3a3bebea5a5aAaAaBaBaBaBaIaIaJaJa3a3aJaJaJaJazazazazaBaBazaza3a3aaaaaaaaaaaaaaaaaaaaaaaaaaaaaaaaaaaaaaaaaaaaaaaaaaaaaaaaaaaa",
"aaaaaaaaaaaaaaaaaaaaaaaaaaaaaaaaaaaaaaaaaaaaaaaaaaaaaaaaaaaaaaaaaaaaaaaaaaaaaaaaaaaaaaaaaaaaaaaaaaaaaaaaaaaaaaaaaMaMafafararadadaEaEbzbzbzbzbzbzbzbzbzbzbzbzbzbzbzbzbzbzbzbzbzbzbzbzbzbzbzbzbzbzbzbzbzbzbzbzbzbzbzbzbzbzbzbzbzbzbzbzbzbzbzbzbzbzbybybvbvbvbvbvbvbibiauauaTaTbubua*a*bububrbrbububububububububububububububububCbCa*a*a*a*aXaXaXaXaXaXaXaXbCbCbFbFa*a*bububFbFbFbFa0a0a0a0bFbFbFbFbFbFbFbFbFbFbFbFbFbFbFbFbFbFbFbFbFbFbFbFbFbFbFbFbFbFbFbFbFbFbFbFbFbFbFbFa*a*bububrbra*a*a*a*a*a*bububububububububububrbrbububububububububrbrbCbCblblaJaJbebea5a5azaza7a7akakaLaLaxaxaxaxaxaxaLaLayayaqaqadadaoaoaqaqa$a$aIaIbdbda8a8babaaFaFararaFaFarararara6a6a$a$aFaFbabaaFaFa7a7a8a8aJaJa3a3bebebebeaHaHazazazazaBaBaIaIazazaIaIaJaJaJaJazazazazaIaIaIaIa3a3aIaIaaaaaaaaaaaaaaaaaaaaaaaaaaaaaaaaaaaaaaaaaaaaaaaaaaaaaaaaaaaa",
"aaaaaaaaaaaaaaaaaaaaaaaaaaaaaaaaaaaaaaaaaaaaaaaaaaaaaaaaaaaaaaaaaaaaaaaaaaaaaaaaaaaaaaaaaaaaaaaaaaaaaaaaaaaaaaaaaMaMafafararadadaEaEbzbzbzbzbzbzbzbzbzbzbzbzbzbzbzbzbzbzbzbzbzbzbzbzbzbzbzbzbzbzbzbzbzbzbzbzbzbzbzbzbzbzbzbzbzbzbzbzbzbzbzbzbzbzbybybvbvbvbvbvbvbibiauauaTaTbubua*a*bububrbrbububububububububububububububububCbCa*a*a*a*aXaXaXaXaXaXaXaXbCbCbFbFa*a*bububFbFbFbFa0a0a0a0bFbFbFbFbFbFbFbFbFbFbFbFbFbFbFbFbFbFbFbFbFbFbFbFbFbFbFbFbFbFbFbFbFbFbFbFbFbFbFbFa*a*bububrbra*a*a*a*a*a*bububububububububububrbrbububububububububrbrbCbCblblaJaJbebea5a5azaza7a7akakaLaLaxaxaxaxaxaxaLaLayayaqaqadadaoaoaqaqa$a$aIaIbdbda8a8babaaFaFararaFaFarararara6a6a$a$aFaFbabaaFaFa7a7a8a8aJaJa3a3bebebebeaHaHazazazazaBaBaIaIazazaIaIaJaJaJaJazazazazaIaIaIaIa3a3aIaIaaaaaaaaaaaaaaaaaaaaaaaaaaaaaaaaaaaaaaaaaaaaaaaaaaaaaaaaaaaa",
"aaaaaaaaaaaaaaaaaaaaaaaaaaaaaaaaaaaaaaaaaaaaaaaaaaaaaaaaaaaaaaaaaaaaaaaaaaaaaaaaaaaaaaaaaaaaaaaaajajalalavavavavaEaEaZaZaEaEa(a(bybyaXaXaXaXa*a*aXaXaXaXaXaXaXaXaXaXaXaXaXaXa*a*bkbkbububububububububububububububububububububububububububububububububububububububibibubuaTaTbubua*a*bubububububububububububububububububububua*a*a*a*a*a*aXaXaXaXaXaXaXaXa0a0bFbFa*a*bxbxbFbFbFbFa0a0bFbFbFbFbFbFbFbFbFbFbFbFbFbFbFbFbFbFbFbFbFbFbFbFbFbFbFbFbFbFbFbFbFbFbFbFbFbFa0a0a0a0bFbFbububrbrbCbCa*a*bFbFbububububububububrbrbrbrbububububububububrbrbCbCblblaIaIbebeaHaHaAaAaJaJakakayayakakakakajajafafaKaKbabaaqaqadadaiaiafafbdbdaIaIa$a$aqaqaFaFaDaDaqaqaFaFa7a7a6a6a7a7aMaMa8a8a7a7aJaJa4a4bebea5a5aAaAaBaBaBaBa3a3aJaJaIaIazazbebeaHaHaAaAazazazazaIaIaJaJaUaUaBaBa6a6aaaaaaaaaaaaaaaaaaaaaaaaaaaaaaaaaaaaaaaaaaaaaaaaaaaaaaaaaaaa",
"aaaaaaaaaaaaaaaaaaaaaaaaaaaaaaaaaaaaaaaaaaaaaaaaaaaaaaaaaaaaaaaaaaaaaaaaaaaaaaaaaaaaaaaaaaaaaaaaajajalalavavavavaEaEaZaZaEaEa(a(bybyaXaXaXaXa*a*aXaXaXaXaXaXaXaXaXaXaXaXaXaXa*a*bkbkbububububububububububububububububububububububububububububububububububububububibibubuaTaTbubua*a*bubububububububububububububububububububua*a*a*a*a*a*aXaXaXaXaXaXaXaXa0a0bFbFa*a*bxbxbFbFbFbFa0a0bFbFbFbFbFbFbFbFbFbFbFbFbFbFbFbFbFbFbFbFbFbFbFbFbFbFbFbFbFbFbFbFbFbFbFbFbFbFa0a0a0a0bFbFbububrbrbCbCa*a*bFbFbububububububububrbrbrbrbububububububububrbrbCbCblblaIaIbebeaHaHaAaAaJaJakakayayakakakakajajafafaKaKbabaaqaqadadaiaiafafbdbdaIaIa$a$aqaqaFaFaDaDaqaqaFaFa7a7a6a6a7a7aMaMa8a8a7a7aJaJa4a4bebea5a5aAaAaBaBaBaBa3a3aJaJaIaIazazbebeaHaHaAaAazazazazaIaIaJaJaUaUaBaBa6a6aaaaaaaaaaaaaaaaaaaaaaaaaaaaaaaaaaaaaaaaaaaaaaaaaaaaaaaaaaaa",
"aaaaaaaaaaaaaaaaaaaaaaaaaaaaaaaaaaaaaaaaaaaaaaaaaaaaaaaaaaaaaaaaaaaaaaaaaaaaaaaaaaaaaaaaaFaFauaua(a(aZaZa(a(a(a(bybya*a*a*a*a*a*a*a*aXaXa*a*a*a*a*a*a*a*a*a*a*a*a*a*a*a*a*a*a*a*bububkbkbkbkbibibububububububububububububububububububububububububububububrbrbubububububuaTaTbubua*a*bububrbrbrbrbubububububububububububububua*a*a*a*a*a*aXaXaXaXaXaXaXaXa0a0bFbFa*a*bxbxbFbFa0a0bFbFbFbFbFbFbFbFbFbFbFbFbFbFa0a0bFbFbFbFbFbFbFbFbFbFbFbFbFbFbFbFbFbFbFbFbFbFbFbFa0a0a0a0bFbFbububrbrbCbCa*a*a*a*bubububububububububububububububububububububua*a*bubua6a6bfbfaHaHaHaHaAaAa6a6aVaVakakayayakakalalaLaLaLaLaqaqaoaoaMaMaKaKa3a3a8a8a6a6aFaFaqaqaqaqaFaFaqaqa6a6a8a8a8a8a6a6aIaIaHaHbebebebeaAaAazazazazaBaBaBaBaIaIaJaJbdbda3a3aIaIaIaIaIaIaAaAaIaIaIaIa3a3azazaBaBaaaaaaaaaaaaaaaaaaaaaaaaaaaaaaaaaaaaaaaaaaaaaaaaaaaaaaaaaaaaaaaa",
"aaaaaaaaaaaaaaaaaaaaaaaaaaaaaaaaaaaaaaaaaaaaaaaaaaaaaaaaaaaaaaaaaaaaaaaaaaaaaaaaaaaaaaaaaFaFauaua(a(aZaZa(a(a(a(bybya*a*a*a*a*a*a*a*aXaXa*a*a*a*a*a*a*a*a*a*a*a*a*a*a*a*a*a*a*a*bububkbkbkbkbibibububububububububububububububububububububububububububububrbrbubububububuaTaTbubua*a*bububrbrbrbrbubububububububububububububua*a*a*a*a*a*aXaXaXaXaXaXaXaXa0a0bFbFa*a*bxbxbFbFa0a0bFbFbFbFbFbFbFbFbFbFbFbFbFbFa0a0bFbFbFbFbFbFbFbFbFbFbFbFbFbFbFbFbFbFbFbFbFbFbFbFa0a0a0a0bFbFbububrbrbCbCa*a*a*a*bubububububububububububububububububububububua*a*bubua6a6bfbfaHaHaHaHaAaAa6a6aVaVakakayayakakalalaLaLaLaLaqaqaoaoaMaMaKaKa3a3a8a8a6a6aFaFaqaqaqaqaFaFaqaqa6a6a8a8a8a8a6a6aIaIaHaHbebebebeaAaAazazazazaBaBaBaBaIaIaJaJbdbda3a3aIaIaIaIaIaIaAaAaIaIaIaIa3a3azazaBaBaaaaaaaaaaaaaaaaaaaaaaaaaaaaaaaaaaaaaaaaaaaaaaaaaaaaaaaaaaaaaaaa",
"aaaaaaaaaaaaaaaaaaaaaaaaaaaaaaaaaaaaaaaaaaaaaaaaaaaaaaaaaaaaaaaaaaaaaaaaaaaaaaaaaaaabmbmbybya(a(a*a*a*a*a*a*a*a*a*a*a*a*a*a*a*a*aXaXbubububuaXaXa*a*a*a*a*a*a*a*a*a*a*a*a*a*aXaXa*a*a*a*a*a*bubububububublblblblbubublblbubububububububububububububububububububububububuaTaTbububFbFbububrbrbrbrbrbrbubububububububububububua*a*a*a*a*a*aXaXaXaXaXaXaXaXbCbCbFbFa*a*bFbFbFbFbFbFbFbFbCbCbFbFbFbFbFbFbFbFa0a0a0a0bFbFbFbFbFbFa0a0a0a0a0a0bFbFbFbFbFbFbFbFbFbFbFbFbFbFa0a0bFbFbububrbrbCbCa*a*a*a*bububububububububububububububububububububububCbCbububabaazazbebeaHaHaHaHaAaAa6a6ayayakakayayadadajajaLaLadadaaaaajajaUaUaJaJa8a8a6a6ararararaFaFaqaqaqaqa$a$aJaJa3a3bdbdaAaAbfbfaAaAazazazazaJaJaBaBaAaAazazaIaIbdbda3a3aaaaaaaaaaaaaaaaaJaJa3a3azazazazazazaIaIaaaaaaaaaaaaaaaaaaaaaaaaaaaaaaaaaaaaaaaaaaaaaaaaaaaaaaaaaaaaaaaa",
"aaaaaaaaaaaaaaaaaaaaaaaaaaaaaaaaaaaaaaaaaaaaaaaaaaaaaaaaaaaaaaaaaaaaaaaaaaaaaaaaaaaabmbmbybya(a(a*a*a*a*a*a*a*a*a*a*a*a*a*a*a*a*aXaXbubububuaXaXa*a*a*a*a*a*a*a*a*a*a*a*a*a*aXaXa*a*a*a*a*a*bubububububublblblblbubublblbubububububububububububububububububububububububuaTaTbububFbFbububrbrbrbrbrbrbubububububububububububua*a*a*a*a*a*aXaXaXaXaXaXaXaXbCbCbFbFa*a*bFbFbFbFbFbFbFbFbCbCbFbFbFbFbFbFbFbFa0a0a0a0bFbFbFbFbFbFa0a0a0a0a0a0bFbFbFbFbFbFbFbFbFbFbFbFbFbFa0a0bFbFbububrbrbCbCa*a*a*a*bububububububububububububububububububububububCbCbububabaazazbebeaHaHaHaHaAaAa6a6ayayakakayayadadajajaLaLadadaaaaajajaUaUaJaJa8a8a6a6ararararaFaFaqaqaqaqa$a$aJaJa3a3bdbdaAaAbfbfaAaAazazazazaJaJaBaBaAaAazazaIaIbdbda3a3aaaaaaaaaaaaaaaaaJaJa3a3azazazazazazaIaIaaaaaaaaaaaaaaaaaaaaaaaaaaaaaaaaaaaaaaaaaaaaaaaaaaaaaaaaaaaaaaaa",
"aaaaaaaaaaaaaaaaaaaaaaaaaaaaaaaaaaaaaaaaaaaaaaaaaaaaaaaaaaaaaaaaaaaaaaaaaaaaaaaaadada(a(aXaXa*a*a*a*a*a*a*a*aXaXa*a*a*a*a*a*aXaXbubua)a)bubuaXaXaXaXa*a*a*a*a*a*a*a*a*a*a*a*a*a*aXaXaXaXa*a*a*a*a*a*a*a*bububububhbhbububububububububububibibubububububububububububububuaTaTbububFbFbububrbrbubububububububububububububububua*a*a*a*a*a*aXaXaXaXaXaXaXaXbCbCbFbFa*a*bxbxbFbFbFbFbFbFbFbFbFbFbFbFbFbFbFbFbFbFbFbFbFbFbFbFbFbFbFbFbFbFbFbFbFbFbFbFbFbFbFbFbFbFbFbFbFbFa0a0bFbFbububrbrbCbCbFbFbFbFbububububububububububububububububububububrbra*a*bubuaFaFazazazazbebeaHaHaAaAa3a3aJaJakakalalaKaKakakayayalalaMaMbdbdaJaJaqaqaFaFararaoaoarara7a7a7a7a6a6bdbdbebeaCaCbdbdaJaJazazaBaBaBaBaBaBaJaJazaza3a3aJaJaKaKa3a3aaaaafafaiaiaMaMararaaaaaJaJa3a3a3a3aJaJaaaaaaaaaaaaaaaaaaaaaaaaaaaaaaaaaaaaaaaaaaaaaaaaaaaaaaaaaaaaaaaaaaaa",
"aaaaaaaaaaaaaaaaaaaaaaaaaaaaaaaaaaaaaaaaaaaaaaaaaaaaaaaaaaaaaaaaaaaaaaaaaaaaaaaaadada(a(aXaXa*a*a*a*a*a*a*a*aXaXa*a*a*a*a*a*aXaXbubua)a)bubuaXaXaXaXa*a*a*a*a*a*a*a*a*a*a*a*a*a*aXaXaXaXa*a*a*a*a*a*a*a*bububububhbhbububububububububububibibubububububububububububububuaTaTbububFbFbububrbrbubububububububububububububububua*a*a*a*a*a*aXaXaXaXaXaXaXaXbCbCbFbFa*a*bxbxbFbFbFbFbFbFbFbFbFbFbFbFbFbFbFbFbFbFbFbFbFbFbFbFbFbFbFbFbFbFbFbFbFbFbFbFbFbFbFbFbFbFbFbFbFbFa0a0bFbFbububrbrbCbCbFbFbFbFbububububububububububububububububububububrbra*a*bubuaFaFazazazazbebeaHaHaAaAa3a3aJaJakakalalaKaKakakayayalalaMaMbdbdaJaJaqaqaFaFararaoaoarara7a7a7a7a6a6bdbdbebeaCaCbdbdaJaJazazaBaBaBaBaBaBaJaJazaza3a3aJaJaKaKa3a3aaaaafafaiaiaMaMararaaaaaJaJa3a3a3a3aJaJaaaaaaaaaaaaaaaaaaaaaaaaaaaaaaaaaaaaaaaaaaaaaaaaaaaaaaaaaaaaaaaaaaaa",
"aaaaaaaaaaaaaaaaaaaaaaaaaaaaaaaaaaaaaaaaaaaaaaaaaaaaaaaaaaaaaaaaaaaaaaaaaaaaaaaabzbza(a(a*a*aXaXa*a*a*a*a*a*a*a*a*a*a*a*a*a*a*a*blblbubuaXaXa*a*a*a*a*a*a*a*a*a*a*a*a*a*a*a*aXaXa*a*blbla*a*a*a*a*a*a*a*aXaXa*a*bububububkbkbkbkbububibibububububibibubububububububububuaTaTbububFbFbububrbrbubububububububububububububububua*a*a*a*a*a*aXaXaXaXaXaXaXaXbCbCbFbFa*a*bxbxbFbFbFbFbFbFbFbFbFbFbFbFbFbFbFbFbFbFbFbFbFbFbFbFbFbFbFbFbFbFbFbFbFbFbFbFbFbFbFbFbFbFbFbFbFbFa0a0bFbFbububrbrbCbCbFbFbFbFbububububububububububububububububububububrbra*a*blblaFaFa3a3azazazazaAaAazazaHaHa3a3a6a6aiaiakakayayayayaaaaa3a3a3a3aaaaa$a$aFaFa7a7a$a$a7a7a6a6aAaAbebebebebebeaAaAaBaBaBaBazazazazaBaBaBaBazazaBaBaBaBaJaJajajaaaaaMaMbabaaFaFaqaqaoaoa6a6aaaaakakaJaJaaaaaaaaaaaaaaaaaaaaaaaaaaaaaaaaaaaaaaaaaaaaaaaaaaaaaaaaaaaaaaaaaaaaaaaa",
"aaaaaaaaaaaaaaaaaaaaaaaaaaaaaaaaaaaaaaaaaaaaaaaaaaaaaaaaaaaaaaaaaaaaaaaaaaaaaaaabzbza(a(a*a*aXaXa*a*a*a*a*a*a*a*a*a*a*a*a*a*a*a*blblbubuaXaXa*a*a*a*a*a*a*a*a*a*a*a*a*a*a*a*aXaXa*a*blbla*a*a*a*a*a*a*a*aXaXa*a*bububububkbkbkbkbububibibububububibibubububububububububuaTaTbububFbFbububrbrbubububububububububububububububua*a*a*a*a*a*aXaXaXaXaXaXaXaXbCbCbFbFa*a*bxbxbFbFbFbFbFbFbFbFbFbFbFbFbFbFbFbFbFbFbFbFbFbFbFbFbFbFbFbFbFbFbFbFbFbFbFbFbFbFbFbFbFbFbFbFbFbFa0a0bFbFbububrbrbCbCbFbFbFbFbububububububububububububububububububububrbra*a*blblaFaFa3a3azazazazaAaAazazaHaHa3a3a6a6aiaiakakayayayayaaaaa3a3a3a3aaaaa$a$aFaFa7a7a$a$a7a7a6a6aAaAbebebebebebeaAaAaBaBaBaBazazazazaBaBaBaBazazaBaBaBaBaJaJajajaaaaaMaMbabaaFaFaqaqaoaoa6a6aaaaakakaJaJaaaaaaaaaaaaaaaaaaaaaaaaaaaaaaaaaaaaaaaaaaaaaaaaaaaaaaaaaaaaaaaaaaaaaaaa",
"aaaaaaaaaaaaaaaaaaaaaaaaaaaaaaaaaaaaaaaaaaaaaaaaaaaaaaaaaaaaaaaaaaaaaaaaaaaaaaaabmbma(a(a*a*a*a*a*a*a*a*a*a*a*a*a*a*a*a*a*a*a*a*aXaXaXaXa*a*a*a*a*a*a*a*a*a*a*a*a*a*a*a*a*a*a*a*bxbxblbla*a*a*a*a*a*a*a*a*a*aXaXaXaXa*a*a*a*bububhbhbubububububububububububububububububuaTaTbububFbFbububrbrbubububububububububububububububua*a*a*a*a*a*aXaXaXaXaXaXaXaXbCbCbFbFa*a*bxbxbFbFbFbFbFbFbFbFbFbFbFbFbFbFbFbFbFbFbFbFbFbFbFbFbFbFbFbFbFbFbFbFbFbFbFbFbFbFbFbFbFbFbFbFbFbFa0a0bFbFbububrbrbCbCbFbFbFbFbububububububububububububububububububububrbra*a*bubuaFaFa3a3aJaJaBaBa5a5a5a5aHaHbebea3a3akaka6a6aLaLaiaiaeaea3a3a8a8aeaeaeaea8a8aJaJaIaIa3a3bebeaHaHaAaAaBaBazazazazazazaBaBa3a3aBaBazazazazazazbdbdaJaJaIaIa$a$aFaFbabaalalaaaaajajafafa6a6aaaaaaaaaaaaaaaaaaaaaaaaaaaaaaaaaaaaaaaaaaaaaaaaaaaaaaaaaaaaaaaaaaaaaaaaaaaaaaaaaaaa",
"aaaaaaaaaaaaaaaaaaaaaaaaaaaaaaaaaaaaaaaaaaaaaaaaaaaaaaaaaaaaaaaaaaaaaaaaaaaaaaaabmbma(a(a*a*a*a*a*a*a*a*a*a*a*a*a*a*a*a*a*a*a*a*aXaXaXaXa*a*a*a*a*a*a*a*a*a*a*a*a*a*a*a*a*a*a*a*bxbxblbla*a*a*a*a*a*a*a*a*a*aXaXaXaXa*a*a*a*bububhbhbubububububububububububububububububuaTaTbububFbFbububrbrbubububububububububububububububua*a*a*a*a*a*aXaXaXaXaXaXaXaXbCbCbFbFa*a*bxbxbFbFbFbFbFbFbFbFbFbFbFbFbFbFbFbFbFbFbFbFbFbFbFbFbFbFbFbFbFbFbFbFbFbFbFbFbFbFbFbFbFbFbFbFbFbFa0a0bFbFbububrbrbCbCbFbFbFbFbububububububububububububububububububububrbra*a*bubuaFaFa3a3aJaJaBaBa5a5a5a5aHaHbebea3a3akaka6a6aLaLaiaiaeaea3a3a8a8aeaeaeaea8a8aJaJaIaIa3a3bebeaHaHaAaAaBaBazazazazazazaBaBa3a3aBaBazazazazazazbdbdaJaJaIaIa$a$aFaFbabaalalaaaaajajafafa6a6aaaaaaaaaaaaaaaaaaaaaaaaaaaaaaaaaaaaaaaaaaaaaaaaaaaaaaaaaaaaaaaaaaaaaaaaaaaaaaaaaaaa",
"aaaaaaaaaaaaaaaaaaaaaaaaaaaaaaaaaaaaaaaaaaaaaaaaaaaaaaaaaaaaaaaaaaaaaaaaaaaaaaaaauaua*a*a*a*a*a*aXaXaXaXa*a*a*a*a*a*a*a*a*a*a*a*a*a*a*a*a*a*a*a*a*a*a*a*a*a*a*a*a*a*a*a*a*a*a*a*aXaXaXaXa*a*a*a*a*a*a*a*a*a*a*a*a*a*a*a*aXaXa*a*a*a*a*a*bubublblblblbubububububububububuaTaTbububFbFbububrbrbubububububububububububububububua*a*a*a*a*a*aXaXaXaXaXaXaXaXbCbCbFbFa*a*bxbxbFbFbFbFbFbFbFbFbFbFbFbFbFbFbFbFbFbFbFbFbFbFbFbFbFbFbFbFbFbFbFbFbFbFbFbFbFbFbFbFbFbFbFbFbFbFa0a0bFbFbububrbrbCbCbFbFbFbFbububububububububububububububububububububrbra*a*bubuaFaFa3a3aJaJa3a3bfbfaHaHbebebebebebebdbda3a3a8a8aJaJbdbdaJaJaJaJa4a4bpbpa3a3aIaIbebebdbdaAaAaBaBazazazazaBaBazazaBaBaBaBazazazazazazaAaAaHaHa3a3aJaJaIaIa7a7ajajaiaiaxaxaKaKaeaeayayaqaqaaaaaaaaaaaaaaaaaaaaaaaaaaaaaaaaaaaaaaaaaaaaaaaaaaaaaaaaaaaaaaaaaaaaaaaaaaaaaaaaaaaa",
"aaaaaaaaaaaaaaaaaaaaaaaaaaaaaaaaaaaaaaaaaaaaaaaaaaaaaaaaaaaaaaaaaaaaaaaaaaaaaaaaauaua*a*a*a*a*a*aXaXaXaXa*a*a*a*a*a*a*a*a*a*a*a*a*a*a*a*a*a*a*a*a*a*a*a*a*a*a*a*a*a*a*a*a*a*a*a*aXaXaXaXa*a*a*a*a*a*a*a*a*a*a*a*a*a*a*a*aXaXa*a*a*a*a*a*bubublblblblbubububububububububuaTaTbububFbFbububrbrbubububububububububububububububua*a*a*a*a*a*aXaXaXaXaXaXaXaXbCbCbFbFa*a*bxbxbFbFbFbFbFbFbFbFbFbFbFbFbFbFbFbFbFbFbFbFbFbFbFbFbFbFbFbFbFbFbFbFbFbFbFbFbFbFbFbFbFbFbFbFbFbFa0a0bFbFbububrbrbCbCbFbFbFbFbububububububububububububububububububububrbra*a*bubuaFaFa3a3aJaJa3a3bfbfaHaHbebebebebebebdbda3a3a8a8aJaJbdbdaJaJaJaJa4a4bpbpa3a3aIaIbebebdbdaAaAaBaBazazazazaBaBazazaBaBaBaBazazazazazazaAaAaHaHa3a3aJaJaIaIa7a7ajajaiaiaxaxaKaKaeaeayayaqaqaaaaaaaaaaaaaaaaaaaaaaaaaaaaaaaaaaaaaaaaaaaaaaaaaaaaaaaaaaaaaaaaaaaaaaaaaaaaaaaaaaaa",
"aaaaaaaaaaaaaaaaaaaaaaaaaaaaaaaaaaaaaaaaaaaaaaaaaaaaaaaaaaaaaaaaaaaaaaaaaaaaaaaaauaua*a*bububkbka*a*bybyaXaXa(a(a(a(aXaXaXaXaXaXa*a*a*a*aXaXa*a*a*a*a*a*a*a*a*a*a*a*a*a*a*a*a*a*a*a*a*a*a*a*a*a*a*a*a*a*a*a*a*a*a*a*a*a*a*a*a*a*a*a*a*a*aXaXbububububububhbhbububibibubuaTaTbububFbFbububrbrbubububububububububububububububua*a*a*a*a*a*aXaXaXaXaXaXaXaXbCbCbFbFa*a*bxbxbFbFbFbFbFbFbFbFbFbFbFbFbFbFbFbFbFbFbFbFbFbFbFbFbFbFbFbFbFbFbFbFbFbFbFbFbFbFbFbFbFbFbFbFbFbFa0a0bFbFbububrbrbCbCbFbFbFbFbububububububububububububububububububububrbra*a*bubuararaIaIaBaBaAaAbdbdaBaBa8a8a8a8a8a8aJaJaJaJaBaBbebeaBaBaBaBa!a!aJaJaAaAbdbdaJaJa3a3aAaAazazazazazazazazazazazazazazaBaBaAaAaHaHaAaAazazazazazazaJaJaJaJa8a8ayayaxaxajajadadadadajajararaaaaaaaaaaaaaaaaaaaaaaaaaaaaaaaaaaaaaaaaaaaaaaaaaaaaaaaaaaaaaaaaaaaaaaaaaaaaaaaaaaaa",
"aaaaaaaaaaaaaaaaaaaaaaaaaaaaaaaaaaaaaaaaaaaaaaaaaaaaaaaaaaaaaaaaaaaaaaaaaaaaaaaaauaua*a*bububkbka*a*bybyaXaXa(a(a(a(aXaXaXaXaXaXa*a*a*a*aXaXa*a*a*a*a*a*a*a*a*a*a*a*a*a*a*a*a*a*a*a*a*a*a*a*a*a*a*a*a*a*a*a*a*a*a*a*a*a*a*a*a*a*a*a*a*a*aXaXbububububububhbhbububibibubuaTaTbububFbFbububrbrbubububububububububububububububua*a*a*a*a*a*aXaXaXaXaXaXaXaXbCbCbFbFa*a*bxbxbFbFbFbFbFbFbFbFbFbFbFbFbFbFbFbFbFbFbFbFbFbFbFbFbFbFbFbFbFbFbFbFbFbFbFbFbFbFbFbFbFbFbFbFbFbFa0a0bFbFbububrbrbCbCbFbFbFbFbububububububububububububububububububububrbra*a*bubuararaIaIaBaBaAaAbdbdaBaBa8a8a8a8a8a8aJaJaJaJaBaBbebeaBaBaBaBa!a!aJaJaAaAbdbdaJaJa3a3aAaAazazazazazazazazazazazazazazaBaBaAaAaHaHaAaAazazazazazazaJaJaJaJa8a8ayayaxaxajajadadadadajajararaaaaaaaaaaaaaaaaaaaaaaaaaaaaaaaaaaaaaaaaaaaaaaaaaaaaaaaaaaaaaaaaaaaaaaaaaaaaaaaaaaaa",
"aaaaaaaaaaaaaaaaaaaaaaaaaaaaaaaaaaaaaaaaaaaaaaaaaaaaaaaaaaaaaaaaaaaaaaaaaaaaaaaabibia*a*bububrbrbrbrbhbhbububybybybybvbva*a*aXaXa(a(a(a(a(a(a(a(aXaXaXaXaXaXaXaXaXaXaXaXaXaXaXaXaXaXaXaXaXaXaXaXaXaXaXaXaXaXaXaXaXaXaXaXaXaXaXaXaXaXaXaXaXaXa(a(a(a(aXaXa*a*a*a*bibibvbvavavbububFbFbububrbrbubububububububububububububububua*a*a*a*a*a*aXaXaXaXaXaXaXaXa*a*bFbFa*a*bxbxbFbFbFbFbFbFbFbFbFbFbFbFbFbFbFbFbFbFbFbFbFbFbFbFbFbFbFbFbFbFbFbFbFbFbFbFbFbFbFbFbFbFbFbFbFbFa0a0bFbFbububrbrbCbCbFbFbFbFbububububububububububububububububububububrbra*a*bubua$a$aIaIaJaJa3a3a3a3a$a$a8a8a8a8a6a6aJaJa3a3bebebebeazazaBaBaIaIaJaJaJaJaJaJaJaJazazazazazazazazazazazazazazazaza3a3aBaBaAaAazazaBaBazazazazaJaJaJaJa6a6a$a$babaaoaobcbcaUaUakakaLaLararaaaaaaaaaaaaaaaaaaaaaaaaaaaaaaaaaaaaaaaaaaaaaaaaaaaaaaaaaaaaaaaaaaaaaaaaaaaaaaaaaaaa",
"aaaaaaaaaaaaaaaaaaaaaaaaaaaaaaaaaaaaaaaaaaaaaaaaaaaaaaaaaaaaaaaaaaaaaaaaaaaaaaaabibia*a*bububrbrbrbrbhbhbububybybybybvbva*a*aXaXa(a(a(a(a(a(a(a(aXaXaXaXaXaXaXaXaXaXaXaXaXaXaXaXaXaXaXaXaXaXaXaXaXaXaXaXaXaXaXaXaXaXaXaXaXaXaXaXaXaXaXaXaXaXa(a(a(a(aXaXa*a*a*a*bibibvbvavavbububFbFbububrbrbubububububububububububububububua*a*a*a*a*a*aXaXaXaXaXaXaXaXa*a*bFbFa*a*bxbxbFbFbFbFbFbFbFbFbFbFbFbFbFbFbFbFbFbFbFbFbFbFbFbFbFbFbFbFbFbFbFbFbFbFbFbFbFbFbFbFbFbFbFbFbFbFa0a0bFbFbububrbrbCbCbFbFbFbFbububububububububububububububububububububrbra*a*bubua$a$aIaIaJaJa3a3a3a3a$a$a8a8a8a8a6a6aJaJa3a3bebebebeazazaBaBaIaIaJaJaJaJaJaJaJaJazazazazazazazazazazazazazazazaza3a3aBaBaAaAazazaBaBazazazazaJaJaJaJa6a6a$a$babaaoaobcbcaUaUakakaLaLararaaaaaaaaaaaaaaaaaaaaaaaaaaaaaaaaaaaaaaaaaaaaaaaaaaaaaaaaaaaaaaaaaaaaaaaaaaaaaaaaaaaa",
"aaaaaaaaaaaaaaaaaaaaaaaaaaaaaaaaaaaaaaaaaaaaaaaaaaaaaaaaaaaaaaaaaaaaaaaaaaaaaaaabibia*a*bububrbrbububububububibibububububhbha*a*a*a*a(a(a(a(aXaXa*a*aXaXa*a*a*a*a*a*a*a*bFbFa*a*a*a*a*a*a*a*a*a*a*a*bFbFa*a*a*a*a*a*a*a*a*a*a*a*a*a*bFbFa*a*a*a*a*a*bububububububhbhbibiaTaTbububFbFbububrbrbubububububububububububububububua*a*a*a*a*a*aXaXaXaXaXaXaXaXa*a*bFbFa*a*bxbxbFbFbFbFbFbFbFbFbFbFbFbFbFbFbFbFbFbFbFbFbFbFbFbFbFbFbFbFbFbFbFbFbFbFbFbFbFbFbFbFbFbFbFbFbFbFa0a0bFbFbububrbrbCbCbFbFbFbFbububububububububububububububububububububrbra*a*bubua7a7a3a3aJaJaIaIa8a8a8a8a8a8aJaJa4a4bebebfbfa5a5aHaHaHaHazazazazazazaIaIaIaIazazazazazazazazazazazazaAaAaAaAaHaHaBaBaBaBazazazazazazazazazazaBaBa3a3a6a6aaaaaiaiaoaoaxaxalalaeaeaFaFaaaaaaaaaaaaaaaaaaaaaaaaaaaaaaaaaaaaaaaaaaaaaaaaaaaaaaaaaaaaaaaaaaaaaaaaaaaaaaaaaaaaaaaa",
"aaaaaaaaaaaaaaaaaaaaaaaaaaaaaaaaaaaaaaaaaaaaaaaaaaaaaaaaaaaaaaaaaaaaaaaaaaaaaaaabibia*a*bububrbrbububububububibibububububhbha*a*a*a*a(a(a(a(aXaXa*a*aXaXa*a*a*a*a*a*a*a*bFbFa*a*a*a*a*a*a*a*a*a*a*a*bFbFa*a*a*a*a*a*a*a*a*a*a*a*a*a*bFbFa*a*a*a*a*a*bububububububhbhbibiaTaTbububFbFbububrbrbubububububububububububububububua*a*a*a*a*a*aXaXaXaXaXaXaXaXa*a*bFbFa*a*bxbxbFbFbFbFbFbFbFbFbFbFbFbFbFbFbFbFbFbFbFbFbFbFbFbFbFbFbFbFbFbFbFbFbFbFbFbFbFbFbFbFbFbFbFbFbFbFa0a0bFbFbububrbrbCbCbFbFbFbFbububububububububububububububububububububrbra*a*bubua7a7a3a3aJaJaIaIa8a8a8a8a8a8aJaJa4a4bebebfbfa5a5aHaHaHaHazazazazazazaIaIaIaIazazazazazazazazazazazazaAaAaAaAaHaHaBaBaBaBazazazazazazazazazazaBaBa3a3a6a6aaaaaiaiaoaoaxaxalalaeaeaFaFaaaaaaaaaaaaaaaaaaaaaaaaaaaaaaaaaaaaaaaaaaaaaaaaaaaaaaaaaaaaaaaaaaaaaaaaaaaaaaaaaaaaaaaa",
"aaaaaaaaaaaaaaaaaaaaaaaaaaaaaaaaaaaaaaaaaaaaaaaaaaaaaaaaaaaaaaaaaaaaaaaaaaaaaaaabibia*a*bububrbrbubububububububububua*a*brbrbubua*a*aXaXaXaXaXaXbububFbFbFbFaYaYa0a0a0a0a0a0a0a0a0a0bFbFbFbFa0a0a0a0a0a0a0a0a0a0bCbCbCbCbCbCa0a0a0a0a0a0a0a0bCbCbCbCbrbrbrbrbububhbhbibia2a2bububFbFbububrbrbubububububububububububububububua*a*a*a*a*a*aXaXaXaXaXaXaXaXa*a*bFbFa*a*bxbxbFbFbFbFbFbFbFbFbFbFbFbFbFbFbFbFbFbFbFbFbFbFbFbFbFbFbFbFbFbFbFbFbFbFbFbFbFbFbFbFbFbFbFbFbFbFa0a0bFbFbububrbrbCbCbFbFbFbFbububububububububububububububububububububrbra*a*bubua$a$a3a3aIaIa8a8a8a8aJaJazaza4a4bebebebeaAaAaHaHaHaHazazaBaBaBaBazazazazazazazazazazazazazazaAaAaHaHaAaAazazazazaBaBaBaBaAaAazazaIaIaIaIa3a3aIaIa6a6aaaababaajajaaaaaaaaaUaUaFaFaaaaaaaaaaaaaaaaaaaaaaaaaaaaaaaaaaaaaaaaaaaaaaaaaaaaaaaaaaaaaaaaaaaaaaaaaaaaaaaaaaaaaaaaaaaa",
"aaaaaaaaaaaaaaaaaaaaaaaaaaaaaaaaaaaaaaaaaaaaaaaaaaaaaaaaaaaaaaaaaaaaaaaaaaaaaaaabibia*a*bububrbrbubububububububububua*a*brbrbubua*a*aXaXaXaXaXaXbububFbFbFbFaYaYa0a0a0a0a0a0a0a0a0a0bFbFbFbFa0a0a0a0a0a0a0a0a0a0bCbCbCbCbCbCa0a0a0a0a0a0a0a0bCbCbCbCbrbrbrbrbububhbhbibia2a2bububFbFbububrbrbubububububububububububububububua*a*a*a*a*a*aXaXaXaXaXaXaXaXa*a*bFbFa*a*bxbxbFbFbFbFbFbFbFbFbFbFbFbFbFbFbFbFbFbFbFbFbFbFbFbFbFbFbFbFbFbFbFbFbFbFbFbFbFbFbFbFbFbFbFbFbFbFa0a0bFbFbububrbrbCbCbFbFbFbFbububububububububububububububububububububrbra*a*bubua$a$a3a3aIaIa8a8a8a8aJaJazaza4a4bebebebeaAaAaHaHaHaHazazaBaBaBaBazazazazazazazazazazazazazazaAaAaHaHaAaAazazazazaBaBaBaBaAaAazazaIaIaIaIa3a3aIaIa6a6aaaababaajajaaaaaaaaaUaUaFaFaaaaaaaaaaaaaaaaaaaaaaaaaaaaaaaaaaaaaaaaaaaaaaaaaaaaaaaaaaaaaaaaaaaaaaaaaaaaaaaaaaaaaaaaaaaa",
"aaaaaaaaaaaaaaaaaaaaaaaaaaaaaaaaaaaaaaaaaaaaaaaaaaaaaaaaaaaaaaaaaaaaaaaaaaaaaaaabibia*a*bububrbrbububrbrbububububububCbCbrbrbubua*a*aXaXaXaXaXaXbxbxbFbFa*a*bxbxbFbFbFbFbFbFbFbFbFbFbFbFbFbFbFbFbFbFbFbFbFbFbFbFbFbFa*a*bFbFbFbFbFbFbFbFbFbFbFbFa*a*bububububububhbhbibia2a2bububFbFbububrbrbubububububububububububububububua*a*bFbFa*a*aXaXaXaXaXaXaXaXa*a*bFbFa*a*bxbxbFbFbFbFbFbFbFbFbFbFbFbFbFbFbFbFbFbFbFbFbFbFbFbFbFbFbFbFbFbFbFbFbFbFbFbFbFbFbFbFbFbFbFbFbFbFa0a0bFbFbububrbrbCbCbFbFbFbFbububububububububububububububububububububrbra*a*bubua7a7aIaIaJaJa8a8azazaHaHbebeaHaHaAaAaAaAazazazaza@a@azazaBaBaBaBazazazazazazazazaAaAaAaAaAaAaHaHaWaWazazazazazazaBaBaJaJaBaBaIaIaIaIajajaDaDaMaMafafbabaaaaaaFaFafafaaaaaaaaaiaiaaaaaaaaaaaaaaaaaaaaaaaaaaaaaaaaaaaaaaaaaaaaaaaaaaaaaaaaaaaaaaaaaaaaaaaaaaaaaaaaaaaaaaaaaaaa",
"aaaaaaaaaaaaaaaaaaaaaaaaaaaaaaaaaaaaaaaaaaaaaaaaaaaaaaaaaaaaaaaaaaaaaaaaaaaaaaaabibia*a*bububrbrbububrbrbububububububCbCbrbrbubua*a*aXaXaXaXaXaXbxbxbFbFa*a*bxbxbFbFbFbFbFbFbFbFbFbFbFbFbFbFbFbFbFbFbFbFbFbFbFbFbFbFa*a*bFbFbFbFbFbFbFbFbFbFbFbFa*a*bububububububhbhbibia2a2bububFbFbububrbrbubububububububububububububububua*a*bFbFa*a*aXaXaXaXaXaXaXaXa*a*bFbFa*a*bxbxbFbFbFbFbFbFbFbFbFbFbFbFbFbFbFbFbFbFbFbFbFbFbFbFbFbFbFbFbFbFbFbFbFbFbFbFbFbFbFbFbFbFbFbFbFbFa0a0bFbFbububrbrbCbCbFbFbFbFbububububububububububububububububububububrbra*a*bubua7a7aIaIaJaJa8a8azazaHaHbebeaHaHaAaAaAaAazazazaza@a@azazaBaBaBaBazazazazazazazazaAaAaAaAaAaAaHaHaWaWazazazazazazaBaBaJaJaBaBaIaIaIaIajajaDaDaMaMafafbabaaaaaaFaFafafaaaaaaaaaiaiaaaaaaaaaaaaaaaaaaaaaaaaaaaaaaaaaaaaaaaaaaaaaaaaaaaaaaaaaaaaaaaaaaaaaaaaaaaaaaaaaaaaaaaaaaaa",
"aaaaaaaaaaaaaaaaaaaaaaaaaaaaaaaaaaaaaaaaaaaaaaaaaaaaaaaaaaaaaaaaaaaaaaaaaaaaaaaabibia*a*bububrbrbububrbrbububububububCbCbrbrbCbCa*a*aXaXaXaXaXaXbCbCbFbFa*a*bCbCbFbFbFbFbFbFbFbFbFbFbFbFbFbFbFbFbFbFbFbFbFbFbFbFbFbFbFbFbFbFbFbFbFbFbFbFbFbFbFbFbCbCbububububububhbhbibiaTaTbububFbFbububrbrbubububububububububububububububua*a*bFbFa*a*aXaXaXaXaXaXaXaXa*a*bFbFa*a*bxbxbFbFbFbFbFbFbFbFbFbFbFbFbFbFbFbFbFbFbFbFbFbFbFbFbFbFbFbFbFbFbFbFbFbFbFbFbFbFbFbFbFbFbFbFbFbFa0a0bFbFbububrbrbCbCbFbFbFbFbububububububububububububububububububububrbra*a*bububabaa7a7a8a8bdbdbdbdaAaAaAaAaAaAaHaHaHaHaHaHazaza!a!aBaBazazaBaBazazazazaAaAaHaHaAaAaAaAazazazazazazazazazazaBaBaJaJaJaJaIaIa6a6ararafafavavbububububibiavavaaaaaaaaaaaaaaaaaaaaaaaaaaaaaaaaaaaaaaaaaaaaaaaaaaaaaaaaaaaaaaaaaaaaaaaaaaaaaaaaaaaaaaaaaaaaaaaaaaaaaaaaaaaaaaaa",
"aaaaaaaaaaaaaaaaaaaaaaaaaaaaaaaaaaaaaaaaaaaaaaaaaaaaaaaaaaaaaaaaaaaaaaaaaaaaaaaabibia*a*bububrbrbububrbrbububububububCbCbrbrbCbCa*a*aXaXaXaXaXaXbCbCbFbFa*a*bCbCbFbFbFbFbFbFbFbFbFbFbFbFbFbFbFbFbFbFbFbFbFbFbFbFbFbFbFbFbFbFbFbFbFbFbFbFbFbFbFbFbCbCbububububububhbhbibiaTaTbububFbFbububrbrbubububububububububububububububua*a*bFbFa*a*aXaXaXaXaXaXaXaXa*a*bFbFa*a*bxbxbFbFbFbFbFbFbFbFbFbFbFbFbFbFbFbFbFbFbFbFbFbFbFbFbFbFbFbFbFbFbFbFbFbFbFbFbFbFbFbFbFbFbFbFbFbFa0a0bFbFbububrbrbCbCbFbFbFbFbububububububububububububububububububububrbra*a*bububabaa7a7a8a8bdbdbdbdaAaAaAaAaAaAaHaHaHaHaHaHazaza!a!aBaBazazaBaBazazazazaAaAaHaHaAaAaAaAazazazazazazazazazazaBaBaJaJaJaJaIaIa6a6ararafafavavbububububibiavavaaaaaaaaaaaaaaaaaaaaaaaaaaaaaaaaaaaaaaaaaaaaaaaaaaaaaaaaaaaaaaaaaaaaaaaaaaaaaaaaaaaaaaaaaaaaaaaaaaaaaaaaaaaaaaaa",
"aaaaaaaaaaaaaaaaaaaaaaaaaaaaaaaaaaaaaaaaaaaaaaaaaaaaaaaaaaaaaaaaaaaaaaaaaaaaaaaablbla*a*bububrbrbububububububububububCbCbrbrbubua*a*aXaXaXaXaXaXbCbCbFbFa*a*bCbCbFbFbFbFbFbFbFbFbFbFbFbFbFbFbFbFbFbFbFbFbFbFbFbFbFbFbFbFbFbFbFbFa0a0a0a0bFbFbFbFbCbCbububububububhbhbibiaTaTbububFbFbububrbrbubububububububububububububububua*a*bFbFa*a*aXaXaXaXaXaXaXaXa*a*bFbFa*a*bxbxbFbFbFbFbFbFbFbFbFbFbFbFbFbFbFbFbFbFbFbFbFbFbFbFbFbFbFbFbFbFbFbFbFbFbFbFbFbFbFbFbFbFbFbFbFbFa0a0bFbFbububrbrbCbCbFbFbFbFbububububububububububububububububububububrbrbCbCbubuaaaaa8a8aIaIa3a3bdbdaJaJaAaAbdbdaAaAazaza3a3azazazazazazaIaIaBaBaAaAaHaHaHaHazazazazazazazazazazazazaIaIaJaJa7a7babaaqaqararbibibibibibibububibibibibububububibibibiauauauauavavaaaaaaaaaaaaaaaaaaaaaaaaaaaaaaaaaaaaaaaaaaaaaaaaaaaaaaaaaaaaaaaaaaaaaaaaaaaaaaaaaaaaaaaaaaaa",
"aaaaaaaaaaaaaaaaaaaaaaaaaaaaaaaaaaaaaaaaaaaaaaaaaaaaaaaaaaaaaaaaaaaaaaaaaaaaaaaablbla*a*bububrbrbububububububububububCbCbrbrbubua*a*aXaXaXaXaXaXbCbCbFbFa*a*bCbCbFbFbFbFbFbFbFbFbFbFbFbFbFbFbFbFbFbFbFbFbFbFbFbFbFbFbFbFbFbFbFbFa0a0a0a0bFbFbFbFbCbCbububububububhbhbibiaTaTbububFbFbububrbrbubububububububububububububububua*a*bFbFa*a*aXaXaXaXaXaXaXaXa*a*bFbFa*a*bxbxbFbFbFbFbFbFbFbFbFbFbFbFbFbFbFbFbFbFbFbFbFbFbFbFbFbFbFbFbFbFbFbFbFbFbFbFbFbFbFbFbFbFbFbFbFbFa0a0bFbFbububrbrbCbCbFbFbFbFbububububububububububububububububububububrbrbCbCbubuaaaaa8a8aIaIa3a3bdbdaJaJaAaAbdbdaAaAazaza3a3azazazazazazaIaIaBaBaAaAaHaHaHaHazazazazazazazazazazazazaIaIaJaJa7a7babaaqaqararbibibibibibibububibibibibububububibibibiauauauauavavaaaaaaaaaaaaaaaaaaaaaaaaaaaaaaaaaaaaaaaaaaaaaaaaaaaaaaaaaaaaaaaaaaaaaaaaaaaaaaaaaaaaaaaaaaaa",
"aaaaaaaaaaaaaaaaaaaaaaaaaaaaaaaaaaaaaaaaaaaaaaaaaaaaaaaaaaaaaaaaaaaaaaaaaaaaaaaablbla*a*bububrbrbububububububububububCbCbrbrbCbCa*a*aXaXaXaXaXaXbCbCbFbFa*a*bxbxbFbFbFbFbFbFbFbFbFbFbFbFbFbFbFbFbFbFbFbFa0a0a0a0bFbFbFbFbFbFbFbFa0a0a0a0a0a0bFbFbCbCbrbrbububububhbhbibia2a2bubua*a*bububrbrbubububububububububububububububua*a*bFbFa*a*aXaXaXaXaXaXaXaXa*a*bFbFa*a*bxbxbFbFbFbFbFbFbFbFbFbFbFbFbFbFbFbFbFbFbFbFbFbFbFbFbFbFbFbFbFbFbFbFbFbFbFbFbFbFbFbFbFbFbFbFbFbFa0a0bFbFbububrbrbCbCbFbFbFbFbububububububububububububububububububububrbra*a*bubuaaaaajaja3a3aJaJa6a6aiaia3a3aJaJaaaaa8a8a7a7a3a3a3a3aBaBaJaJaBaBaHaHazazazazazazazazazazaBaBaBaBaJaJa6a6a$a$aFaFaoaoavavbubublblblblblblblblblblblblblblbubububububububublblbububvbvavavaaaaaaaaaaaaaaaaaaaaaaaaaaaaaaaaaaaaaaaaaaaaaaaaaaaaaaaaaaaaaaaaaaaaaaaaaaaaaaaaaaaa",
"aaaaaaaaaaaaaaaaaaaaaaaaaaaaaaaaaaaaaaaaaaaaaaaaaaaaaaaaaaaaaaaaaaaaaaaaaaaaaaaablbla*a*bububrbrbububububububububububCbCbrbrbCbCa*a*aXaXaXaXaXaXbCbCbFbFa*a*bxbxbFbFbFbFbFbFbFbFbFbFbFbFbFbFbFbFbFbFbFbFa0a0a0a0bFbFbFbFbFbFbFbFa0a0a0a0a0a0bFbFbCbCbrbrbububububhbhbibia2a2bubua*a*bububrbrbubububububububububububububububua*a*bFbFa*a*aXaXaXaXaXaXaXaXa*a*bFbFa*a*bxbxbFbFbFbFbFbFbFbFbFbFbFbFbFbFbFbFbFbFbFbFbFbFbFbFbFbFbFbFbFbFbFbFbFbFbFbFbFbFbFbFbFbFbFbFbFbFa0a0bFbFbububrbrbCbCbFbFbFbFbububububububububububububububububububububrbra*a*bubuaaaaajaja3a3aJaJa6a6aiaia3a3aJaJaaaaa8a8a7a7a3a3a3a3aBaBaJaJaBaBaHaHazazazazazazazazazazaBaBaBaBaJaJa6a6a$a$aFaFaoaoavavbubublblblblblblblblblblblblblblbubububububububublblbububvbvavavaaaaaaaaaaaaaaaaaaaaaaaaaaaaaaaaaaaaaaaaaaaaaaaaaaaaaaaaaaaaaaaaaaaaaaaaaaaaaaaaaaaa",
"aaaaaaaaaaaaaaaaaaaaaaaaaaaaaaaaaaaaaaaaaaaaaaaaaaaaaaaaaaaaaaaaaaaaaaaaaaaaaaaablblbFbFbububrbrbubububububububububua*a*brbrbCbCa*a*aXaXaXaXaXaXbCbCbFbFa*a*bxbxbFbFbFbFbFbFbFbFbFbFbFbFbFbFbFbFbFbFbFbFa0a0bFbFbFbFbFbFbFbFbFbFbFbFa0a0a0a0bFbFbCbCbububububububhbhbibiaTaTbububFbFbububrbrbububububububububububububububububFbFbFbFa*a*aXaXaXaXaXaXaXaXa*a*bFbFa*a*bxbxbFbFbFbFbFbFbFbFbFbFbFbFbFbFbFbFbFbFbFbFbFbFbFbFbFbFbFbFbFbFbFbFbFbFbFbFbFbFbFbFbFbFbFbFbFbFbFbFbFbFbububrbrbCbCbFbFbFbFbububububububububububububububububububububrbra*a*bvbvbabaaVaVa3a3aJaJa7a7alalaFaFaaaaarara7a7aaaaa8a8a3a3a3a3aIaIaJaJazazazazazazazazaIaIaJaJaIaIa6a6a$a$araravavauaubvbvbibibububibibibibibibibiblblbububububububhbhbrbrbubububua*a*a(a(a(a(alalaaaaaaaaaaaaaaaaaaaaaaaaaaaaaaaaaaaaaaaaaaaaaaaaaaaaaaaaaaaaaaaaaaaaaaaaaaaaaaaa",
"aaaaaaaaaaaaaaaaaaaaaaaaaaaaaaaaaaaaaaaaaaaaaaaaaaaaaaaaaaaaaaaaaaaaaaaaaaaaaaaablblbFbFbububrbrbubububububububububua*a*brbrbCbCa*a*aXaXaXaXaXaXbCbCbFbFa*a*bxbxbFbFbFbFbFbFbFbFbFbFbFbFbFbFbFbFbFbFbFbFa0a0bFbFbFbFbFbFbFbFbFbFbFbFa0a0a0a0bFbFbCbCbububububububhbhbibiaTaTbububFbFbububrbrbububububububububububububububububFbFbFbFa*a*aXaXaXaXaXaXaXaXa*a*bFbFa*a*bxbxbFbFbFbFbFbFbFbFbFbFbFbFbFbFbFbFbFbFbFbFbFbFbFbFbFbFbFbFbFbFbFbFbFbFbFbFbFbFbFbFbFbFbFbFbFbFbFbFbFbFbububrbrbCbCbFbFbFbFbububububububububububububububububububububrbra*a*bvbvbabaaVaVa3a3aJaJa7a7alalaFaFaaaaarara7a7aaaaa8a8a3a3a3a3aIaIaJaJazazazazazazazazaIaIaJaJaIaIa6a6a$a$araravavauaubvbvbibibububibibibibibibibiblblbububububububhbhbrbrbubububua*a*a(a(a(a(alalaaaaaaaaaaaaaaaaaaaaaaaaaaaaaaaaaaaaaaaaaaaaaaaaaaaaaaaaaaaaaaaaaaaaaaaaaaaaaaaa",
"aaaaaaaaaaaaaaaaaaaaaaaaaaaaaaaaaaaaaaaaaaaaaaaaaaaaaaaaaaaaaaaaaaaaaaaaaaaaaaaablblbFbFbububrbrbububububububrbrbubua*a*brbrbubua*a*aXaXaXaXaXaXbububFbFa*a*bxbxbFbFa0a0bFbFbFbFbFbFbFbFbFbFbFbFbFbFbFbFbFbFbFbFbFbFbFbFbFbFbFbFbFbFbFbFbFbFbFbFbCbCbububububububibibibiaTaTbububFbFbububrbrbububububububububububububububububFbFbFbFa*a*aXaXaXaXaXaXaXaXbCbCbFbFa*a*bxbxbFbFbFbFbFbFbFbFbFbFbFbFbFbFbFbFbFbFbFbFbFbFbFbFbFbFbFbFbFbFbFbFbFbFbFbFbFbFbFbFbFbFbFbFbFbFbFbFbFbFbububrbrbCbCbFbFbFbFbubububububububububububububububububububububua*a*bvbvbabaa6a6aIaIaIaIaJaJaJaJaqaqaoaoaoaoafafaFaFaaaaaJaJa3a3aIaIaJaJazazazazaIaIaJaJaJaJaoaobabababaavavbibibububibibibibububububibibibibibiblblbibiblblbubububua*a*a*a*a*a*aXaXaXaXa*a*a(a(bzbzaaaaaaaaaaaaaaaaaaaaaaaaaaaaaaaaaaaaaaaaaaaaaaaaaaaaaaaaaaaaaaaaaaaaaaaaaaaaaaaa",
"aaaaaaaaaaaaaaaaaaaaaaaaaaaaaaaaaaaaaaaaaaaaaaaaaaaaaaaaaaaaaaaaaaaaaaaaaaaaaaaablblbFbFbububrbrbububububububrbrbubua*a*brbrbubua*a*aXaXaXaXaXaXbububFbFa*a*bxbxbFbFa0a0bFbFbFbFbFbFbFbFbFbFbFbFbFbFbFbFbFbFbFbFbFbFbFbFbFbFbFbFbFbFbFbFbFbFbFbFbCbCbububububububibibibiaTaTbububFbFbububrbrbububububububububububububububububFbFbFbFa*a*aXaXaXaXaXaXaXaXbCbCbFbFa*a*bxbxbFbFbFbFbFbFbFbFbFbFbFbFbFbFbFbFbFbFbFbFbFbFbFbFbFbFbFbFbFbFbFbFbFbFbFbFbFbFbFbFbFbFbFbFbFbFbFbFbFbFbububrbrbCbCbFbFbFbFbubububububububububububububububububububububua*a*bvbvbabaa6a6aIaIaIaIaJaJaJaJaqaqaoaoaoaoafafaFaFaaaaaJaJa3a3aIaIaJaJazazazazaIaIaJaJaJaJaoaobabababaavavbibibububibibibibububububibibibibibiblblbibiblblbubububua*a*a*a*a*a*aXaXaXaXa*a*a(a(bzbzaaaaaaaaaaaaaaaaaaaaaaaaaaaaaaaaaaaaaaaaaaaaaaaaaaaaaaaaaaaaaaaaaaaaaaaaaaaaaaaa",
"aaaaaaaaaaaaaaaaaaaaaaaaaaaaaaaaaaaaaaaaaaaaaaaaaaaaaaaaaaaaaaaaaaaaaaaaaaaaaaaablblbFbFbububrbrbububububububrbrbubua*a*brbrbubua*a*aXaXaXaXaXaXbububFbFa*a*bxbxbFbFa0a0bFbFbFbFbFbFbFbFbFbFbFbFbFbFbFbFbFbFbFbFbFbFbFbFbFbFbFbFbFbFbFbFbFbFbFbFbCbCbububububububibibibiaTaTbububFbFbububrbrbubububububububububububububububua*a*bFbFa*a*aXaXaXaXaXaXaXaXbCbCbFbFa*a*bxbxbFbFbFbFbFbFbFbFbFbFbFbFbFbFbFbFbFbFbFbFbFbFbFbFbFbFbFbFbFbFbFbFbFbFbFbFbFbFbFbFbFbFbFbFbFbFbFbFbFbFbububrbrbCbCbFbFbFbFbubububububububububububububububububububububua*a*bvbva7a7a3a3aJaJaIaIa6a6aUaUakakararararararaoaoa6a6a8a8a3a3aIaIaJaJaIaIaJaJa6a6aqaqararajajbibibibiblblblblbibibububububibibhbhblblbubublblbubua*a*a*a*a*a*a*a*aXaXa*a*aXaXa*a*a*a*a*a*a(a(bvbvaaaaaaaaaaaaaaaaaaaaaaaaaaaaaaaaaaaaaaaaaaaaaaaaaaaaaaaaaaaaaaaaaaaaaaaaaaaaaaaa",
"aaaaaaaaaaaaaaaaaaaaaaaaaaaaaaaaaaaaaaaaaaaaaaaaaaaaaaaaaaaaaaaaaaaaaaaaaaaaaaaablblbFbFbububrbrbububububububrbrbubua*a*brbrbubua*a*aXaXaXaXaXaXbububFbFa*a*bxbxbFbFa0a0bFbFbFbFbFbFbFbFbFbFbFbFbFbFbFbFbFbFbFbFbFbFbFbFbFbFbFbFbFbFbFbFbFbFbFbFbCbCbububububububibibibiaTaTbububFbFbububrbrbubububububububububububububububua*a*bFbFa*a*aXaXaXaXaXaXaXaXbCbCbFbFa*a*bxbxbFbFbFbFbFbFbFbFbFbFbFbFbFbFbFbFbFbFbFbFbFbFbFbFbFbFbFbFbFbFbFbFbFbFbFbFbFbFbFbFbFbFbFbFbFbFbFbFbFbFbububrbrbCbCbFbFbFbFbubububububububububububububububububububububua*a*bvbva7a7a3a3aJaJaIaIa6a6aUaUakakararararararaoaoa6a6a8a8a3a3aIaIaJaJaIaIaJaJa6a6aqaqararajajbibibibiblblblblbibibububububibibhbhblblbubublblbubua*a*a*a*a*a*a*a*aXaXa*a*aXaXa*a*a*a*a*a*a(a(bvbvaaaaaaaaaaaaaaaaaaaaaaaaaaaaaaaaaaaaaaaaaaaaaaaaaaaaaaaaaaaaaaaaaaaaaaaaaaaaaaaa",
"aaaaaaaaaaaaaaaaaaaaaaaaaaaaaaaaaaaaaaaaaaaaaaaaaaaaaaaaaaaaaaaaaaaaaaaaaaaaaaaablblbFbFbububrbrbububububububrbrbubua*a*brbrbubua*a*aXaXaXaXaXaXbububFbFa*a*bxbxbFbFa0a0bFbFbFbFbFbFbFbFbFbFbFbFbFbFbFbFbFbFbFbFbFbFbFbFbFbFbFbFbFbFbFbFbFbFbFbFbCbCbububububububibibibiaTaTbububFbFbububrbrbubububububububububububububububua*a*bFbFa*a*aXaXaXaXaXaXaXaXbCbCbFbFa*a*bxbxbFbFbFbFbFbFbFbFbFbFbFbFbFbFbFbFbFbFbFbFbFbFbFbFbFbFbFbFbFbFbFbFbFbFbFbFbFbFbFbFbFbFbFbFbFbFbFbFbFbFbububrbrbCbCbFbFbFbFbububCbCbububububububububububububrbrbububrbra*a*blbla$a$a3a3bdbdaIaIbdbdaLaLaaaaajajbcbcaqaqaoaoa6a6a8a8aIaIa3a3a7a7a6a6aiaiaMaMauaubmbmblblblblbkbkbububhbhbrbrbhbhbibibubububububua*a*aXaXa*a*a*a*a*a*a*a*a*a*a*a*a*a*a*a*aXaXaXaXaXaXaXaXbvbvaaaaaaaaaaaaaaaaaaaaaaaaaaaaaaaaaaaaaaaaaaaaaaaaaaaaaaaaaaaaaaaaaaaaaaaaaaaaaaaa",
"aaaaaaaaaaaaaaaaaaaaaaaaaaaaaaaaaaaaaaaaaaaaaaaaaaaaaaaaaaaaaaaaaaaaaaaaaaaaaaaablblbFbFbububrbrbububububububrbrbubua*a*brbrbubua*a*aXaXaXaXaXaXbububFbFa*a*bxbxbFbFa0a0bFbFbFbFbFbFbFbFbFbFbFbFbFbFbFbFbFbFbFbFbFbFbFbFbFbFbFbFbFbFbFbFbFbFbFbFbCbCbububububububibibibiaTaTbububFbFbububrbrbubububububububububububububububua*a*bFbFa*a*aXaXaXaXaXaXaXaXbCbCbFbFa*a*bxbxbFbFbFbFbFbFbFbFbFbFbFbFbFbFbFbFbFbFbFbFbFbFbFbFbFbFbFbFbFbFbFbFbFbFbFbFbFbFbFbFbFbFbFbFbFbFbFbFbFbFbububrbrbCbCbFbFbFbFbububCbCbububububububububububububrbrbububrbra*a*blbla$a$a3a3bdbdaIaIbdbdaLaLaaaaajajbcbcaqaqaoaoa6a6a8a8aIaIa3a3a7a7a6a6aiaiaMaMauaubmbmblblblblbkbkbububhbhbrbrbhbhbibibubububububua*a*aXaXa*a*a*a*a*a*a*a*a*a*a*a*a*a*a*a*aXaXaXaXaXaXaXaXbvbvaaaaaaaaaaaaaaaaaaaaaaaaaaaaaaaaaaaaaaaaaaaaaaaaaaaaaaaaaaaaaaaaaaaaaaaaaaaaaaaa",
"aaaaaaaaaaaaaaaaaaaaaaaaaaaaaaaaaaaaaaaaaaaaaaaaaaaaaaaaaaaaaaaaaaaaaaaaaaaaaaaablblbFbFbububrbrbububububububrbrbubua*a*brbrbubua*a*aXaXaXaXaXaXbxbxbFbFa*a*bxbxbFbFa0a0bFbFbFbFbFbFbFbFbFbFbFbFbFbFbFbFbFbFbFbFbFbFbFbFbFbFbFbFbFbFbFbFbFbFbFbFbCbCbububububububibibibiaTaTbububFbFbububrbrbubububububububububububububububua*a*bFbFa*a*aXaXaXaXaXaXaXaXbCbCbFbFa*a*bxbxbFbFbFbFbFbFbFbFbFbFbFbFbFbFbFbFbFbFbFbFbFbFbFbFbFbFbFbFbFbFbFbFbFbFbFbFbFbFbFbFbFbFbFbFbFbFbFbFbFbFbububrbrbCbCbFbFbFbFbububCbCbububububububububububububrbrbrbrbrbra*a*bvbva$a$a3a3azazbdbdbdbdajajakakaUaUaeaeaeaeaKaKaqaqararajaja7a7ajajavavavavbubublblblblblblbibibibibhbhbubua*a*a*a*a*a*aXaXaXaXaXaXa*a*a*a*a*a*a*a*a*a*aXaXa*a*a*a*aXaXaXaXa(a(bubua*a*a*a*blblaaaaaaaaaaaaaaaaaaaaaaaaaaaaaaaaaaaaaaaaaaaaaaaaaaaaaaaaaaaaaaaaaaaaaaaaaaaaaaaa",
"aaaaaaaaaaaaaaaaaaaaaaaaaaaaaaaaaaaaaaaaaaaaaaaaaaaaaaaaaaaaaaaaaaaaaaaaaaaaaaaablblbFbFbububrbrbububububububrbrbubua*a*brbrbubua*a*aXaXaXaXaXaXbxbxbFbFa*a*bxbxbFbFa0a0bFbFbFbFbFbFbFbFbFbFbFbFbFbFbFbFbFbFbFbFbFbFbFbFbFbFbFbFbFbFbFbFbFbFbFbFbCbCbububububububibibibiaTaTbububFbFbububrbrbubububububububububububububububua*a*bFbFa*a*aXaXaXaXaXaXaXaXbCbCbFbFa*a*bxbxbFbFbFbFbFbFbFbFbFbFbFbFbFbFbFbFbFbFbFbFbFbFbFbFbFbFbFbFbFbFbFbFbFbFbFbFbFbFbFbFbFbFbFbFbFbFbFbFbFbFbububrbrbCbCbFbFbFbFbububCbCbububububububububububububrbrbrbrbrbra*a*bvbva$a$a3a3azazbdbdbdbdajajakakaUaUaeaeaeaeaKaKaqaqararajaja7a7ajajavavavavbubublblblblblblbibibibibhbhbubua*a*a*a*a*a*aXaXaXaXaXaXa*a*a*a*a*a*a*a*a*a*aXaXa*a*a*a*aXaXaXaXa(a(bubua*a*a*a*blblaaaaaaaaaaaaaaaaaaaaaaaaaaaaaaaaaaaaaaaaaaaaaaaaaaaaaaaaaaaaaaaaaaaaaaaaaaaaaaaa",
"aaaaaaaaaaaaaaaaaaaaaaaaaaaaaaaaaaaaaaaaaaaaaaaaaaaaaaaaaaaaaaaaaaaaaaaaaaaaaaaablblbFbFbububrbrbububububububrbrbubua*a*brbrbubua*a*aXaXaXaXaXaXbxbxbFbFa*a*bxbxbFbFa0a0bFbFbFbFbFbFbFbFbFbFa0a0bFbFbFbFbFbFbFbFbFbFbFbFbFbFbFbFbFbFbFbFbFbFbFbFbCbCbububububububibibibiaTaTbububFbFbububrbrbubububububububububububububububua*a*bFbFa*a*aXaXaXaXaXaXaXaXbCbCbFbFa*a*bxbxbFbFbFbFbFbFbFbFbFbFbFbFbFbFbFbFbFbFbFbFbFbFbFbFbFbFbFbFbFbFbFbFbFbFbFbFbFbFbFbFbFbFbFbFbFbFbFbFbFbFbububrbrbCbCbFbFbFbFbububCbCbububububububububububububrbrbrbrbrbra*a*blbla7a7a3a3azazazazaJaJaaaaaUaUadadaxaxakakaeaebabaararaFaFbibiblblbubububublblblblblblbubua(a(bybybybya(a(a(a(aXaXaXaXaXaXbybybybyaXaXaXaXaXaXaXaXa(a(a(a(a(a(a(a(a*a*bububububhbhbubua*a*blblaaaaaaaaaaaaaaaaaaaaaaaaaaaaaaaaaaaaaaaaaaaaaaaaaaaaaaaaaaaaaaaaaaaaaaaaaaaaaaaa",
"aaaaaaaaaaaaaaaaaaaaaaaaaaaaaaaaaaaaaaaaaaaaaaaaaaaaaaaaaaaaaaaaaaaaaaaaaaaaaaaablblbFbFbububrbrbububububububrbrbubua*a*brbrbubua*a*aXaXaXaXaXaXbxbxbFbFa*a*bxbxbFbFa0a0bFbFbFbFbFbFbFbFbFbFa0a0bFbFbFbFbFbFbFbFbFbFbFbFbFbFbFbFbFbFbFbFbFbFbFbFbCbCbububububububibibibiaTaTbububFbFbububrbrbubububububububububububububububua*a*bFbFa*a*aXaXaXaXaXaXaXaXbCbCbFbFa*a*bxbxbFbFbFbFbFbFbFbFbFbFbFbFbFbFbFbFbFbFbFbFbFbFbFbFbFbFbFbFbFbFbFbFbFbFbFbFbFbFbFbFbFbFbFbFbFbFbFbFbFbFbububrbrbCbCbFbFbFbFbububCbCbububububububububububububrbrbrbrbrbra*a*blbla7a7a3a3azazazazaJaJaaaaaUaUadadaxaxakakaeaebabaararaFaFbibiblblbubububublblblblblblbubua(a(bybybybya(a(a(a(aXaXaXaXaXaXbybybybyaXaXaXaXaXaXaXaXa(a(a(a(a(a(a(a(a*a*bububububhbhbubua*a*blblaaaaaaaaaaaaaaaaaaaaaaaaaaaaaaaaaaaaaaaaaaaaaaaaaaaaaaaaaaaaaaaaaaaaaaaaaaaaaaaa",
"aaaaaaaaaaaaaaaaaaaaaaaaaaaaaaaaaaaaaaaaaaaaaaaaaaaaaaaaaaaaaaaaaaaaaaaaaaaaaaaabibibFbFbububrbrbububububububrbrbubua*a*brbrbubua*a*aXaXaXaXaXaXbxbxbFbFa*a*a*a*bFbFa0a0bFbFbFbFbFbFbFbFbFbFa0a0bFbFbFbFbFbFbFbFbFbFbFbFbFbFbFbFbFbFbFbFbFbFbFbFbCbCbububububububibibibiaTaTbububFbFbububrbrbubububububububububububububububua*a*a*a*a*a*aXaXaXaXaXaXaXaXa*a*bFbFa*a*bxbxbFbFbFbFbFbFbFbFbFbFbFbFbFbFbFbFbFbFbFbFbFbFbFbFbFbFbFbFbFbFbFbFbFbFbFbFbFbFbFbFbFbFbFbFbFbFbFbFbFbFbububrbrbCbCbFbFbFbFbububCbCbububububububububububububrbrbrbrbrbra*a*bvbva7a7a3a3aBaBazazaJaJaaaaaMaMaxaxadadalalaKaKaaaabmbmbybya*a*a*a*bubua*a*aXaXaXaXaXaXaXaXaXaXa(a(aXaXaXaXaXaXaXaXaXaXaXaXa(a(a(a(a(a(a(a(a(a(aXaXbubububububububububububububububububua*a*blblaaaaaaaaaaaaaaaaaaaaaaaaaaaaaaaaaaaaaaaaaaaaaaaaaaaaaaaaaaaaaaaaaaaaaaaaaaaaaaaa",
"aaaaaaaaaaaaaaaaaaaaaaaaaaaaaaaaaaaaaaaaaaaaaaaaaaaaaaaaaaaaaaaaaaaaaaaaaaaaaaaabibibFbFbububrbrbububububububrbrbubua*a*brbrbubua*a*aXaXaXaXaXaXbxbxbFbFa*a*a*a*bFbFa0a0bFbFbFbFbFbFbFbFbFbFa0a0bFbFbFbFbFbFbFbFbFbFbFbFbFbFbFbFbFbFbFbFbFbFbFbFbCbCbububububububibibibiaTaTbububFbFbububrbrbubububububububububububububububua*a*a*a*a*a*aXaXaXaXaXaXaXaXa*a*bFbFa*a*bxbxbFbFbFbFbFbFbFbFbFbFbFbFbFbFbFbFbFbFbFbFbFbFbFbFbFbFbFbFbFbFbFbFbFbFbFbFbFbFbFbFbFbFbFbFbFbFbFbFbFbFbububrbrbCbCbFbFbFbFbububCbCbububububububububububububrbrbrbrbrbra*a*bvbva7a7a3a3aBaBazazaJaJaaaaaMaMaxaxadadalalaKaKaaaabmbmbybya*a*a*a*bubua*a*aXaXaXaXaXaXaXaXaXaXa(a(aXaXaXaXaXaXaXaXaXaXaXaXa(a(a(a(a(a(a(a(a(a(aXaXbubububububububububububububububububua*a*blblaaaaaaaaaaaaaaaaaaaaaaaaaaaaaaaaaaaaaaaaaaaaaaaaaaaaaaaaaaaaaaaaaaaaaaaaaaaaaaaa",
"aaaaaaaaaaaaaaaaaaaaaaaaaaaaaaaaaaaaaaaaaaaaaaaaaaaaaaaaaaaaaaaaaaaaaaaaaaaaaaaabibibFbFbububrbrbububububububrbrbubua*a*brbrbubua*a*aXaXaXaXaXaXbxbxbFbFa*a*a*a*bFbFbFbFbFbFbFbFbFbFbFbFbFbFa0a0bFbFbFbFbFbFbFbFbFbFbFbFbFbFbFbFbFbFbFbFbFbFbFbFbCbCbububububububibibibiaTaTbububFbFbububrbrbubububububububububububububububua*a*bFbFa*a*aXaXaXaXaXaXaXaXa*a*bFbFa*a*bxbxbFbFbFbFbFbFbFbFbFbFbFbFbFbFbFbFbFbFbFbFbFbFbFbFbFbFbFbFbFbFbFbFbFbFbFbFbFbFbFbFbFbFbFbFbFbFbFbFbFbFbububrbrbCbCbFbFbFbFbububCbCbububububububububububububrbrbububrbra*a*bubuaaaaakaka3a3aIaIa6a6aMaMaxaxalalaKaKakakaLaLbabaavavbububububrbrbubua*a*bCbCbCbCbCbCbCbCa0a0bCbCbCbCbFbFbCbCa*a*bubua*a*a*a*aXaXaXaXaXaXa*a*a*a*bububububububrbrbububububububrbrbubua*a*bubuaaaaaaaaaaaaaaaaaaaaaaaaaaaaaaaaaaaaaaaaaaaaaaaaaaaaaaaaaaaaaaaaaaaaaaaaaaaaaaaa",
"aaaaaaaaaaaaaaaaaaaaaaaaaaaaaaaaaaaaaaaaaaaaaaaaaaaaaaaaaaaaaaaaaaaaaaaaaaaaaaaabibibFbFbububrbrbububububububrbrbubua*a*brbrbubua*a*aXaXaXaXaXaXbxbxbFbFa*a*a*a*bFbFbFbFbFbFbFbFbFbFbFbFbFbFa0a0bFbFbFbFbFbFbFbFbFbFbFbFbFbFbFbFbFbFbFbFbFbFbFbFbCbCbububububububibibibiaTaTbububFbFbububrbrbubububububububububububububububua*a*bFbFa*a*aXaXaXaXaXaXaXaXa*a*bFbFa*a*bxbxbFbFbFbFbFbFbFbFbFbFbFbFbFbFbFbFbFbFbFbFbFbFbFbFbFbFbFbFbFbFbFbFbFbFbFbFbFbFbFbFbFbFbFbFbFbFbFbFbFbFbububrbrbCbCbFbFbFbFbububCbCbububububububububububububrbrbububrbra*a*bubuaaaaakaka3a3aIaIa6a6aMaMaxaxalalaKaKakakaLaLbabaavavbububububrbrbubua*a*bCbCbCbCbCbCbCbCa0a0bCbCbCbCbFbFbCbCa*a*bubua*a*a*a*aXaXaXaXaXaXa*a*a*a*bububububububrbrbububububububrbrbubua*a*bubuaaaaaaaaaaaaaaaaaaaaaaaaaaaaaaaaaaaaaaaaaaaaaaaaaaaaaaaaaaaaaaaaaaaaaaaaaaaaaaaa",
"aaaaaaaaaaaaaaaaaaaaaaaaaaaaaaaaaaaaaaaaaaaaaaaaaaaaaaaaaaaaaaaaaaaaaaaaaaaaaaaabibibFbFbububrbrbububububububrbrbubua*a*brbrbubua*a*aXaXaXaXaXaXbxbxbFbFa*a*a*a*bFbFbFbFbFbFbFbFbFbFbFbFbFbFa0a0bFbFbFbFbFbFbFbFbFbFbFbFbFbFbFbFbFbFbFbFbFbFbFbFbCbCbububububububibibibiaTaTbububFbFbububrbrbubububububububububububububububua*a*a*a*a*a*aXaXaXaXaXaXaXaXa*a*bFbFa*a*bxbxbFbFbFbFbFbFbFbFbFbFbFbFbFbFbFbFbFbFbFbFbFbFbFbFbFbFbFbFbFbFbFbFbFbFbFbFbFbFbFbFbFbFbFbFbFbFbFbFbFbFbububrbrbCbCbFbFbFbFbububCbCbububububububububububububrbrbububrbra*a*bubuararaiaiaDaDa$a$aqaqakakaqaqaMaMaxaxajajbabaafafblblbububrbrbububFbFbFbFbFbFbFbFbFbFbFbFbFbFbFbFbFbFbFbFbFbFbFbFbFbFa*a*a*a*aXaXaXaXaXaXa*a*a*a*bububububububrbrbububububububrbrbubua*a*bubuaaaaaaaaaaaaaaaaaaaaaaaaaaaaaaaaaaaaaaaaaaaaaaaaaaaaaaaaaaaaaaaaaaaaaaaaaaaaaaaa",
"aaaaaaaaaaaaaaaaaaaaaaaaaaaaaaaaaaaaaaaaaaaaaaaaaaaaaaaaaaaaaaaaaaaaaaaaaaaaaaaabibibFbFbububrbrbububububububrbrbubua*a*brbrbubua*a*aXaXaXaXaXaXbxbxbFbFa*a*a*a*bFbFbFbFbFbFbFbFbFbFbFbFbFbFa0a0bFbFbFbFbFbFbFbFbFbFbFbFbFbFbFbFbFbFbFbFbFbFbFbFbCbCbububububububibibibiaTaTbububFbFbububrbrbubububububububububububububububua*a*a*a*a*a*aXaXaXaXaXaXaXaXa*a*bFbFa*a*bxbxbFbFbFbFbFbFbFbFbFbFbFbFbFbFbFbFbFbFbFbFbFbFbFbFbFbFbFbFbFbFbFbFbFbFbFbFbFbFbFbFbFbFbFbFbFbFbFbFbFbFbububrbrbCbCbFbFbFbFbububCbCbububububububububububububrbrbububrbra*a*bubuararaiaiaDaDa$a$aqaqakakaqaqaMaMaxaxajajbabaafafblblbububrbrbububFbFbFbFbFbFbFbFbFbFbFbFbFbFbFbFbFbFbFbFbFbFbFbFbFbFa*a*a*a*aXaXaXaXaXaXa*a*a*a*bububububububrbrbububububububrbrbubua*a*bubuaaaaaaaaaaaaaaaaaaaaaaaaaaaaaaaaaaaaaaaaaaaaaaaaaaaaaaaaaaaaaaaaaaaaaaaaaaaaaaaa",
"aaaaaaaaaaaaaaaaaaaaaaaaaaaaaaaaaaaaaaaaaaaaaaaaaaaaaaaaaaaaaaaaaaaaaaaaaaaaaaaablblbFbFbububrbrbububububububrbrbubua*a*brbrbubua*a*aXaXaXaXaXaXbxbxbFbFa*a*a*a*bFbFbFbFbFbFbFbFbFbFbFbFbFbFa0a0bFbFbFbFbFbFbFbFbFbFbFbFbFbFbFbFbFbFbFbFbFbFbFbFbCbCbububububububibibibiaTaTbububFbFbububrbrbubububububububububububububububua*a*a*a*a*a*aXaXaXaXaXaXaXaXa*a*bFbFa*a*bxbxbFbFbFbFbFbFbFbFbFbFbFbFbFbFbFbFbFbFbFbFbFbFbFbFbFbFbFbFbFbFbFbFbFbFbFbFbFbFbFbFbFbFbFbFbFbFbFbFbFbFbububrbrbCbCbFbFbFbFbububCbCbububububububububububububububububrbra*a*bubuaoaoauauavavbabaaaaaaFaFaiaibabaaFaFbabaaiaiblblbububububububFbFbFbFbFbFbFbFbFbFbFbFbFbFbFbFbFbFbFbFbFbFbFbFbFbFbFbFa*a*a*a*aXaXaXaXaXaXa*a*a*a*bububububububrbrbububububububrbrbubua*a*bubuaaaaaaaaaaaaaaaaaaaaaaaaaaaaaaaaaaaaaaaaaaaaaaaaaaaaaaaaaaaaaaaaaaaaaaaaaaaaaaaa",
"aaaaaaaaaaaaaaaaaaaaaaaaaaaaaaaaaaaaaaaaaaaaaaaaaaaaaaaaaaaaaaaaaaaaaaaaaaaaaaaablblbFbFbububrbrbububububububrbrbubua*a*brbrbubua*a*aXaXaXaXaXaXbxbxbFbFa*a*a*a*bFbFbFbFbFbFbFbFbFbFbFbFbFbFa0a0bFbFbFbFbFbFbFbFbFbFbFbFbFbFbFbFbFbFbFbFbFbFbFbFbCbCbububububububibibibiaTaTbububFbFbububrbrbubububububububububububububububua*a*a*a*a*a*aXaXaXaXaXaXaXaXa*a*bFbFa*a*bxbxbFbFbFbFbFbFbFbFbFbFbFbFbFbFbFbFbFbFbFbFbFbFbFbFbFbFbFbFbFbFbFbFbFbFbFbFbFbFbFbFbFbFbFbFbFbFbFbFbFbFbububrbrbCbCbFbFbFbFbububCbCbububububububububububububububububrbra*a*bubuaoaoauauavavbabaaaaaaFaFaiaibabaaFaFbabaaiaiblblbububububububFbFbFbFbFbFbFbFbFbFbFbFbFbFbFbFbFbFbFbFbFbFbFbFbFbFbFbFa*a*a*a*aXaXaXaXaXaXa*a*a*a*bububububububrbrbububububububrbrbubua*a*bubuaaaaaaaaaaaaaaaaaaaaaaaaaaaaaaaaaaaaaaaaaaaaaaaaaaaaaaaaaaaaaaaaaaaaaaaaaaaaaaaa",
"aaaaaaaaaaaaaaaaaaaaaaaaaaaaaaaaaaaaaaaaaaaaaaaaaaaaaaaaaaaaaaaaaaaaaaaaaaaaaaaabibibFbFbububrbrbububububububrbrbubua*a*brbrbubua*a*aXaXaXaXaXaXbxbxa*a*a*a*a*a*bFbFbFbFbFbFbFbFbFbFbFbFbFbFa0a0bFbFbFbFbFbFbFbFbFbFbFbFbFbFbFbFbFbFbFbFbFbFbFbFbCbCbububububububibibibiaTaTbububFbFbububrbrbubububububububububububububububua*a*a*a*a*a*aXaXaXaXaXaXaXaXa*a*bFbFa*a*bxbxbFbFbFbFbFbFbFbFbFbFbFbFbFbFbFbFbFbFbFbFbFbFbFbFbFbFbFbFbFbFbFbFbFbFbFbFbFbFbFbFbFbFbFbFbFbFbFbFbFbFbububrbrbCbCbFbFbFbFbububCbCbububububububububububububububububrbra*a*bubuaFaFauaubibibibiavavararaFaFaaaaaaaaaMaMblblbububibibubua*a*bFbFbFbFbFbFbFbFbFbFbFbFbFbFa0a0a0a0a0a0a0a0bFbFbFbFbCbCa*a*a*a*aXaXaXaXaXaXa*a*a*a*bububububububrbrbububububububrbrbubua*a*bubuaaaaaaaaaaaaaaaaaaaaaaaaaaaaaaaaaaaaaaaaaaaaaaaaaaaaaaaaaaaaaaaaaaaaaaaaaaaaaaaa",
"aaaaaaaaaaaaaaaaaaaaaaaaaaaaaaaaaaaaaaaaaaaaaaaaaaaaaaaaaaaaaaaaaaaaaaaaaaaaaaaabibibFbFbububrbrbububububububrbrbubua*a*brbrbubua*a*aXaXaXaXaXaXbxbxa*a*a*a*a*a*bFbFbFbFbFbFbFbFbFbFbFbFbFbFa0a0bFbFbFbFbFbFbFbFbFbFbFbFbFbFbFbFbFbFbFbFbFbFbFbFbCbCbububububububibibibiaTaTbububFbFbububrbrbubububububububububububububububua*a*a*a*a*a*aXaXaXaXaXaXaXaXa*a*bFbFa*a*bxbxbFbFbFbFbFbFbFbFbFbFbFbFbFbFbFbFbFbFbFbFbFbFbFbFbFbFbFbFbFbFbFbFbFbFbFbFbFbFbFbFbFbFbFbFbFbFbFbFbFbFbububrbrbCbCbFbFbFbFbububCbCbububububububububububububububububrbra*a*bubuaFaFauaubibibibiavavararaFaFaaaaaaaaaMaMblblbububibibubua*a*bFbFbFbFbFbFbFbFbFbFbFbFbFbFa0a0a0a0a0a0a0a0bFbFbFbFbCbCa*a*a*a*aXaXaXaXaXaXa*a*a*a*bububububububrbrbububububububrbrbubua*a*bubuaaaaaaaaaaaaaaaaaaaaaaaaaaaaaaaaaaaaaaaaaaaaaaaaaaaaaaaaaaaaaaaaaaaaaaaaaaaaaaaa",
"aaaaaaaaaaaaaaaaaaaaaaaaaaaaaaaaaaaaaaaaaaaaaaaaaaaaaaaaaaaaaaaaaaaaaaaaaaaaaaaablblbFbFbububrbrbububububububrbrbubua*a*brbrbubua*a*aXaXaXaXaXaXbxbxa*a*a*a*a*a*bFbFbFbFbFbFbFbFbFbFbFbFbFbFa0a0bFbFbFbFbFbFbFbFbFbFbFbFbFbFbFbFbFbFbFbFbFbFbFbFbCbCbububububububibibibiaTaTbububFbFbububrbrbubububububububububububububububua*a*a*a*a*a*aXaXaXaXaXaXaXaXa*a*bFbFa*a*bxbxbFbFbFbFbFbFbFbFbFbFbFbFbFbFbFbFbFbFbFbFbFbFbFbFbFbFbFbFbFbFbFbFbFbFbFbFbFbFbFbFbFbFbFbFbFbFbFbFbFbFbububrbrbCbCbFbFbFbFbububCbCbubububububububububububububububububua*a*bubua2a2bibibibibibibububibiavavavavavavblblbububibibububFbFbFbFbFbFbFbFbFbFbFbFbFbFbFbFbFbFbFbFbFbFbFbFbFbFbFbFbFbFa0a0a*a*a*a*aXaXaXaXaXaXa*a*a*a*bububububububrbrbububububububrbrbubua*a*bubuaaaaaaaaaaaaaaaaaaaaaaaaaaaaaaaaaaaaaaaaaaaaaaaaaaaaaaaaaaaaaaaaaaaaaaaaaaaaaaaa",
"aaaaaaaaaaaaaaaaaaaaaaaaaaaaaaaaaaaaaaaaaaaaaaaaaaaaaaaaaaaaaaaaaaaaaaaaaaaaaaaablblbFbFbububrbrbububububububrbrbubua*a*brbrbubua*a*aXaXaXaXaXaXbxbxa*a*a*a*a*a*bFbFbFbFbFbFbFbFbFbFbFbFbFbFa0a0bFbFbFbFbFbFbFbFbFbFbFbFbFbFbFbFbFbFbFbFbFbFbFbFbCbCbububububububibibibiaTaTbububFbFbububrbrbubububububububububububububububua*a*a*a*a*a*aXaXaXaXaXaXaXaXa*a*bFbFa*a*bxbxbFbFbFbFbFbFbFbFbFbFbFbFbFbFbFbFbFbFbFbFbFbFbFbFbFbFbFbFbFbFbFbFbFbFbFbFbFbFbFbFbFbFbFbFbFbFbFbFbFbFbububrbrbCbCbFbFbFbFbububCbCbubububububububububububububububububua*a*bubua2a2bibibibibibibububibiavavavavavavblblbububibibububFbFbFbFbFbFbFbFbFbFbFbFbFbFbFbFbFbFbFbFbFbFbFbFbFbFbFbFbFbFa0a0a*a*a*a*aXaXaXaXaXaXa*a*a*a*bububububububrbrbububububububrbrbubua*a*bubuaaaaaaaaaaaaaaaaaaaaaaaaaaaaaaaaaaaaaaaaaaaaaaaaaaaaaaaaaaaaaaaaaaaaaaaaaaaaaaaa",
"aaaaaaaaaaaaaaaaaaaaaaaaaaaaaaaaaaaaaaaaaaaaaaaaaaaaaaaaaaaaaaaaaaaaaaaaaaaaaaaablblbFbFbububrbrbubububububububububua*a*brbrbubua*a*aXaXaXaXaXaXa*a*a*a*a*a*a*a*bFbFbFbFbFbFbFbFbFbFbFbFbFbFa0a0bFbFbFbFbFbFbFbFbFbFbFbFbFbFbFbFbFbFbFbFbFbFbFbFbCbCbububububububibibibiaTaTbububFbFbububrbrbubububububububububububububububua*a*a*a*a*a*aXaXaXaXaXaXaXaXa*a*a*a*a*a*a*a*bFbFbFbFbFbFbFbFbFbFbFbFbFbFbFbFbFbFbFbFbFbFbFbFbFbFbFbFbFbFbFbFbFbFbFbFbFbFbFbFbFbFbFbFbFbFbFbFbFbFbububrbrbCbCbFbFa*a*bububCbCbubububububububububububububububububua*a*bubuaTaTbibibhbhbububububububububububububububububububFbFbFbFbFbFa0a0bFbFa0a0a0a0bFbFbFbFbFbFbFbFbFbFbFbFbFbFbFbFbFbFa0a0a*a*a*a*aXaXaXaXaXaXa*a*a*a*bububububububrbrbububububububrbrbubua*a*blblaaaaaaaaaaaaaaaaaaaaaaaaaaaaaaaaaaaaaaaaaaaaaaaaaaaaaaaaaaaaaaaaaaaaaaaaaaaaaaaa",
"aaaaaaaaaaaaaaaaaaaaaaaaaaaaaaaaaaaaaaaaaaaaaaaaaaaaaaaaaaaaaaaaaaaaaaaaaaaaaaaablblbFbFbububrbrbubububububububububua*a*brbrbubua*a*aXaXaXaXaXaXa*a*a*a*a*a*a*a*bFbFbFbFbFbFbFbFbFbFbFbFbFbFa0a0bFbFbFbFbFbFbFbFbFbFbFbFbFbFbFbFbFbFbFbFbFbFbFbFbCbCbububububububibibibiaTaTbububFbFbububrbrbubububububububububububububububua*a*a*a*a*a*aXaXaXaXaXaXaXaXa*a*a*a*a*a*a*a*bFbFbFbFbFbFbFbFbFbFbFbFbFbFbFbFbFbFbFbFbFbFbFbFbFbFbFbFbFbFbFbFbFbFbFbFbFbFbFbFbFbFbFbFbFbFbFbFbFbFbububrbrbCbCbFbFa*a*bububCbCbubububububububububububububububububua*a*bubuaTaTbibibhbhbububububububububububububububububububFbFbFbFbFbFa0a0bFbFa0a0a0a0bFbFbFbFbFbFbFbFbFbFbFbFbFbFbFbFbFbFa0a0a*a*a*a*aXaXaXaXaXaXa*a*a*a*bububububububrbrbububububububrbrbubua*a*blblaaaaaaaaaaaaaaaaaaaaaaaaaaaaaaaaaaaaaaaaaaaaaaaaaaaaaaaaaaaaaaaaaaaaaaaaaaaaaaaa",
"aaaaaaaaaaaaaaaaaaaaaaaaaaaaaaaaaaaaaaaaaaaaaaaaaaaaaaaaaaaaaaaaaaaaaaaaaaaaaaaablbla*a*bububububububububububububububububrbrbCbCa*a*aXaXaXaXaXaXa*a*a*a*a*a*bxbxbFbFbFbFbFbFa0a0bFbFbFbFbFbFbFbFbFbFbFbFbFbFbFbFbFbFbFbFbFbFbFbFbFbFbFbFbFbFbFbFbCbCbrbrbrbrbububibibibiaTaTbububFbFbububrbrbubububububububububububububububua*a*a*a*a*a*aXaXaXaXaXaXaXaXa*a*a*a*a*a*a*a*bFbFbFbFbFbFbFbFbFbFbFbFbFbFbFbFbFbFbFbFbFbFbFbFbFbFbFbFbFbFbFbFbFbFbFbFbFbFbFbFbFbFbFbFbFbFbFbFbFbFbububrbrbCbCa*a*a*a*bububububububububububububububububrbrbubububua*a*bubuaTaTbibibibibubububububububububuaYaYbubua*a*bFbFbFbFbFbFbFbFbFbFbFbFbFbFbFbFbFbFbFbFbFbFbFbFbFbFbFbFbFbFbFbFbFbFa0a0a*a*a*a*aXaXaXaXaXaXa*a*a*a*bubububububububububububububububububua*a*bubuaaaaaaaaaaaaaaaaaaaaaaaaaaaaaaaaaaaaaaaaaaaaaaaaaaaaaaaaaaaaaaaaaaaaaaaaaaaaaaaa",
"aaaaaaaaaaaaaaaaaaaaaaaaaaaaaaaaaaaaaaaaaaaaaaaaaaaaaaaaaaaaaaaaaaaaaaaaaaaaaaaablbla*a*bububububububububububububububububrbrbCbCa*a*aXaXaXaXaXaXa*a*a*a*a*a*bxbxbFbFbFbFbFbFa0a0bFbFbFbFbFbFbFbFbFbFbFbFbFbFbFbFbFbFbFbFbFbFbFbFbFbFbFbFbFbFbFbFbCbCbrbrbrbrbububibibibiaTaTbububFbFbububrbrbubububububububububububububububua*a*a*a*a*a*aXaXaXaXaXaXaXaXa*a*a*a*a*a*a*a*bFbFbFbFbFbFbFbFbFbFbFbFbFbFbFbFbFbFbFbFbFbFbFbFbFbFbFbFbFbFbFbFbFbFbFbFbFbFbFbFbFbFbFbFbFbFbFbFbFbFbububrbrbCbCa*a*a*a*bububububububububububububububububrbrbubububua*a*bubuaTaTbibibibibubububububububububuaYaYbubua*a*bFbFbFbFbFbFbFbFbFbFbFbFbFbFbFbFbFbFbFbFbFbFbFbFbFbFbFbFbFbFbFbFbFbFa0a0a*a*a*a*aXaXaXaXaXaXa*a*a*a*bubububububububububububububububububua*a*bubuaaaaaaaaaaaaaaaaaaaaaaaaaaaaaaaaaaaaaaaaaaaaaaaaaaaaaaaaaaaaaaaaaaaaaaaaaaaaaaaa",
"aaaaaaaaaaaaaaaaaaaaaaaaaaaaaaaaaaaaaaaaaaaaaaaaaaaaaaaaaaaaaaaaaaaaaaaaaaaaaaaabububFbFbCbCbrbrbububububrbrbrbrbubua*a*brbrbCbCa*a*aXaXaXaXaXaXa*a*a*a*a*a*a*a*bFbFbFbFbFbFbFbFbFbFbFbFbFbFbFbFbFbFbFbFbFbFbFbFbFbFbFbFbFbFbFbFbFbFbFbFbFbFbCbCbCbCbububrbrbububibibibiaTaTbububFbFbububrbrbububububububububububububrbrbrbrbCbCa*a*a*a*aXaXaXaXaXaXaXaXa*a*a*a*a*a*a*a*bFbFbFbFbFbFbFbFbFbFbFbFbFbFbFbFbFbFbFbFbFbFbFbFbFbFbFbFbFbFbFbFbFbFbFbFbFbFbFbFbFbFbFbFbFbFbFbFbFbFbububrbrbCbCbFbFbFbFbububCbCbububububububububububububrbrbubububua*a*bubuaTaTbibibibibububrbrbububCbCa*a*bFbFbFbFbFbFbFbFbFbFbFbFbFbFbFbFbFbFbFbFbFbFbFbFbFbFbFbFbFbFbFbFbFbFbFbFbFbFbFbFa0a0a*a*a*a*aXaXaXaXaXaXa*a*a*a*bububububububrbrbububububrbrbrbrbubua*a*bubua1a1aaaaaaaaaaaaaaaaaaaaaaaaaaaaaaaaaaaaaaaaaaaaaaaaaaaaaaaaaaaaaaaaaaaaaaaaaaaa",
"aaaaaaaaaaaaaaaaaaaaaaaaaaaaaaaaaaaaaaaaaaaaaaaaaaaaaaaaaaaaaaaaaaaaaaaaaaaaaaaabububFbFbCbCbrbrbububububrbrbrbrbubua*a*brbrbCbCa*a*aXaXaXaXaXaXa*a*a*a*a*a*a*a*bFbFbFbFbFbFbFbFbFbFbFbFbFbFbFbFbFbFbFbFbFbFbFbFbFbFbFbFbFbFbFbFbFbFbFbFbFbFbCbCbCbCbububrbrbububibibibiaTaTbububFbFbububrbrbububububububububububububrbrbrbrbCbCa*a*a*a*aXaXaXaXaXaXaXaXa*a*a*a*a*a*a*a*bFbFbFbFbFbFbFbFbFbFbFbFbFbFbFbFbFbFbFbFbFbFbFbFbFbFbFbFbFbFbFbFbFbFbFbFbFbFbFbFbFbFbFbFbFbFbFbFbFbFbububrbrbCbCbFbFbFbFbububCbCbububububububububububububrbrbubububua*a*bubuaTaTbibibibibububrbrbububCbCa*a*bFbFbFbFbFbFbFbFbFbFbFbFbFbFbFbFbFbFbFbFbFbFbFbFbFbFbFbFbFbFbFbFbFbFbFbFbFbFbFbFa0a0a*a*a*a*aXaXaXaXaXaXa*a*a*a*bububububububrbrbububububrbrbrbrbubua*a*bubua1a1aaaaaaaaaaaaaaaaaaaaaaaaaaaaaaaaaaaaaaaaaaaaaaaaaaaaaaaaaaaaaaaaaaaaaaaaaaaa",
"aaaaaaaaaaaaaaaaaaaaaaaaaaaaaaaaaaaaaaaaaaaaaaaaaaaaaaaaaaaaaaaaaaaaaaaaaaaaaaaablblbFbFbCbCbrbrbubububububububububua*a*brbrbCbCa*a*aXaXaXaXaXaXa*a*a*a*a*a*a*a*bFbFbFbFbFbFbFbFbFbFbFbFbFbFbFbFbFbFbFbFbFbFbFbFbFbFbFbFbFbFbFbFbFbFbFbFbFbFbFbFbCbCbrbrbrbrbububhbhbibiaTaTbubua*a*bububububububububububububububububrbrbrbrbCbCa*a*a*a*aXaXaXaXaXaXaXaXa*a*a*a*a*a*a*a*a*a*bFbFbFbFbFbFbFbFbFbFbFbFbFbFbFbFbFbFbFbFbFbFbFbFbFbFbFbFbFbFbFbFbFbFbFbFbFbFbFbFbFbFbFbFbFbFbFbFbububrbrbCbCbCbCbFbFbububCbCbrbrbubububububububububuaRaRaRaRaRaRa*a*bubuaTaTbibibhbhbububrbrbrbrbCbCbCbCbFbFbCbCbFbFbFbFbFbFbFbFbFbFbFbFbFbFbFbFbFbFbFbFbFbFbFbFbFbFbFbFbFbFbFbFbFbFbFbFbCbCa*a*a*a*aXaXaXaXaXaXa*a*a*a*bububCbCbububrbrbrbrbrbrbububrbrbubua*a*bubua1a1aaaaaaaaaaaaaaaaaaaaaaaaaaaaaaaaaaaaaaaaaaaaaaaaaaaaaaaaaaaaaaaaaaaaaaaaaaaa",
"aaaaaaaaaaaaaaaaaaaaaaaaaaaaaaaaaaaaaaaaaaaaaaaaaaaaaaaaaaaaaaaaaaaaaaaaaaaaaaaablblbFbFbCbCbrbrbubububububububububua*a*brbrbCbCa*a*aXaXaXaXaXaXa*a*a*a*a*a*a*a*bFbFbFbFbFbFbFbFbFbFbFbFbFbFbFbFbFbFbFbFbFbFbFbFbFbFbFbFbFbFbFbFbFbFbFbFbFbFbFbFbCbCbrbrbrbrbububhbhbibiaTaTbubua*a*bububububububububububububububububrbrbrbrbCbCa*a*a*a*aXaXaXaXaXaXaXaXa*a*a*a*a*a*a*a*a*a*bFbFbFbFbFbFbFbFbFbFbFbFbFbFbFbFbFbFbFbFbFbFbFbFbFbFbFbFbFbFbFbFbFbFbFbFbFbFbFbFbFbFbFbFbFbFbFbFbububrbrbCbCbCbCbFbFbububCbCbrbrbubububububububububuaRaRaRaRaRaRa*a*bubuaTaTbibibhbhbububrbrbrbrbCbCbCbCbFbFbCbCbFbFbFbFbFbFbFbFbFbFbFbFbFbFbFbFbFbFbFbFbFbFbFbFbFbFbFbFbFbFbFbFbFbFbFbFbCbCa*a*a*a*aXaXaXaXaXaXa*a*a*a*bububCbCbububrbrbrbrbrbrbububrbrbubua*a*bubua1a1aaaaaaaaaaaaaaaaaaaaaaaaaaaaaaaaaaaaaaaaaaaaaaaaaaaaaaaaaaaaaaaaaaaaaaaaaaaa",
"aaaaaaaaaaaaaaaaaaaaaaaaaaaaaaaaaaaaaaaaaaaaaaaaaaaaaaaaaaaaaaaaaaaaaaaaaaaaaaaablbla*a*bububrbrbububrbrbubububububua*a*brbrbubua*a*aXaXaXaXa*a*a*a*a*a*a*a*bububCbCbCbCa0a0a0a0bCbCbCbCbCbCbCbCa0a0bFbFbCbCbCbCbCbCbCbCbCbCbCbCbFbFbCbCbCbCbCbCbCbCbrbrbububububibibibiaTaTbubua*a*bububububububububububububububububrbrbrbrbCbCa*a*a*a*aXaXaXaXaXaXaXaXa*a*a*a*a*a*a*a*a*a*bFbFbFbFbFbFbFbFbFbFbFbFbFbFbFbFbFbFbFbFbFbFbFbFbFbFbFbFbFbFbFbFbFbFbFbFbFbFbFbFbFbFbFbFbFbFbFbFbububrbrbCbCa*a*a*a*bubububububububububububububububububububuaRaRa*a*bubuaTaTbibibibibububububrbrbCbCbCbCbCbCbCbCbFbFbCbCbCbCbCbCbCbCa0a0bFbFbCbCbCbCbCbCbCbCbCbCbCbCbCbCbCbCbCbCbCbCbCbCa0a0a*a*a*a*a*a*aXaXaXaXa*a*a*a*bububububububrbrbrbrbububrbrbrbrbubua*a*bubua1a1aaaaaaaaaaaaaaaaaaaaaaaaaaaaaaaaaaaaaaaaaaaaaaaaaaaaaaaaaaaaaaaaaaaaaaaaaaaa",
"aaaaaaaaaaaaaaaaaaaaaaaaaaaaaaaaaaaaaaaaaaaaaaaaaaaaaaaaaaaaaaaaaaaaaaaaaaaaaaaablbla*a*bububrbrbububrbrbubububububua*a*brbrbubua*a*aXaXaXaXa*a*a*a*a*a*a*a*bububCbCbCbCa0a0a0a0bCbCbCbCbCbCbCbCa0a0bFbFbCbCbCbCbCbCbCbCbCbCbCbCbFbFbCbCbCbCbCbCbCbCbrbrbububububibibibiaTaTbubua*a*bububububububububububububububububrbrbrbrbCbCa*a*a*a*aXaXaXaXaXaXaXaXa*a*a*a*a*a*a*a*a*a*bFbFbFbFbFbFbFbFbFbFbFbFbFbFbFbFbFbFbFbFbFbFbFbFbFbFbFbFbFbFbFbFbFbFbFbFbFbFbFbFbFbFbFbFbFbFbFbFbububrbrbCbCa*a*a*a*bubububububububububububububububububububuaRaRa*a*bubuaTaTbibibibibububububrbrbCbCbCbCbCbCbCbCbFbFbCbCbCbCbCbCbCbCa0a0bFbFbCbCbCbCbCbCbCbCbCbCbCbCbCbCbCbCbCbCbCbCbCbCa0a0a*a*a*a*a*a*aXaXaXaXa*a*a*a*bububububububrbrbrbrbububrbrbrbrbubua*a*bubua1a1aaaaaaaaaaaaaaaaaaaaaaaaaaaaaaaaaaaaaaaaaaaaaaaaaaaaaaaaaaaaaaaaaaaaaaaaaaaa",
"aaaaaaaaaaaaaaaaaaaaaaaaaaaaaaaaaaaaaaaaaaaaaaaaaaaaaaaaaaaaaaaaaaaaaaaaaaaaaaaabvbvaXaXa*a*bubububububububububububua*a*bubua*a*aXaXa(a(a(a(a(a(a*a*aXaXaXaXa*a*a*a*a*a*a*a*a*a*a*a*a*a*a*a*a*a*a*a*a*a*a*a*a*a*a*a*a*a*a*a*a*a*a*a*a*a*a*a*a*a*a*a*bububububvbvbibibibiaTaTbubua*a*bububrbrbububububububububububububrbrbubua*a*a*a*a*a*aXaXaXaXaXaXaXaXa*a*a*a*a*a*a*a*bFbFbFbFbFbFbFbFbFbFbFbFbFbFbFbFbFbFbFbFbFbFbFbFbFbFbFbFbFbFbFbFbFbFbFbFbFbFbFbFbFbFbFbFbFbFa*a*a*a*bububrbrbCbCa*a*a*a*bububububububububububububububrbrbubububububua*a*bubuaTaTbibibibibubububububua*a*a*a*a*a*a*a*a*a*a*a*a*a*a*a*a*a*a*a*bFbFa*a*a*a*a*a*a*a*a*a*a*a*a*a*a*a*a*a*a*a*a*a*a*a*aXaXa(a(a(a(a(a(a(a(aXaXa*a*a*a*a*a*bubububububububububububua*a*aXaXbvbva1a1aaaaaaaaaaaaaaaaaaaaaaaaaaaaaaaaaaaaaaaaaaaaaaaaaaaaaaaaaaaaaaaaaaaaaaaaaaaa",
"aaaaaaaaaaaaaaaaaaaaaaaaaaaaaaaaaaaaaaaaaaaaaaaaaaaaaaaaaaaaaaaaaaaaaaaaaaaaaaaabvbvaXaXa*a*bubububububububububububua*a*bubua*a*aXaXa(a(a(a(a(a(a*a*aXaXaXaXa*a*a*a*a*a*a*a*a*a*a*a*a*a*a*a*a*a*a*a*a*a*a*a*a*a*a*a*a*a*a*a*a*a*a*a*a*a*a*a*a*a*a*a*bububububvbvbibibibiaTaTbubua*a*bububrbrbububububububububububububrbrbubua*a*a*a*a*a*aXaXaXaXaXaXaXaXa*a*a*a*a*a*a*a*bFbFbFbFbFbFbFbFbFbFbFbFbFbFbFbFbFbFbFbFbFbFbFbFbFbFbFbFbFbFbFbFbFbFbFbFbFbFbFbFbFbFbFbFbFbFa*a*a*a*bububrbrbCbCa*a*a*a*bububububububububububububububrbrbubububububua*a*bubuaTaTbibibibibubububububua*a*a*a*a*a*a*a*a*a*a*a*a*a*a*a*a*a*a*a*bFbFa*a*a*a*a*a*a*a*a*a*a*a*a*a*a*a*a*a*a*a*a*a*a*a*aXaXa(a(a(a(a(a(a(a(aXaXa*a*a*a*a*a*bubububububububububububua*a*aXaXbvbva1a1aaaaaaaaaaaaaaaaaaaaaaaaaaaaaaaaaaaaaaaaaaaaaaaaaaaaaaaaaaaaaaaaaaaaaaaaaaaa",
"aaaaaaaaaaaaaaaaaaaaaaaaaaaaaaaaaaaaaaaaaaaaaaaaaaaaaaaaaaaaaaaaaaaaaaaaaaaaaaaaavavbibia)a)aTaTaTaTaTaTaTaTaTaTaTaTa)a)aTaTa)a)avavbibibibibibia)a)bibibibibibibibibibibibibibibibibibibibibibiavavbibia)a)a)a)a)a)a)a)a)a)a)a)a)a)a)a)a)a)avava)a)aTaTaTaTaTaTaTaTaTaTa1a1bubua*a*bububrbrbubububububububububububububububua*a*a*a*a*a*aXaXaXaXaXaXaXaXa*a*a*a*a*a*a*a*bFbFbFbFbFbFbFbFbFbFbFbFbFbFbFbFbFbFbFbFbFbFbFbFbFbFbFbFbFbFbFbFbFbFbFbFbFbFbFbFbFbFbFbFbFbFa*a*a*a*bububrbra*a*a*a*a*a*bubububububububububububububububububububububua*a*bubua1a1aTaTaTaTaTaTaTaTaTaTa)a)bibibibibibia)a)a)a)a)a)a)a)a)a)a)a)a)a)bibibibibibibibibibibibibibibibibibibibiavavavavbibibibibibibibibibiavavavavavavavava)a)aTaTaTaTaTaTaTaTaTaTavavbibiavava1a1aaaaaaaaaaaaaaaaaaaaaaaaaaaaaaaaaaaaaaaaaaaaaaaaaaaaaaaaaaaaaaaaaaaaaaaaaaaa",
"aaaaaaaaaaaaaaaaaaaaaaaaaaaaaaaaaaaaaaaaaaaaaaaaaaaaaaaaaaaaaaaaaaaaaaaaaaaaaaaaavavbibia)a)aTaTaTaTaTaTaTaTaTaTaTaTa)a)aTaTa)a)avavbibibibibibia)a)bibibibibibibibibibibibibibibibibibibibibibiavavbibia)a)a)a)a)a)a)a)a)a)a)a)a)a)a)a)a)a)avava)a)aTaTaTaTaTaTaTaTaTaTa1a1bubua*a*bububrbrbubububububububububububububububua*a*a*a*a*a*aXaXaXaXaXaXaXaXa*a*a*a*a*a*a*a*bFbFbFbFbFbFbFbFbFbFbFbFbFbFbFbFbFbFbFbFbFbFbFbFbFbFbFbFbFbFbFbFbFbFbFbFbFbFbFbFbFbFbFbFbFbFa*a*a*a*bububrbra*a*a*a*a*a*bubububububububububububububububububububububua*a*bubua1a1aTaTaTaTaTaTaTaTaTaTa)a)bibibibibibia)a)a)a)a)a)a)a)a)a)a)a)a)a)bibibibibibibibibibibibibibibibibibibibiavavavavbibibibibibibibibibiavavavavavavavava)a)aTaTaTaTaTaTaTaTaTaTavavbibiavava1a1aaaaaaaaaaaaaaaaaaaaaaaaaaaaaaaaaaaaaaaaaaaaaaaaaaaaaaaaaaaaaaaaaaaaaaaaaaaa",
"aaaaaaaaaaaaaaaaaaaaaaaaaaaaaaaaaaaaaaaaaaaaaaaaaaaaaaaaaaaaaaaaaaaaa2a2bybybybybvbvbvbvbvbvbvbvbvbvbvbvbvbvbvbvbvbvbvbvbvbvbvbvbvbvbvbvbvbvbvbvbvbvbvbvbvbvbvbvbvbvbvbvbvbvbvbvbvbvbvbvbvbvbvbvbvbvbvbvbvbvbvbvbvbvbvbvbvbvbvbvbvbvbvbvbvbvbvbvbvbvbvbvbvbvbvbvblblbvbvaTaTbibia*a*bububibibibibibibibibibibibibibibibibibibvbvbvbvbvbvbybya(a(a(a(bybybvbvbybybybybybybybya*a*a*a*a*a*a*a*a*a*a*a*a*a*a*a*a*a*a*a*a*a*a*a*a*a*a*a*bvbvbububvbva*a*bvbvbvbvbvbvbubububua*a*bububibibubua*a*bvbvbububvbvbibibibibibibibibibibibibibibibibibia*a*blblavavbvbvbvbvbvbvbvbvbvbvbvbvbvbvbvbvbvbvbvbvbvbvbvbvbvbvbvbvbvbvbvbvbvbvbvbvbvbvbvbvbvbvbvbvbvbvbvbvbvbvbvbvbvbvbvbvbvbvbvbvbvbvbvbvbvbvbvbvbvbvbvbvbvbvbvbvbvbvbvbvbvbvbvbvbvbvbvbvbvbvbvbvbvbvbvbvaqaqaaaaaaaaaaaaaaaaaaaaaaaaaaaaaaaaaaaaaaaaaaaaaaaaaaaaaaaaaaaaaaaaaaaa",
"aaaaaaaaaaaaaaaaaaaaaaaaaaaaaaaaaaaaaaaaaaaaaaaaaaaaaaaaaaaaaaaaaaaaa2a2bybybybybvbvbvbvbvbvbvbvbvbvbvbvbvbvbvbvbvbvbvbvbvbvbvbvbvbvbvbvbvbvbvbvbvbvbvbvbvbvbvbvbvbvbvbvbvbvbvbvbvbvbvbvbvbvbvbvbvbvbvbvbvbvbvbvbvbvbvbvbvbvbvbvbvbvbvbvbvbvbvbvbvbvbvbvbvbvbvbvblblbvbvaTaTbibia*a*bububibibibibibibibibibibibibibibibibibibvbvbvbvbvbvbybya(a(a(a(bybybvbvbybybybybybybybya*a*a*a*a*a*a*a*a*a*a*a*a*a*a*a*a*a*a*a*a*a*a*a*a*a*a*a*bvbvbububvbva*a*bvbvbvbvbvbvbubububua*a*bububibibubua*a*bvbvbububvbvbibibibibibibibibibibibibibibibibibia*a*blblavavbvbvbvbvbvbvbvbvbvbvbvbvbvbvbvbvbvbvbvbvbvbvbvbvbvbvbvbvbvbvbvbvbvbvbvbvbvbvbvbvbvbvbvbvbvbvbvbvbvbvbvbvbvbvbvbvbvbvbvbvbvbvbvbvbvbvbvbvbvbvbvbvbvbvbvbvbvbvbvbvbvbvbvbvbvbvbvbvbvbvbvbvbvbvbvbvaqaqaaaaaaaaaaaaaaaaaaaaaaaaaaaaaaaaaaaaaaaaaaaaaaaaaaaaaaaaaaaaaaaaaaaa",
"aaaaaaaaaaaaaaaaaaaaaaaaaaaaaaaaaaaaaaaaaaaaaaaaaaaaaaaaaaaaaaaaaaaabvbvbubububububububububububububububua*a*a*a*a*a*a*a*a(a(a(a(a(a(a(a(aXaXaXaXa*a*a*a*a*a*a*a*a*a*a*a*a*a*a*a*a*a*a*a*a*a*a*a*a*a*a*a*a*a*a*a*a*a*a*a*a*a*a*a*a*a*a*a*a*a*a*a*bubububububububua)a)bibiavavavavavavavavavavavavavavavavavavavavavavavavavavavavavavavavavavavavavavavavavavavavavavavavavavavavavavavavavavavavavavavavavavavavavavavavavavavavavavavavavavavavavavavavavavavavavavavavavavavavavavavavavavavavavavavavavavavavavavavavavavavavaSaSavavavavavavavavavavbibibibiblblbubububububua*a*a*a*a*a*a*a*a*a*a*a*a*a*a*a*a*a*a*a*a*a*a*a*a*a*a*a*a*a*a*a*a*a*a*a*a*a*a*a*a*a*a*a*a*a*a*a*a(a(a(a(a(a(a(a(a(a(aXaXa*a*a*a*a*a*a*a*bububububububububububububububvbvbvbvaaaaaaaaaaaaaaaaaaaaaaaaaaaaaaaaaaaaaaaaaaaaaaaaaaaaaaaaaaaaaaaaaaaa",
"aaaaaaaaaaaaaaaaaaaaaaaaaaaaaaaaaaaaaaaaaaaaaaaaaaaaaaaaaaaaaaaaaaaabvbvbubububububububububububububububua*a*a*a*a*a*a*a*a(a(a(a(a(a(a(a(aXaXaXaXa*a*a*a*a*a*a*a*a*a*a*a*a*a*a*a*a*a*a*a*a*a*a*a*a*a*a*a*a*a*a*a*a*a*a*a*a*a*a*a*a*a*a*a*a*a*a*a*bubububububububua)a)bibiavavavavavavavavavavavavavavavavavavavavavavavavavavavavavavavavavavavavavavavavavavavavavavavavavavavavavavavavavavavavavavavavavavavavavavavavavavavavavavavavavavavavavavavavavavavavavavavavavavavavavavavavavavavavavavavavavavavavavavavavavavavavaSaSavavavavavavavavavavbibibibiblblbubububububua*a*a*a*a*a*a*a*a*a*a*a*a*a*a*a*a*a*a*a*a*a*a*a*a*a*a*a*a*a*a*a*a*a*a*a*a*a*a*a*a*a*a*a*a*a*a*a*a(a(a(a(a(a(a(a(a(a(aXaXa*a*a*a*a*a*a*a*bububububububububububububububvbvbvbvaaaaaaaaaaaaaaaaaaaaaaaaaaaaaaaaaaaaaaaaaaaaaaaaaaaaaaaaaaaaaaaaaaaa",
"aaaaaaaaaaaaaaaaaaaaaaaaaaaaaaaaaaaaaaaaaaaaaaaaaaaaaaaaaaaaaaaaaaaabvbvbububububububububububibibububhbhbubububububua*a*a*a*aXaXaXaXaXaXa*a*a*a*a*a*a*a*a*a*a*a*a*a*a*a*a*a*a*a*a*a*a*a*a*a*a*a*a*a*bubububua*a*a*a*a*a*a*a*bCbCbCbCbCbCa*a*a*a*brbrbrbrbubuaTaTbybybDbDbDbDbybya*a*bybybybybybybybya(a(bybya(a(a(a(a(a(a(a(a(a(a(a(a(a(a(a(a(a(a(a(a(a(a(a(a(a(a(a(a(a(a(a(a(a(a(a(a(a(a(a(a(a(a(a(a(a(a(a(a(a(a(a(a(a(a(a(a(a(a(a(a(a(a(a(a(a(a(a(a(a(a(a(a(a(a(a(a(a(a(a(a(a(a(a(a(a(a(a(a(a(a(a(a(a(a(a(a(a(a(a(bybybybya*a*bDbDbDbDa*a*a*a*bybybvbvbybya*a*a)a)bububrbrbrbra*a*a*a*a*a*a*a*a*a*a*a*a*a*a*a*a*a*a*a*a*a*a*a*a*a*a*a*a*a*a*a*a*a*a*a*a*a*bCbCa*a*a*a*a*a*bubua*a*a*a*aXaXaXaXaXaXa*a*a*a*bububububububrbrbubuaRaRaRaRbubububublblbububvbvaaaaaaaaaaaaaaaaaaaaaaaaaaaaaaaaaaaaaaaaaaaaaaaaaaaaaaaaaaaaaaaaaaaa",
"aaaaaaaaaaaaaaaaaaaaaaaaaaaaaaaaaaaaaaaaaaaaaaaaaaaaaaaaaaaaaaaaaaaabvbvbububububububububububibibububhbhbubububububua*a*a*a*aXaXaXaXaXaXa*a*a*a*a*a*a*a*a*a*a*a*a*a*a*a*a*a*a*a*a*a*a*a*a*a*a*a*a*a*bubububua*a*a*a*a*a*a*a*bCbCbCbCbCbCa*a*a*a*brbrbrbrbubuaTaTbybybDbDbDbDbybya*a*bybybybybybybybya(a(bybya(a(a(a(a(a(a(a(a(a(a(a(a(a(a(a(a(a(a(a(a(a(a(a(a(a(a(a(a(a(a(a(a(a(a(a(a(a(a(a(a(a(a(a(a(a(a(a(a(a(a(a(a(a(a(a(a(a(a(a(a(a(a(a(a(a(a(a(a(a(a(a(a(a(a(a(a(a(a(a(a(a(a(a(a(a(a(a(a(a(a(a(a(a(a(a(a(a(a(a(bybybybya*a*bDbDbDbDa*a*a*a*bybybvbvbybya*a*a)a)bububrbrbrbra*a*a*a*a*a*a*a*a*a*a*a*a*a*a*a*a*a*a*a*a*a*a*a*a*a*a*a*a*a*a*a*a*a*a*a*a*a*bCbCa*a*a*a*a*a*bubua*a*a*a*aXaXaXaXaXaXa*a*a*a*bububububububrbrbubuaRaRaRaRbubububublblbububvbvaaaaaaaaaaaaaaaaaaaaaaaaaaaaaaaaaaaaaaaaaaaaaaaaaaaaaaaaaaaaaaaaaaaa",
"aaaaaaaaaaaaaaaaaaaaaaaaaaaaaaaaaaaaaaaaaaaaaaaaaaaaaaaaaaaaaaaaaaaabvbvbubububububububububububububububua*a*bvbva*a*bybya(a(a(a(a(a(a(a(bybya(a(a*a*a*a*a*a*a*a*a*a*a*a*a*a*a*a*a*a*a*a*aXaXaXaXaXaXaXaXaXaXaXaXaXaXaXaXa*a*a*a*a*a*a*a*a*a*a*a*bububububvbvaMaMbvbvbububibibububkbkbkbkbububibibibibibibibibubububububua*a*a*a*a*a*a*a*a*a*a*a*a*a*a*a*a*a*a*a*a*a*a*a*a*a*a*a*a*a*a*a*a*a*a*a*a*a*a*a*a*a*a*a*a*a*a*a*a*a*a*a*a*a*a*a*a*a*a*a*a*a*a*a*a*a*a*a*a*a*a*a*a*a*a*a*a*a*a*a*aXaXa*a*a*a*a*a*bububububububibibububrbrbububububrbrbrbrbibibibibibia*a*bhbhbubububububua*a*a*a*a*a*a*a*a*a*a*a*a*a*a*a*a*a*a*a*a*a*a*a*a*a*a*a*a*a*a*a*a*a*a*a*a*a*a*a*a*a*aXaXaXaXa*a*a(a(a(a(a(a(a(a(a(a(a(a(a*a*a*a*bububububububububububububububububububububzbzaaaaaaaaaaaaaaaaaaaaaaaaaaaaaaaaaaaaaaaaaaaaaaaaaaaaaaaaaaaaaaaaaaaa",
"aaaaaaaaaaaaaaaaaaaaaaaaaaaaaaaaaaaaaaaaaaaaaaaaaaaaaaaaaaaaaaaaaaaabvbvbubububububububububububububububua*a*bvbva*a*bybya(a(a(a(a(a(a(a(bybya(a(a*a*a*a*a*a*a*a*a*a*a*a*a*a*a*a*a*a*a*a*aXaXaXaXaXaXaXaXaXaXaXaXaXaXaXaXa*a*a*a*a*a*a*a*a*a*a*a*bububububvbvaMaMbvbvbububibibububkbkbkbkbububibibibibibibibibubububububua*a*a*a*a*a*a*a*a*a*a*a*a*a*a*a*a*a*a*a*a*a*a*a*a*a*a*a*a*a*a*a*a*a*a*a*a*a*a*a*a*a*a*a*a*a*a*a*a*a*a*a*a*a*a*a*a*a*a*a*a*a*a*a*a*a*a*a*a*a*a*a*a*a*a*a*a*a*a*a*aXaXa*a*a*a*a*a*bububububububibibububrbrbububububrbrbrbrbibibibibibia*a*bhbhbubububububua*a*a*a*a*a*a*a*a*a*a*a*a*a*a*a*a*a*a*a*a*a*a*a*a*a*a*a*a*a*a*a*a*a*a*a*a*a*a*a*a*a*aXaXaXaXa*a*a(a(a(a(a(a(a(a(a(a(a(a(a*a*a*a*bububububububububububububububububububububzbzaaaaaaaaaaaaaaaaaaaaaaaaaaaaaaaaaaaaaaaaaaaaaaaaaaaaaaaaaaaaaaaaaaaa",
"aaaaaaaaaaaaaaaaaaaaaaaaaaaaaaaaaaaaaaaaaaaaaaaaaaaaaaaaaaaaaaaaaaaaarara1a1a1a1a1a1a1a1a1a1a1a1a2a2a2a2a2a2a2a2a2a2a2a2a2a2aoaoaFaFaoaoaFaFa2a2aFaFa2a2a2a2a2a2a2a2a2a2a2a2a2a2a2a2a2a2a2a2a2a2a2a2a2a2a2a2a2a2a2a2a2a2a2a2a2a2a2a2a2a2a2a2a2a2a2a2aDaDaDaDaaaabvbvbibibibiblblbibiblblbibibibibibibibibibiblblbvbvblblbybybvbvbybybybybybybybybybybybybvbvbvbva*a*a*a*a*a*a*a*a*a*a*a*a*a*a*a*a*a*a*a*a*a*a*a*a*a*a*a*a*a*a*a*a*a*a*a*a*a*a*a*a*a*a*a*a*a*a*a*a*a*a*a*bvbvbybybybybybybybybybybybybybybububububububibiblblbibibibibibibibibibibibibibibibibvbvaTaTa2a2aTaTa2a2aTaTa2a2a2a2a2a2a2a2a2a2a2a2a2a2a2a2a2a2a2a2a2a2a2a2a2a2a2a2a2a2a2a2a2a2a2a2a2a2a2a2a2a2a2a2a2a2avava2a2a2a2a2a2a2a2a2a2a2a2a2a2a2a2a2a2a2a2a2a2a2a2a2a2a2a2a2a2a2a2araraFaFaaaaaaaaaaaaaaaaaaaaaaaaaaaaaaaaaaaaaaaaaaaaaaaaaaaaaaaaaaaaaaaaaaaa",
"aaaaaaaaaaaaaaaaaaaaaaaaaaaaaaaaaaaaaaaaaaaaaaaaaaaaaaaaaaaaaaaaaaaaarara1a1a1a1a1a1a1a1a1a1a1a1a2a2a2a2a2a2a2a2a2a2a2a2a2a2aoaoaFaFaoaoaFaFa2a2aFaFa2a2a2a2a2a2a2a2a2a2a2a2a2a2a2a2a2a2a2a2a2a2a2a2a2a2a2a2a2a2a2a2a2a2a2a2a2a2a2a2a2a2a2a2a2a2a2a2aDaDaDaDaaaabvbvbibibibiblblbibiblblbibibibibibibibibibiblblbvbvblblbybybvbvbybybybybybybybybybybybybvbvbvbva*a*a*a*a*a*a*a*a*a*a*a*a*a*a*a*a*a*a*a*a*a*a*a*a*a*a*a*a*a*a*a*a*a*a*a*a*a*a*a*a*a*a*a*a*a*a*a*a*a*a*a*bvbvbybybybybybybybybybybybybybybububububububibiblblbibibibibibibibibibibibibibibibibvbvaTaTa2a2aTaTa2a2aTaTa2a2a2a2a2a2a2a2a2a2a2a2a2a2a2a2a2a2a2a2a2a2a2a2a2a2a2a2a2a2a2a2a2a2a2a2a2a2a2a2a2a2a2a2a2a2avava2a2a2a2a2a2a2a2a2a2a2a2a2a2a2a2a2a2a2a2a2a2a2a2a2a2a2a2a2a2a2a2araraFaFaaaaaaaaaaaaaaaaaaaaaaaaaaaaaaaaaaaaaaaaaaaaaaaaaaaaaaaaaaaaaaaaaaaa",
"aaaaaaaaaaaaaaaaaaaaaaaaaaaaaaaaaaaaaaaaaaaaaaaaaaaaaaaaaaaaaaaaaaaaaaaaaaaaaaaaaaaaaaaaaaaaaaaaaaaaaaaaaaaaaaaaaaaaaaaaaaaaaaaaaaaaaaaaaaaaaaaaaaaaaaaaaaaaaaaaaaaaaaaaaaaaaaaaaaaaaaaaaaaaaaaaaaaaaaaaaaaaaaaaaaaaaaaaaaaaaaaaaaaaaaaaaaaaaaaaaaaaaaaaaaaaaaaaaaaaaaaaaaaaaaaaaaaaaaaaaaaaaaaaaaaaaaaaaaaaaaaaaaaaaaaaaaaaaaaaaaaaaaaaaaaaaaaaaaaaaaaaaaaaaaaaaaaaaaaaaaaaaaaaaaaaaaaaaaaaaaaaaaaaaaaaaaaaaaaaaaaaaaaaaaaaaaaaaaaaaaaaaaaaaaaaaaaaaaaaaaaaaaaaaaaaaaaaaaaaaaaaaaaaaaaaaaaaaaaaaaaaaaaaaaaaaaaaaaaaaaaaaaaaaaaaaaaaaaaaaaaaaaaaaaaaaaaaaaaaaaaaaaaaaaaaaaaaaaaaaaaaaaaaaaaaaaaaaaaaaaaaaaaaaaaaaaaaaaaaaaaaaaaaaaaaaaaaaaaaaaaaaaaaaaaaaaaaaaaaaaaaaaaaaaaaaaaaaaaaaaaaaaaaaaaaaaaaaaaaaaaaaaaaaaaaaaaaaaaaaaaaaaaaaaaaaaaaaaaaaaaaaaaaaaaaaaaaaaaaaaaaaaaaaaaaaaaaaaaaaaaaaaaaaaaaaaaaaaaaaaaaaaaaaaaaaaaaaaaa",
"aaaaaaaaaaaaaaaaaaaaaaaaaaaaaaaaaaaaaaaaaaaaaaaaaaaaaaaaaaaaaaaaaaaaaaaaaaaaaaaaaaaaaaaaaaaaaaaaaaaaaaaaaaaaaaaaaaaaaaaaaaaaaaaaaaaaaaaaaaaaaaaaaaaaaaaaaaaaaaaaaaaaaaaaaaaaaaaaaaaaaaaaaaaaaaaaaaaaaaaaaaaaaaaaaaaaaaaaaaaaaaaaaaaaaaaaaaaaaaaaaaaaaaaaaaaaaaaaaaaaaaaaaaaaaaaaaaaaaaaaaaaaaaaaaaaaaaaaaaaaaaaaaaaaaaaaaaaaaaaaaaaaaaaaaaaaaaaaaaaaaaaaaaaaaaaaaaaaaaaaaaaaaaaaaaaaaaaaaaaaaaaaaaaaaaaaaaaaaaaaaaaaaaaaaaaaaaaaaaaaaaaaaaaaaaaaaaaaaaaaaaaaaaaaaaaaaaaaaaaaaaaaaaaaaaaaaaaaaaaaaaaaaaaaaaaaaaaaaaaaaaaaaaaaaaaaaaaaaaaaaaaaaaaaaaaaaaaaaaaaaaaaaaaaaaaaaaaaaaaaaaaaaaaaaaaaaaaaaaaaaaaaaaaaaaaaaaaaaaaaaaaaaaaaaaaaaaaaaaaaaaaaaaaaaaaaaaaaaaaaaaaaaaaaaaaaaaaaaaaaaaaaaaaaaaaaaaaaaaaaaaaaaaaaaaaaaaaaaaaaaaaaaaaaaaaaaaaaaaaaaaaaaaaaaaaaaaaaaaaaaaaaaaaaaaaaaaaaaaaaaaaaaaaaaaaaaaaaaaaaaaaaaaaaaaaaaaaaaaaa",
"aaaaaaaaaaaaaaaaaaaaaaaaaaaaaaaaaaaaaaaaaaaaaaaaaaaaaaaaaaaaaaaaaaaaaaaaaaaaaaaaaaaaaaaaaaaaaaaaaaaaaaaaaaaaaaaaaaaaaaaaaaaaaaaaaaaaaaaaaaaaaaaaaaaaaaaaaaaaaaaaaaaaaaaaaaaaaaaaaaaaaaaaaaaaaaaaaaaaaaaaaaaaaaaaaaaaaaaaaaaaaaaaaaaaaaaaaaaaaaaaaaaaaaaaaaaaaaaaaaaaaaaaaaaaaaaaaaaaaaaaaaaaaaaaaaaaaaaaaaaaaaaaaaaaaaaaaaaaaaaaaaaaaaaaaaaaaaaaaaaaaaaaaaaaaaaaaaaaaaaaaaaaaaaaaaaaaaaaaaaaaaaaaaaaaaaaaaaaaaaaaaaaaaaaaaaaaaaaaaaaaaaaaaaaaaaaaaaaaaaaaaaaaaaaaaaaaaaaaaaaaaaaaaaaaaaaaaaaaaaaaaaaaaaaaaaaaaaaaaaaaaaaaaaaaaaaaaaaaaaaaaaaaaaaaaaaaaaaaaaaaaaaaaaaaaaaaaaaaaaaaaaaaaaaaaaaaaaaaaaaaaaaaaaaaaaaaaaaaaaaaaaaaaaaaaaaaaaaaaaaaaaaaaaaaaaaaaaaaaaaaaaaaaaaaaaaaaaaaaaaaaaaaaaaaaaaaaaaaaaaaaaaaaaaaaaaaaaaaaaaaaaaaaaaaaaaaaaaaaaaaaaaaaaaaaaaaaaaaaaaaaaaaaaaaaaaaaaaaaaaaaaaaaaaaaaaaaaaaaaaaaaaaaaaaaaaaaaaaaaa",
"aaaaaaaaaaaaaaaaaaaaaaaaaaaaaaaaaaaaaaaaaaaaaaaaaaaaaaaaaaaaaaaaaaaaaaaaaaaaaaaaaaaaaaaaaaaaaaaaaaaaaaaaaaaaaaaaaaaaaaaaaaaaaaaaaaaaaaaaaaaaaaaaaaaaaaaaaaaaaaaaaaaaaaaaaaaaaaaaaaaaaaaaaaaaaaaaaaaaaaaaaaaaaaaaaaaaaaaaaaaaaaaaaaaaaaaaaaaaaaaaaaaaaaaaaaaaaaaaaaaaaaaaaaaaaaaaaaaaaaaaaaaaaaaaaaaaaaaaaaaaaaaaaaaaaaaaaaaaaaaaaaaaaaaaaaaaaaaaaaaaaaaaaaaaaaaaaaaaaaaaaaaaaaaaaaaaaaaaaaaaaaaaaaaaaaaaaaaaaaaaaaaaaaaaaaaaaaaaaaaaaaaaaaaaaaaaaaaaaaaaaaaaaaaaaaaaaaaaaaaaaaaaaaaaaaaaaaaaaaaaaaaaaaaaaaaaaaaaaaaaaaaaaaaaaaaaaaaaaaaaaaaaaaaaaaaaaaaaaaaaaaaaaaaaaaaaaaaaaaaaaaaaaaaaaaaaaaaaaaaaaaaaaaaaaaaaaaaaaaaaaaaaaaaaaaaaaaaaaaaaaaaaaaaaaaaaaaaaaaaaaaaaaaaaaaaaaaaaaaaaaaaaaaaaaaaaaaaaaaaaaaaaaaaaaaaaaaaaaaaaaaaaaaaaaaaaaaaaaaaaaaaaaaaaaaaaaaaaaaaaaaaaaaaaaaaaaaaaaaaaaaaaaaaaaaaaaaaaaaaaaaaaaaaaaaaaaaaaaaaa",
"aaaaaaaaaaaaaaaaaaaaaaaaaaaaaaaaaaaaaaaaaaaaaaaaaaaaaaaaaaaaaaaaaaaaaaaaaaaaaaaaaaaaaaaaaaaaaaaaaaaaaaaaaaaaaaaaaaaaaaaaaaaaaaaaaaaaaaaaaaaaaaaaaaaaaaaaaaaaaaaaaaaaaaaaaaaaaaaaaaaaaaaaaaaaaaaaaaaaaaaaaaaaaaaaaaaaaaaaaaaaaaaaaaaaaaaaaaaaaaaaaaaaaaaaaaaaaaaaaaaaaaaaaaaaaaaaaaaaaaaaaaaaaaaaaaaaaaaaaaaaaaaaaaaaaaaaaaaaaaaaaaaaaaaaaaaaaaaaaaaaaaaaaaaaaaaaaaaaaaaaaaaaaaaaaaaaaaaaaaaaaaaaaaaaaaaaaaaaaaaaaaaaaaaaaaaaaaaaaaaaaaaaaaaaaaaaaaaaaaaaaaaaaaaaaaaaaaaaaaaaaaaaaaaaaaaaaaaaaaaaaaaaaaaaaaaaaaaaaaaaaaaaaaaaaaaaaaaaaaaaaaaaaaaaaaaaaaaaaaaaaaaaaaaaaaaaaaaaaaaaaaaaaaaaaaaaaaaaaaaaaaaaaaaaaaaaaaaaaaaaaaaaaaaaaaaaaaaaaaaaaaaaaaaaaaaaaaaaaaaaaaaaaaaaaaaaaaaaaaaaaaaaaaaaaaaaaaaaaaaaaaaaaaaaaaaaaaaaaaaaaaaaaaaaaaaaaaaaaaaaaaaaaaaaaaaaaaaaaaaaaaaaaaaaaaaaaaaaaaaaaaaaaaaaaaaaaaaaaaaaaaaaaaaaaaaaaaaaaaaa",
"aaaaaaaaaaaaaaaaaaaaaaaaaaaaaaaaaaaaaaaaaaaaaaaaaaaaaaaaaaaaaaaaaaaaaaaaaaaaaaaaaaaaaaaaaaaaaaaaaaaaaaaaaaaaaaaaaaaaaaaaaaaaaaaaaaaaaaaaaaaaaaaaaaaaaaaaaaaaaaaaaaaaaaaaaaaaaaaaaaaaaaaaaaaaaaaaaaaaaaaaaaaaaaaaaaaaaaaaaaaaaaaaaaaaaaaaaaaaaaaaaaaaaaaaaaaaaaaaaaaaaaaaaaaaaaaaaaaaaaaaaaaaaaaaaaaaaaaaaaaaaaaaaaaaaaaaaaaaaaaaaaaaaaaaaaaaaaaaaaaaaaaaaaaaaaaaaaaaaaaaaaaaaaaaaaaaaaaaaaaaaaaaaaaaaaaaaaaaaaaaaaaaaaaaaaaaaaaaaaaaaaaaaaaaaaaaaaaaaaaaaaaaaaaaaaaaaaaaaaaaaaaaaaaaaaaaaaaaaaaaaaaaaaaaaaaaaaaaaaaaaaaaaaaaaaaaaaaaaaaaaaaaaaaaaaaaaaaaaaaaaaaaaaaaaaaaaaaaaaaaaaaaaaaaaaaaaaaaaaaaaaaaaaaaaaaaaaaaaaaaaaaaaaaaaaaaaaaaaaaaaaaaaaaaaaaaaaaaaaaaaaaaaaaaaaaaaaaaaaaaaaaaaaaaaaaaaaaaaaaaaaaaaaaaaaaaaaaaaaaaaaaaaaaaaaaaaaaaaaaaaaaaaaaaaaaaaaaaaaaaaaaaaaaaaaaaaaaaaaaaaaaaaaaaaaaaaaaaaaaaaaaaaaaaaaaaaaaaaaaa",
"aaaaaaaaaaaaaaaaaaaaaaaaaaaaaaaaaaaaaaaaaaaaaaaaaaaaaaaaaaaaaaaaaaaaaaaaaaaaaaaaaaaaaaaaaaaaaaaaaaaaaaaaaaaaaaaaaaaaaaaaaaaaaaaaaaaaaaaaaaaaaaaaaaaaaaaaaaaaaaaaaaaaaaaaaaaaaaaaaaaaaaaaaaaaaaaaaaaaaaaaaaaaaaaaaaaaaaaaaaaaaaaaaaaaaaaaaaaaaaaaaaaaaaaaaaaaaaaaaaaaaaaaaaaaaaaaaaaaaaaaaaaaaaaaaaaaaaaaaaaaaaaaaaaaaaaaaaaaaaaaaaaaaaaaaaaaaaaaaaaaaaaaaaaaaaaaaaaaaaaaaaaaaaaaaaaaaaaaaaaaaaaaaaaaaaaaaaaaaaaaaaaaaaaaaaaaaaaaaaaaaaaaaaaaaaaaaaaaaaaaaaaaaaaaaaaaaaaaaaaaaaaaaaaaaaaaaaaaaaaaaaaaaaaaaaaaaaaaaaaaaaaaaaaaaaaaaaaaaaaaaaaaaaaaaaaaaaaaaaaaaaaaaaaaaaaaaaaaaaaaaaaaaaaaaaaaaaaaaaaaaaaaaaaaaaaaaaaaaaaaaaaaaaaaaaaaaaaaaaaaaaaaaaaaaaaaaaaaaaaaaaaaaaaaaaaaaaaaaaaaaaaaaaaaaaaaaaaaaaaaaaaaaaaaaaaaaaaaaaaaaaaaaaaaaaaaaaaaaaaaaaaaaaaaaaaaaaaaaaaaaaaaaaaaaaaaaaaaaaaaaaaaaaaaaaaaaaaaaaaaaaaaaaaaaaaaaaaaaaaa",
"aaaaaaaaaaaaaaaaaaaaaaaaaaaaaaaaaaaaaaaaaaaaaaaaaaaaaaaaaaaaaaaaaaaaaaaaaaaaaaaaaaaaaaaaaaaaaaaaaaaaaaaaaaaaaaaaaaaaaaaaaaaaaaaaaaaaaaaaaaaaaaaaaaaaaaaaaaaaaaaaaaaaaaaaaaaaaaaaaaaaaaaaaaaaaaaaaaaaaaaaaaaaaaaaaaaaaaaaaaaaaaaaaaaaaaaaaaaaaaaaaaaaaaaaaaaaaaaaaaaaaaaaaaaaaaaaaaaaaaaaaaaaaaaaaaaaaaaaaaaaaaaaaaaaaaaaaaaaaaaaaaaaaaaaaaaaaaaaaaaaaaaaaaaaaaaaaaaaaaaaaaaaaaaaaaaaaaaaaaaaaaaaaaaaaaaaaaaaaaaaaaaaaaaaaaaaaaaaaaaaaaaaaaaaaaaaaaaaaaaaaaaaaaaaaaaaaaaaaaaaaaaaaaaaaaaaaaaaaaaaaaaaaaaaaaaaaaaaaaaaaaaaaaaaaaaaaaaaaaaaaaaaaaaaaaaaaaaaaaaaaaaaaaaaaaaaaaaaaaaaaaaaaaaaaaaaaaaaaaaaaaaaaaaaaaaaaaaaaaaaaaaaaaaaaaaaaaaaaaaaaaaaaaaaaaaaaaaaaaaaaaaaaaaaaaaaaaaaaaaaaaaaaaaaaaaaaaaaaaaaaaaaaaaaaaaaaaaaaaaaaaaaaaaaaaaaaaaaaaaaaaaaaaaaaaaaaaaaaaaaaaaaaaaaaaaaaaaaaaaaaaaaaaaaaaaaaaaaaaaaaaaaaaaaaaaaaaaaaaaa",
"aaaaaaaaaaaaaaaaaaaaaaaaaaaaaaaaaaaaaaaaaaaaaaaaaaaaaaaaaaaaaaaaaaaaaaaaaaaaaaaaaaaaaaaaaaaaaaaaaaaaaaaaaaaaaaaaaaaaaaaaaaaaaaaaaaaaaaaaaaaaaaaaaaaaaaaaaaaaaaaaaaaaaaaaaaaaaaaaaaaaaaaaaaaaaaaaaaaaaaaaaaaaaaaaaaaaaaaaaaaaaaaaaaaaaaaaaaaaaaaaaaaaaaaaaaaaaaaaaaaaaaaaaaaaaaaaaaaaaaaaaaaaaaaaaaaaaaaaaaaaaaaaaaaaaaaaaaaaaaaaaaaaaaaaaaaaaaaaaaaaaaaaaaaaaaaaaaaaaaaaaaaaaaaaaaaaaaaaaaaaaaaaaaaaaaaaaaaaaaaaaaaaaaaaaaaaaaaaaaaaaaaaaaaaaaaaaaaaaaaaaaaaaaaaaaaaaaaaaaaaaaaaaaaaaaaaaaaaaaaaaaaaaaaaaaaaaaaaaaaaaaaaaaaaaaaaaaaaaaaaaaaaaaaaaaaaaaaaaaaaaaaaaaaaaaaaaaaaaaaaaaaaaaaaaaaaaaaaaaaaaaaaaaaaaaaaaaaaaaaaaaaaaaaaaaaaaaaaaaaaaaaaaaaaaaaaaaaaaaaaaaaaaaaaaaaaaaaaaaaaaaaaaaaaaaaaaaaaaaaaaaaaaaaaaaaaaaaaaaaaaaaaaaaaaaaaaaaaaaaaaaaaaaaaaaaaaaaaaaaaaaaaaaaaaaaaaaaaaaaaaaaaaaaaaaaaaaaaaaaaaaaaaaaaaaaaaaaaaaaa",
"aaaaaaaaaaaaaaaaaaaaaaaaaaaaaaaaaaaaaaaaaaaaaaaaaaaaaaaaaaaaaaaaaaaaaaaaaaaaaaaaaaaaaaaaaaaaaaaaaaaaaaaaaaaaaaaaaaaaaaaaaaaaaaaaaaaaaaaaaaaaaaaaaaaaaaaaaaaaaaaaaaaaaaaaaaaaaaaaaaaaaaaaaaaaaaaaaaaaaaaaaaaaaaaaaaaaaaaaaaaaaaaaaaaaaaaaaaaaaaaaaaaaaaaaaaaaaaaaaaaaaaaaaaaaaaaaaaaaaaaaaaaaaaaaaaaaaaaaaaaaaaaaaaaaaaaaaaaaaaaaaaaaaaaaaaaaaaaaaaaaaaaaaaaaaaaaaaaaaaaaaaaaaaaaaaaaaaaaaaaaaaaaaaaaaaaaaaaaaaaaaaaaaaaaaaaaaaaaaaaaaaaaaaaaaaaaaaaaaaaaaaaaaaaaaaaaaaaaaaaaaaaaaaaaaaaaaaaaaaaaaaaaaaaaaaaaaaaaaaaaaaaaaaaaaaaaaaaaaaaaaaaaaaaaaaaaaaaaaaaaaaaaaaaaaaaaaaaaaaaaaaaaaaaaaaaaaaaaaaaaaaaaaaaaaaaaaaaaaaaaaaaaaaaaaaaaaaaaaaaaaaaaaaaaaaaaaaaaaaaaaaaaaaaaaaaaaaaaaaaaaaaaaaaaaaaaaaaaaaaaaaaaaaaaaaaaaaaaaaaaaaaaaaaaaaaaaaaaaaaaaaaaaaaaaaaaaaaaaaaaaaaaaaaaaaaaaaaaaaaaaaaaaaaaaaaaaaaaaaaaaaaaaaaaaaaaaaaaaaaa",
"aaaaaaaaaaaaaaaaaaaaaaaaaaaaaaaaaaaaaaaaaaaaaaaaaaaaaaaaaaaaaaaaaaaaaaaaaaaaaaaaaaaaaaaaaaaaaaaaaaaaaaaaaaaaaaaaaaaaaaaaaaaaaaaaaaaaaaaaaaaaaaaaaaaaaaaaaaaaaaaaaaaaaaaaaaaaaaaaaaaaaaaaaaaaaaaaaaaaaaaaaaaaaaaaaaaaaaaaaaaaaaaaaaaaaaaaaaaaaaaaaaaaaaaaaaaaaaaaaaaaaaaaaaaaaaaaaaaaaaaaaaaaaaaaaaaaaaaaaaaaaaaaaaaaaaaaaaaaaaaaaaaaaaaaaaaaaaaaaaaaaaaaaaaaaaaaaaaaaaaaaaaaaaaaaaaaaaaaaaaaaaaaaaaaaaaaaaaaaaaaaaaaaaaaaaaaaaaaaaaaaaaaaaaaaaaaaaaaaaaaaaaaaaaaaaaaaaaaaaaaaaaaaaaaaaaaaaaaaaaaaaaaaaaaaaaaaaaaaaaaaaaaaaaaaaaaaaaaaaaaaaaaaaaaaaaaaaaaaaaaaaaaaaaaaaaaaaaaaaaaaaaaaaaaaaaaaaaaaaaaaaaaaaaaaaaaaaaaaaaaaaaaaaaaaaaaaaaaaaaaaaaaaaaaaaaaaaaaaaaaaaaaaaaaaaaaaaaaaaaaaaaaaaaaaaaaaaaaaaaaaaaaaaaaaaaaaaaaaaaaaaaaaaaaaaaaaaaaaaaaaaaaaaaaaaaaaaaaaaaaaaaaaaaaaaaaaaaaaaaaaaaaaaaaaaaaaaaaaaaaaaaaaaaaaaaaaaaaaaaa",
"aaaaaaaaaaaaaaaaaaaaaaaaaaaaaaaaaaaaaaaaaaaaaaaaaaaaaaaaaaaaaaaaaaaaaaaaaaaaaaaaaaaaaaaaaaaaaaaaaaaaaaaaaaaaaaaaaaaaaaaaaaaaaaaaaaaaaaaaaaaaaaaaaaaaaaaaaaaaaaaaaaaaaaaaaaaaaaaaaaaaaaaaaaaaaaaaaaaaaaaaaaaaaaaaaaaaaaaaaaaaaaaaaaaaaaaaaaaaaaaaaaaaaaaaaaaaaaaaaaaaaaaaaaaaaaaaaaaaaaaaaaaaaaaaaaaaaaaaaaaaaaaaaaaaaaaaaaaaaaaaaaaaaaaaaaaaaaaaaaaaaaaaaaaaaaaaaaaaaaaaaaaaaaaaaaaaaaaaaaaaaaaaaaaaaaaaaaaaaaaaaaaaaaaaaaaaaaaaaaaaaaaaaaaaaaaaaaaaaaaaaaaaaaaaaaaaaaaaaaaaaaaaaaaaaaaaaaaaaaaaaaaaaaaaaaaaaaaaaaaaaaaaaaaaaaaaaaaaaaaaaaaaaaaaaaaaaaaaaaaaaaaaaaaaaaaaaaaaaaaaaaaaaaaaaaaaaaaaaaaaaaaaaaaaaaaaaaaaaaaaaaaaaaaaaaaaaaaaaaaaaaaaaaaaaaaaaaaaaaaaaaaaaaaaaaaaaaaaaaaaaaaaaaaaaaaaaaaaaaaaaaaaaaaaaaaaaaaaaaaaaaaaaaaaaaaaaaaaaaaaaaaaaaaaaaaaaaaaaaaaaaaaaaaaaaaaaaaaaaaaaaaaaaaaaaaaaaaaaaaaaaaaaaaaaaaaaaaaaaaa",
"aaaaaaaaaaaaaaaaaaaaaaaaaaaaaaaaaaaaaaaaaaaaaaaaaaaaaaaaaaaaaaaaaaaaaaaaaaaaaaaaaaaaaaaaaaaaaaaaaaaaaaaaaaaaaaaaaaaaaaaaaaaaaaaaaaaaaaaaaaaaaaaaaaaaaaaaaaaaaaaaaaaaaaaaaaaaaaaaaaaaaaaaaaaaaaaaaaaaaaaaaaaaaaaaaaaaaaaaaaaaaaaaaaaaaaaaaaaaaaaaaaaaaaaaaaaaaaaaaaaaaaaaaaaaaaaaaaaaaaaaaaaaaaaaaaaaaaaaaaaaaaaaaaaaaaaaaaaaaaaaaaaaaaaaaaaaaaaaaaaaaaaaaaaaaaaaaaaaaaaaaaaaaaaaaaaaaaaaaaaaaaaaaaaaaaaaaaaaaaaaaaaaaaaaaaaaaaaaaaaaaaaaaaaaaaaaaaaaaaaaaaaaaaaaaaaaaaaaaaaaaaaaaaaaaaaaaaaaaaaaaaaaaaaaaaaaaaaaaaaaaaaaaaaaaaaaaaaaaaaaaaaaaaaaaaaaaaaaaaaaaaaaaaaaaaaaaaaaaaaaaaaaaaaaaaaaaaaaaaaaaaaaaaaaaaaaaaaaaaaaaaaaaaaaaaaaaaaaaaaaaaaaaaaaaaaaaaaaaaaaaaaaaaaaaaaaaaaaaaaaaaaaaaaaaaaaaaaaaaaaaaaaaaaaaaaaaaaaaaaaaaaaaaaaaaaaaaaaaaaaaaaaaaaaaaaaaaaaaaaaaaaaaaaaaaaaaaaaaaaaaaaaaaaaaaaaaaaaaaaaaaaaaaaaaaaaaaaaaaaa",
"aaaaaaaaaaaaaaaaaaaaaaaaaaaaaaaaaaaaaaaaaaaaaaaaaaaaaaaaaaaaaaaaaaaaaaaaaaaaaaaaaaaaaaaaaaaaaaaaaaaaaaaaaaaaaaaaaaaaaaaaaaaaaaaaaaaaaaaaaaaaaaaaaaaaaaaaaaaaaaaaaaaaaaaaaaaaaaaaaaaaaaaaaaaaaaaaaaaaaaaaaaaaaaaaaaaaaaaaaaaaaaaaaaaaaaaaaaaaaaaaaaaaaaaaaaaaaaaaaaaaaaaaaaaaaaaaaaaaaaaaaaaaaaaaaaaaaaaaaaaaaaaaaaaaaaaaaaaaaaaaaaaaaaaaaaaaaaaaaaaaaaaaaaaaaaaaaaaaaaaaaaaaaaaaaaaaaaaaaaaaaaaaaaaaaaaaaaaaaaaaaaaaaaaaaaaaaaaaaaaaaaaaaaaaaaaaaaaaaaaaaaaaaaaaaaaaaaaaaaaaaaaaaaaaaaaaaaaaaaaaaaaaaaaaaaaaaaaaaaaaaaaaaaaaaaaaaaaaaaaaaaaaaaaaaaaaaaaaaaaaaaaaaaaaaaaaaaaaaaaaaaaaaaaaaaaaaaaaaaaaaaaaaaaaaaaaaaaaaaaaaaaaaaaaaaaaaaaaaaaaaaaaaaaaaaaaaaaaaaaaaaaaaaaaaaaaaaaaaaaaaaaaaaaaaaaaaaaaaaaaaaaaaaaaaaaaaaaaaaaaaaaaaaaaaaaaaaaaaaaaaaaaaaaaaaaaaaaaaaaaaaaaaaaaaaaaaaaaaaaaaaaaaaaaaaaaaaaaaaaaaaaaaaaaaaaaaaaaaaaa",
"aaaaaaaaaaaaaaaaaaaaaaaaaaaaaaaaaaaaaaaaaaaaaaaaaaaaaaaaaaaaaaaaaaaaaaaaaaaaaaaaaaaaaaaaaaaaaaaaaaaaaaaaaaaaaaaaaaaaaaaaaaaaaaaaaaaaaaaaaaaaaaaaaaaaaaaaaaaaaaaaaaaaaaaaaaaaaaaaaaaaaaaaaaaaaaaaaaaaaaaaaaaaaaaaaaaaaaaaaaaaaaaaaaaaaaaaaaaaaaaaaaaaaaaaaaaaaaaaaaaaaaaaaaaaaaaaaaaaaaaaaaaaaaaaaaaaaaaaaaaaaaaaaaaaaaaaaaaaaaaaaaaaaaaaaaaaaaaaaaaaaaaaaaaaaaaaaaaaaaaaaaaaaaaaaaaaaaaaaaaaaaaaaaaaaaaaaaaaaaaaaaaaaaaaaaaaaaaaaaaaaaaaaaaaaaaaaaaaaaaaaaaaaaaaaaaaaaaaaaaaaaaaaaaaaaaaaaaaaaaaaaaaaaaaaaaaaaaaaaaaaaaaaaaaaaaaaaaaaaaaaaaaaaaaaaaaaaaaaaaaaaaaaaaaaaaaaaaaaaaaaaaaaaaaaaaaaaaaaaaaaaaaaaaaaaaaaaaaaaaaaaaaaaaaaaaaaaaaaaaaaaaaaaaaaaaaaaaaaaaaaaaaaaaaaaaaaaaaaaaaaaaaaaaaaaaaaaaaaaaaaaaaaaaaaaaaaaaaaaaaaaaaaaaaaaaaaaaaaaaaaaaaaaaaaaaaaaaaaaaaaaaaaaaaaaaaaaaaaaaaaaaaaaaaaaaaaaaaaaaaaaaaaaaaaaaaaaaaaaaa",
"aaaaaaaaaaaaaaaaaaaaaaaaaaaaaaaaaaaaaaaaaaaaaaaaaaaaaaaaaaaaaaaaaaaaaaaaaaaaaaaaaaaaaaaaaaaaaaaaaaaaaaaaaaaaaaaaaaaaaaaaaaaaaaaaaaaaaaaaaaaaaaaaaaaaaaaaaaaaaaaaaaaaaaaaaaaaaaaaaaaaaaaaaaaaaaaaaaaaaaaaaaaaaaaaaaaaaaaaaaaaaaaaaaaaaaaaaaaaaaaaaaaaaaaaaaaaaaaaaaaaaaaaaaaaaaaaaaaaaaaaaaaaaaaaaaaaaaaaaaaaaaaaaaaaaaaaaaaaaaaaaaaaaaaaaaaaaaaaaaaaaaaaaaaaaaaaaaaaaaaaaaaaaaaaaaaaaaaaaaaaaaaaaaaaaaaaaaaaaaaaaaaaaaaaaaaaaaaaaaaaaaaaaaaaaaaaaaaaaaaaaaaaaaaaaaaaaaaaaaaaaaaaaaaaaaaaaaaaaaaaaaaaaaaaaaaaaaaaaaaaaaaaaaaaaaaaaaaaaaaaaaaaaaaaaaaaaaaaaaaaaaaaaaaaaaaaaaaaaaaaaaaaaaaaaaaaaaaaaaaaaaaaaaaaaaaaaaaaaaaaaaaaaaaaaaaaaaaaaaaaaaaaaaaaaaaaaaaaaaaaaaaaaaaaaaaaaaaaaaaaaaaaaaaaaaaaaaaaaaaaaaaaaaaaaaaaaaaaaaaaaaaaaaaaaaaaaaaaaaaaaaaaaaaaaaaaaaaaaaaaaaaaaaaaaaaaaaaaaaaaaaaaaaaaaaaaaaaaaaaaaaaaaaaaaaaaaaaaaaaa",
"aaaaaaaaaaaaaaaaaaaaaaaaaaaaaaaaaaaaaaaaaaaaaaaaaaaaaaaaaaaaaaaaaaaaaaaaaaaaaaaaaaaaaaaaaaaaaaaaaaaaaaaaaaaaaaaaaaaaaaaaaaaaaaaaaaaaaaaaaaaaaaaaaaaaaaaaaaaaaaaaaaaaaaaaaaaaaaaaaaaaaaaaaaaaaaaaaaaaaaaaaaaaaaaaaaaaaaaaaaaaaaaaaaaaaaaaaaaaaaaaaaaaaaaaaaaaaaaaaaaaaaaaaaaaaaaaaaaaaaaaaaaaaaaaaaaaaaaaaaaaaaaaaaaaaaaaaaaaaaaaaaaaaaaaaaaaaaaaaaaaaaaaaaaaaaaaaaaaaaaaaaaaaaaaaaaaaaaaaaaaaaaaaaaaaaaaaaaaaaaaaaaaaaaaaaaaaaaaaaaaaaaaaaaaaaaaaaaaaaaaaaaaaaaaaaaaaaaaaaaaaaaaaaaaaaaaaaaaaaaaaaaaaaaaaaaaaaaaaaaaaaaaaaaaaaaaaaaaaaaaaaaaaaaaaaaaaaaaaaaaaaaaaaaaaaaaaaaaaaaaaaaaaaaaaaaaaaaaaaaaaaaaaaaaaaaaaaaaaaaaaaaaaaaaaaaaaaaaaaaaaaaaaaaaaaaaaaaaaaaaaaaaaaaaaaaaaaaaaaaaaaaaaaaaaaaaaaaaaaaaaaaaaaaaaaaaaaaaaaaaaaaaaaaaaaaaaaaaaaaaaaaaaaaaaaaaaaaaaaaaaaaaaaaaaaaaaaaaaaaaaaaaaaaaaaaaaaaaaaaaaaaaaaaaaaaaaaaaaaaa",
"aaaaaaaaaaaaaaaaaaaaaaaaaaaaaaaaaaaaaaaaaaaaaaaaaaaaaaaaaaaaaaaaaaaaaaaaaaaaaaaaaaaaaaaaaaaaaaaaaaaaaaaaaaaaaaaaaaaaaaaaaaaaaaaaaaaaaaaaaaaaaaaaaaaaaaaaaaaaaaaaaaaaaaaaaaaaaaaaaaaaaaaaaaaaaaaaaaaaaaaaaaaaaaaaaaaaaaaaaaaaaaaaaaaaaaaaaaaaaaaaaaaaaaaaaaaaaaaaaaaaaaaaaaaaaaaaaaaaaaaaaaaaaaaaaaaaaaaaaaaaaaaaaaaaaaaaaaaaaaaaaaaaaaaaaaaaaaaaaaaaaaaaaaaaaaaaaaaaaaaaaaaaaaaaaaaaaaaaaaaaaaaaaaaaaaaaaaaaaaaaaaaaaaaaaaaaaaaaaaaaaaaaaaaaaaaaaaaaaaaaaaaaaaaaaaaaaaaaaaaaaaaaaaaaaaaaaaaaaaaaaaaaaaaaaaaaaaaaaaaaaaaaaaaaaaaaaaaaaaaaaaaaaaaaaaaaaaaaaaaaaaaaaaaaaaaaaaaaaaaaaaaaaaaaaaaaaaaaaaaaaaaaaaaaaaaaaaaaaaaaaaaaaaaaaaaaaaaaaaaaaaaaaaaaaaaaaaaaaaaaaaaaaaaaaaaaaaaaaaaaaaaaaaaaaaaaaaaaaaaaaaaaaaaaaaaaaaaaaaaaaaaaaaaaaaaaaaaaaaaaaaaaaaaaaaaaaaaaaaaaaaaaaaaaaaaaaaaaaaaaaaaaaaaaaaaaaaaaaaaaaaaaaaaaaaaaaaaaaaaa",
"aaaaaaaaaaaaaaaaaaaaaaaaaaaaaaaaaaaaaaaaaaaaaaaaaaaaaaaaaaaaaaaaaaaaaaaaaaaaaaaaaaaaaaaaaaaaalalbcbcadadadadadadadadadadadadadadadadadadadadbmbmbcbcayayaaaaaaaaaaaaalalbcbcbcbcadadadadadadadadadadadadadadadadadadadadadadadadbvbvauauaaaaalalbwbwadadadadadadadadadadadadadadadadbmbmbmbmadadaUaUaaaaaaaaaaaaaaaaaaaaaaaaaaaaaaaaaaaaaaaaaaaaaaaaaaaaaaaaaaaaaaaaaaaaaaaaaaaaaaaaaaaaaaaaaaaaaaaaaaaaaaaaaaaabmbmbmbmadadadadbmbmadadaFaFaaaaaaaaaaaaaaaaaaaaaaaaauaubcbcadadadadadadbmbmbwbwaiaiaxaxbcbcadadadadbcbcadadadadadadadadadadadadadadadadbmbmaFaFbmbmadadadadadadbmbmbcbcaaaaaaaaaaaaaUaUadadbmbmbmbmbmbmadadaLaLaaaaaaaaaaaaalalbcbcadadadadbmbmadadbmbmadadbwbwadadadadadadadadaaaaaaaaauaubwbwadadadadbmbmbcbcalalaaaaaaaaaaaaaaaaaaaaaaaaaaaaaaaaaaaaaaaaaaaaaaaaaaaaaaaaaaaaaaaaaaaaaaaaaaaaaaaaaaaaaaaaaaaa",
"aaaaaaaaaaaaaaaaaaaaaaaaaaaaaaaaaaaaaaaaaaaaaaaaaaaaaaaaaaaaaaaaaaaaaaaaaaaaaaaaaaaaaaaaaaaaalalbcbcadadadadadadadadadadadadadadadadadadadadbmbmbcbcayayaaaaaaaaaaaaalalbcbcbcbcadadadadadadadadadadadadadadadadadadadadadadadadbvbvauauaaaaalalbwbwadadadadadadadadadadadadadadadadbmbmbmbmadadaUaUaaaaaaaaaaaaaaaaaaaaaaaaaaaaaaaaaaaaaaaaaaaaaaaaaaaaaaaaaaaaaaaaaaaaaaaaaaaaaaaaaaaaaaaaaaaaaaaaaaaaaaaaaaaabmbmbmbmadadadadbmbmadadaFaFaaaaaaaaaaaaaaaaaaaaaaaaauaubcbcadadadadadadbmbmbwbwaiaiaxaxbcbcadadadadbcbcadadadadadadadadadadadadadadadadbmbmaFaFbmbmadadadadadadbmbmbcbcaaaaaaaaaaaaaUaUadadbmbmbmbmbmbmadadaLaLaaaaaaaaaaaaalalbcbcadadadadbmbmadadbmbmadadbwbwadadadadadadadadaaaaaaaaauaubwbwadadadadbmbmbcbcalalaaaaaaaaaaaaaaaaaaaaaaaaaaaaaaaaaaaaaaaaaaaaaaaaaaaaaaaaaaaaaaaaaaaaaaaaaaaaaaaaaaaaaaaaaaaa",
"aaaaaaaaaaaaaaaaaaaaaaaaaaaaaaaaaaaaaaaaaaaaaaaaaaaaaaaaaaaaaaaaaaaaaaaaaaaaaaaaaaaaaaaaaaaaadadaeaeaMaMajajajajajajajajafafafafajajafafavavafafaLaLacacaVaVaaaaaaaaadadalalafafajajajajafafajajafafavavafafafafafafafafafafajajajajbwbwaaaabmbmalalafafajajajajafafafafafafafafafafafafafafavavapapauauaaaaaaaaaaaaaaaaaaaaaaaaaaaaaaaaaaaaaaaaaaaaaaaaaaaaaaaaaaaaaaaaaaaaaaaaaaaaaaaaaaaaaaaaaaaaaaaaaaaaaaaabzbzaoaoajajajajafafbmbmaVaVaaaaaaaaaaaaaaaaaaaaaaaabwbwakakaMaMafafavavaFaFbvbvavavadadaMaMajajajajafafajajajajafafafafaMaMaMaMajajaMaMadadavavbvbvaiaiavavajajaMaMaxaxacacaaaaaaaaadadavavaMaMafafaMaMauaubmbmaaaaaaaaaLaLahahaLaLafafajajajajafafafafajajajajavavafafaoaobzbzaaaaaaaabwbwavavafafajajaiaiaeaebmbmaaaaaaaaaaaaaaaaaaaaaaaaaaaaaaaaaaaaaaaaaaaaaaaaaaaaaaaaaaaaaaaaaaaaaaaaaaaaaaaaaaaaaaaaaaaa",
"aaaaaaaaaaaaaaaaaaaaaaaaaaaaaaaaaaaaaaaaaaaaaaaaaaaaaaaaaaaaaaaaaaaaaaaaaaaaaaaaaaaaaaaaaaaaadadaeaeaMaMajajajajajajajajafafafafajajafafavavafafaLaLacacaVaVaaaaaaaaadadalalafafajajajajafafajajafafavavafafafafafafafafafafajajajajbwbwaaaabmbmalalafafajajajajafafafafafafafafafafafafafafavavapapauauaaaaaaaaaaaaaaaaaaaaaaaaaaaaaaaaaaaaaaaaaaaaaaaaaaaaaaaaaaaaaaaaaaaaaaaaaaaaaaaaaaaaaaaaaaaaaaaaaaaaaaaabzbzaoaoajajajajafafbmbmaVaVaaaaaaaaaaaaaaaaaaaaaaaabwbwakakaMaMafafavavaFaFbvbvavavadadaMaMajajajajafafajajajajafafafafaMaMaMaMajajaMaMadadavavbvbvaiaiavavajajaMaMaxaxacacaaaaaaaaadadavavaMaMafafaMaMauaubmbmaaaaaaaaaLaLahahaLaLafafajajajajafafafafajajajajavavafafaoaobzbzaaaaaaaabwbwavavafafajajaiaiaeaebmbmaaaaaaaaaaaaaaaaaaaaaaaaaaaaaaaaaaaaaaaaaaaaaaaaaaaaaaaaaaaaaaaaaaaaaaaaaaaaaaaaaaaaaaaaaaaa",
"aaaaaaaaaaaaaaaaaaaaaaaaaaaaaaaaaaaaaaaaaaaaaaaaaaaaaaaaaaaaaaaaaaaaaaaaaaaaaaaaaaaaaaaaaaaabmbmajajaNaNaOaOaOaOaOaOaOaOaOaOaOaOaOaOaOaOaOaOaOaOaPaPaVaVaEaEavavaaaabmbmajaja%a%aOaOaOaOaOaOaOaOaOaOaOaOaOaOaOaOaOaOaOaOa%a%bsbsafafadadaaaaadadafafa%a%aOaOaOaOaOaOaOaOaOaOaOaOaOaOaOaOaOaOaNaNafafacacauauaaaaaaaaaaaaaaaaaaaaaaaaaaaaaaaaaaaaaaaaaaaaaaaaaaaaaaaaaaaaaaaaaaaaaaaaaaaaaaaaaaaaaaaaaaaaaaaaaaaabmbma9a9aOaOaOaOalalaUaUaVaVaaaaaaaaaaaaaaaaaaaaaaaaadadaMaMaOaOaOaOaOaOaaaabvbvavavauaua3a3bEbEananaOaOaOaOaOaOaOaOaOaOaOaOaOaOa&a&aUaUaUaUaLaLaKaKaTaTaOaOaOaOaOaOa^a^bmbmaEaEararbmbmaMaMaOaOaOaOaNaNajajbmbmaaaaalalbAbAakakaNaNaOaOaOaOaOaOaOaOaOaOaOaOaOaOaOaOaOaOa1a1adadaqaqaaaabmbmaiaiaOaOaOaOaNaNajajbmbmaaaaaaaaaaaaaaaaaaaaaaaaaaaaaaaaaaaaaaaaaaaaaaaaaaaaaaaaaaaaaaaaaaaaaaaaaaaaaaaaaaaaaaaaaaaa",
"aaaaaaaaaaaaaaaaaaaaaaaaaaaaaaaaaaaaaaaaaaaaaaaaaaaaaaaaaaaaaaaaaaaaaaaaaaaaaaaaaaaaaaaaaaaabmbmajajaNaNaOaOaOaOaOaOaOaOaOaOaOaOaOaOaOaOaOaOaOaOaPaPaVaVaEaEavavaaaabmbmajaja%a%aOaOaOaOaOaOaOaOaOaOaOaOaOaOaOaOaOaOaOaOa%a%bsbsafafadadaaaaadadafafa%a%aOaOaOaOaOaOaOaOaOaOaOaOaOaOaOaOaOaOaNaNafafacacauauaaaaaaaaaaaaaaaaaaaaaaaaaaaaaaaaaaaaaaaaaaaaaaaaaaaaaaaaaaaaaaaaaaaaaaaaaaaaaaaaaaaaaaaaaaaaaaaaaaaabmbma9a9aOaOaOaOalalaUaUaVaVaaaaaaaaaaaaaaaaaaaaaaaaadadaMaMaOaOaOaOaOaOaaaabvbvavavauaua3a3bEbEananaOaOaOaOaOaOaOaOaOaOaOaOaOaOa&a&aUaUaUaUaLaLaKaKaTaTaOaOaOaOaOaOa^a^bmbmaEaEararbmbmaMaMaOaOaOaOaNaNajajbmbmaaaaalalbAbAakakaNaNaOaOaOaOaOaOaOaOaOaOaOaOaOaOaOaOaOaOa1a1adadaqaqaaaabmbmaiaiaOaOaOaOaNaNajajbmbmaaaaaaaaaaaaaaaaaaaaaaaaaaaaaaaaaaaaaaaaaaaaaaaaaaaaaaaaaaaaaaaaaaaaaaaaaaaaaaaaaaaaaaaaaaaa",
"aaaaaaaaaaaaaaaaaaaaaaaaaaaaaaaaaaaaaaaaaaaaaaaaaaaaaaaaaaaaaaaaaaaaaaaaaaaaaaaaaaaaaaaaaaaabmbmakakaNaNaOaOaOaOaOaOaOaOaOaOaOaOaOaOaOaOaOaOaOaObBbBaTaTaiaibzbzaaaaaxaxakakaOaOaOaOaOaOaOaOaOaOaOaOaOaOaOaOaOaOaOaOaOaOaOaOaOaOaTaTbmbmaaaabmbmajajaOaOaOaOaOaOaTaTaTaTaTaTaTaTaTaTaPaPaOaOaOaOaNaNaMaMacacaxaxaaaaaaaaaaaaaaaaaaaaaaaaaaaaaaaaaaaaaaaaaaaaaaaaaaaaaaaaaaaaaaaaaaaaaaaaaaaaaaaaaaaaaaaaaaaaaaaabmbmaTaTaOaOaOaOaSaSaKaKavavaaaaaaaaaaaaaaaaaaaaaaaaadadajajaOaOaOaOaOaObababvbvavavbmbmaqaqavava9a9aTaTaPaPaOaOaOaOaNaNaTaTa9a9aTaTararauauavavauauaTaTbBbBaOaOaOaObBbBaaaabmbmaKaKauauajajaOaOaOaOaNaNakakbmbmaaaabzbzavavaNaNaOaOaOaOaOaOaOaOaOaOaOaOaOaOaOaOaOaObBbBaTaTadadaqaqaaaabmbmafafaOaOaOaOaNaNakakbmbmaaaaaaaaaaaaaaaaaaaaaaaaaaaaaaaaaaaaaaaaaaaaaaaaaaaaaaaaaaaaaaaaaaaaaaaaaaaaaaaaaaaaaaaaaaaa",
"aaaaaaaaaaaaaaaaaaaaaaaaaaaaaaaaaaaaaaaaaaaaaaaaaaaaaaaaaaaaaaaaaaaaaaaaaaaaaaaaaaaaaaaaaaaabmbmakakaNaNaOaOaOaOaOaOaOaOaOaOaOaOaOaOaOaOaOaOaOaObBbBaTaTaiaibzbzaaaaaxaxakakaOaOaOaOaOaOaOaOaOaOaOaOaOaOaOaOaOaOaOaOaOaOaOaOaOaOaTaTbmbmaaaabmbmajajaOaOaOaOaOaOaTaTaTaTaTaTaTaTaTaTaPaPaOaOaOaOaNaNaMaMacacaxaxaaaaaaaaaaaaaaaaaaaaaaaaaaaaaaaaaaaaaaaaaaaaaaaaaaaaaaaaaaaaaaaaaaaaaaaaaaaaaaaaaaaaaaaaaaaaaaaabmbmaTaTaOaOaOaOaSaSaKaKavavaaaaaaaaaaaaaaaaaaaaaaaaadadajajaOaOaOaOaOaObababvbvavavbmbmaqaqavava9a9aTaTaPaPaOaOaOaOaNaNaTaTa9a9aTaTararauauavavauauaTaTbBbBaOaOaOaObBbBaaaabmbmaKaKauauajajaOaOaOaOaNaNakakbmbmaaaabzbzavavaNaNaOaOaOaOaOaOaOaOaOaOaOaOaOaOaOaOaOaObBbBaTaTadadaqaqaaaabmbmafafaOaOaOaOaNaNakakbmbmaaaaaaaaaaaaaaaaaaaaaaaaaaaaaaaaaaaaaaaaaaaaaaaaaaaaaaaaaaaaaaaaaaaaaaaaaaaaaaaaaaaaaaaaaaaa",
"aaaaaaaaaaaaaaaaaaaaaaaaaaaaaaaaaaaaaaaaaaaaaaaaaaaaaaaaaaaaaaaaaaaaaaaaaaaaaaaaaaaaaaaaaaaabmbmakakaNaNaOaOaOaOaiaiaoaoaiaiaoaoaoaoaoaoaFaFaNaNaOaOaOaOa1a1bmbmaaaabmbmakakaOaOaOaOaOaOaMaMaoaoaiaiaoaoaoaoaoaoaiaiaiaiaiaiaoaoaoaobvbvaaaaaxaxafafaOaOaOaOaOaOararbmbmbmbmbmbmaUaUaTaTbBbBaOaOaOaOaNaNakakbcbcaaaaaaaaaaaaaaaaaaaaaaaaaaaaaaaaaaaaaaaaaaaaaaaaaaaaaaaaaaaaaaaaaaaaaaaaaaaaaaaaaaaaaaaaaaaaaaaabmbmaTaTbBbBaOaOaSaSaKaKavavaaaaaaaaaaaaaaaaaaaaaaaaadadafafaOaOaOaOaOaObababvbvavavauaubwbwbmbmadadaUaUaTaTbBbBaOaOaSaSa3a3bcbcbmbmbmbmbvbvavavauauaTaTbBbBaOaOaOaOaOaOaNaNaaaaaeaebzbzaFaFaOaOaOaOaNaNakakaxaxaaaaadada1a1bBbBaOaOaNaNaFaFaiaiaiaiaoaoaoaoaiaiaiaiaiaiaqaqbwbwaqaqaaaabmbmafafaOaOaOaOaNaNakakbmbmaaaaaaaaaaaaaaaaaaaaaaaaaaaaaaaaaaaaaaaaaaaaaaaaaaaaaaaaaaaaaaaaaaaaaaaaaaaaaaaaaaaaaaaaaaaa",
"aaaaaaaaaaaaaaaaaaaaaaaaaaaaaaaaaaaaaaaaaaaaaaaaaaaaaaaaaaaaaaaaaaaaaaaaaaaaaaaaaaaaaaaaaaaabmbmakakaNaNaOaOaOaOaiaiaoaoaiaiaoaoaoaoaoaoaFaFaNaNaOaOaOaOa1a1bmbmaaaabmbmakakaOaOaOaOaOaOaMaMaoaoaiaiaoaoaoaoaoaoaiaiaiaiaiaiaoaoaoaobvbvaaaaaxaxafafaOaOaOaOaOaOararbmbmbmbmbmbmaUaUaTaTbBbBaOaOaOaOaNaNakakbcbcaaaaaaaaaaaaaaaaaaaaaaaaaaaaaaaaaaaaaaaaaaaaaaaaaaaaaaaaaaaaaaaaaaaaaaaaaaaaaaaaaaaaaaaaaaaaaaaabmbmaTaTbBbBaOaOaSaSaKaKavavaaaaaaaaaaaaaaaaaaaaaaaaadadafafaOaOaOaOaOaObababvbvavavauaubwbwbmbmadadaUaUaTaTbBbBaOaOaSaSa3a3bcbcbmbmbmbmbvbvavavauauaTaTbBbBaOaOaOaOaOaOaNaNaaaaaeaebzbzaFaFaOaOaOaOaNaNakakaxaxaaaaadada1a1bBbBaOaOaNaNaFaFaiaiaiaiaoaoaoaoaiaiaiaiaiaiaqaqbwbwaqaqaaaabmbmafafaOaOaOaOaNaNakakbmbmaaaaaaaaaaaaaaaaaaaaaaaaaaaaaaaaaaaaaaaaaaaaaaaaaaaaaaaaaaaaaaaaaaaaaaaaaaaaaaaaaaaaaaaaaaaa",
"aaaaaaaaaaaaaaaaaaaaaaaaaaaaaaaaaaaaaaaaaaaaaaaaaaaaaaaaaaaaaaaaaaaaaaaaaaaaaaaaaaaaaaaaaaaaauauajajaNaNaOaOaOaOaFaFbzbzbvbvbvbvbvbvbzbzatataNaNaOaObBbBafafadadaaaabmbmajajaOaOaOaOaOaOaoaobzbzbmbmbvbvbmbmbmbmbmbmbmbmbmbmbmbmbvbvbmbmaaaabmbmajajaOaOaOaOaOaOafafbzbzbibibibibmbmaUaUaSaSaOaOaOaOaOaOaiaibmbmaaaaaaaaaaaaaaaaaaaaaaaaaaaaaaaaaaaaaaaaaaaaaaaaaaaaaaaaaaaaaaaaaaaaaaaaaaaaaaaaaaaaaaaaaaaaaaaabmbmaTaTbBbBaOaOaSaSaKaKavavaaaaaaaaaaaaaaaaaaaaaaaaadadafafaOaOaOaOaOaObababvbvavavaMaMauauavavauaubmbmaTaTbBbBaOaOaSaSaKaKbmbmavavavavavavaMaMbmbmaTaTbBbBaOaOaOaOaOaObBbBaPaPakakacaca2a2aOaOaOaOaNaNakakaxaxaaaaadada2a2aOaOaOaOaPaPakakbzbzbvbvbvbvbvbvbvbvbwbwbwbwbvbvbvbvaaaaaaaabmbmafafaOaOaOaOaNaNakakbmbmaaaaaaaaaaaaaaaaaaaaaaaaaaaaaaaaaaaaaaaaaaaaaaaaaaaaaaaaaaaaaaaaaaaaaaaaaaaaaaaaaaaaaaaaaaaa",
"aaaaaaaaaaaaaaaaaaaaaaaaaaaaaaaaaaaaaaaaaaaaaaaaaaaaaaaaaaaaaaaaaaaaaaaaaaaaaaaaaaaaaaaaaaaaauauajajaNaNaOaOaOaOaFaFbzbzbvbvbvbvbvbvbzbzatataNaNaOaObBbBafafadadaaaabmbmajajaOaOaOaOaOaOaoaobzbzbmbmbvbvbmbmbmbmbmbmbmbmbmbmbmbmbvbvbmbmaaaabmbmajajaOaOaOaOaOaOafafbzbzbibibibibmbmaUaUaSaSaOaOaOaOaOaOaiaibmbmaaaaaaaaaaaaaaaaaaaaaaaaaaaaaaaaaaaaaaaaaaaaaaaaaaaaaaaaaaaaaaaaaaaaaaaaaaaaaaaaaaaaaaaaaaaaaaaabmbmaTaTbBbBaOaOaSaSaKaKavavaaaaaaaaaaaaaaaaaaaaaaaaadadafafaOaOaOaOaOaObababvbvavavaMaMauauavavauaubmbmaTaTbBbBaOaOaSaSaKaKbmbmavavavavavavaMaMbmbmaTaTbBbBaOaOaOaOaOaObBbBaPaPakakacaca2a2aOaOaOaOaNaNakakaxaxaaaaadada2a2aOaOaOaOaPaPakakbzbzbvbvbvbvbvbvbvbvbwbwbwbwbvbvbvbvaaaaaaaabmbmafafaOaOaOaOaNaNakakbmbmaaaaaaaaaaaaaaaaaaaaaaaaaaaaaaaaaaaaaaaaaaaaaaaaaaaaaaaaaaaaaaaaaaaaaaaaaaaaaaaaaaaaaaaaaaaa",
"aaaaaaaaaaaaaaaaaaaaaaaaaaaaaaaaaaaaaaaaaaaaaaaaaaaaaaaaaaaaaaaaaaaaaaaaaaaaaaaaaaaaaaaaaaaaauauajajaNaNaOaOaOaOaMaMbvbva)a)a)a)aTaTbubuaLaLaPaPaOaOaOaOaMaMadadaaaabmbmajajaOaOaOaOaOaOafafbvbva)a)a)a)a)a)a)a)a)a)bibiavavbibibibiavavaaaabmbmafafaOaOaOaOaOaOafafbmbma2a2avava2a2bwbwakakaNaNaOaOaOaOaMaMbmbmaaaaaaaaaaaaaaaaaaaaaaaaaaaaaaaaaaaaaaaaaaaaaaaaaaaaaaaaaaaaaaaaaaaaaaaaaaaaaaaaaaaaaaaaaaaaaaaabmbmaTaTbBbBaOaOaSaSauauavavaaaaaaaaaaaaaaaaaaaaaaaaadadafafaOaOaOaOaOaObababvbvavavaaaaaaaaaaaabababmbmaTaTbBbBaOaOaSaSaKaKajajaaaaaaaaaaaaaFaFbmbmaTaTbBbBaOaOaOaObBbBaOaOaOaOaPaPayayararaOaOaOaOaNaNakakbmbmaaaaadada2a2aOaOaOaOaPaPaeaeauaua1a1a2a2a2a2aTaTavavavavavavavavaaaaaaaabmbmafafaOaOaOaOaNaNakakbmbmaaaaaaaaaaaaaaaaaaaaaaaaaaaaaaaaaaaaaaaaaaaaaaaaaaaaaaaaaaaaaaaaaaaaaaaaaaaaaaaaaaaaaaaaaaaa",
"aaaaaaaaaaaaaaaaaaaaaaaaaaaaaaaaaaaaaaaaaaaaaaaaaaaaaaaaaaaaaaaaaaaaaaaaaaaaaaaaaaaaaaaaaaaaauauajajaNaNaOaOaOaOaMaMbvbva)a)a)a)aTaTbubuaLaLaPaPaOaOaOaOaMaMadadaaaabmbmajajaOaOaOaOaOaOafafbvbva)a)a)a)a)a)a)a)a)a)bibiavavbibibibiavavaaaabmbmafafaOaOaOaOaOaOafafbmbma2a2avava2a2bwbwakakaNaNaOaOaOaOaMaMbmbmaaaaaaaaaaaaaaaaaaaaaaaaaaaaaaaaaaaaaaaaaaaaaaaaaaaaaaaaaaaaaaaaaaaaaaaaaaaaaaaaaaaaaaaaaaaaaaaabmbmaTaTbBbBaOaOaSaSauauavavaaaaaaaaaaaaaaaaaaaaaaaaadadafafaOaOaOaOaOaObababvbvavavaaaaaaaaaaaabababmbmaTaTbBbBaOaOaSaSaKaKajajaaaaaaaaaaaaaFaFbmbmaTaTbBbBaOaOaOaObBbBaOaOaOaOaPaPayayararaOaOaOaOaNaNakakbmbmaaaaadada2a2aOaOaOaOaPaPaeaeauaua1a1a2a2a2a2aTaTavavavavavavavavaaaaaaaabmbmafafaOaOaOaOaNaNakakbmbmaaaaaaaaaaaaaaaaaaaaaaaaaaaaaaaaaaaaaaaaaaaaaaaaaaaaaaaaaaaaaaaaaaaaaaaaaaaaaaaaaaaaaaaaaaaa",
"aaaaaaaaaaaaaaaaaaaaaaaaaaaaaaaaaaaaaaaaaaaaaaaaaaaaaaaaaaaaaaaaaaaaaaaaaaaaaaaaaaaaaaaaaaaaauauajajaNaNaOaOaOaOaoaobzbzbvbvbvbvbvbvbzbzaVaVaPaPaOaObBbBa2a2bmbmaaaaaxaxajajaOaOaOaOaOaOajajadadaqaqaoaoaFaFa1a1aFaFararaFaFaFaFaFaFararaaaabmbmajajaOaOaOaOaOaOajajbmbmaaaaaaaaaaaaaxaxaLaLaNaNaOaOaOaOaiaiadadaaaaaaaaaaaaaaaaaaaaaaaaaaaaaaaaaaaaaaaaaaaaaaaaaaaaaaaaaaaaaaaaaaaaaaaaaaaaaaaaaaaaaaaaaaaaaaaabmbmaTaTbBbBaOaOaSaSauauavavaaaaajajbcbcadadauauaaaaadadaMaMaOaOaOaOaOaObababvbvavavaaaababaaaaaaqaqadadaTaTbBbBaOaOaSaSaKaKakakaaaaa8a8aaaaaFaFbmbmaTaTbBbBaOaOaNaNaTaTaOaOaOaOaOaOaPaPaPaPaOaOaOaOaNaNavavbmbmaaaaadada2a2aOaOaOaOaPaPaeaeauauaaaaaaaaaaaaaqaqaFaFa2a2a1a1araraaaaaaaabmbmaMaMaOaOaOaOaNaNakakbmbmaaaaaaaaaaaaaaaaaaaaaaaaaaaaaaaaaaaaaaaaaaaaaaaaaaaaaaaaaaaaaaaaaaaaaaaaaaaaaaaaaaaaaaaaaaaa",
"aaaaaaaaaaaaaaaaaaaaaaaaaaaaaaaaaaaaaaaaaaaaaaaaaaaaaaaaaaaaaaaaaaaaaaaaaaaaaaaaaaaaaaaaaaaaauauajajaNaNaOaOaOaOaoaobzbzbvbvbvbvbvbvbzbzaVaVaPaPaOaObBbBa2a2bmbmaaaaaxaxajajaOaOaOaOaOaOajajadadaqaqaoaoaFaFa1a1aFaFararaFaFaFaFaFaFararaaaabmbmajajaOaOaOaOaOaOajajbmbmaaaaaaaaaaaaaxaxaLaLaNaNaOaOaOaOaiaiadadaaaaaaaaaaaaaaaaaaaaaaaaaaaaaaaaaaaaaaaaaaaaaaaaaaaaaaaaaaaaaaaaaaaaaaaaaaaaaaaaaaaaaaaaaaaaaaaabmbmaTaTbBbBaOaOaSaSauauavavaaaaajajbcbcadadauauaaaaadadaMaMaOaOaOaOaOaObababvbvavavaaaababaaaaaaqaqadadaTaTbBbBaOaOaSaSaKaKakakaaaaa8a8aaaaaFaFbmbmaTaTbBbBaOaOaNaNaTaTaOaOaOaOaOaOaPaPaPaPaOaOaOaOaNaNavavbmbmaaaaadada2a2aOaOaOaOaPaPaeaeauauaaaaaaaaaaaaaqaqaFaFa2a2a1a1araraaaaaaaabmbmaMaMaOaOaOaOaNaNakakbmbmaaaaaaaaaaaaaaaaaaaaaaaaaaaaaaaaaaaaaaaaaaaaaaaaaaaaaaaaaaaaaaaaaaaaaaaaaaaaaaaaaaaaaaaaaaaa",
"aaaaaaaaaaaaaaaaaaaaaaaaaaaaaaaaaaaaaaaaaaaaaaaaaaaaaaaaaaaaaaaaaaaaaaaaaaaaaaaaaaaaaaaaaaaaauauakakaNaNaOaOaOaOaoaoaMaMafafaiaiafafaiaiaQaQaOaOaOaOaTaTbababvbvaaaabmbmakakaNaNaOaOaOaOaoaobcbcadadbmbmadadadadbmbmbwbwaaaaaaaaaaaaaaaaaaaabmbmajajaOaOaOaOaOaOajajbmbmaaaababaaaaaaUaUalalaNaNaOaOaOaOafafadadaaaaaaaaaaaaaaaaaaaaaaaaaaaaaaaaaaaaaaaaaaaaaaaaaaaaaaaaaaaaaaaaaaaaaaaaaaaaaaaaaaaaaaaaaaaaaaaabmbmaTaTbBbBaOaOa^a^aUaUalalacacaxaxaMaMafafaeaeauaubmbmaMaMaOaOaOaOaOaObababvbvavavaaaababaaaaaaqaqadadaTaTaOaOaOaOa^a^aKaKavavaaaaa8a8aaaaararbmbmaTaTaOaOaOaOaQaQa$a$aDaDaOaOaOaOaOaOaOaOaOaOaOaOaNaNavavbmbmaaaaadadaTaTbBbBaOaOaPaPatatbzbzbobobcbcbcbcadadadadbmbmbzbzaiaiaaaaaaaabmbmaMaMaOaOaOaOaNaNakakbmbmaaaaaaaaaaaaaaaaaaaaaaaaaaaaaaaaaaaaaaaaaaaaaaaaaaaaaaaaaaaaaaaaaaaaaaaaaaaaaaaaaaaaaaaaaaaa",
"aaaaaaaaaaaaaaaaaaaaaaaaaaaaaaaaaaaaaaaaaaaaaaaaaaaaaaaaaaaaaaaaaaaaaaaaaaaaaaaaaaaaaaaaaaaaauauakakaNaNaOaOaOaOaoaoaMaMafafaiaiafafaiaiaQaQaOaOaOaOaTaTbababvbvaaaabmbmakakaNaNaOaOaOaOaoaobcbcadadbmbmadadadadbmbmbwbwaaaaaaaaaaaaaaaaaaaabmbmajajaOaOaOaOaOaOajajbmbmaaaababaaaaaaUaUalalaNaNaOaOaOaOafafadadaaaaaaaaaaaaaaaaaaaaaaaaaaaaaaaaaaaaaaaaaaaaaaaaaaaaaaaaaaaaaaaaaaaaaaaaaaaaaaaaaaaaaaaaaaaaaaaabmbmaTaTbBbBaOaOa^a^aUaUalalacacaxaxaMaMafafaeaeauaubmbmaMaMaOaOaOaOaOaObababvbvavavaaaababaaaaaaqaqadadaTaTaOaOaOaOa^a^aKaKavavaaaaa8a8aaaaararbmbmaTaTaOaOaOaOaQaQa$a$aDaDaOaOaOaOaOaOaOaOaOaOaOaOaNaNavavbmbmaaaaadadaTaTbBbBaOaOaPaPatatbzbzbobobcbcbcbcadadadadbmbmbzbzaiaiaaaaaaaabmbmaMaMaOaOaOaOaNaNakakbmbmaaaaaaaaaaaaaaaaaaaaaaaaaaaaaaaaaaaaaaaaaaaaaaaaaaaaaaaaaaaaaaaaaaaaaaaaaaaaaaaaaaaaaaaaaaaa",
"aaaaaaaaaaaaaaaaaaaaaaaaaaaaaaaaaaaaaaaaaaaaaaaaaaaaaaaaaaaaaaaaaaaaaaaaaaaaaaaaaaaaaaaaaaaaauauavavaNaNaOaOaOaOaOaOaOaOaOaOaOaOaOaOaOaOaOaObBbBaPaPaFaFbzbzbibiaaaaaxaxakakaOaOaOaOaOaOavavaoaoa2a2a2a2a2a2aTaTa1a1bwbwaaaaaaaaaaaaaaaaaaaabmbmajajaOaOaOaOaOaOavavbmbmaaaababaaaaaauauaLaLaNaNaOaOaOaOafafadadaaaaaaaaaaaaaaaaaaaaaaaaaaaaaaaaaaaaaaaaaaaaaaaaaaaaaaaaaaaaaaaaaaaaaaaaaaaaaaaaaaaaaaaaaaaaaaaabmbmaTaTbBbBaOaOaQaQaeaeahahaEaEaeaeaPaPaOaOavavbzbzbzbzaFaFaOaOaOaOaOaObababvbvavavaaaaaaaaaaaabababmbmaTaTbBbBaOaOaSaSaKaKavavaaaababaaaaaaFaFbmbmaTaTbBbBbBbBa^a^axaxaeaeaPaPaOaOaOaOaOaOaOaOaOaOaNaNavavauauaaaaadada1a1aOaOaOaOaNaNa2a2a2a2a2a2aiaiaMaMaMaMaTaTaDaDaeaeahahajajaaaabmbmafafaOaOaOaOaNaNavavbmbmaaaaaaaaaaaaaaaaaaaaaaaaaaaaaaaaaaaaaaaaaaaaaaaaaaaaaaaaaaaaaaaaaaaaaaaaaaaaaaaaaaaaaaaaaaaa",
"aaaaaaaaaaaaaaaaaaaaaaaaaaaaaaaaaaaaaaaaaaaaaaaaaaaaaaaaaaaaaaaaaaaaaaaaaaaaaaaaaaaaaaaaaaaaauauavavaNaNaOaOaOaOaOaOaOaOaOaOaOaOaOaOaOaOaOaObBbBaPaPaFaFbzbzbibiaaaaaxaxakakaOaOaOaOaOaOavavaoaoa2a2a2a2a2a2aTaTa1a1bwbwaaaaaaaaaaaaaaaaaaaabmbmajajaOaOaOaOaOaOavavbmbmaaaababaaaaaauauaLaLaNaNaOaOaOaOafafadadaaaaaaaaaaaaaaaaaaaaaaaaaaaaaaaaaaaaaaaaaaaaaaaaaaaaaaaaaaaaaaaaaaaaaaaaaaaaaaaaaaaaaaaaaaaaaaaabmbmaTaTbBbBaOaOaQaQaeaeahahaEaEaeaeaPaPaOaOavavbzbzbzbzaFaFaOaOaOaOaOaObababvbvavavaaaaaaaaaaaabababmbmaTaTbBbBaOaOaSaSaKaKavavaaaababaaaaaaFaFbmbmaTaTbBbBbBbBa^a^axaxaeaeaPaPaOaOaOaOaOaOaOaOaOaOaNaNavavauauaaaaadada1a1aOaOaOaOaNaNa2a2a2a2a2a2aiaiaMaMaMaMaTaTaDaDaeaeahahajajaaaabmbmafafaOaOaOaOaNaNavavbmbmaaaaaaaaaaaaaaaaaaaaaaaaaaaaaaaaaaaaaaaaaaaaaaaaaaaaaaaaaaaaaaaaaaaaaaaaaaaaaaaaaaaaaaaaaaaa",
"aaaaaaaaaaaaaaaaaaaaaaaaaaaaaaaaaaaaaaaaaaaaaaaaaaaaaaaaaaaaaaaaaaaaaaaaaaaaaaaaaaaaaaaaaaaaauauajajaNaNaOaOaNaNaOaOaOaOaOaOaOaOaOaOaOaOaOaOaOaOaQaQafafbzbzauauaaaabmbmakakaNaNaOaOaNaNaOaOaOaOaOaOaOaOaOaOaOaOa2a2bmbmaaaaaaaaaaaaaaaaaaaabmbmajajaNaNaOaOaNaNavavbmbmaaaababaaaaaauauaLaLaPaPaOaOaOaOaiaibmbmaaaaaaaaaaaaaaaaaaaaaaaaaaaaaaaaaaaaaaaaaaaaaaaaaaaaaaaaaaaaaaaaaaaaaaaaaaaaaaaaaaaaaaaaaaaaaaaabmbmaTaTaOaOaOaOa^a^aeaeaEaEakaka1a1aOaOaOaOaQaQararbzbzaiaiaNaNaOaOaNaNbababvbvavavaaaaaaaaaaaaaqaqbmbma9a9aOaOaOaOa^a^aKaKavavaaaaaaaaaaaaaFaFbmbma9a9aOaOaOaOaTaTaKaKahahaaaaaPaPaOaOaNaNaNaNaOaOaNaNavavaxaxaaaabmbmayaya1a1aOaOaOaObBbBaOaOaOaOaOaOaOaOaOaOaOaOaNaNaaaaalalbzbzaaaabmbmafafaNaNaOaOaNaNavavbmbmaaaaaaaaaaaaaaaaaaaaaaaaaaaaaaaaaaaaaaaaaaaaaaaaaaaaaaaaaaaaaaaaaaaaaaaaaaaaaaaaaaaaaaaaaaaa",
"aaaaaaaaaaaaaaaaaaaaaaaaaaaaaaaaaaaaaaaaaaaaaaaaaaaaaaaaaaaaaaaaaaaaaaaaaaaaaaaaaaaaaaaaaaaaauauajajaNaNaOaOaNaNaOaOaOaOaOaOaOaOaOaOaOaOaOaOaOaOaQaQafafbzbzauauaaaabmbmakakaNaNaOaOaNaNaOaOaOaOaOaOaOaOaOaOaOaOa2a2bmbmaaaaaaaaaaaaaaaaaaaabmbmajajaNaNaOaOaNaNavavbmbmaaaababaaaaaauauaLaLaPaPaOaOaOaOaiaibmbmaaaaaaaaaaaaaaaaaaaaaaaaaaaaaaaaaaaaaaaaaaaaaaaaaaaaaaaaaaaaaaaaaaaaaaaaaaaaaaaaaaaaaaaaaaaaaaaabmbmaTaTaOaOaOaOa^a^aeaeaEaEakaka1a1aOaOaOaOaQaQararbzbzaiaiaNaNaOaOaNaNbababvbvavavaaaaaaaaaaaaaqaqbmbma9a9aOaOaOaOa^a^aKaKavavaaaaaaaaaaaaaFaFbmbma9a9aOaOaOaOaTaTaKaKahahaaaaaPaPaOaOaNaNaNaNaOaOaNaNavavaxaxaaaabmbmayaya1a1aOaOaOaObBbBaOaOaOaOaOaOaOaOaOaOaOaOaNaNaaaaalalbzbzaaaabmbmafafaNaNaOaOaNaNavavbmbmaaaaaaaaaaaaaaaaaaaaaaaaaaaaaaaaaaaaaaaaaaaaaaaaaaaaaaaaaaaaaaaaaaaaaaaaaaaaaaaaaaaaaaaaaaaa",
"aaaaaaaaaaaaaaaaaaaaaaaaaaaaaaaaaaaaaaaaaaaaaaaaaaaaaaaaaaaaaaaaaaaaaaaaaaaaaaaaaaaaaaaaaaaaauauajajaPaPaNaNaNaNaFaFararararararaFaFararaSaSaNaNaNaNa1a1aFaFbzbzaaaabmbmakakaPaPaNaNaNaNaFaFaDaDa1a1a1a1aqaqa1a1bababmbmaaaaaaaaaaaaaaaaaaaabmbmajajaPaPaNaNaPaPajajbmbmaaaaa$a$aaaaauauayayaQaQaNaNaNaNaoaobmbmaaaaaaaaaaaaaaaaaaaaaaaaaaaaaaaaaaaaaaaaaaaaaaaaaaaaaaaaaaaaaaaaaaaaaaaaaaaaaaaaaaaaaaaaaaaaaaaabmbma1a1aNaNaNaNaTaTaUaUaEaEbabaaPaPaNaNaNaNaNaNa1a1bdbdajajaNaNaNaNaPaPaiaibybya2a2aaaaaaaaaaaaaqaqbmbma1a1aNaNaNaNaTaTaKaKavavaaaaaaaaaaaaararbmbma9a9aNaNaNaNa9a9aKaKbmbmauauaaaaaQaQaNaNaNaNaNaNaPaPakakaxaxaaaaa2a2bvbvalalaqaqa2a2aFaFararararaDaDa1a1araraPaPaNaNaPaPaqaqadadaaaaadadaMaMaNaNaNaNaPaPakakbmbmaaaaaaaaaaaaaaaaaaaaaaaaaaaaaaaaaaaaaaaaaaaaaaaaaaaaaaaaaaaaaaaaaaaaaaaaaaaaaaaaaaaaaaaaaaaa",
"aaaaaaaaaaaaaaaaaaaaaaaaaaaaaaaaaaaaaaaaaaaaaaaaaaaaaaaaaaaaaaaaaaaaaaaaaaaaaaaaaaaaaaaaaaaaauauajajaPaPaNaNaNaNaFaFararararararaFaFararaSaSaNaNaNaNa1a1aFaFbzbzaaaabmbmakakaPaPaNaNaNaNaFaFaDaDa1a1a1a1aqaqa1a1bababmbmaaaaaaaaaaaaaaaaaaaabmbmajajaPaPaNaNaPaPajajbmbmaaaaa$a$aaaaauauayayaQaQaNaNaNaNaoaobmbmaaaaaaaaaaaaaaaaaaaaaaaaaaaaaaaaaaaaaaaaaaaaaaaaaaaaaaaaaaaaaaaaaaaaaaaaaaaaaaaaaaaaaaaaaaaaaaaabmbma1a1aNaNaNaNaTaTaUaUaEaEbabaaPaPaNaNaNaNaNaNa1a1bdbdajajaNaNaNaNaPaPaiaibybya2a2aaaaaaaaaaaaaqaqbmbma1a1aNaNaNaNaTaTaKaKavavaaaaaaaaaaaaararbmbma9a9aNaNaNaNa9a9aKaKbmbmauauaaaaaQaQaNaNaNaNaNaNaPaPakakaxaxaaaaa2a2bvbvalalaqaqa2a2aFaFararararaDaDa1a1araraPaPaNaNaPaPaqaqadadaaaaadadaMaMaNaNaNaNaPaPakakbmbmaaaaaaaaaaaaaaaaaaaaaaaaaaaaaaaaaaaaaaaaaaaaaaaaaaaaaaaaaaaaaaaaaaaaaaaaaaaaaaaaaaaaaaaaaaaa",
"aaaaaaaaaaaaaaaaaaaaaaaaaaaaaaaaaaaaaaaaaaaaaaaaaaaaaaaaaaaaaaaaaaaaaaaaaaaaaaaaaaaaaaaaaaaaauauajajaPaPaNaNaNaNaFaFbcbcadadbwbwbmbmbzbzaLaLaQaQaNaNaNaNa2a2bmbmaaaabmbmajajaPaPaNaNaNaNaFaFbzbzbvbvbwbwbcbcadadbwbwbwbwaaaaaaaaaaaaaaaaaaaabmbmafafaPaPaNaNaPaPajajbmbmaaaaa$a$aaaaauaualalaQaQaNaNaNaNaoaobmbmaaaaaaaaaaaaaaaaaaaaaaaaaaaaaaaaaaaaaaaaaaaaaaaaaaaaaaaaaaaaaaaaaaaaaaaaaaaaaaaaaaaaaaaaaaaaaaaabmbma1a1aOaOaNaNaNaNaTaTa8a8aNaNaNaNaNaNaNaNaNaNaNaNaoaoaPaPaNaNaNaNaPaPajajbybyaqaqaaaaaaaaaaaaaqaqbmbma1a1aNaNaNaNaTaTaKaKavavaaaaaaaaaaaaaFaFbmbma9a9aNaNaNaNaTaTaKaKavavbvbvbmbmaaaaaQaQaNaNaNaNaPaPakakbmbmaaaababaavavbvbvbwbwadadadadadadbwbwbvbvbzbzaMaMaPaPaNaNaNaNaMaMadadaaaabmbmaFaFa^a^aQaQa^a^afafbmbmaaaaaaaaaaaaaaaaaaaaaaaaaaaaaaaaaaaaaaaaaaaaaaaaaaaaaaaaaaaaaaaaaaaaaaaaaaaaaaaaaaaaaaaaaaaa",
"aaaaaaaaaaaaaaaaaaaaaaaaaaaaaaaaaaaaaaaaaaaaaaaaaaaaaaaaaaaaaaaaaaaaaaaaaaaaaaaaaaaaaaaaaaaaauauajajaPaPaNaNaNaNaFaFbcbcadadbwbwbmbmbzbzaLaLaQaQaNaNaNaNa2a2bmbmaaaabmbmajajaPaPaNaNaNaNaFaFbzbzbvbvbwbwbcbcadadbwbwbwbwaaaaaaaaaaaaaaaaaaaabmbmafafaPaPaNaNaPaPajajbmbmaaaaa$a$aaaaauaualalaQaQaNaNaNaNaoaobmbmaaaaaaaaaaaaaaaaaaaaaaaaaaaaaaaaaaaaaaaaaaaaaaaaaaaaaaaaaaaaaaaaaaaaaaaaaaaaaaaaaaaaaaaaaaaaaaaabmbma1a1aOaOaNaNaNaNaTaTa8a8aNaNaNaNaNaNaNaNaNaNaNaNaoaoaPaPaNaNaNaNaPaPajajbybyaqaqaaaaaaaaaaaaaqaqbmbma1a1aNaNaNaNaTaTaKaKavavaaaaaaaaaaaaaFaFbmbma9a9aNaNaNaNaTaTaKaKavavbvbvbmbmaaaaaQaQaNaNaNaNaPaPakakbmbmaaaababaavavbvbvbwbwadadadadadadbwbwbvbvbzbzaMaMaPaPaNaNaNaNaMaMadadaaaabmbmaFaFa^a^aQaQa^a^afafbmbmaaaaaaaaaaaaaaaaaaaaaaaaaaaaaaaaaaaaaaaaaaaaaaaaaaaaaaaaaaaaaaaaaaaaaaaaaaaaaaaaaaaaaaaaaaaa",
"aaaaaaaaaaaaaaaaaaaaaaaaaaaaaaaaaaaaaaaaaaaaaaaaaaaaaaaaaaaaaaaaaaaaaaaaaaaaaaaaaaaaaaaaaaaaauauajajaPaPaNaNaNaNaiaibmbmaFaFafafa2a2auaualalaSaSaNaNaNaNaiaiadadaaaabmbmajajaPaPaNaNaNaNajajbmbma2a2avavajajaMaMavavaMaMaaaaaaaaaaaaaaaaaaaabmbmafafaPaPaNaNaPaPajajbmbmaaaabababababwbwaLaLaQaQaNaNaNaNaiaiadadaaaaaaaaaaaaaaaaaaaaaaaaaaaaaaaaaaaaaaaaaaaaaaaaaaaaaaaaaaaaaaaaaaaaaaaaaaaaaaaaaaaaaaaaaaaaaaaabmbma9a9aNaNaNaNaNaNaSaSafafaNaNaNaNa^a^aTaTaNaNaNaNaTaTaPaPaNaNaNaNaPaPakakbvbvaaaababaaaaaaaaabababmbma1a1aNaNaNaNaTaTaKaKavavaaaaaaaaaaaaaFaFbmbma9a9aNaNaNaNa9a9axaxajajaaaaacacbmbmaaaaaNaNaNaNaPaPavavauauaaaaaaaababaafafavavavavavavavavavava2a2bmbmakakaQaQaNaNaNaNaoaoadadaaaabmbmauauakakayayakakauauauauaaaaaaaaaaaaaaaaaaaaaaaaaaaaaaaaaaaaaaaaaaaaaaaaaaaaaaaaaaaaaaaaaaaaaaaaaaaaaaaaaaaaaaaaaaaa",
"aaaaaaaaaaaaaaaaaaaaaaaaaaaaaaaaaaaaaaaaaaaaaaaaaaaaaaaaaaaaaaaaaaaaaaaaaaaaaaaaaaaaaaaaaaaaauauajajaPaPaNaNaNaNaiaibmbmaFaFafafa2a2auaualalaSaSaNaNaNaNaiaiadadaaaabmbmajajaPaPaNaNaNaNajajbmbma2a2avavajajaMaMavavaMaMaaaaaaaaaaaaaaaaaaaabmbmafafaPaPaNaNaPaPajajbmbmaaaabababababwbwaLaLaQaQaNaNaNaNaiaiadadaaaaaaaaaaaaaaaaaaaaaaaaaaaaaaaaaaaaaaaaaaaaaaaaaaaaaaaaaaaaaaaaaaaaaaaaaaaaaaaaaaaaaaaaaaaaaaaabmbma9a9aNaNaNaNaNaNaSaSafafaNaNaNaNa^a^aTaTaNaNaNaNaTaTaPaPaNaNaNaNaPaPakakbvbvaaaababaaaaaaaaabababmbma1a1aNaNaNaNaTaTaKaKavavaaaaaaaaaaaaaFaFbmbma9a9aNaNaNaNa9a9axaxajajaaaaacacbmbmaaaaaNaNaNaNaPaPavavauauaaaaaaaababaafafavavavavavavavavavava2a2bmbmakakaQaQaNaNaNaNaoaoadadaaaabmbmauauakakayayakakauauauauaaaaaaaaaaaaaaaaaaaaaaaaaaaaaaaaaaaaaaaaaaaaaaaaaaaaaaaaaaaaaaaaaaaaaaaaaaaaaaaaaaaaaaaaaaaa",
"aaaaaaaaaaaaaaaaaaaaaaaaaaaaaaaaaaaaaaaaaaaaaaaaaaaaaaaaaaaaaaaaaaaaaaaaaaaaaaaaaaaaaaaaaaaaauauajajaPaPaNaNaNaNaMaMbmbmaaaaaaaaaaaaaeaeaeaeaSaSaNaNaNaNaoaoadadaaaabmbmajajaPaPaNaNaNaNajajbmbmaaaaaaaaaaaaaaaaaaaaaaaaaaaaaaaaaaaaaaaaaaaabmbmajajaPaPaNaNaPaPajajbmbmaaaaaaaaavavbzbza$a$aPaPaNaNaNaNaiaiadadaaaaaaaaaaaaaaaaaaaaaaaaaaaaaaaaaaaaaaaaaaaaaaaaaaaaaaaaaaaaaaaaaaaaaaaaaaaaaaaaaaaaaaaaaaaaaqaqbmbma9a9aOaOaNaNaNaNaNaNaNaNaNaNaSaSaeaeararaNaNaNaNaNaNaNaNaNaNaNaNaPaPafafbvbvbabaaaaaaaaaaaaabababmbma1a1aNaNaNaNaTaTaKaKavavaaaaaaaaaaaaaFaFbmbma9a9aNaNaNaNa9a9axaxajajaaaaaqaqbzbzaMaMaNaNaNaNaPaPakakbmbmaaaaaaaaaaaaaaaaaaaaaaaaaaaaaaaaaaaaaaaaauauavavaQaQaNaNaNaNaiaiadadaaaabvbvaEaEaZaZaZaZaEaEaZaZauauaaaaaaaaaaaaaaaaaaaaaaaaaaaaaaaaaaaaaaaaaaaaaaaaaaaaaaaaaaaaaaaaaaaaaaaaaaaaaaaaaaaaaaaaaaaa",
"aaaaaaaaaaaaaaaaaaaaaaaaaaaaaaaaaaaaaaaaaaaaaaaaaaaaaaaaaaaaaaaaaaaaaaaaaaaaaaaaaaaaaaaaaaaaauauajajaPaPaNaNaNaNaMaMbmbmaaaaaaaaaaaaaeaeaeaeaSaSaNaNaNaNaoaoadadaaaabmbmajajaPaPaNaNaNaNajajbmbmaaaaaaaaaaaaaaaaaaaaaaaaaaaaaaaaaaaaaaaaaaaabmbmajajaPaPaNaNaPaPajajbmbmaaaaaaaaavavbzbza$a$aPaPaNaNaNaNaiaiadadaaaaaaaaaaaaaaaaaaaaaaaaaaaaaaaaaaaaaaaaaaaaaaaaaaaaaaaaaaaaaaaaaaaaaaaaaaaaaaaaaaaaaaaaaaaaaqaqbmbma9a9aOaOaNaNaNaNaNaNaNaNaNaNaSaSaeaeararaNaNaNaNaNaNaNaNaNaNaNaNaPaPafafbvbvbabaaaaaaaaaaaaabababmbma1a1aNaNaNaNaTaTaKaKavavaaaaaaaaaaaaaFaFbmbma9a9aNaNaNaNa9a9axaxajajaaaaaqaqbzbzaMaMaNaNaNaNaPaPakakbmbmaaaaaaaaaaaaaaaaaaaaaaaaaaaaaaaaaaaaaaaaauauavavaQaQaNaNaNaNaiaiadadaaaabvbvaEaEaZaZaZaZaEaEaZaZauauaaaaaaaaaaaaaaaaaaaaaaaaaaaaaaaaaaaaaaaaaaaaaaaaaaaaaaaaaaaaaaaaaaaaaaaaaaaaaaaaaaaaaaaaaaaa",
"aaaaaaaaaaaaaaaaaaaaaaaaaaaaaaaaaaaaaaaaaaaaaaaaaaaaaaaaaaaaaaaaaaaaaaaaaaaaaaaaaaaaaaaaaaaaauauajajaPaPaNaNaNaNaMaMbmbmaaaaaaaaaaaaaeaeaeaeaSaSaNaNaNaNaFaFadadaaaabmbmajajaPaPaNaNaNaNaoaobzbzbcbcbcbcbcbcadadbcbcbcbcbcbcadadbwbwbmbmaaaabmbmafafaPaPaNaNaNaNaFaFbcbcadadadadaxaxbabaa^a^aNaNaNaNaNaNaiaiadadaaaaaaaaaaaaaaaaaaaaaaaaaaaaaaaaaaaaaaaaaaaaaaaaaaaaaaaaaaaaaaaaaaaaaaaaaaaaaaaaaaaaaaaaaaaaaaaabmbmaUaUa^a^aNaNaNaNaNaNaNaNaOaOaTaTbmbmbzbza1a1aNaNaNaNaNaNaNaNaNaNaoaoacacbmbmaaaabcbcbcbcadadbcbcaxaxa1a1aNaNaNaNaTaTaeaebcbcadadadadadadavavbmbma9a9aNaNaNaNa9a9axaxajajaaaaaaaabmbmafafaNaNaNaNaPaPakakaxaxaaaabcbcbcbcbcbcbcbcbcbcbcbcbcbcadadadadbcbcafafaPaPaNaNaNaNaMaMadadaaaabmbmavavaFaFaoaoararavavbmbmaaaaaaaaaaaaaaaaaaaaaaaaaaaaaaaaaaaaaaaaaaaaaaaaaaaaaaaaaaaaaaaaaaaaaaaaaaaaaaaaaaaaaaaaaaaa",
"aaaaaaaaaaaaaaaaaaaaaaaaaaaaaaaaaaaaaaaaaaaaaaaaaaaaaaaaaaaaaaaaaaaaaaaaaaaaaaaaaaaaaaaaaaaaauauajajaPaPaNaNaNaNaMaMbmbmaaaaaaaaaaaaaeaeaeaeaSaSaNaNaNaNaFaFadadaaaabmbmajajaPaPaNaNaNaNaoaobzbzbcbcbcbcbcbcadadbcbcbcbcbcbcadadbwbwbmbmaaaabmbmafafaPaPaNaNaNaNaFaFbcbcadadadadaxaxbabaa^a^aNaNaNaNaNaNaiaiadadaaaaaaaaaaaaaaaaaaaaaaaaaaaaaaaaaaaaaaaaaaaaaaaaaaaaaaaaaaaaaaaaaaaaaaaaaaaaaaaaaaaaaaaaaaaaaaaabmbmaUaUa^a^aNaNaNaNaNaNaNaNaOaOaTaTbmbmbzbza1a1aNaNaNaNaNaNaNaNaNaNaoaoacacbmbmaaaabcbcbcbcadadbcbcaxaxa1a1aNaNaNaNaTaTaeaebcbcadadadadadadavavbmbma9a9aNaNaNaNa9a9axaxajajaaaaaaaabmbmafafaNaNaNaNaPaPakakaxaxaaaabcbcbcbcbcbcbcbcbcbcbcbcbcbcadadadadbcbcafafaPaPaNaNaNaNaMaMadadaaaabmbmavavaFaFaoaoararavavbmbmaaaaaaaaaaaaaaaaaaaaaaaaaaaaaaaaaaaaaaaaaaaaaaaaaaaaaaaaaaaaaaaaaaaaaaaaaaaaaaaaaaaaaaaaaaaa",
"aaaaaaaaaaaaaaaaaaaaaaaaaaaaaaaaaaaaaaaaaaaaaaaaaaaaaaaaaaaaaaaaaaaaaaaaaaaaaaaaaaaaaaaaaaaaauauajajaPaPaNaNaNaNaMaMbmbmaaaaaaaaaaaaauaualalaSaSaNaNaNaNaoaoadadaaaabmbmakakaPaPaNaNaNaNaiaiaFaFaoaoaoaoaoaoaFaFaoaoaoaoaiaiaoaoararbcbcaaaabmbmajajaPaPaNaNaNaNaFaFararaiaiaoaoaoaoaTaTaNaNaNaNaNaNa2a2bzbzbmbmaaaaaaaaaaaaaaaaaaaaaaaaaaaaaaaaaaaaaaaaaaaaaaaaaaaaaaaaaaaaaaaaaaaaaaaaaaaaaaaaaaaaaaaaaaaaaaaaauauaxaxaTaTaNaNaNaNaNaNaOaOaTaTalalauaubvbvaMaMa1a1aNaNaNaNaNaNaNaNaFaFbzbzavavaaaabcbcbabaaoaoaoaoararaTaTaNaNaNaNaQaQararaoaoaiaia1a1axaxavavauaua9a9aNaNaNaNa9a9axaxajajaaaaaaaabmbmaMaMaNaNaNaNaPaPakakaxaxaaaabzbzaqaqaiaiaiaiaiaiaiaiaoaoaFaFaiaiaFaFaoaoaPaPaNaNaPaPararbcbcaaaabmbmaiaiaPaPaNaNaQaQajajbmbmaaaaaaaaaaaaaaaaaaaaaaaaaaaaaaaaaaaaaaaaaaaaaaaaaaaaaaaaaaaaaaaaaaaaaaaaaaaaaaaaaaaaaaaaaaaa",
"aaaaaaaaaaaaaaaaaaaaaaaaaaaaaaaaaaaaaaaaaaaaaaaaaaaaaaaaaaaaaaaaaaaaaaaaaaaaaaaaaaaaaaaaaaaaauauajajaPaPaNaNaNaNaMaMbmbmaaaaaaaaaaaaauaualalaSaSaNaNaNaNaoaoadadaaaabmbmakakaPaPaNaNaNaNaiaiaFaFaoaoaoaoaoaoaFaFaoaoaoaoaiaiaoaoararbcbcaaaabmbmajajaPaPaNaNaNaNaFaFararaiaiaoaoaoaoaTaTaNaNaNaNaNaNa2a2bzbzbmbmaaaaaaaaaaaaaaaaaaaaaaaaaaaaaaaaaaaaaaaaaaaaaaaaaaaaaaaaaaaaaaaaaaaaaaaaaaaaaaaaaaaaaaaaaaaaaaaaauauaxaxaTaTaNaNaNaNaNaNaOaOaTaTalalauaubvbvaMaMa1a1aNaNaNaNaNaNaNaNaFaFbzbzavavaaaabcbcbabaaoaoaoaoararaTaTaNaNaNaNaQaQararaoaoaiaia1a1axaxavavauaua9a9aNaNaNaNa9a9axaxajajaaaaaaaabmbmaMaMaNaNaNaNaPaPakakaxaxaaaabzbzaqaqaiaiaiaiaiaiaiaiaoaoaFaFaiaiaFaFaoaoaPaPaNaNaPaPararbcbcaaaabmbmaiaiaPaPaNaNaQaQajajbmbmaaaaaaaaaaaaaaaaaaaaaaaaaaaaaaaaaaaaaaaaaaaaaaaaaaaaaaaaaaaaaaaaaaaaaaaaaaaaaaaaaaaaaaaaaaaa",
"aaaaaaaaaaaaaaaaaaaaaaaaaaaaaaaaaaaaaaaaaaaaaaaaaaaaaaaaaaaaaaaaaaaaaaaaaaaaaaaaaaaaaaaaaaaaauauavavaPaPa%a%bibiafafbmbmaaaaaaaaaaaaaeaealalaQaQaOaOaOaOa1a1adadaaaaaxaxajajaNaNaNaNaNaNaOaOaOaOaOaOaOaOaOaOaOaOaOaOaOaOa%a%aOaOa2a2adadaaaabmbmajajaNaNaNaNaNaNaOaOaOaOaOaOaOaOaOaOaOaOaNaNaNaNa2a2bzbzbvbvafafaaaaaaaaaaaaaaaaaaaaaaaaaaaaaaaaaaaaaaaaaaaaaaaaaaaaaaaaaaaaaaaaaaaaaaaaaaaaaaaaaaaaaaaaaaaaaaaaavavaxaxaTaTaOaOaNaNaOaOaTaTbabaaUaUauauavavbwbwaMaMaFaFaNaNaNaNa%a%aMaMadadaaaababaadada1a1aOaOa%a%aOaOaOaOaNaNaNaNaNaNaOaOa%a%aOaOavavaUaUavavaxaxa9a9aOaOaOaOaTaTaxaxajajaaaaaaaabmbmaMaMaNaNaNaNaPaPakakaxaxaaaabmbmafafbsbsa%a%aOaOaOaOaOaOaOaOaOaOaOaOaOaOaNaNaPaPaaaaakakauauaaaabmbmaMaMaNaNaNaNaNaNavavauauaaaaaaaaaaaaaaaaaaaaaaaaaaaaaaaaaaaaaaaaaaaaaaaaaaaaaaaaaaaaaaaaaaaaaaaaaaaaaaaaaaaaaaaaaaaa",
"aaaaaaaaaaaaaaaaaaaaaaaaaaaaaaaaaaaaaaaaaaaaaaaaaaaaaaaaaaaaaaaaaaaaaaaaaaaaaaaaaaaaaaaaaaaaauauavavaPaPa%a%bibiafafbmbmaaaaaaaaaaaaaeaealalaQaQaOaOaOaOa1a1adadaaaaaxaxajajaNaNaNaNaNaNaOaOaOaOaOaOaOaOaOaOaOaOaOaOaOaOa%a%aOaOa2a2adadaaaabmbmajajaNaNaNaNaNaNaOaOaOaOaOaOaOaOaOaOaOaOaNaNaNaNa2a2bzbzbvbvafafaaaaaaaaaaaaaaaaaaaaaaaaaaaaaaaaaaaaaaaaaaaaaaaaaaaaaaaaaaaaaaaaaaaaaaaaaaaaaaaaaaaaaaaaaaaaaaaaavavaxaxaTaTaOaOaNaNaOaOaTaTbabaaUaUauauavavbwbwaMaMaFaFaNaNaNaNa%a%aMaMadadaaaababaadada1a1aOaOa%a%aOaOaOaOaNaNaNaNaNaNaOaOa%a%aOaOavavaUaUavavaxaxa9a9aOaOaOaOaTaTaxaxajajaaaaaaaabmbmaMaMaNaNaNaNaPaPakakaxaxaaaabmbmafafbsbsa%a%aOaOaOaOaOaOaOaOaOaOaOaOaOaOaNaNaPaPaaaaakakauauaaaabmbmaMaMaNaNaNaNaNaNavavauauaaaaaaaaaaaaaaaaaaaaaaaaaaaaaaaaaaaaaaaaaaaaaaaaaaaaaaaaaaaaaaaaaaaaaaaaaaaaaaaaaaaaaaaaaaaa",
"aaaaaaaaaaaaaaaaaaaaaaaaaaaaaaaaaaaaaaaaaaaaaaaaaaaaaaaaaaaaaaaaaaaaaaaaaaaaaaaaaaaaaaaaaaaabmbmavava1a1aFaFaFaFaiaibmbmaaaaaaaaaaaaaeaealala1a1aoaoaFaFbababcbcaaaabmbmajaja1a1aFaFaFaFaFaFaFaFaFaFaFaFararaFaFaFaFaFaFaFaFaFaFaqaqadadaaaabmbmajaja1a1aFaFaFaFaFaFaFaFaFaFaFaFaFaFaFaFa1a1aFaFadadbmbmaTaTaqaqaaaaaaaaaaaaaaaaaaaaaaaaaaaaaaaaaaaaaaaaaaaaaaaaaaaaaaaaaaaaaaaaaaaaaaaaaaaaaaaaaaaaaaaaaaaaaaaaavavaxaxbabaaoaoaFaFaoaoa$a$adadavavaMaMararavavbzbzaMaMararaFaFa1a1aFaFadadaaaaaaaaadadbabaaFaFaFaFaFaFaFaFaFaFaFaFaFaFaFaFaFaFaoaoa7a7axaxavavbmbmbabaaoaoaoaobababmbmajajaaaaaaaabmbmaiaia1a1aoaoa1a1akakbmbmaaaabcbcbabaaFaFa1a1ararararaFaFaFaFaFaFaFaFaFaFaiaibabaalalbwbwa2a2aaaabmbmaoaoa1a1aoaoa1a1avavbmbmaaaaaaaaaaaaaaaaaaaaaaaaaaaaaaaaaaaaaaaaaaaaaaaaaaaaaaaaaaaaaaaaaaaaaaaaaaaaaaaaaaaaaaaaaaaa",
"aaaaaaaaaaaaaaaaaaaaaaaaaaaaaaaaaaaaaaaaaaaaaaaaaaaaaaaaaaaaaaaaaaaaaaaaaaaaaaaaaaaaaaaaaaaabmbmavava1a1aFaFaFaFaiaibmbmaaaaaaaaaaaaaeaealala1a1aoaoaFaFbababcbcaaaabmbmajaja1a1aFaFaFaFaFaFaFaFaFaFaFaFararaFaFaFaFaFaFaFaFaFaFaqaqadadaaaabmbmajaja1a1aFaFaFaFaFaFaFaFaFaFaFaFaFaFaFaFa1a1aFaFadadbmbmaTaTaqaqaaaaaaaaaaaaaaaaaaaaaaaaaaaaaaaaaaaaaaaaaaaaaaaaaaaaaaaaaaaaaaaaaaaaaaaaaaaaaaaaaaaaaaaaaaaaaaaaavavaxaxbabaaoaoaFaFaoaoa$a$adadavavaMaMararavavbzbzaMaMararaFaFa1a1aFaFadadaaaaaaaaadadbabaaFaFaFaFaFaFaFaFaFaFaFaFaFaFaFaFaFaFaoaoa7a7axaxavavbmbmbabaaoaoaoaobababmbmajajaaaaaaaabmbmaiaia1a1aoaoa1a1akakbmbmaaaabcbcbabaaFaFa1a1ararararaFaFaFaFaFaFaFaFaFaFaiaibabaalalbwbwa2a2aaaabmbmaoaoa1a1aoaoa1a1avavbmbmaaaaaaaaaaaaaaaaaaaaaaaaaaaaaaaaaaaaaaaaaaaaaaaaaaaaaaaaaaaaaaaaaaaaaaaaaaaaaaaaaaaaaaaaaaaa",
"aaaaaaaaaaaaaaaaaaaaaaaaaaaaaaaaaaaaaaaaaaaaaaaaaaaaaaaaaaaaaaaaaaaaaaaaaaaaaaaaaaaaaaaaaaaaauaubzbzbmbmbmbmbvbvbvbvauauaaaaaaaaaaaaavavbzbzbvbvbmbmbmbmbvbvbvbvaaaaauaubzbzbmbmbmbmbmbmbmbmbmbmbmbmbmbmadadbmbmbmbmbvbvbvbvbmbmbvbvbvbvaaaaauaubybybvbvbmbmbmbmbmbmbmbmbmbmbmbmbmbmbmbmbmbmbvbvbmbma2a2babaaaaaaaaaaaaaaaaaaaaaaaaaaaaaaaaaaaaaaaaaaaaaaaaaaaaaaaaaaaaaaaaaaaaaaaaaaaaaaaaaaaaaaaaaaaaaaaaaaaaaaFaFbvbvbvbvbmbmbvbvbmbmbvbvbmbmaaaaaaaaaaaaaaaaauaubvbvbvbvbmbmbvbvbybybmbmaaaaaaaabvbvbvbvbmbmbmbmbmbmbmbmbmbmbmbmbmbmbmbmadadbmbmbvbvbwbwafafbvbvbvbvbmbmbmbmbvbvbzbzaFaFaaaaaaaaauaubvbvbmbmbmbmbmbmbzbzauauaaaabvbvbvbvbvbvbmbmbmbmbmbmbmbmbmbmbmbmbmbmbmbmbmbmbvbvbzbzavava1a1aaaaauaubybybmbmbmbmbmbmbzbzauauaaaaaaaaaaaaaaaaaaaaaaaaaaaaaaaaaaaaaaaaaaaaaaaaaaaaaaaaaaaaaaaaaaaaaaaaaaaaaaaaaaaaaaaaaaaa",
"aaaaaaaaaaaaaaaaaaaaaaaaaaaaaaaaaaaaaaaaaaaaaaaaaaaaaaaaaaaaaaaaaaaaaaaaaaaaaaaaaaaaaaaaaaaaauaubzbzbmbmbmbmbvbvbvbvauauaaaaaaaaaaaaavavbzbzbvbvbmbmbmbmbvbvbvbvaaaaauaubzbzbmbmbmbmbmbmbmbmbmbmbmbmbmbmadadbmbmbmbmbvbvbvbvbmbmbvbvbvbvaaaaauaubybybvbvbmbmbmbmbmbmbmbmbmbmbmbmbmbmbmbmbmbmbvbvbmbma2a2babaaaaaaaaaaaaaaaaaaaaaaaaaaaaaaaaaaaaaaaaaaaaaaaaaaaaaaaaaaaaaaaaaaaaaaaaaaaaaaaaaaaaaaaaaaaaaaaaaaaaaaFaFbvbvbvbvbmbmbvbvbmbmbvbvbmbmaaaaaaaaaaaaaaaaauaubvbvbvbvbmbmbvbvbybybmbmaaaaaaaabvbvbvbvbmbmbmbmbmbmbmbmbmbmbmbmbmbmbmbmadadbmbmbvbvbwbwafafbvbvbvbvbmbmbmbmbvbvbzbzaFaFaaaaaaaaauaubvbvbmbmbmbmbmbmbzbzauauaaaabvbvbvbvbvbvbmbmbmbmbmbmbmbmbmbmbmbmbmbmbmbmbmbmbvbvbzbzavava1a1aaaaauaubybybmbmbmbmbmbmbzbzauauaaaaaaaaaaaaaaaaaaaaaaaaaaaaaaaaaaaaaaaaaaaaaaaaaaaaaaaaaaaaaaaaaaaaaaaaaaaaaaaaaaaaaaaaaaaa",
"aaaaaaaaaaaaaaaaaaaaaaaaaaaaaaaaaaaaaaaaaaaaaaaaaaaaaaaaaaaaaaaaaaaaaaaaaaaaaaaaaaaaaaaaaaaaajajauaubibibibibibibibiavavaaaaaaaaaaaaa2a2bibibibibibibibibibiavavaaaaavavauaubibibibibibibibibibibibibibiauaubibibibibhbhbibibibibibiavavaaaaavavbibibibibibibibibibibibibibibibibibibibibibibibiaaaaaaaaaaaaaaaaaaaaaaaaaaaaaaaaaaaaaaaaaaaaaaaaaaaaaaaaaaaaaaaaaaaaaaaaaaaaaaaaaaaaaaaaaaaaaaaaaaaaaaaaaaaaaaaaaaaaavavbibibibibibibibibibiaaaaaaaaaaaaaaaaaaaaaqaqbibibibibibibibibhbhavavaaaaaaaaavavbibibibibhbhbibibibibibibibibibibibibibibibibibibibia1a1bibibibibibibibibibibibiaqaqaaaaaaaaavavbibibibibibibibibibiavavaaaaavavbibiauaubibibibibibibibibibibibibibibibibibibibiavavaaaaaaaaaaaaavavbibibibibibibibiauauajajaaaaaaaaaaaaaaaaaaaaaaaaaaaaaaaaaaaaaaaaaaaaaaaaaaaaaaaaaaaaaaaaaaaaaaaaaaaaaaaaaaaaaaaaaaaa",
"aaaaaaaaaaaaaaaaaaaaaaaaaaaaaaaaaaaaaaaaaaaaaaaaaaaaaaaaaaaaaaaaaaaaaaaaaaaaaaaaaaaaaaaaaaaaajajauaubibibibibibibibiavavaaaaaaaaaaaaa2a2bibibibibibibibibibiavavaaaaavavauaubibibibibibibibibibibibibibiauaubibibibibhbhbibibibibibiavavaaaaavavbibibibibibibibibibibibibibibibibibibibibibibibiaaaaaaaaaaaaaaaaaaaaaaaaaaaaaaaaaaaaaaaaaaaaaaaaaaaaaaaaaaaaaaaaaaaaaaaaaaaaaaaaaaaaaaaaaaaaaaaaaaaaaaaaaaaaaaaaaaaaavavbibibibibibibibibibiaaaaaaaaaaaaaaaaaaaaaqaqbibibibibibibibibhbhavavaaaaaaaaavavbibibibibhbhbibibibibibibibibibibibibibibibibibibibia1a1bibibibibibibibibibibibiaqaqaaaaaaaaavavbibibibibibibibibibiavavaaaaavavbibiauaubibibibibibibibibibibibibibibibibibibibiavavaaaaaaaaaaaaavavbibibibibibibibiauauajajaaaaaaaaaaaaaaaaaaaaaaaaaaaaaaaaaaaaaaaaaaaaaaaaaaaaaaaaaaaaaaaaaaaaaaaaaaaaaaaaaaaaaaaaaaaa",
"aaaaaaaaaaaaaaaaaaaaaaaaaaaaaaaaaaaaaaaaaaaaaaaaaaaaaaaaaaaaaaaaaaaaaaaaaaaaaaaaaaaaaaaaaaaaaqaqaiaia2a2aoaoaoaoaiaiararaaaaaaaaaaaaaaaaaoaoaiaiaoaoa2a2a2a2aoaoaaaaaFaFaMaMa2a2a2a2a2a2a2a2aMaMaMaMaiaiaiaiaiaia2a2aTaTa2a2a2a2a2a2araraaaaaqaqaMaMaiaiaiaiaiaiaiaia2a2a2a2a2a2aTaTa2a2a2a2aoaoaaaaaaaaaaaaaaaaaaaaaaaaaaaaaaaaaaaaaaaaaaaaaaaaaaaaaaaaaaaaaaaaaaaaaaaaaaaaaaaaaaaaaaaaaaaaaaaaaaaaaaaaaaaaaaaaaaaaaaaaaMaMa2a2aTaTaTaTaiaiaaaaaaaaaaaaaaaaaaaaaaaaarara2a2a2a2aiaia2a2araraaaaaaaaaFaFaiaia2a2a2a2a2a2a2a2a2a2a2a2aoaoaoaoaoaoaoaoaoaoaiaiaaaaaoaoaoaoa2a2aoaoaoaoaoaoaaaaaaaaaaaaararaiaiaiaiaiaia2a2aoaoaaaaaaaaaFaFaMaMaiaiaiaiaiaia2a2a2a2a2a2a2a2a2a2aiaiaoaoaMaMaaaaaaaaaaaaaaaaararaiaiaiaiaiaia2a2aoaoaqaqaaaaaaaaaaaaaaaaaaaaaaaaaaaaaaaaaaaaaaaaaaaaaaaaaaaaaaaaaaaaaaaaaaaaaaaaaaaaaaaaaaaaaaaaaaaa",
"aaaaaaaaaaaaaaaaaaaaaaaaaaaaaaaaaaaaaaaaaaaaaaaaaaaaaaaaaaaaaaaaaaaaaaaaaaaaaaaaaaaaaaaaaaaaaqaqaiaia2a2aoaoaoaoaiaiararaaaaaaaaaaaaaaaaaoaoaiaiaoaoa2a2a2a2aoaoaaaaaFaFaMaMa2a2a2a2a2a2a2a2aMaMaMaMaiaiaiaiaiaia2a2aTaTa2a2a2a2a2a2araraaaaaqaqaMaMaiaiaiaiaiaiaiaia2a2a2a2a2a2aTaTa2a2a2a2aoaoaaaaaaaaaaaaaaaaaaaaaaaaaaaaaaaaaaaaaaaaaaaaaaaaaaaaaaaaaaaaaaaaaaaaaaaaaaaaaaaaaaaaaaaaaaaaaaaaaaaaaaaaaaaaaaaaaaaaaaaaaMaMa2a2aTaTaTaTaiaiaaaaaaaaaaaaaaaaaaaaaaaaarara2a2a2a2aiaia2a2araraaaaaaaaaFaFaiaia2a2a2a2a2a2a2a2a2a2a2a2aoaoaoaoaoaoaoaoaoaoaiaiaaaaaoaoaoaoa2a2aoaoaoaoaoaoaaaaaaaaaaaaararaiaiaiaiaiaia2a2aoaoaaaaaaaaaFaFaMaMaiaiaiaiaiaia2a2a2a2a2a2a2a2a2a2aiaiaoaoaMaMaaaaaaaaaaaaaaaaararaiaiaiaiaiaia2a2aoaoaqaqaaaaaaaaaaaaaaaaaaaaaaaaaaaaaaaaaaaaaaaaaaaaaaaaaaaaaaaaaaaaaaaaaaaaaaaaaaaaaaaaaaaaaaaaaaaa",
"aaaaaaaaaaaaaaaaaaaaaaaaaaaaaaaaaaaaaaaaaaaaaaaaaaaaaaaaaaaaaaaaaaaaaaaaaaaaaaaaaaaaaaaaaaaaaaaaaaaaaaaaaaaaaaaaaaaaaaaaaaaaaaaaaaaaaaaaaaaaaaaaaaaaaaaaaaaaaaaaaaaaaaaaaaaaaaaaaaaaaaaaaaaaaaaaaaaaaaaaaaaaaaaaaaaaaaaaaaaaaaaaaaaaaaaaaaaaaaaaaaaaaaaaaaaaaaaaaaaaaaaaaaaaaaaaaaaaaaaaaaaaaaaaaaaaaaaaaaaaaaaaaaaaaaaaaaaaaaaaaaaaaaaaaaaaaaaaaaaaaaaaaaaaaaaaaaaaaaaaaaaaaaaaaaaaaaaaaaaaaaaaaaaaaaaaaaaaaaaaaaaaaaaaaaaaaaaaaaaaaaaaaaaaaaaaaaaaaaaaaaaaaaaaaaaaaaaaaaaaaaaaaaaaaaaaaaaaaaaaaaaaaaaaaaaaaaaaaaaaaaaaaaaaaaaaaaaaaaaaaaaaaaaaaaaaaaaaaaaaaaaaaaaaaaaaaaaaaaaaaaaaaaaaaaaaaaaaaaaaaaaaaaaaaaaaaaaaaaaaaaaaaaaaaaaaaaaaaaaaaaaaaaaaaaaaaaaaaaaaaaaaaaaaaaaaaaaaaaaaaaaaaaaaaaaaaaaaaaaaaaaaaaaaaaaaaaaaaaaaaaaaaaaaaaaaaaaaaaaaaaaaaaaaaaaaaaaaaaaaaaaaaaaaaaaaaaaaaaaaaaaaaaaaaaaaaaaaaaaaaaaaaaaaaaaaaaaaaaaa",
"aaaaaaaaaaaaaaaaaaaaaaaaaaaaaaaaaaaaaaaaaaaaaaaaaaaaaaaaaaaaaaaaaaaaaaaaaaaaaaaaaaaaaaaaaaaaaaaaaaaaaaaaaaaaaaaaaaaaaaaaaaaaaaaaaaaaaaaaaaaaaaaaaaaaaaaaaaaaaaaaaaaaaaaaaaaaaaaaaaaaaaaaaaaaaaaaaaaaaaaaaaaaaaaaaaaaaaaaaaaaaaaaaaaaaaaaaaaaaaaaaaaaaaaaaaaaaaaaaaaaaaaaaaaaaaaaaaaaaaaaaaaaaaaaaaaaaaaaaaaaaaaaaaaaaaaaaaaaaaaaaaaaaaaaaaaaaaaaaaaaaaaaaaaaaaaaaaaaaaaaaaaaaaaaaaaaaaaaaaaaaaaaaaaaaaaaaaaaaaaaaaaaaaaaaaaaaaaaaaaaaaaaaaaaaaaaaaaaaaaaaaaaaaaaaaaaaaaaaaaaaaaaaaaaaaaaaaaaaaaaaaaaaaaaaaaaaaaaaaaaaaaaaaaaaaaaaaaaaaaaaaaaaaaaaaaaaaaaaaaaaaaaaaaaaaaaaaaaaaaaaaaaaaaaaaaaaaaaaaaaaaaaaaaaaaaaaaaaaaaaaaaaaaaaaaaaaaaaaaaaaaaaaaaaaaaaaaaaaaaaaaaaaaaaaaaaaaaaaaaaaaaaaaaaaaaaaaaaaaaaaaaaaaaaaaaaaaaaaaaaaaaaaaaaaaaaaaaaaaaaaaaaaaaaaaaaaaaaaaaaaaaaaaaaaaaaaaaaaaaaaaaaaaaaaaaaaaaaaaaaaaaaaaaaaaaaaaaaaaaa",
"aaaaaaaaaaaaaaaaaaaaaaaaaaaaaaaaaaaaaaaaaaaaaaaaaaaaaaaaaaaaaaaaaaaaaaaaaaaaaaaaaaaaaaaaaaaaaaaaaaaaaaaaaaaaaaaaaaaaaaaaaaaaaaaaaaaaaaaaaaaaaaaaaaaaaaaaaaaaaaaaaaaaaaaaaaaaaaaaaaaaaaaaaaaaaaaaaaaaaaaaaaaaaaaaaaaaaaaaaaaaaaaaaaaaaaaaaaaaaaaaaaaaaaaaaaaaaaaaaaaaaaaaaaaaaaaaaaaaaaaaaaaaaaaaaaaaaaaaaaaaaaaaaaaaaaaaaaaaaaaaaaaaaaaaaaaaaaaaaaaaaaaaaaaaaaaaaaaaaaaaaaaaaaaaaaaaaaaaaaaaaaaaaaaaaaaaaaaaaaaaaaaaaaaaaaaaaaaaaaaaaaaaaaaaaaaaaaaaaaaaaaaaaaaaaaaaaaaaaaaaaaaaaaaaaaaaaaaaaaaaaaaaaaaaaaaaaaaaaaaaaaaaaaaaaaaaaaaaaaaaaaaaaaaaaaaaaaaaaaaaaaaaaaaaaaaaaaaaaaaaaaaaaaaaaaaaaaaaaaaaaaaaaaaaaaaaaaaaaaaaaaaaaaaaaaaaaaaaaaaaaaaaaaaaaaaaaaaaaaaaaaaaaaaaaaaaaaaaaaaaaaaaaaaaaaaaaaaaaaaaaaaaaaaaaaaaaaaaaaaaaaaaaaaaaaaaaaaaaaaaaaaaaaaaaaaaaaaaaaaaaaaaaaaaaaaaaaaaaaaaaaaaaaaaaaaaaaaaaaaaaaaaaaaaaaaaaaaaaaaa",
"aaaaaaaaaaaaaaaaaaaaaaaaaaaaaaaaaaaaaaaaaaaaaaaaaaaaaaaaaaaaaaaaaaaaaaaaaaaaaaaaaaaaaaaaaaaaaaaaaaaaaaaaaaaaaaaaaaaaaaaaaaaaaaaaaaaaaaaaaaaaaaaaaaaaaaaaaaaaaaaaaaaaaaaaaaaaaaaaaaaaaaaaaaaaaaaaaaaaaaaaaaaaaaaaaaaaaaaaaaaaaaaaaaaaaaaaaaaaaaaaaaaaaaaaaaaaaaaaaaaaaaaaaaaaaaaaaaaaaaaaaaaaaaaaaaaaaaaaaaaaaaaaaaaaaaaaaaaaaaaaaaaaaaaaaaaaaaaaaaaaaaaaaaaaaaaaaaaaaaaaaaaaaaaaaaaaaaaaaaaaaaaaaaaaaaaaaaaaaaaaaaaaaaaaaaaaaaaaaaaaaaaaaaaaaaaaaaaaaaaaaaaaaaaaaaaaaaaaaaaaaaaaaaaaaaaaaaaaaaaaaaaaaaaaaaaaaaaaaaaaaaaaaaaaaaaaaaaaaaaaaaaaaaaaaaaaaaaaaaaaaaaaaaaaaaaaaaaaaaaaaaaaaaaaaaaaaaaaaaaaaaaaaaaaaaaaaaaaaaaaaaaaaaaaaaaaaaaaaaaaaaaaaaaaaaaaaaaaaaaaaaaaaaaaaaaaaaaaaaaaaaaaaaaaaaaaaaaaaaaaaaaaaaaaaaaaaaaaaaaaaaaaaaaaaaaaaaaaaaaaaaaaaaaaaaaaaaaaaaaaaaaaaaaaaaaaaaaaaaaaaaaaaaaaaaaaaaaaaaaaaaaaaaaaaaaaaaaaaaaa",
"aaaaaaaaaaaaaaaaaaaaaaaaaaaaaaaaaaaaaaaaaaaaaaaaaaaaaaaaaaaaaaaaaaaaaaaaaaaaaaaaaaaaaaaaaaaaaaaaaaaaaaaaaaaaaaaaaaaaaaaaaaaaaaaaaaaaaaaaaaaaaaaaaaaaaaaaaaaaaaaaaaaaaaaaaaaaaaaaaaaaaaaaaaaaaaaaaaaaaaaaaaaaaaaaaaaaaaaaaaaaaaaaaaaaaaaaaaaaaaaaaaaaaaaaaaaaaaaaaaaaaaaaaaaaaaaaaaaaaaaaaaaaaaaaaaaaaaaaaaaaaaaaaaaaaaaaaaaaaaaaaaaaaaaaaaaaaaaaaaaaaaaaaaaaaaaaaaaaaaaaaaaaaaaaaaaaaaaaaaaaaaaaaaaaaaaaaaaaaaaaaaaaaaaaaaaaaaaaaaaaaaaaaaaaaaaaaaaaaaaaaaaaaaaaaaaaaaaaaaaaaaaaaaaaaaaaaaaaaaaaaaaaaaaaaaaaaaaaaaaaaaaaaaaaaaaaaaaaaaaaaaaaaaaaaaaaaaaaaaaaaaaaaaaaaaaaaaaaaaaaaaaaaaaaaaaaaaaaaaaaaaaaaaaaaaaaaaaaaaaaaaaaaaaaaaaaaaaaaaaaaaaaaaaaaaaaaaaaaaaaaaaaaaaaaaaaaaaaaaaaaaaaaaaaaaaaaaaaaaaaaaaaaaaaaaaaaaaaaaaaaaaaaaaaaaaaaaaaaaaaaaaaaaaaaaaaaaaaaaaaaaaaaaaaaaaaaaaaaaaaaaaaaaaaaaaaaaaaaaaaaaaaaaaaaaaaaaaaaaaa",
"aaaaaaaaaaaaaaaaaaaaaaaaaaaaaaaaaaaaaaaaaaaaaaaaaaaaaaaaaaaaaaaaaaaaaaaaaaaaaaaaaaaaaaaaaaaaaaaaaaaaaaaaaaaaaaaaaaaaaaaaaaaaaaaaaaaaaaaaaaaaaaaaaaaaaaaaaaaaaaaaaaaaaaaaaaaaaaaaaaaaaaaaaaaaaaaaaaaaaaaaaaaaaaaaaaaaaaaaaaaaaaaaaaaaaaaaaaaaaaaaaaaaaaaaaaaaaaaaaaaaaaaaaaaaaaaaaaaaaaaaaaaaaaaaaaaaaaaaaaaaaaaaaaaaaaaaaaaaaaaaaaaaaaaaaaaaaaaaaaaaaaaaaaaaaaaaaaaaaaaaaaaaaaaaaaaaaaaaaaaaaaaaaaaaaaaaaaaaaaaaaaaaaaaaaaaaaaaaaaaaaaaaaaaaaaaaaaaaaaaaaaaaaaaaaaaaaaaaaaaaaaaaaaaaaaaaaaaaaaaaaaaaaaaaaaaaaaaaaaaaaaaaaaaaaaaaaaaaaaaaaaaaaaaaaaaaaaaaaaaaaaaaaaaaaaaaaaaaaaaaaaaaaaaaaaaaaaaaaaaaaaaaaaaaaaaaaaaaaaaaaaaaaaaaaaaaaaaaaaaaaaaaaaaaaaaaaaaaaaaaaaaaaaaaaaaaaaaaaaaaaaaaaaaaaaaaaaaaaaaaaaaaaaaaaaaaaaaaaaaaaaaaaaaaaaaaaaaaaaaaaaaaaaaaaaaaaaaaaaaaaaaaaaaaaaaaaaaaaaaaaaaaaaaaaaaaaaaaaaaaaaaaaaaaaaaaaaaaaaaa",
"aaaaaaaaaaaaaaaaaaaaaaaaaaaaaaaaaaaaaaaaaaaaaaaaaaaaaaaaaaaaaaaaaaaaaaaaaaaaaaaaaaaaaaaaaaaaaaaaaaaaaaaaaaaaaaaaaaaaaaaaaaaaaaaaaaaaaaaaaaaaaaaaaaaaaaaaaaaaaaaaaaaaaaaaaaaaaaaaaaaaaaaaaaaaaaaaaaaaaaaaaaaaaaaaaaaaaaaaaaaaaaaaaaaaaaaaaaaaaaaaaaaaaaaaaaaaaaaaaaaaaaaaaaaaaaaaaaaaaaaaaaaaaaaaaaaaaaaaaaaaaaaaaaaaaaaaaaaaaaaaaaaaaaaaaaaaaaaaaaaaaaaaaaaaaaaaaaaaaaaaaaaaaaaaaaaaaaaaaaaaaaaaaaaaaaaaaaaaaaaaaaaaaaaaaaaaaaaaaaaaaaaaaaaaaaaaaaaaaaaaaaaaaaaaaaaaaaaaaaaaaaaaaaaaaaaaaaaaaaaaaaaaaaaaaaaaaaaaaaaaaaaaaaaaaaaaaaaaaaaaaaaaaaaaaaaaaaaaaaaaaaaaaaaaaaaaaaaaaaaaaaaaaaaaaaaaaaaaaaaaaaaaaaaaaaaaaaaaaaaaaaaaaaaaaaaaaaaaaaaaaaaaaaaaaaaaaaaaaaaaaaaaaaaaaaaaaaaaaaaaaaaaaaaaaaaaaaaaaaaaaaaaaaaaaaaaaaaaaaaaaaaaaaaaaaaaaaaaaaaaaaaaaaaaaaaaaaaaaaaaaaaaaaaaaaaaaaaaaaaaaaaaaaaaaaaaaaaaaaaaaaaaaaaaaaaaaaaaaaaa",
"aaaaaaaaaaaaaaaaaaaaaaaaaaaaaaaaaaaaaaaaaaaaaaaaaaaaaaaaaaaaaaaaaaaaaaaaaaaaaaaaaaaaaaaaaaaaaaaaaaaaaaaaaaaaaaaaaaaaaaaaaaaaaaaaaaaaaaaaaaaaaaaaaaaaaaaaaaaaaaaaaaaaaaaaaaaaaaaaaaaaaaaaaaaaaaaaaaaaaaaaaaaaaaaaaaaaaaaaaaaaaaaaaaaaaaaaaaaaaaaaaaaaaaaaaaaaaaaaaaaaaaaaaaaaaaaaaaaaaaaaaaaaaaaaaaaaaaaaaaaaaaaaaaaaaaaaaaaaaaaaaaaaaaaaaaaaaaaaaaaaaaaaaaaaaaaaaaaaaaaaaaaaaaaaaaaaaaaaaaaaaaaaaaaaaaaaaaaaaaaaaaaaaaaaaaaaaaaaaaaaaaaaaaaaaaaaaaaaaaaaaaaaaaaaaaaaaaaaaaaaaaaaaaaaaaaaaaaaaaaaaaaaaaaaaaaaaaaaaaaaaaaaaaaaaaaaaaaaaaaaaaaaaaaaaaaaaaaaaaaaaaaaaaaaaaaaaaaaaaaaaaaaaaaaaaaaaaaaaaaaaaaaaaaaaaaaaaaaaaaaaaaaaaaaaaaaaaaaaaaaaaaaaaaaaaaaaaaaaaaaaaaaaaaaaaaaaaaaaaaaaaaaaaaaaaaaaaaaaaaaaaaaaaaaaaaaaaaaaaaaaaaaaaaaaaaaaaaaaaaaaaaaaaaaaaaaaaaaaaaaaaaaaaaaaaaaaaaaaaaaaaaaaaaaaaaaaaaaaaaaaaaaaaaaaaaaaaaaaaaa",
"aaaaaaaaaaaaaaaaaaaaaaaaaaaaaaaaaaaaaaaaaaaaaaaaaaaaaaaaaaaaaaaaaaaaaaaaaaaaaaaaaaaaaaaaaaaaaaaaaaaaaaaaaaaaaaaaaaaaaaaaaaaaaaaaaaaaaaaaaaaaaaaaaaaaaaaaaaaaaaaaaaaaaaaaaaaaaaaaaaaaaaaaaaaaaaaaaaaaaaaaaaaaaaaaaaaaaaaaaaaaaaaaaaaaaaaaaaaaaaaaaaaaaaaaaaaaaaaaaaaaaaaaaaaaaaaaaaaaaaaaaaaaaaaaaaaaaaaaaaaaaaaaaaaaaaaaaaaaaaaaaaaaaaaaaaaaaaaaaaaaaaaaaaaaaaaaaaaaaaaaaaaaaaaaaaaaaaaaaaaaaaaaaaaaaaaaaaaaaaaaaaaaaaaaaaaaaaaaaaaaaaaaaaaaaaaaaaaaaaaaaaaaaaaaaaaaaaaaaaaaaaaaaaaaaaaaaaaaaaaaaaaaaaaaaaaaaaaaaaaaaaaaaaaaaaaaaaaaaaaaaaaaaaaaaaaaaaaaaaaaaaaaaaaaaaaaaaaaaaaaaaaaaaaaaaaaaaaaaaaaaaaaaaaaaaaaaaaaaaaaaaaaaaaaaaaaaaaaaaaaaaaaaaaaaaaaaaaaaaaaaaaaaaaaaaaaaaaaaaaaaaaaaaaaaaaaaaaaaaaaaaaaaaaaaaaaaaaaaaaaaaaaaaaaaaaaaaaaaaaaaaaaaaaaaaaaaaaaaaaaaaaaaaaaaaaaaaaaaaaaaaaaaaaaaaaaaaaaaaaaaaaaaaaaaaaaaaaaaaaa",
"aaaaaaaaaaaaaaaaaaaaaaaaaaaaaaaaaaaaaaaaaaaaaaaaaaaaaaaaaaaaaaaaaaaaaaaaaaaaaaaaaaaaaaaaaaaaaaaaaaaaaaaaaaaaaaaaaaaaaaaaaaaaaaaaaaaaaaaaaaaaaaaaaaaaaaaaaaaaaaaaaaaaaaaaaaaaaaaaaaaaaaaaaaaaaaaaaaaaaaaaaaaaaaaaaaaaaaaaaaaaaaaaaaaaaaaaaaaaaaaaaaaaaaaaaaaaaaaaaaaaaaaaaaaaaaaaaaaaaaaaaaaaaaaaaaaaaaaaaaaaaaaaaaaaaaaaaaaaaaaaaaaaaaaaaaaaaaaaaaaaaaaaaaaaaaaaaaaaaaaaaaaaaaaaaaaaaaaaaaaaaaaaaaaaaaaaaaaaaaaaaaaaaaaaaaaaaaaaaaaaaaaaaaaaaaaaaaaaaaaaaaaaaaaaaaaaaaaaaaaaaaaaaaaaaaaaaaaaaaaaaaaaaaaaaaaaaaaaaaaaaaaaaaaaaaaaaaaaaaaaaaaaaaaaaaaaaaaaaaaaaaaaaaaaaaaaaaaaaaaaaaaaaaaaaaaaaaaaaaaaaaaaaaaaaaaaaaaaaaaaaaaaaaaaaaaaaaaaaaaaaaaaaaaaaaaaaaaaaaaaaaaaaaaaaaaaaaaaaaaaaaaaaaaaaaaaaaaaaaaaaaaaaaaaaaaaaaaaaaaaaaaaaaaaaaaaaaaaaaaaaaaaaaaaaaaaaaaaaaaaaaaaaaaaaaaaaaaaaaaaaaaaaaaaaaaaaaaaaaaaaaaaaaaaaaaaaaaaaaaa",
"aaaaaaaaaaaaaaaaaaaaaaaaaaaaaaaaaaaaaaaaaaaaaaaaaaaaaaaaaaaaaaaaaaaaaaaaaaaaaaaaaaaaaaaaaaaaaaaaaaaaaaaaaaaaaaaaaaaaaaaaaaaaaaaaaaaaaaaaaaaaaaaaaaaaaaaaaaaaaaaaaaaaaaaaaaaaaaaaaaaaaaaaaaaaaaaaaaaaaaaaaaaaaaaaaaaaaaaaaaaaaaaaaaaaaaaaaaaaaaaaaaaaaaaaaaaaaaaaaaaaaaaaaaaaaaaaaaaaaaaaaaaaaaaaaaaaaaaaaaaaaaaaaaaaaaaaaaaaaaaaaaaaaaaaaaaaaaaaaaaaaaaaaaaaaaaaaaaaaaaaaaaaaaaaaaaaaaaaaaaaaaaaaaaaaaaaaaaaaaaaaaaaaaaaaaaaaaaaaaaaaaaaaaaaaaaaaaaaaaaaaaaaaaaaaaaaaaaaaaaaaaaaaaaaaaaaaaaaaaaaaaaaaaaaaaaaaaaaaaaaaaaaaaaaaaaaaaaaaaaaaaaaaaaaaaaaaaaaaaaaaaaaaaaaaaaaaaaaaaaaaaaaaaaaaaaaaaaaaaaaaaaaaaaaaaaaaaaaaaaaaaaaaaaaaaaaaaaaaaaaaaaaaaaaaaaaaaaaaaaaaaaaaaaaaaaaaaaaaaaaaaaaaaaaaaaaaaaaaaaaaaaaaaaaaaaaaaaaaaaaaaaaaaaaaaaaaaaaaaaaaaaaaaaaaaaaaaaaaaaaaaaaaaaaaaaaaaaaaaaaaaaaaaaaaaaaaaaaaaaaaaaaaaaaaaaaaaaaaaaa",
"aaaaaaaaaaaaaaaaaaaaaaaaaaaaaaaaaaaaaaaaaaaaaaaaaaaaaaaaaaaaaaaaaaaaaaaaaaaaaaaaaaaaaaaaaaaaaaaaaaaaaaaaaaaaaaaaaaaaaaaaaaaaaaaaaaaaaaaaaaaaaaaaaaaaaaaaaaaaaaaaaaaaaaaaaaaaaaaaaaaaaaaaaaaaaaaaaaaaaaaaaaaaaaaaaaaaaaaaaaaaaaaaaaaaaaaaaaaaaaaaaaaaaaaaaaaaaaaaaaaaaaaaaaaaaaaaaaaaaaaaaaaaaaaaaaaaaaaaaaaaaaaaaaaaaaaaaaaaaaaaaaaaaaaaaaaaaaaaaaaaaaaaaaaaaaaaaaaaaaaaaaaaaaaaaaaaaaaaaaaaaaaaaaaaaaaaaaaaaaaaaaaaaaaaaaaaaaaaaaaaaaaaaaaaaaaaaaaaaaaaaaaaaaaaaaaaaaaaaaaaaaaaaaaaaaaaaaaaaaaaaaaaaaaaaaaaaaaaaaaaaaaaaaaaaaaaaaaaaaaaaaaaaaaaaaaaaaaaaaaaaaaaaaaaaaaaaaaaaaaaaaaaaaaaaaaaaaaaaaaaaaaaaaaaaaaaaaaaaaaaaaaaaaaaaaaaaaaaaaaaaaaaaaaaaaaaaaaaaaaaaaaaaaaaaaaaaaaaaaaaaaaaaaaaaaaaaaaaaaaaaaaaaaaaaaaaaaaaaaaaaaaaaaaaaaaaaaaaaaaaaaaaaaaaaaaaaaaaaaaaaaaaaaaaaaaaaaaaaaaaaaaaaaaaaaaaaaaaaaaaaaaaaaaaaaaaaaaaaaaa",
"aaaaaaaaaaaaaaaaaaaaaaaaaaaaaaaaaaaaaaaaaaaaaaaaaaaaaaaaaaaaaaaaaaaaaaaaaaaaaaaaaaaaaaaaaaaaaaaaaaaaaaaaaaaaaaaaaaaaaaaaaaaaaaaaaaaaaaaaaaaaaaaaaaaaaaaaaaaaaaaaaaaaaaaaaaaaaaaaaaaaaaaaaaaaaaaaaaaaaaaaaaaaaaaaaaaaaaaaaaaaaaaaaaaaaaaaaaaaaaaaaaaaaaaaaaaaaaaaaaaaaaaaaaaaaaaaaaaaaaaaaaaaaaaaaaaaaaaaaaaaaaaaaaaaaaaaaaaaaaaaaaaaaaaaaaaaaaaaaaaaaaaaaaaaaaaaaaaaaaaaaaaaaaaaaaaaaaaaaaaaaaaaaaaaaaaaaaaaaaaaaaaaaaaaaaaaaaaaaaaaaaaaaaaaaaaaaaaaaaaaaaaaaaaaaaaaaaaaaaaaaaaaaaaaaaaaaaaaaaaaaaaaaaaaaaaaaaaaaaaaaaaaaaaaaaaaaaaaaaaaaaaaaaaaaaaaaaaaaaaaaaaaaaaaaaaaaaaaaaaaaaaaaaaaaaaaaaaaaaaaaaaaaaaaaaaaaaaaaaaaaaaaaaaaaaaaaaaaaaaaaaaaaaaaaaaaaaaaaaaaaaaaaaaaaaaaaaaaaaaaaaaaaaaaaaaaaaaaaaaaaaaaaaaaaaaaaaaaaaaaaaaaaaaaaaaaaaaaaaaaaaaaaaaaaaaaaaaaaaaaaaaaaaaaaaaaaaaaaaaaaaaaaaaaaaaaaaaaaaaaaaaaaaaaaaaaaaaaaaaa",
"aaaaaaaaaaaaaaaaaaaaaaaaaaaaaaaaaaaaaaaaaaaaaaaaaaaaaaaaaaaaaaaaaaaaaaaaaaaaaaaaaaaaaaaaaaaaaaaaaaaaaaaaaaaaaaaaaaaaaaaaaaaaaaaaaaaaaaaaaaaaaaaaaaaaaaaaaaaaaaaaaaaaaaaaaaaaaaaaaaaaaaaaaaaaaaaaaaaaaaaaaaaaaaaaaaaaaaaaaaaaaaaaaaaaaaaaaaaaaaaaaaaaaaaaaaaaaaaaaaaaaaaaaaaaaaaaaaaaaaaaaaaaaaaaaaaaaaaaaaaaaaaaaaaaaaaaaaaaaaaaaaaaaaaaaaaaaaaaaaaaaaaaaaaaaaaaaaaaaaaaaaaaaaaaaaaaaaaaaaaaaaaaaaaaaaaaaaaaaaaaaaaaaaaaaaaaaaaaaaaaaaaaaaaaaaaaaaaaaaaaaaaaaaaaaaaaaaaaaaaaaaaaaaaaaaaaaaaaaaaaaaaaaaaaaaaaaaaaaaaaaaaaaaaaaaaaaaaaaaaaaaaaaaaaaaaaaaaaaaaaaaaaaaaaaaaaaaaaaaaaaaaaaaaaaaaaaaaaaaaaaaaaaaaaaaaaaaaaaaaaaaaaaaaaaaaaaaaaaaaaaaaaaaaaaaaaaaaaaaaaaaaaaaaaaaaaaaaaaaaaaaaaaaaaaaaaaaaaaaaaaaaaaaaaaaaaaaaaaaaaaaaaaaaaaaaaaaaaaaaaaaaaaaaaaaaaaaaaaaaaaaaaaaaaaaaaaaaaaaaaaaaaaaaaaaaaaaaaaaaaaaaaaaaaaaaaaaaaaaaa",
"aaaaaaaaaaaaaaaaaaaaaaaaaaaaaaaaaaaaaaaaaaaaaaaaaaaaaaaaaaaaaaaaaaaaaaaaaaaaaaaaaaaaaaaaaaaaaaaaaaaaaaaaaaaaaaaaaaaaaaaaaaaaaaaaaaaaaaaaaaaaaaaaaaaaaaaaaaaaaaaaaaaaaaaaaaaaaaaaaaaaaaaaaaaaaaaaaaaaaaaaaaaaaaaaaaaaaaaaaaaaaaaaaaaaaaaaaaaaaaaaaaaaaaaaaaaaaaaaaaaaaaaaaaaaaaaaaaaaaaaaaaaaaaaaaaaaaaaaaaaaaaaaaaaaaaaaaaaaaaaaaaaaaaaaaaaaaaaaaaaaaaaaaaaaaaaaaaaaaaaaaaaaaaaaaaaaaaaaaaaaaaaaaaaaaaaaaaaaaaaaaaaaaaaaaaaaaaaaaaaaaaaaaaaaaaaaaaaaaaaaaaaaaaaaaaaaaaaaaaaaaaaaaaaaaaaaaaaaaaaaaaaaaaaaaaaaaaaaaaaaaaaaaaaaaaaaaaaaaaaaaaaaaaaaaaaaaaaaaaaaaaaaaaaaaaaaaaaaaaaaaaaaaaaaaaaaaaaaaaaaaaaaaaaaaaaaaaaaaaaaaaaaaaaaaaaaaaaaaaaaaaaaaaaaaaaaaaaaaaaaaaaaaaaaaaaaaaaaaaaaaaaaaaaaaaaaaaaaaaaaaaaaaaaaaaaaaaaaaaaaaaaaaaaaaaaaaaaaaaaaaaaaaaaaaaaaaaaaaaaaaaaaaaaaaaaaaaaaaaaaaaaaaaaaaaaaaaaaaaaaaaaaaaaaaaaaaaaaaaaa",
"aaaaaaaaaaaaaaaaaaaaaaaaaaaaaaaaaaaaaaaaaaaaaaaaaaaaaaaaaaaaaaaaaaaaaaaaaaaaaaaaaaaaaaaaaaaaaaaaaaaaaaaaaaaaaaaaaaaaaaaaaaaaaaaaaaaaaaaaaaaaaaaaaaaaaaaaaaaaaaaaaaaaaaaaaaaaaaaaaaaaaaaaaaaaaaaaaaaaaaaaaaaaaaaaaaaaaaaaaaaaaaaaaaaaaaaaaaaaaaaaaaaaaaaaaaaaaaaaaaaaaaaaaaaaaaaaaaaaaaaaaaaaaaaaaaaaaaaaaaaaaaaaaaaaaaaaaaaaaaaaaaaaaaaaaaaaaaaaaaaaaaaaaaaaaaaaaaaaaaaaaaaaaaaaaaaaaaaaaaaaaaaaaaaaaaaaaaaaaaaaaaaaaaaaaaaaaaaaaaaaaaaaaaaaaaaaaaaaaaaaaaaaaaaaaaaaaaaaaaaaaaaaaaaaaaaaaaaaaaaaaaaaaaaaaaaaaaaaaaaaaaaaaaaaaaaaaaaaaaaaaaaaaaaaaaaaaaaaaaaaaaaaaaaaaaaaaaaaaaaaaaaaaaaaaaaaaaaaaaaaaaaaaaaaaaaaaaaaaaaaaaaaaaaaaaaaaaaaaaaaaaaaaaaaaaaaaaaaaaaaaaaaaaaaaaaaaaaaaaaaaaaaaaaaaaaaaaaaaaaaaaaaaaaaaaaaaaaaaaaaaaaaaaaaaaaaaaaaaaaaaaaaaaaaaaaaaaaaaaaaaaaaaaaaaaaaaaaaaaaaaaaaaaaaaaaaaaaaaaaaaaaaaaaaaaaaaaaaaaaa"
};
