/* XPM */
static char *win_menu_btn[] = {
"256 64 6 2",
"aa c #F87171",
"ab c #DC2626",
"ac c #7F1D1D",
"ad c #F4F4F4",
"ae c #000000",
"af c #FF00FF",
/* pixels */
"afafafafafafafafafafafafafafafafafafafafafafafafafafafafafafafafafafafafafafafafafafafafafafafafafafafafafafafafafafafafafafafafafafafafafafafafafafafafafafafafafafafafafafafafafafafafafafafafafafafafafafafafafafafafafafafafafafafafafafafafafafafafafafafafafafafafafafafafafafafafafafafafafafafafafafafafafafafafafafafafafafafafafafafafafafafafafafafafafafafafafafafafafafafafafafafafafafafafafafafafafafafafafafafafafafafafafafafafafafafafafafafafafafafafafafafafafafafafafafafafafafafafafafafafafafafafafafafaf",
"afafafafafafafafafafafafafafafafafafafafafafafafafafafafafafafafafafafafafafafafafafafafafafafafafafafafafafafafafafafafafafafafafafafafafafafafafafafafafafafafafafafafafafafafafafafafafafafafafafafafafafafafafafafafafafafafafafafafafafafafafafafafafafafafafafafafafafafafafafafafafafafafafafafafafafafafafafafafafafafafafafafafafafafafafafafafafafafafafafafafafafafafafafafafafafafafafafafafafafafafafafafafafafafafafafafafafafafafafafafafafafafafafafafafafafafafafafafafafafafafafafafafafafafafafafafafafafafaf",
"afafafafafafafafafafafafafafafafafafafafafafafafafafafafafafafafafafafafafafafafafafafafafafafafafafafafafafafafafafafafafafafafafafafafafafafafafafafafafafafafafafafafafafafafafafafafafafafafafafafafafafafafafafafafafafafafafafafafafafafafafafafafafafafafafafafafafafafafafafafafafafafafafafafafafafafafafafafafafafafafafafafafafafafafafafafafafafafafafafafafafafafafafafafafafafafafafafafafafafafafafafafafafafafafafafafafafafafafafafafafafafafafafafafafafafafafafafafafafafafafafafafafafafafafafafafafafafafaf",
"afafafafafafafafafafafafafafafafafafafafafafafafafafafafafafafafafafafafafafafafafafafafafafafafafafafafafafafafafafafafafafafafafafafafafafafafafafafafafafafafafafafafafafafafafafafafafafafafafafafafafafafafafafafafafafafafafafafafafafafafafafafafafafafafafafafafafafafafafafafafafafafafafafafafafafafafafafafafafafafafafafafafafafafafafafafafafafafafafafafafafafafafafafafafafafafafafafafafafafafafafafafafafafafafafafafafafafafafafafafafafafafafafafafafafafafafafafafafafafafafafafafafafafafafafafafafafafafaf",
"afafafafafafafafafafafafacacacacacacacacacacacacacacacacacacacacacacacacacacacacacacacacacacacacacacacacacacacacacacacacacacacacacacacacacacacacacacacacacacacacacacacacacacacacacacacacacacacacacacacacacacacacacacacacacacacacacacacacacacacacacacacacacacacacacacacacacacacacacacacacacacacacacacacacacacacacacacacacacacacacacacacacacacacacacacacacacacacacacacacacacacacacacacacacacacacacacacacacacacacacacacacacacacacacacacacacacacacacacacacacacacacacacacacacacacacacacacacacacacacacacacacacafafafafafafafafafafafaf",
"afafafafafafafafafacacacaaaaaaaaaaaaaaaaaaaaaaaaaaaaaaaaaaaaaaaaaaaaaaaaaaaaaaaaaaaaaaaaaaaaaaaaaaaaaaaaaaaaaaaaaaaaaaaaaaaaaaaaaaaaaaaaaaaaaaaaaaaaaaaaaaaaaaaaaaaaaaaaaaaaaaaaaaaaaaaaaaaaaaaaaaaaaaaaaaaaaaaaaaaaaaaaaaaaaaaaaaaaaaaaaaaaaaaaaaaaaaaaaaaaaaaaaaaaaaaaaaaaaaaaaaaaaaaaaaaaaaaaaaaaaaaaaaaaaaaaaaaaaaaaaaaaaaaaaaaaaaaaaaaaaaaaaaaaaaaaaaaaaaaaaaaaaaaaaaaaaaaaaaaaaaaaaaaaaaaaaaaaaaaaaaaaaaaaaaaaaaaaaaaaaaaaaaaaaaaaaaaaaaaaaaaaaaaaaaaaaaaaaaaaaaaaaaaaaaaaaaaaaaaaaaaaaaaaaaaaaaaaacacacafafafafafafafafaf",
"afafafafafafafacacaaaaaaaaaaaaaaaaaaaaaaaaaaaaaaaaaaaaaaaaaaaaaaaaaaaaaaaaaaaaaaaaaaaaaaaaaaaaaaaaaaaaaaaaaaaaaaaaaaaaaaaaaaaaaaaaaaaaaaaaaaaaaaaaaaaaaaaaaaaaaaaaaaaaaaaaaaaaaaaaaaaaaaaaaaaaaaaaaaaaaaaaaaaaaaaaaaaaaaaaaaaaaaaaaaaaaaaaaaaaaaaaaaaaaaaaaaaaaaaaaaaaaaaaaaaaaaaaaaaaaaaaaaaaaaaaaaaaaaaaaaaaaaaaaaaaaaaaaaaaaaaaaaaaaaaaaaaaaaaaaaaaaaaaaaaaaaaaaaaaaaaaaaaaaaaaaaaaaaaaaaaaaaaaaaaaaaaaaaaaaaaaaaaaaaaaaaaaaaaaaaaaaaaaaaaaaaaaaaaaaaaaaaaaaaaaaaaaaaaaaaaaaaaaaaaaaaaaaaaaaaaaaaaaaaaaaaaaacacafafafafafafaf",
"afafafafafafacaaaaaaaaaaaaaaaaaaaaaaaaaaaaaaaaaaaaaaaaaaaaaaaaaaaaaaaaaaaaaaaaaaaaaaaaaaaaaaaaaaaaaaaaaaaaaaaaaaaaaaaaaaaaaaaaaaaaaaaaaaaaaaaaaaaaaaaaaaaaaaaaaaaaaaaaaaaaaaaaaaaaaaaaaaaaaaaaaaaaaaaaaaaaaaaaaaaaaaaaaaaaaaaaaaaaaaaaaaaaaaaaaaaaaaaaaaaaaaaaaaaaaaaaaaaaaaaaaaaaaaaaaaaaaaaaaaaaaaaaaaaaaaaaaaaaaaaaaaaaaaaaaaaaaaaaaaaaaaaaaaaaaaaaaaaaaaaaaaaaaaaaaaaaaaaaaaaaaaaaaaaaaaaaaaaaaaaaaaaaaaaaaaaaaaaaaaaaaaaaaaaaaaaaaaaaaaaaaaaaaaaaaaaaaaaaaaaaaaaaaaaaaaaaaaaaaaaaaaaaaaaaaaaaaaaaaaaaaaaaaaaaacafafafafafaf",
"afafafafafafacaaaaaaaaaaaaaaaaaaaaaaaaaaaaaaaaaaaaaaaaaaaaaaaaaaaaaaaaaaaaaaaaaaaaaaaaaaaaaaaaaaaaaaaaaaaaaaaaaaaaaaaaaaaaaaaaaaaaaaaaaaaaaaaaaaaaaaaaaaaaaaaaaaaaaaaaaaaaaaaaaaaaaaaaaaaaaaaaaaaaaaaaaaaaaaaaaaaaaaaaaaaaaaaaaaaaaaaaaaaaaaaaaaaaaaaaaaaaaaaaaaaaaaaaaaaaaaaaaaaaaaaaaaaaaaaaaaaaaaaaaaaaaaaaaaaaaaaaaaaaaaaaaaaaaaaaaaaaaaaaaaaaaaaaaaaaaaaaaaaaaaaaaaaaaaaaaaaaaaaaaaaaaaaaaaaaaaaaaaaaaaaaaaaaaaaaaaaaaaaaaaaaaaaaaaaaaaaaaaaaaaaaaaaaaaaaaaaaaaaaaaaaaaaaaaaaaaaaaaaaaaaaaaaaaaaaaaaaaaaaaaaaacafafafafafaf",
"afafafafafacaaaaaaaaaaaaaaaaaaaaaaaaaaaaaaaaaaaaaaaaaaaaaaaaaaaaaaaaaaaaaaaaaaaaaaaaaaaaaaaaaaaaaaaaaaaaaaaaaaaaaaaaaaaaaaaaaaaaaaaaaaaaaaaaaaaaaaaaaaaaaaaaaaaaaaaaaaaaaaaaaaaaaaaaaaaaaaaaaaaaaaaaaaaaaaaaaaaaaaaaaaaaaaaaaaaaaaaaaaaaaaaaaaaaaaaaaaaaaaaaaaaaaaaaaaaaaaaaaaaaaaaaaaaaaaaaaaaaaaaaaaaaaaaaaaaaaaaaaaaaaaaaaaaaaaaaaaaaaaaaaaaaaaaaaaaaaaaaaaaaaaaaaaaaaaaaaaaaaaaaaaaaaaaaaaaaaaaaaaaaaaaaaaaaaaaaaaaaaaaaaaaaaaaaaaaaaaaaaaaaaaaaaaaaaaaaaaaaaaaaaaaaaaaaaaaaaaaaaaaaaaaaaaaaaaaaaaaaaaaaaaaaaaaaacafafafafaf",
"afafafafafacaaaaaaaaaaaaaaaaaaaaaaaaaaaaaaaaaaaaaaaaaaaaaaaaaaaaaaaaaaaaaaaaaaaaaaaaaaaaaaaaaaaaaaaaaaaaaaaaaaaaaaaaaaaaaaaaaaaaaaaaaaaaaaaaaaaaaaaaaaaaaaaaaaaaaaaaaaaaaaaaaaaaaaaaaaaaaaaaaaaaaaaaaaaaaaaaaaaaaaaaaaaaaaaaaaaaaaaaaaaaaaaaaaaaaaaaaaaaaaaaaaaaaaaaaaaaaaaaaaaaaaaaaaaaaaaaaaaaaaaaaaaaaaaaaaaaaaaaaaaaaaaaaaaaaaaaaaaaaaaaaaaaaaaaaaaaaaaaaaaaaaaaaaaaaaaaaaaaaaaaaaaaaaaaaaaaaaaaaaaaaaaaaaaaaaaaaaaaaaaaaaaaaaaaaaaaaaaaaaaaaaaaaaaaaaaaaaaaaaaaaaaaaaaaaaaaaaaaaaaaaaaaaaaaaaaaaaaaaaaaaaaaaaaaacafafafafaf",
"afafafafafacaaaaaaaaaaaaaaaaaaaaaaaaaaaaaaaaaaaaaaaaaaaaaaaaaaaaaaaaaaaaaaaaaaaaaaaaaaaaaaaaaaaaaaaaaaaaaaaaaaaaaaaaaaaaaaaaaaaaaaaaaaaaaaaaaaaaaaaaaaaaaaaaaaaaaaaaaaaaaaaaaaaaaaaaaaaaaaaaaaaaaaaaaaaaaaaaaaaaaaaaaaaaaaaaaaaaaaaaaaaaaaaaaaaaaaaaaaaaaaaaaaaaaaaaaaaaaaaaaaaaaaaaaaaaaaaaaaaaaaaaaaaaaaaaaaaaaaaaaaaaaaaaaaaaaaaaaaaaaaaaaaaaaaaaaaaaaaaaaaaaaaaaaaaaaaaaaaaaaaaaaaaaaaaaaaaaaaaaaaaaaaaaaaaaaaaaaaaaaaaaaaaaaaaaaaaaaaaaaaaaaaaaaaaaaaaaaaaaaaaaaaaaaaaaaaaaaaaaaaaaaaaaaaaaaaaaaaaaaaaaaaaaaaaaacafafafafaf",
"afafafafacababababababababababababababababababababababababababababababababababababababababababababababababababababababababababababababababababababababababababababababababababababababababababababababababababababababababababababababababababababababababababababababababababababababababababababababababababababababababababababababababababababababababababababababababababababababababababababababababababababababababababababababababababababababababababababababababababababababababababababababababababababababacafafafaf",
"afafafafacababababababababababababababababababababababababababababababababababababababababababababababababababababababababababababababababababababababababababababababababababababababababababababababababababababababababababababababababababababababababababababababababababababababababababababababababababababababababababababababababababababababababababababababababababababababababababababababababababababababababababababababababababababababababababababababababababababababababababababababababababababababacafafafaf",
"afafafafacababababababababababababababababababababababababababababababababababababababababababababababababababababababababababababababababababababababababababababababababababababababababababababababababababababababababababababababababababababababababababababababababababababababababababababababababababababababababababababababababababababababababababababababababababababababababababababababababababababababababababababababababababababababababababababababababababababababababababababababababababababababacafafafaf",
"afafafafacababababababababababababababababababababababababababababababababababababababababababababababababababababababababababababababababababababababababababababababababababababababababababababababababababababababababababababababababababababababababababababababababababababababababababababababababababababababababababababababababababababababababababababababababababababababababababababababababababababababababababababababababababababababababababababababababababababababababababababababababababababababacafafafaf",
"afafafafacababababababababababababababababababababababababababababababababababababababababababababababababababababababababababababababababababababababababababababababababababababababababababababababababababababababababababababababababababababababababababababababababababababababababababababababababababababababababababababababababababababababababababababababababababababababababababababababababababababababababababababababababababababababababababababababababababababababababababababababababababababababacafafafaf",
"afafafafacabababababababababababababababababadadadadababababababababababababadadadadababababababababababababadadadadababababababababababababababababadadadadadadadadadadadadababababababababadadadadababababababababababababadadadadababababababababababababababababababababababababababababadadadadababababababababababababadadadadababababadadadadadadadadadadadadadadadadadadadadababababadadadadababababababababababababadadadadababababadadadadababababababababababababadadadadabababababababababababababababababacafafafaf",
"afafafafacabababababababababababababababababadadadadababababababababababababadadadadababababababababababababadadadadababababababababababababababababadadadadadadadadadadadadababababababababadadadadababababababababababababadadadadababababababababababababababababababababababababababababadadadadababababababababababababadadadadababababadadadadadadadadadadadadadadadadadadadadababababadadadadababababababababababababadadadadababababadadadadababababababababababababadadadadabababababababababababababababababacafafafaf",
"afafafafacabababababababababababababababababadadadadaeaeababababababababababadadadadaeaeababababababababababadadadadaeaeababababababababababababababadadadadadadadadadadadadaeaeababababababadadadadaeaeababababababababababadadadadaeaeababababababababababababababababababababababababababadadadadaeaeababababababababababadadadadaeaeababadadadadadadadadadadadadadadadadadadadadaeaeababadadadadaeaeababababababababababadadadadaeaeababadadadadaeaeababababababababababadadadadaeaeabababababababababababababababacafafafaf",
"afafafafacabababababababababababababababababadadadadaeaeababababababababababadadadadaeaeababababababababababadadadadaeaeababababababababababababababadadadadadadadadadadadadaeaeababababababadadadadaeaeababababababababababadadadadaeaeababababababababababababababababababababababababababadadadadaeaeababababababababababadadadadaeaeababadadadadadadadadadadadadadadadadadadadadaeaeababadadadadaeaeababababababababababadadadadaeaeababadadadadaeaeababababababababababadadadadaeaeabababababababababababababababacafafafaf",
"afafafafacabababababababababababababababababadadadadadadadadababababadadadadadadadadaeaeababababababadadadadababaeaeadadadadababababababababababababababaeaeadadadadaeaeaeaeaeaeababababababadadadadadadadadababababababababadadadadaeaeababababababababababababababababababababababababababadadadadadadadadababababadadadadadadadadaeaeababadadadadaeaeaeaeaeaeaeaeaeaeaeaeaeaeaeaeaeaeababadadadadadadadadababababababababadadadadaeaeababadadadadaeaeababababababababababadadadadaeaeabababababababababababababababacafafafaf",
"afafafafacabababababababababababababababababadadadadadadadadababababadadadadadadadadaeaeababababababadadadadababaeaeadadadadababababababababababababababaeaeadadadadaeaeaeaeaeaeababababababadadadadadadadadababababababababadadadadaeaeababababababababababababababababababababababababababadadadadadadadadababababadadadadadadadadaeaeababadadadadaeaeaeaeaeaeaeaeaeaeaeaeaeaeaeaeaeaeababadadadadadadadadababababababababadadadadaeaeababadadadadaeaeababababababababababadadadadaeaeabababababababababababababababacafafafaf",
"afafafafacabababababababababababababababababadadadadadadadadaeaeababadadadadadadadadaeaeababababababadadadadaeaeababadadadadaeaeababababababababababababababadadadadaeaeababababababababababadadadadadadadadaeaeababababababadadadadaeaeababababababababababababababababababababababababababadadadadadadadadaeaeababadadadadadadadadaeaeababadadadadaeaeababababababababababababababababababadadadadadadadadaeaeababababababadadadadaeaeababadadadadaeaeababababababababababadadadadaeaeabababababababababababababababacafafafaf",
"afafafafacabababababababababababababababababadadadadadadadadaeaeababadadadadadadadadaeaeababababababadadadadaeaeababadadadadaeaeababababababababababababababadadadadaeaeababababababababababadadadadadadadadaeaeababababababadadadadaeaeababababababababababababababababababababababababababadadadadadadadadaeaeababadadadadadadadadaeaeababadadadadaeaeababababababababababababababababababadadadadadadadadaeaeababababababadadadadaeaeababadadadadaeaeababababababababababadadadadaeaeabababababababababababababababacafafafaf",
"afafafafacabababababababababababababababababadadadadaeaeaeaeadadadadababaeaeadadadadaeaeababadadadadababaeaeaeaeababababaeaeadadadadababababababababababababadadadadaeaeababababababababababadadadadaeaeaeaeadadadadababababadadadadaeaeababababababababababababababababababababababababababadadadadaeaeaeaeadadadadababaeaeadadadadaeaeababadadadadaeaeababababababababababababababababababadadadadaeaeaeaeadadadadababababadadadadaeaeababadadadadaeaeababababababababababadadadadaeaeabababababababababababababababacafafafaf",
"afafafafacabababababababababababababababababadadadadaeaeaeaeadadadadababaeaeadadadadaeaeababadadadadababaeaeaeaeababababaeaeadadadadababababababababababababadadadadaeaeababababababababababadadadadaeaeaeaeadadadadababababadadadadaeaeababababababababababababababababababababababababababadadadadaeaeaeaeadadadadababaeaeadadadadaeaeababadadadadaeaeababababababababababababababababababadadadadaeaeaeaeadadadadababababadadadadaeaeababadadadadaeaeababababababababababadadadadaeaeabababababababababababababababacafafafaf",
"afafafafacabababababababababababababababababadadadadaeaeababadadadadaeaeababadadadadaeaeababadadadadaeaeababababababababababadadadadaeaeababababababababababadadadadaeaeababababababababababadadadadaeaeababadadadadaeaeababadadadadaeaeababababababababababababababababababababababababababadadadadaeaeababadadadadaeaeababadadadadaeaeababadadadadaeaeababababababababababababababababababadadadadaeaeababadadadadaeaeababadadadadaeaeababadadadadaeaeababababababababababadadadadaeaeabababababababababababababababacafafafaf",
"afafafafacabababababababababababababababababadadadadaeaeababadadadadaeaeababadadadadaeaeababadadadadaeaeababababababababababadadadadaeaeababababababababababadadadadaeaeababababababababababadadadadaeaeababadadadadaeaeababadadadadaeaeababababababababababababababababababababababababababadadadadaeaeababadadadadaeaeababadadadadaeaeababadadadadaeaeababababababababababababababababababadadadadaeaeababadadadadaeaeababadadadadaeaeababadadadadaeaeababababababababababadadadadaeaeabababababababababababababababacafafafaf",
"afafafafacabababababababababababababababababadadadadaeaeababababaeaeaeaeababadadadadaeaeababadadadadaeaeababababababababababadadadadaeaeababababababababababadadadadaeaeababababababababababadadadadaeaeababababaeaeadadadadadadadadaeaeababababababababababababababababababababababababababadadadadaeaeababababaeaeaeaeababadadadadaeaeababadadadadadadadadadadadadadadadadababababababababadadadadaeaeababababaeaeadadadadadadadadaeaeababadadadadaeaeababababababababababadadadadaeaeabababababababababababababababacafafafaf",
"afafafafacabababababababababababababababababadadadadaeaeababababaeaeaeaeababadadadadaeaeababadadadadaeaeababababababababababadadadadaeaeababababababababababadadadadaeaeababababababababababadadadadaeaeababababaeaeadadadadadadadadaeaeababababababababababababababababababababababababababadadadadaeaeababababaeaeaeaeababadadadadaeaeababadadadadadadadadadadadadadadadadababababababababadadadadaeaeababababaeaeadadadadadadadadaeaeababadadadadaeaeababababababababababadadadadaeaeabababababababababababababababacafafafaf",
"afafafafacabababababababababababababababababadadadadaeaeababababababababababadadadadaeaeababadadadadaeaeababababababababababadadadadaeaeababababababababababadadadadaeaeababababababababababadadadadaeaeababababababadadadadadadadadaeaeababababababababababababababababababababababababababadadadadaeaeababababababababababadadadadaeaeababadadadadadadadadadadadadadadadadaeaeababababababadadadadaeaeababababababadadadadadadadadaeaeababadadadadaeaeababababababababababadadadadaeaeabababababababababababababababacafafafaf",
"afafafafacabababababababababababababababababadadadadaeaeababababababababababadadadadaeaeababadadadadaeaeababababababababababadadadadaeaeababababababababababadadadadaeaeababababababababababadadadadaeaeababababababadadadadadadadadaeaeababababababababababababababababababababababababababadadadadaeaeababababababababababadadadadaeaeababadadadadadadadadadadadadadadadadaeaeababababababadadadadaeaeababababababadadadadadadadadaeaeababadadadadaeaeababababababababababadadadadaeaeabababababababababababababababacafafafaf",
"afafafafacabababababababababababababababababadadadadaeaeababababababababababadadadadaeaeababadadadadadadadadadadadadadadadadadadadadaeaeababababababababababadadadadaeaeababababababababababadadadadaeaeababababababababaeaeadadadadaeaeababababababababababababababababababababababababababadadadadaeaeababababababababababadadadadaeaeababadadadadaeaeaeaeaeaeaeaeaeaeaeaeaeaeababababababadadadadaeaeababababababababaeaeadadadadaeaeababadadadadaeaeababababababababababadadadadaeaeabababababababababababababababacafafafaf",
"afafafafacabababababababababababababababababadadadadaeaeababababababababababadadadadaeaeababadadadadadadadadadadadadadadadadadadadadaeaeababababababababababadadadadaeaeababababababababababadadadadaeaeababababababababaeaeadadadadaeaeababababababababababababababababababababababababababadadadadaeaeababababababababababadadadadaeaeababadadadadaeaeaeaeaeaeaeaeaeaeaeaeaeaeababababababadadadadaeaeababababababababaeaeadadadadaeaeababadadadadaeaeababababababababababadadadadaeaeabababababababababababababababacafafafaf",
"afafafafacabababababababababababababababababadadadadaeaeababababababababababadadadadaeaeababadadadadadadadadadadadadadadadadadadadadaeaeababababababababababadadadadaeaeababababababababababadadadadaeaeababababababababababadadadadaeaeababababababababababababababababababababababababababadadadadaeaeababababababababababadadadadaeaeababadadadadaeaeababababababababababababababababababadadadadaeaeababababababababababadadadadaeaeababadadadadaeaeababababababababababadadadadaeaeabababababababababababababababacafafafaf",
"afafafafacabababababababababababababababababadadadadaeaeababababababababababadadadadaeaeababadadadadadadadadadadadadadadadadadadadadaeaeababababababababababadadadadaeaeababababababababababadadadadaeaeababababababababababadadadadaeaeababababababababababababababababababababababababababadadadadaeaeababababababababababadadadadaeaeababadadadadaeaeababababababababababababababababababadadadadaeaeababababababababababadadadadaeaeababadadadadaeaeababababababababababadadadadaeaeabababababababababababababababacafafafaf",
"afafafafacabababababababababababababababababadadadadaeaeababababababababababadadadadaeaeababadadadadaeaeaeaeaeaeaeaeaeaeaeaeadadadadaeaeababababababababababadadadadaeaeababababababababababadadadadaeaeababababababababababadadadadaeaeababababababababababababababababababababababababababadadadadaeaeababababababababababadadadadaeaeababadadadadaeaeababababababababababababababababababadadadadaeaeababababababababababadadadadaeaeababadadadadaeaeababababababababababadadadadaeaeabababababababababababababababacafafafaf",
"afafafafacabababababababababababababababababadadadadaeaeababababababababababadadadadaeaeababadadadadaeaeaeaeaeaeaeaeaeaeaeaeadadadadaeaeababababababababababadadadadaeaeababababababababababadadadadaeaeababababababababababadadadadaeaeababababababababababababababababababababababababababadadadadaeaeababababababababababadadadadaeaeababadadadadaeaeababababababababababababababababababadadadadaeaeababababababababababadadadadaeaeababadadadadaeaeababababababababababadadadadaeaeabababababababababababababababacafafafaf",
"afafafafacabababababababababababababababababadadadadaeaeababababababababababadadadadaeaeababadadadadaeaeababababababababababadadadadaeaeababababababababababadadadadaeaeababababababababababadadadadaeaeababababababababababadadadadaeaeababababababababababababababababababababababababababadadadadaeaeababababababababababadadadadaeaeababadadadadaeaeababababababababababababababababababadadadadaeaeababababababababababadadadadaeaeababadadadadaeaeababababababababababadadadadaeaeabababababababababababababababacafafafaf",
"afafafafacabababababababababababababababababadadadadaeaeababababababababababadadadadaeaeababadadadadaeaeababababababababababadadadadaeaeababababababababababadadadadaeaeababababababababababadadadadaeaeababababababababababadadadadaeaeababababababababababababababababababababababababababadadadadaeaeababababababababababadadadadaeaeababadadadadaeaeababababababababababababababababababadadadadaeaeababababababababababadadadadaeaeababadadadadaeaeababababababababababadadadadaeaeabababababababababababababababacafafafaf",
"afafafafacabababababababababababababababababadadadadaeaeababababababababababadadadadaeaeababadadadadaeaeababababababababababadadadadaeaeababababababadadadadadadadadadadadadababababababababadadadadaeaeababababababababababadadadadaeaeababababababababababababababababababababababababababadadadadaeaeababababababababababadadadadaeaeababadadadadadadadadadadadadadadadadadadadadababababadadadadaeaeababababababababababadadadadaeaeababababaeaeadadadadadadadadadadadadababaeaeaeaeabababababababababababababababacafafafaf",
"afafafafacabababababababababababababababababadadadadaeaeababababababababababadadadadaeaeababadadadadaeaeababababababababababadadadadaeaeababababababadadadadadadadadadadadadababababababababadadadadaeaeababababababababababadadadadaeaeababababababababababababababababababababababababababadadadadaeaeababababababababababadadadadaeaeababadadadadadadadadadadadadadadadadadadadadababababadadadadaeaeababababababababababadadadadaeaeababababaeaeadadadadadadadadadadadadababaeaeaeaeabababababababababababababababacafafafaf",
"afafafafacabababababababababababababababababadadadadaeaeababababababababababadadadadaeaeababadadadadaeaeababababababababababadadadadaeaeababababababadadadadadadadadadadadadaeaeababababababadadadadaeaeababababababababababadadadadaeaeababababababababababababababababababababababababababadadadadaeaeababababababababababadadadadaeaeababadadadadadadadadadadadadadadadadadadadadaeaeababadadadadaeaeababababababababababadadadadaeaeababababababadadadadadadadadadadadadaeaeabababababababababababababababababababacafafafaf",
"afafafafacabababababababababababababababababadadadadaeaeababababababababababadadadadaeaeababadadadadaeaeababababababababababadadadadaeaeababababababadadadadadadadadadadadadaeaeababababababadadadadaeaeababababababababababadadadadaeaeababababababababababababababababababababababababababadadadadaeaeababababababababababadadadadaeaeababadadadadadadadadadadadadadadadadadadadadaeaeababadadadadaeaeababababababababababadadadadaeaeababababababadadadadadadadadadadadadaeaeabababababababababababababababababababacafafafaf",
"afafafafacabababababababababababababababababababaeaeaeaeababababababababababababaeaeaeaeababababaeaeaeaeababababababababababababaeaeaeaeababababababababaeaeaeaeaeaeaeaeaeaeaeaeababababababababaeaeaeaeababababababababababababaeaeaeaeababababababababababababababababababababababababababababaeaeaeaeababababababababababababaeaeaeaeababababaeaeaeaeaeaeaeaeaeaeaeaeaeaeaeaeaeaeaeaeababababaeaeaeaeababababababababababababaeaeaeaeababababababababaeaeaeaeaeaeaeaeaeaeaeaeabababababababababababababababababababacafafafaf",
"afafafafacabababababababababababababababababababaeaeaeaeababababababababababababaeaeaeaeababababaeaeaeaeababababababababababababaeaeaeaeababababababababaeaeaeaeaeaeaeaeaeaeaeaeababababababababaeaeaeaeababababababababababababaeaeaeaeababababababababababababababababababababababababababababaeaeaeaeababababababababababababaeaeaeaeababababaeaeaeaeaeaeaeaeaeaeaeaeaeaeaeaeaeaeaeaeababababaeaeaeaeababababababababababababaeaeaeaeababababababababaeaeaeaeaeaeaeaeaeaeaeaeabababababababababababababababababababacafafafaf",
"afafafafacababababababababababababababababababababababababababababababababababababababababababababababababababababababababababababababababababababababababababababababababababababababababababababababababababababababababababababababababababababababababababababababababababababababababababababababababababababababababababababababababababababababababababababababababababababababababababababababababababababababababababababababababababababababababababababababababababababababababababababababababababababababacafafafaf",
"afafafafacababababababababababababababababababababababababababababababababababababababababababababababababababababababababababababababababababababababababababababababababababababababababababababababababababababababababababababababababababababababababababababababababababababababababababababababababababababababababababababababababababababababababababababababababababababababababababababababababababababababababababababababababababababababababababababababababababababababababababababababababababababababacafafafaf",
"afafafafacababababababababababababababababababababababababababababababababababababababababababababababababababababababababababababababababababababababababababababababababababababababababababababababababababababababababababababababababababababababababababababababababababababababababababababababababababababababababababababababababababababababababababababababababababababababababababababababababababababababababababababababababababababababababababababababababababababababababababababababababababababababacafafafaf",
"afafafafacababababababababababababababababababababababababababababababababababababababababababababababababababababababababababababababababababababababababababababababababababababababababababababababababababababababababababababababababababababababababababababababababababababababababababababababababababababababababababababababababababababababababababababababababababababababababababababababababababababababababababababababababababababababababababababababababababababababababababababababababababababababacafafafaf",
"afafafafacababababababababababababababababababababababababababababababababababababababababababababababababababababababababababababababababababababababababababababababababababababababababababababababababababababababababababababababababababababababababababababababababababababababababababababababababababababababababababababababababababababababababababababababababababababababababababababababababababababababababababababababababababababababababababababababababababababababababababababababababababababababacafafafaf",
"afafafafafacababababababababababababababababababababababababababababababababababababababababababababababababababababababababababababababababababababababababababababababababababababababababababababababababababababababababababababababababababababababababababababababababababababababababababababababababababababababababababababababababababababababababababababababababababababababababababababababababababababababababababababababababababababababababababababababababababababababababababababababababababababacafafafafaf",
"afafafafafacababababababababababababababababababababababababababababababababababababababababababababababababababababababababababababababababababababababababababababababababababababababababababababababababababababababababababababababababababababababababababababababababababababababababababababababababababababababababababababababababababababababababababababababababababababababababababababababababababababababababababababababababababababababababababababababababababababababababababababababababababababacafafafafaf",
"afafafafafacacacacacacacacacacacacacacacacacacacacacacacacacacacacacacacacacacacacacacacacacacacacacacacacacacacacacacacacacacacacacacacacacacacacacacacacacacacacacacacacacacacacacacacacacacacacacacacacacacacacacacacacacacacacacacacacacacacacacacacacacacacacacacacacacacacacacacacacacacacacacacacacacacacacacacacacacacacacacacacacacacacacacacacacacacacacacacacacacacacacacacacacacacacacacacacacacacacacacacacacacacacacacacacacacacacacacacacacacacacacacacacacacacacacacacacacacacacacacacacacacacacacacacafafafafaf",
"afafafafafafacacacacacacacacacacacacacacacacacacacacacacacacacacacacacacacacacacacacacacacacacacacacacacacacacacacacacacacacacacacacacacacacacacacacacacacacacacacacacacacacacacacacacacacacacacacacacacacacacacacacacacacacacacacacacacacacacacacacacacacacacacacacacacacacacacacacacacacacacacacacacacacacacacacacacacacacacacacacacacacacacacacacacacacacacacacacacacacacacacacacacacacacacacacacacacacacacacacacacacacacacacacacacacacacacacacacacacacacacacacacacacacacacacacacacacacacacacacacacacacacacacacacafafafafafaf",
"afafafafafafacacacacacacacacacacacacacacacacacacacacacacacacacacacacacacacacacacacacacacacacacacacacacacacacacacacacacacacacacacacacacacacacacacacacacacacacacacacacacacacacacacacacacacacacacacacacacacacacacacacacacacacacacacacacacacacacacacacacacacacacacacacacacacacacacacacacacacacacacacacacacacacacacacacacacacacacacacacacacacacacacacacacacacacacacacacacacacacacacacacacacacacacacacacacacacacacacacacacacacacacacacacacacacacacacacacacacacacacacacacacacacacacacacacacacacacacacacacacacacacacacacacacafafafafafaf",
"afafafafafafafacacacacacacacacacacacacacacacacacacacacacacacacacacacacacacacacacacacacacacacacacacacacacacacacacacacacacacacacacacacacacacacacacacacacacacacacacacacacacacacacacacacacacacacacacacacacacacacacacacacacacacacacacacacacacacacacacacacacacacacacacacacacacacacacacacacacacacacacacacacacacacacacacacacacacacacacacacacacacacacacacacacacacacacacacacacacacacacacacacacacacacacacacacacacacacacacacacacacacacacacacacacacacacacacacacacacacacacacacacacacacacacacacacacacacacacacacacacacacacacacacacafafafafafafaf",
"afafafafafafafafafacacacacacacacacacacacacacacacacacacacacacacacacacacacacacacacacacacacacacacacacacacacacacacacacacacacacacacacacacacacacacacacacacacacacacacacacacacacacacacacacacacacacacacacacacacacacacacacacacacacacacacacacacacacacacacacacacacacacacacacacacacacacacacacacacacacacacacacacacacacacacacacacacacacacacacacacacacacacacacacacacacacacacacacacacacacacacacacacacacacacacacacacacacacacacacacacacacacacacacacacacacacacacacacacacacacacacacacacacacacacacacacacacacacacacacacacacacacacacacafafafafafafafafaf",
"afafafafafafafafafafafafacacacacacacacacacacacacacacacacacacacacacacacacacacacacacacacacacacacacacacacacacacacacacacacacacacacacacacacacacacacacacacacacacacacacacacacacacacacacacacacacacacacacacacacacacacacacacacacacacacacacacacacacacacacacacacacacacacacacacacacacacacacacacacacacacacacacacacacacacacacacacacacacacacacacacacacacacacacacacacacacacacacacacacacacacacacacacacacacacacacacacacacacacacacacacacacacacacacacacacacacacacacacacacacacacacacacacacacacacacacacacacacacacacacacacacacacafafafafafafafafafafafaf",
"afafafafafafafafafafafafafafafafafafafafafafafafafafafafafafafafafafafafafafafafafafafafafafafafafafafafafafafafafafafafafafafafafafafafafafafafafafafafafafafafafafafafafafafafafafafafafafafafafafafafafafafafafafafafafafafafafafafafafafafafafafafafafafafafafafafafafafafafafafafafafafafafafafafafafafafafafafafafafafafafafafafafafafafafafafafafafafafafafafafafafafafafafafafafafafafafafafafafafafafafafafafafafafafafafafafafafafafafafafafafafafafafafafafafafafafafafafafafafafafafafafafafafafafafafafafafafafafaf",
"afafafafafafafafafafafafafafafafafafafafafafafafafafafafafafafafafafafafafafafafafafafafafafafafafafafafafafafafafafafafafafafafafafafafafafafafafafafafafafafafafafafafafafafafafafafafafafafafafafafafafafafafafafafafafafafafafafafafafafafafafafafafafafafafafafafafafafafafafafafafafafafafafafafafafafafafafafafafafafafafafafafafafafafafafafafafafafafafafafafafafafafafafafafafafafafafafafafafafafafafafafafafafafafafafafafafafafafafafafafafafafafafafafafafafafafafafafafafafafafafafafafafafafafafafafafafafafafaf",
"afafafafafafafafafafafafafafafafafafafafafafafafafafafafafafafafafafafafafafafafafafafafafafafafafafafafafafafafafafafafafafafafafafafafafafafafafafafafafafafafafafafafafafafafafafafafafafafafafafafafafafafafafafafafafafafafafafafafafafafafafafafafafafafafafafafafafafafafafafafafafafafafafafafafafafafafafafafafafafafafafafafafafafafafafafafafafafafafafafafafafafafafafafafafafafafafafafafafafafafafafafafafafafafafafafafafafafafafafafafafafafafafafafafafafafafafafafafafafafafafafafafafafafafafafafafafafafafaf",
"afafafafafafafafafafafafafafafafafafafafafafafafafafafafafafafafafafafafafafafafafafafafafafafafafafafafafafafafafafafafafafafafafafafafafafafafafafafafafafafafafafafafafafafafafafafafafafafafafafafafafafafafafafafafafafafafafafafafafafafafafafafafafafafafafafafafafafafafafafafafafafafafafafafafafafafafafafafafafafafafafafafafafafafafafafafafafafafafafafafafafafafafafafafafafafafafafafafafafafafafafafafafafafafafafafafafafafafafafafafafafafafafafafafafafafafafafafafafafafafafafafafafafafafafafafafafafafafaf"
};
