/* XPM */
static char *car2_p2_s2[] = {
"64 64 177 2",
"aa	c #ff00ff",
"ab	c #1e1d1d",
"ac	c #000100",
"ad	c #191614",
"ae	c #431416",
"af	c #6a2224",
"ag	c #742527",
"ah	c #320b0f",
"ai	c #4d1719",
"aj	c #54231e",
"ak	c #7b322c",
"al	c #591a1d",
"am	c #65322d",
"an	c #412021",
"ao	c #431a1e",
"ap	c #4b2124",
"aq	c #7c2028",
"ar	c #462729",
"as	c #280a0c",
"at	c #662128",
"au	c #873c41",
"av	c #55121a",
"aw	c #8d444a",
"ax	c #551b19",
"ay	c #6e272e",
"az	c #631c1d",
"aA	c #5e2627",
"aB	c #3c0e0f",
"aC	c #662a28",
"aD	c #4d1d1e",
"aE	c #cf3e20",
"aF	c #bc2f33",
"aG	c #b53a16",
"aH	c #b03117",
"aI	c #c93522",
"aJ	c #792d06",
"aK	c #11100e",
"aL	c #7d4609",
"aM	c #742408",
"aN	c #270f0e",
"aO	c #2e2c2e",
"aP	c #262628",
"aQ	c #893a22",
"aR	c #935c23",
"aS	c #793825",
"aT	c #87251f",
"aU	c #3a383a",
"aV	c #323134",
"aW	c #95452d",
"aX	c #9f682e",
"aY	c #854331",
"aZ	c #303136",
"a0	c #353336",
"a1	c #a23a23",
"a2	c #491d19",
"a3	c #c6562a",
"a4	c #212225",
"a5	c #483133",
"a6	c #351210",
"a7	c #bd452c",
"a8	c #702f13",
"a9	c #493031",
"a!	c #442928",
"a#	c #541a0f",
"a$	c #782526",
"a%	c #9b4f2c",
"a&	c #822829",
"a(	c #794011",
"a)	c #371113",
"a*	c #502728",
"a+	c #732b0b",
"a,	c #763c35",
"a-	c #262524",
"a.	c #884125",
"a/	c #d35723",
"a:	c #d36227",
"a;	c #d47231",
"a<	c #63220b",
"a=	c #8e562b",
"a>	c #8e341f",
"a?	c #513838",
"a@	c #691e1e",
"a[	c #9f2721",
"a]	c #b93325",
"a^	c #b13824",
"a_	c #312b27",
"a{	c #96222b",
"a|	c #aa2b29",
"a}	c #65302e",
"a~	c #2b1314",
"ba	c #936727",
"bb	c #7d510d",
"bc	c #d48c5b",
"bd	c #d48c65",
"be	c #c83c25",
"bf	c #552d2b",
"bg	c #93803d",
"bh	c #7e6a23",
"bi	c #411111",
"bj	c #9f361c",
"bk	c #d37b3d",
"bl	c #7e6117",
"bm	c #ce512b",
"bn	c #a86321",
"bo	c #a9742b",
"bp	c #a67330",
"bq	c #a8591d",
"br	c #aa8e5f",
"bs	c #986422",
"bt	c #7e7343",
"bu	c #7f7b4b",
"bv	c #b05b1d",
"bw	c #949165",
"bx	c #94895d",
"by	c #d26634",
"bz	c #7c551a",
"bA	c #d16e47",
"bB	c #94915b",
"bC	c #731b20",
"bD	c #000000",
"bE	c #602524",
"bF	c #56272b",
"bG	c #9f2e33",
"bH	c #8a232a",
"bI	c #85452d",
"bJ	c #591417",
"bK	c #511516",
"bL	c #4a282a",
"bM	c #6e2a31",
"bN	c #7c3433",
"bO	c #831f21",
"bP	c #742e37",
"bQ	c #6c2324",
"bR	c #7d1e20",
"bS	c #671d20",
"bT	c #691a1d",
"bU	c #831f26",
"bV	c #8b1e26",
"bW	c #952126",
"bX	c #1c1d21",
"bY	c #3a3a3e",
"bZ	c #424246",
"b0	c #90242a",
"b1	c #88252a",
"b2	c #4c2d32",
"b3	c #512f32",
"b4	c #2d2c30",
"b5	c #a62a30",
"b6	c #111314",
"b7	c #302f31",
"b8	c #9e2b2f",
"b9	c #a62630",
"b!	c #ae2531",
"b#	c #743b3d",
"b$	c #593034",
"b%	c #51282c",
"b&	c #6c3336",
"b(	c #4e2f31",
"b)	c #7c363e",
"b*	c #5a2a2c",
"b+	c #662c2d",
"b,	c #552324",
"b-	c #39191b",
"b.	c #4f191a",
"b/	c #5e2021",
"b:	c #852b29",
"b;	c #983935",
"b<	c #622727",
"b=	c #5d1c1d",
"b>	c #95332f",
"b?	c #8e2d2d",
"b@	c #9c3030",
"b[	c #a16c6b",
"b]	c #a67875",
"b^	c #9b463d",
"b_	c #913937",
"b{	c #732f2d",
"aaaaaaaaaaaaaaaaaaaaaaaaaaaaaaaaaaaaaaaaaaaaaaaaaaaaaaaaaaaaaaaaaaaaaaaaaaaaaaaaaaaaaaaaaaaaaaaaaaaaaaaaaaaaaaaaaaaaaaaaaaaaaaaa",
"aaaaaaaaaaaaaaaaaaaaaaaaaaaaaaaaaaaaaaaaaaaaaaaaaaaaaaaaaaaaaaaaaaaaaaaaaaaaaaaaaaaaaaaaaaaaaaaaaaaaaaaaaaaaaaaaaaaaaaaaaaaaaaaa",
"aaaaaaaaaaaaaaaaaaaaaaaaaaaaaaaaaaaaaaaaaaaaaaaaaaaaabacacacacacacacacacacabaaaaaaaaaaaaaaaaaaaaaaaaaaaaaaaaaaaaaaaaaaaaaaaaaaaa",
"aaaaaaaaaaaaaaaaaaaaaaaaaaaaaaaaaaaaaaaaaaadababacacaeafafafagagagagagagagahacacabababaaaaaaaaaaaaaaaaaaaaaaaaaaaaaaaaaaaaaaaaaa",
"aaaaaaaaaaaaaaaaaaaaaaaaaaaaaaaaaaaaaaaaadabaiajakakalalalalalalalalalalalalakamajajababaaaaaaaaaaaaaaaaaaaaaaaaaaaaaaaaaaaaaaaa",
"aaaaaaaaaaaaaaaaaaaaaaaaaaaaaaaaaaaaaaadanaiaoapahalalaqaqaqaqaqaqaqaqaqaqalalahaoapaiaradaaaaaaaaaaaaaaaaaaaaaaaaaaaaaaaaaaaaaa",
"aaaaaaaaaaaaaaaaaaaaaaaaaaaaaaaaaaaaadanasaoatauavalaqaqaqaqaqaqaqaqaqaqaqaqalavawataoahanadaaaaaaaaaaaaaaaaaaaaaaaaaaaaaaaaaaaa",
"aaaaaaaaaaaaaaaaaaaaaaaaaaaaaaaaaaaaadahaoatauavaqalaqaqaqaqaqaqaqaqaqaqaqaqalaqavawatapaoadaaaaaaaaaaaaaaaaaaaaaaaaaaaaaaaaaaaa",
"aaaaaaaaaaaaaaaaaaaaaaaaaaaaaaaaaaadapaxaoauavaqaqalaqaqaqaqaqaqaqaqaqaqaqaqalaqaqavawaoaiapadaaaaaaaaaaaaaaaaaaaaaaaaaaaaaaaaaa",
"aaaaaaaaaaaaaaaaaaaaaaaaaaaaaaaaaaadahayahavaqaqalaqaqaqaqaqaqaqaqaqaqaqaqaqaqazaqaqavahaAahadaaaaaaaaaaaaaaaaaaaaaaaaaaaaaaaaaa",
"aaaaaaaaaaaaaaaaaaaaaaaaaaaaaaaaaaadaBaCalaqaqaqalaqaqaqaqaqaqaqaqaqaqaqaqaqaqaDaqatatahaAahadaaaaaaaaaaaaaaaaaaaaaaaaaaaaaaaaaa",
"aaaaaaaaaaaaaaaaaaaaaaaaaaaaaaaaaaacazagalaqaqaqalaqaqaqaqaEaqaqaqaqaqaqaqaqaqazataqaqaoaAahacaaaaaaaaaaaaaaaaaaaaaaaaaaaaaaaaaa",
"aaaaaaaaaaaaaaaaaaaaaaaaaaaaaaaaaaacazagalaqaqaqalaqaqaqaEaEaqaqaqaqaqaqaqaqaqazataqaqalagaoacaaaaaaaaaaaaaaaaaaaaaaaaaaaaaaaaaa",
"aaaaaaaaaaaaaaaaaaaaaaaaaaaaaaaaaaacazagalaqaqalalaqaqaqaEaEaEaqaqaqaFaqaqaqaqazaDaqaqalagaoacaaaaaaaaaaaaaaaaaaaaaaaaaaaaaaaaaa",
"aaaaaaaaaaaaaaaaaaaaaaaaaaaaaaaaaaacazagalaqaqalaqaqaqaqaGaEaEavavavavaHaqaqaqaqazataqalagaoacaaaaaaaaaaaaaaaaaaaaaaaaaaaaaaaaaa",
"aaaaaaaaaaaaaaaaaaaaaaaaaaaaaaaaaaacalagalaqaqalaqavavavavaEaEatatatavaIaIaqavaqazaqaqalagaoacaaaaaaaaaaaaaaaaaaaaaaaaaaaaaaaaaa",
"aaaaaaaaaaaaaaaaaaaaaaaaaaaaaaaaaaacalagalaqaqalavavadadadaJaKadadaKaKaLaLaMayavazaqaqalagaoacaaaaaaaaaaaaaaaaaaaaaaaaaaaaaaaaaa",
"aaaaaaaaaaaaaaaaaaaaaaaaaaaaaaaaaaacalagalaqaNacaKadaOaOaOaOaPaOaPaPaQaRaRaSadadacaNaqaTagaoacaaaaaaaaaaaaaaaaaaaaaaaaaaaaaaaaaa",
"aaaaaaaaaaaaaaaaaaaaaaaaaaaaaaaaaaadahagalaNacaPaPaQaUaUaUaVaUaUaVaVaWaXaXaYaZaZa0acaNa1agaoacaaaaaaaaaaaaaaaaaaaaaaaaaaaaaaaaaa",
"aaaaaaaaaaaaaaaaaaaaaaaaaaaaaaaaaaada2a3agaNa4aVaWaWaUaUaUaUaVaUaVaWaWaXaXaYaUaUaUa4aNa1agacacaaaaaaaaaaaaaaaaaaaaaaaaaaaaaaaaaa",
"aaaaaaaaaaaaaaaaaaaaaaaaaaaaaaaaadada2aNagaNa4aWaWaWaWaVaUaVaVaVaWaWaXaXaXaYaYaUa4a5a6a7a8acacadaaaaaaaaaaaaaaaaaaaaaaaaaaaaaaaa",
"aaaaaaaaaaaaaaaaaaaaaaaaaaaaaaaba9a9a!a#aNa$aKaWaWaXaWaWaVaVaWaWaWaXaXaXaXa%aYaUa4aNa&a6a(a)a*a*adaaaaaaaaaaaaaaaaaaaaaaaaaaaaaa",
"aaaaaaaaaaaaaaaaaaaaaaaaaaaaaaabababada6a+aeaKa,aXaXaLaMaMaKaMaMaLaLaLaLaLaJaYa4a4aNa$a6a(adadadadaaaaaaaaaaaaaaaaaaaaaaaaaaaaaa",
"aaaaaaaaaaaaaaaaaaaaaaaaaaaaaaaaaaa-a!a+a.aNafa#aMaLa/a:aIaIaIa/a/a/a/a;a/aEa<aca<aia6a=a(a>adaaaaaaaaaaaaaaaaaaaaaaaaaaaaaaaaaa",
"aaaaaaaaaaaaaaaaaaaaaaaaaaaaaaaaaaa-a?aMa.a#a@aga[aIa/a/aIaIaIa/a/a/a;a/a/a/a]aia^aiaMaRa(a>a_aaaaaaaaaaaaaaaaaaaaaaaaaaaaaaaaaa",
"aaaaaaaaaaaaaaaaaaaaaaaaaaaaaaaaaaa-a?a-aQa.aNa{a|aIa/a:a:aIa/a/a/a;a;a/a/a/a]a]a]a<aRaRaMa}a_aaaaaaaaaaaaaaaaaaaaaaaaaaaaaaaaaa",
"aaaaaaaaaaaaaaaaaaaaaaaaaaaaaaaaaaada?a-a.a.a#a|a|aIa/a:a:aIa/a/a;a;a/a/a/a/a]aIaIaLaRaQaMa~acaaaaaaaaaaaaaaaaaaaaaaaaaaaaaaaaaa",
"aaaaaaaaaaaaaaaaaaaaaaaaaaaaaaaaaaa-a?a-aQbabba|aIaIa:a:a:a/a/a/bca;a/a/a/a/a/aIa/aLaRaQa2a~a_aaaaaaaaaaaaaaaaaaaaaaaaaaaaaaaaaa",
"aaaaaaaaaaaaaaaaaaaaaaaaaaaaaaaaaaa#a?a<aSbabbaIaIaEa:a:a:a/a/a;bda;a;a/a/a/bea/a/aLaQaQa2bfaMaaaaaaaaaaaaaaaaaaaaaaaaaaaaaaaaaa",
"aaaaaaaaaaaaaaaaaaaaaaaaaaaaaaaaaaa#a?a<aSbgbhaIaEa:a:a:a;a/a;a;bda;a;a/a/a/bea/a{bibaaQaMbjaMaaaaaaaaaaaaaaaaaaaaaaaaaaaaaaaaaa",
"aaaaaaaaaaaaaaaaaaaaaaaaaaaaaaaaaaa<a>a<aRbgbhbkaEa:aEa:a;a;a;bdbdbda;a/a/a;a/a]a{a<baaQbbbjbbaaaaaaaaaaaaaaaaaaaaaaaaaaaaaaaaaa",
"aaaaaaaaaaaaaaaaaaaaaaaaaaaaaaaaaabla>aLaRbhbhbkaEa:bka:a:bdbdbdbda;a/a/a;a;bma]bmacaLaQbbbnbbaaaaaaaaaaaaaaaaaaaaaaaaaaaaaaaaaa",
"aaaaaaaaaaaaaaaaaaaaaaaaaaaaaaaaaablboaLaLbpbpava:a:bda:a:bdbdbda;a;a/a/a;a;bmbmbma~bqbbbbbnaMaaaaaaaaaaaaaaaaaaaaaaaaaaaaaaaaaa",
"aaaaaaaaaaaaaaaaaaaaaaaaaaaaaaaaaablbrblbpa(bhava:a:bda:a:bdbdbda;a;a/a;a;a;aEa;bmacbbbsbtbnaMaaaaaaaaaaaaaaaaaaaaaaaaaaaaaaaaaa",
"aaaaaaaaaaaaaaaaaaaaaaaaaaaaaaaaaablbrbubha=bhava:a:bdbda:bdbdbdbda;a;a;a;a;a;a;bmacbabtbtbvaMaaaaaaaaaaaaaaaaaaaaaaaaaaaaaaaaaa",
"aaaaaaaaaaaaaaaaaaaaaaaaaaaaaaaaaaaLbobubwbgacava:bdbdbdbkbdbdbdbdbda;a;a;a;bdbkavacbxbxbtbva+aaaaaaaaaaaaaaaaaaaaaaaaaaaaaaaaaa",
"aaaaaaaaaaaaaaaaaaaaaaaaaaaaaaaaaaaLbnblbwbwacava:bdbdbdbdbdbdbdbdbda;a;bdbdbdbkbybzbxbxbhbva#aaaaaaaaaaaaaaaaaaaaaaaaaaaaaaaaaa",
"aaaaaaaaaaaaaaaaaaaaaaaaaaaaaaaaaaa<a>bbbabwacava|a:bdbdbdbdbdbdbdbdbdbdbdbdbAbeavbtbBbgaLbCbDaaaaaaaaaaaaaaaaaaaaaaaaaaaaaaaaaa",
"aaaaaaaaaaaaaaaaaaaaaaaaaaaaaaaaaaacbEa#a.bFaca{a{bGbybdbdbdbdbdbdbdbdbdbdbda|bHbHacbBbIbJbCacaaaaaaaaaaaaaaaaaaaaaaaaaaaaaaaaaa",
"aaaaaaaaaaaaaaaaaaaaaaaaaaaaaaaaaaacbEbKbFbLaca{a{avavavavavavavavavavavavavavbHbHacbLbMbJbCacaaaaaaaaaaaaaaaaaaaaaaaaaaaaaaaaaa",
"aaaaaaaaaaaaaaaaaaaaaaaaaaaaaaaaaaacbEbKbNbibObOavavaybPbPbPbPbPbPbPbPayayayavbHbQa)a6bMbJbCacaaaaaaaaaaaaaaaaaaaaaaaaaaaaaaaaaa",
"aaaaaaaaaaaaaaaaaaaaaaaaaaaaaaaaaaacbEbKbJbRbRbRacaybPbPbPbPbPbPbPbPbPbPauayayacbSbSbQbJbJbCacaaaaaaaaaaaaaaaaaaaaaaaaaaaaaaaaaa",
"aaaaaaaaaaaaaaaaaaaaaaaaaaaaaaaaaaacbEbKbJbRbRbTacadababababababababababa-a-adacbSbSbQbJbJbCacaaaaaaaaaaaaaaaaaaaaaaaaaaaaaaaaaa",
"aaaaaaaaaaaaaaaaaaaaaaaaaaaaaaaaaaaNbSbUbVbWbRbibXa0bYbYbYbYbYbYbYbYbYbYbYbZa0bXa6bSbVb0bJbiacaaaaaaaaaaaaaaaaaaaaaaaaaaaaaaaaaa",
"aaaaaaaaaaaaaaaaaaaaaaaaaaaaaaaaaaaNbSbVbVbWbibibXa0a0bYbYbYbYbYbYbYbYbYbYbYa0bXa6a6bVbVb0b1a6aaaaaaaaaaaaaaaaaaaaaaaaaaaaaaaaaa",
"aaaaaaaaaaaaaaaaaaaaaaaaaaaaaaaaaaaNbUbVbVbVbibFbXa0a0a0bYbYbYbYbYbYbYbYbYbYa0bXb2a6bVbVbVbUa6aaaaaaaaaaaaaaaaaaaaaaaaaaaaaaaaaa",
"aaaaaaaaaaaaaaaaaaaaaaaaaaaaaaaaaaaNbUbCbVbVbJbFb3bXa0a0bYbYbYbYbYbYbYbYb4b4bXb3b2bJbVbVbVb1a6aaaaaaaaaaaaaaaaaaaaaaaaaaaaaaaaaa",
"aaaaaaaaaaaaaaaaaaaaaaaaaaaaaaaaaaaNalbCb5bVbVbia6bKb6b6b7b7b7b7b7b7b7b7b6b6aNaNbKbVbVb5b0bQa6aaaaaaaaaaaaaaaaaaaaaaaaaaaaaaaaaa",
"aaaaaaaaaaaaaaaaaaaaaaaaaaaaaaaaaaaNalalb8bVb5a{bHb5bJaNacacacacacacacacbibib8b8b9b9bVb!b0bSa6aaaaaaaaaaaaaaaaaaaaaaaaaaaaaaaaaa",
"aaaaaaaaaaaaaaaaaaaaaaaaaaaaaaaaaaaNalahaibCb!b!bHb!b!b!b!b!b!b!b!b!b!b!b!b!b9b9b9b9bUava)bSa6aaaaaaaaaaaaaaaaaaaaaaaaaaaaaaaaaa",
"aaaaaaaaaaaaaaaaaaaaaaaaaaaaaaaaaaaNalahb#ahb!b!b!b!b!b!b!b!b!b!b!b!b!b!b!b!b9b9b9b9ahbPa)bSa6aaaaaaaaaaaaaaaaaaaaaaaaaaaaaaaaaa",
"aaaaaaaaaaaaaaaaaaaaaaaaaaaaaaaaaaaNalahb#b$avavavavb!b!b!b!b!b!b!b!b!b!b!b!avavavavb%b&a)bSa6aaaaaaaaaaaaaaaaaaaaaaaaaaaaaaaaaa",
"aaaaaaaaaaaaaaaaaaaaaaaaaaaaaaaaaaaNalahb#b$b(b)b)b)avavavavavavavavavavavavb)bPbPb*apb&a)bSa6aaaaaaaaaaaaaaaaaaaaaaaaaaaaaaaaaa",
"aaaaaaaaaaaaaaaaaaaaaaaaaaaaaaaaaaacalahapb+b(b)b)b)b)b)b)b)b)b)b)b)b)b)b)b)bPbPbPb*b+apahalacaaaaaaaaaaaaaaaaaaaaaaaaaaaaaaaaaa",
"aaaaaaaaaaaaaaaaaaaaaaaaaaaaaaaaaaacalahahaianayayayb)b)b)b)b)b)b)b)b)b)b)b)ayb,b,b-aiahahalacaaaaaaaaaaaaaaaaaaaaaaaaaaaaaaaaaa",
"aaaaaaaaaaaaaaaaaaaaaaaaaaaaaaaaaaaaacahb.b.asasasasananananananananananananasasaBasb.alahaNaaaaaaaaaaaaaaaaaaaaaaaaaaaaaaaaaaaa",
"aaaaaaaaaaaaaaaaaaaaaaaaaaaaaaaaaaaaacb/b:b;b<b<b.b.asasasasasasasasasasasasb.b=b<bTb>akalacaaaaaaaaaaaaaaaaaaaaaaaaaaaaaaaaaaaa",
"aaaaaaaaaaaaaaaaaaaaaaaaaaaaaaaaaaaaacb/b/b:b:b.b?b@b=b.b=b[b]b]b]b]b[b.b.b=b^b_b.akakalalacaaaaaaaaaaaaaaaaaaaaaaaaaaaaaaaaaaaa",
"aaaaaaaaaaaaaaaaaaaaaaaaaaaaaaaaaaaabDa)b/b.b=b=b=b=b=b=b=b{b{b{b{b{b{b.b.b.b=b=b=b=b.b.asbDaaaaaaaaaaaaaaaaaaaaaaaaaaaaaaaaaaaa",
"aaaaaaaaaaaaaaaaaaaaaaaaaaaaaaaaaaaaaabDasaeafafafafafafafafafafafafafafafafafafafafaeasbDaaaaaaaaaaaaaaaaaaaaaaaaaaaaaaaaaaaaaa",
"aaaaaaaaaaaaaaaaaaaaaaaaaaaaaaaaaaaaaabDbDasasa)a)a)a)a)a)a)a)a)a)a)a)a)a)a)a)ahahahahbDbDaaaaaaaaaaaaaaaaaaaaaaaaaaaaaaaaaaaaaa",
"aaaaaaaaaaaaaaaaaaaaaaaaaaaaaaaaaaaaaaaaaabDbDbDbDbDbDbDbDbDbDbDbDbDbDbDacacbDacbDbDbDaaaaaaaaaaaaaaaaaaaaaaaaaaaaaaaaaaaaaaaaaa",
"aaaaaaaaaaaaaaaaaaaaaaaaaaaaaaaaaaaaaaaaaaaaaaaaaaaaaaaaaaaaaaaaaaaaaaaaaaaaaaaaaaaaaaaaaaaaaaaaaaaaaaaaaaaaaaaaaaaaaaaaaaaaaaaa",
"aaaaaaaaaaaaaaaaaaaaaaaaaaaaaaaaaaaaaaaaaaaaaaaaaaaaaaaaaaaaaaaaaaaaaaaaaaaaaaaaaaaaaaaaaaaaaaaaaaaaaaaaaaaaaaaaaaaaaaaaaaaaaaaa"
};
