/* XPM */
static char *car2_p2_s3[] = {
"64 64 39 2",
"aa	c #ff00ff",
"ab	c #000100",
"ac	c #221f1d",
"ad	c #322c29",
"ae	c #3d3a3a",
"af	c #4e1e1c",
"ag	c #63564e",
"ah	c #706560",
"ai	c #f35a0d",
"aj	c #ce3b32",
"ak	c #e84710",
"al	c #fb8c12",
"am	c #c74317",
"an	c #a9341f",
"ao	c #e05e27",
"ap	c #933933",
"aq	c #f28022",
"ar	c #6a2421",
"as	c #e65517",
"at	c #4d4a49",
"au	c #fba11b",
"av	c #fdc22e",
"aw	c #cba48d",
"ax	c #5b626c",
"ay	c #822122",
"az	c #743b35",
"aA	c #dc793f",
"aB	c #fef8b3",
"aC	c #fef582",
"aD	c #fef697",
"aE	c #54342f",
"aF	c #fcd347",
"aG	c #fde687",
"aH	c #f9aa34",
"aI	c #f7b95a",
"aJ	c #b2272e",
"aK	c #a2292d",
"aL	c #8e8581",
"aM	c #964a41",
"aaaaaaaaaaaaaaaaaaababacacacacadadadadadaeaeaeaeaeaeaeaeaeaeaeaeaeaeaeaeaeaeaeaeaeaeaeaeaeaeadadacacacacacadadadadadadacacababab",
"aaaaaaaaaaaaaaaaaaabacacacacacadadadadadadaeaeaeaeaeaeaeaeaeaeaeaeaeaeaeaeaeaeaeaeaeaeaeaeadadadacacacacadadadadadadadadadacacab",
"aaaaaaaaaaaaaaaaaaabacacacacacadadadadadadaeaeaeaeaeaeababababababababababaeaeaeaeaeaeaeaeaeadadacacacacadadadadadadadadadacacab",
"aaaaaaaaaaaaaaaaaaaaabacacacacacadadadadadadaeaeabababafafafafafafafafafafabababaeaeaeaeaeadadadadacacacacadadadadadadadadacacab",
"aaaaaaaaaaaaaaaaaaaaaaabacacacacadadadadadaeababafafafafafafafafafafafafafafafacababaeaeadadadadadacacacacacacadadadadadacacacab",
"aaaaaaaaaaaaaaaaaaaaaaaaabacacadadadadadadabacadabafafafafafafafafafafafafafafabacadabaeadadadadadadacacacacacacadadadacacacacab",
"aaaaaaaaaaaaaaaaaaaaaaabacadadadadadadadabacacagabafafafafafafafafafafafafafafabahacacabadadadadadadacacacacacacacacabacacacabaa",
"aaaaaaaaaaaaaaaaaaaaaaabacadadadadadadabacacagabafafafafafafafafafafafafafafafafabahacadacadadadadadadacacacacacacababacacabaaaa",
"aaaaaaaaaaaaaaaaaaaaaaabacacadadacadadabacagabafafafafafafafafafafafafafafafafafafabahacabadadadadadadacacacacababababababaaaaaa",
"aaaaaaaaaaaaaaaaaaaaaaaaabacacadacadabadababafafafafafafafafafafafafafafafafafafafafababacabadadadadacacacacacababababaaaaaaaaaa",
"aaaaaaaaaaaaaaaaaaaaaaaaaaababacadadabacafafafafafafafafafafafafafafafafafafafacafacacabacabadadadadacacacacacabaaaaaaaaaaaaaaaa",
"aaaaaaaaaaaaaaaaaaaaaaaaaaabacacadabafafafafafafafafafafafaiafafafafafafafafafafacafafacacababadadadacacacacacabaaaaaaaaaaaaaaaa",
"aaaaaaaaaaaaaaaaaaaaaaaaabacacadadabafafafafafafafafafafaiaiafafafafafafafafafafacafafafafacabadadacacababababaaaaaaaaaaaaaaaaaa",
"aaaaaaaaaaaaaaaaaaaaaaababacadadadabafafafafafafafafafafaiaiaiafafafajafafafafafacafafafafacabadadacabababaaaaaaaaaaaaaaaaaaaaaa",
"aaaaaaaaaaaaaaaaaaaaaaababadadacadabafafafafafafafafafafaiaiaiababababakafafafafafacafafafacabadadacababaaaaaaaaaaaaaaaaaaaaaaaa",
"aaaaaaaaaaaaaaaaaaaaaaababadadadacabafafafafafafafababababaiaiacacacabakakafabafafafafafafacabadadadacababaaaaaaaaaaaaaaaaaaaaaa",
"aaaaaaaaaaaaaaaaaaaaaaababacadadadabafafafafafafababadadadaiacadadacacalalakadabafafafafafacabadadadacababaaaaaaaaaaaaaaaaaaaaaa",
"aaaaaaaaaaaaaaaaaaaaaaaaabacacadadabafafafafafabacadadadadadacadacacakalalamadadabafafanafacabadadadadacabaaaaaaaaaaaaaaaaaaaaaa",
"aaaaaaaaaaaaaaaaaaaaaaaaabacacadadadabafafafabacacakadadadacadadacacakalalamadadadabafaoafacabadadadadacabaaaaaaaaaaaaaaaaaaaaaa",
"aaaaaaaaaaaaaaaaaaaaaaaaaaabadadadadapaqafafabacakakadadadadacadacakakalalamadadadabafaoafababadadadadabaaaaaaaaaaaaaaaaaaaaaaaa",
"aaaaaaaaaaaaaaaaaaaaaaaaaaaaadadadadapafafafabakakakakacadacacacakakalalalamamadabafaraoaoababadadadabaaaaaaaaaaaaaaaaaaaaaaaaaa",
"aaaaaaaaaaaaaaaaaaaaaaaaaaaaaeaeaeaeadanafaracakakalakakacacakakakalalalalaiamadabafararaqabadadadacaaaaaaaaaaaaaaaaaaaaaaaaaaaa",
"aaaaaaaaaaaaaaaaaaaaaaaaaaaaagaeaeaeadarasabacanalalalakakacakakalalalalalaiamababafararaqadadadadadaaaaaaaaaaaaaaaaaaaaaaaaaaaa",
"aaaaaaaaaaaaaaaaaaaaaaaaaaaaagaeaeatadasasafafanakalalauakakakalalalalavalaiamabamabaraqaqamadadadagaaaaaaaaaaaaaaaaaaaaaaaaaaaa",
"aaaaaaaaaaaaaaaaaaaaaaaaaaaaawapadatatakasanafafanakalalakakakalalalavalalalamabamabakalaqamagabaxahahaaaaaaaaaaaaaaaaaaaaaaaaaa",
"aaaaaaaaaaaaaaaaaaaaaaaaaaaaaaapadatatatakasafayanakalauauakalalalavavalalalamamamamalalakazagabaxahahaaaaaaaaaaaaaaaaaaaaaaaaaa",
"aaaaaaaaaaaaaaaaaaaaaaaaaaaaaaaAapadatatasasanananakalauauakalalavavalalalalamakakalalakakabababahasaaaaaaaaaaaaaaaaaaaaaaaaaaaa",
"aaaaaaaaaaaaaaaaaaaaaaaaaaaaamaBasatatatakauauanakakauauaualalalaCavalalalalalakalalalakapabagagakasaaaaaaaaaaaaaaaaaaaaaaaaaaaa",
"aaaaaaaaaaaaaaaaaaaaaaaaaaaaaaasamanatamamauauakakaiauauaualalavaDavavalalalasalalalakakapaEakakakaaaaaaaaaaaaaaaaaaaaaaaaaaaaaa",
"aaaaaaaaaaaaaaaaaaaaaaaaaaaaaaakasanatamamaFaFakaiauauauavalavavaDavavalalalasalayayauakakakakauakaaaaaaaaaaaaaaaaaaaaaaaaaaaaaa",
"aaaaaaaaaaaaaaaaaaaaaaaaaaaaaaakauamamamalaFaFaFaiauaiauavavavaDaDaDavalalavalamayamauakauakauauakaaaaaaaaaaaaaaaaaaaaaaaaaaaaaa",
"aaaaaaaaaaaaaaaaaaaaaaaaaaaaamakalavamalalaFaFaFaiauaFauauaDaDaDaDavalalavavaqamaqabalakauauauakakaaaaaaaaaaaaaaaaaaaaaaaaaaaaaa",
"aaaaaaaaaaaaaaaaaaaaaaaaaaaaakakalavavalalaFaFabauauaDauauaDaDaDavavalalavavaqaqaqabalauauauakakaaaaaaaaaaaaaaaaaaaaaaaaaaaaaaaa",
"aaaaaaaaaaaaaaaaaaaaaaaaaaaaamakalavaDavaFaqaFabauauaDauauaDaDaDavavalavavavaiavaqabauauaGauakaaaaaaaaaaaaaaaaaaaaaaaaaaaaaaaaaa",
"aaaaaaaaaaaaaaaaaaaaaaaaaaaaaaamalavaDaDaFaqaFabauauaDaDauaDaDaDaDavavavavavavavaqabauaGaGauakamaaaaaaaaaaaaaaaaaaaaaaaaaaaaaaaa",
"aaaaaaaaaaaaaaaaaaaaaaaaaaaaaaamaualavaDaDaFababauaDaDaDaFaDaDaDaDaDavavavavaDaFababaGaGaGauasanaaaaaaaaaaaaaaaaaaaaaaaaaaaaaaaa",
"aaaaaaaaaaaaaaaaaaaaaaaaaaaaaaaaamalauavaDaDababauaDaDaDaDaDaDaDaDaDavavaDaDaDaFaHaHaGaGaFauanaaaaaaaaaaaaaaaaaaaaaaaaaaaaaaaaaa",
"aaaaaaaaaaaaaaaaaaaaaaaaaaaaaaaaaaamamauauaDababanauaDaDaDaDaDaDaDaDaDaDaDaDaIasabaGaCaFalayaaaaaaaaaaaaaaaaaaaaaaaaaaaaaaaaaaaa",
"aaaaaaaaaaaaaaaaaaaaaaaaaaaaaaaaaaabaranasayabayayapaHaDaDaDaDaDaDaDaDaDaDaDanararabaCaoaJayabaaaaaaaaaaaaaaaaaaaaaaaaaaaaaaaaaa",
"aaaaaaaaaaaaaaaaaaaaaaaaaaaaaaaaaaabaraKayarabayayababababababababababababababararabaraJaJayabaaaaaaaaaaaaaaaaaaaaaaaaaaaaaaaaaa",
"aaaaaaaaaaaaaaaaaaaaaaaaaaaaaaaaaaabaraKajayayayababadaeaeaeaeaeaeaeaeadadadabararabaraJaJayabaaaaaaaaaaaaaaaaaaaaaaaaaaaaaaaaaa",
"aaaaaaaaaaaaaaaaaaaaaaaaaaaaaaaaaaabaraKaJayayayabadaeaeaeaeaeaeaeaeaeaeagadadabarararaJaJayabaaaaaaaaaaaaaaaaaaaaaaaaaaaaaaaaaa",
"aaaaaaaaaaaaaaaaaaaaaaaaaaaaaaaaababaraKaJayayayabadaeaeaeaeaeaeaeaeaeaeatatadabarararaJaJayababaaaaaaaaaaaaaaaaaaaaaaaaaaaaaaaa",
"aaaaaaaaaaaaaaaaaaaaaaaaaaaaaaaaabafaraKaJaJayayabadaeaeaeaeaeaeaeaeaeaeaeatadabararaJaJaJayababaaaaaaaaaaaaaaaaaaaaaaaaaaaaaaaa",
"aaaaaaaaaaaaaaaaaaaaaaaaaaaaaaaaabafaraJaJaJayayabadadaeaeaeaeaeaeaeaeaeaeaeadabararaJaJaJaKarabaaaaaaaaaaaaaaaaaaaaaaaaaaaaaaaa",
"aaaaaaaaaaaaaaaaaaaaaaaaaaaaaaaaabafaKaJaJaJayayabadadadaeaeaeaeaeaeaeaeaeaeadabararaJaJaJaKarabaaaaaaaaaaaaaaaaaaaaaaaaaaaaaaaa",
"aaaaaaaaaaaaaaaaaaaaaaaaaaaaaaaaabafaKayaJaJaJayarabadadaeaeaeaeaeaeaeaeacacabararaJaJaJaJaKarabaaaaaaaaaaaaaaaaaaaaaaaaaaaaaaaa",
"aaaaaaaaaaaaaaaaaaaaaaaaaaaaaaaaabafafayaJaJaJayaraKababaeaeaeaeaeaeaeaeababafafaKaJaJaJaJararabaaaaaaaaaaaaaaaaaaaaaaaaaaaaaaaa",
"aaaaaaaaaaaaaaaaaaaaaaaaaaaaaaaaabafafafaKaJaJayaraJaJafababababababababayayaKaKaKaKaJaJaJararabaaaaaaaaaaaaaaaaaaaaaaaaaaaaaaaa",
"aaaaaaaaaaaaaaaaaaaaaaaaaaaaaaaaabafafababayaJaJaraJaJaJaJaJaJaJaJaJaJaJaJaJaKaKaKaKaKababararabaaaaaaaaaaaaaaaaaaaaaaaaaaaaaaaa",
"aaaaaaaaaaaaaaaaaaaaaaaaaaaaaaaaabafafabatabaJaJaJaJaJaJaJaJaJaJaJaJaJaJaJaJaKaKaKaKabaeabararabaaaaaaaaaaaaaaaaaaaaaaaaaaaaaaaa",
"aaaaaaaaaaaaaaaaaaaaaaaaaaaaaaaaabafafabatatababababaJaJaJaJaJaJaJaJaJaJaJaJababababaeaeabararabaaaaaaaaaaaaaaaaaaaaaaaaaaaaaaaa",
"aaaaaaaaaaaaaaaaaaaaaaaaaaaaaaaaabafafabatatatatatatababababababababababababataeaeaeadaeabararabaaaaaaaaaaaaaaaaaaaaaaaaaaaaaaaa",
"aaaaaaaaaaaaaaaaaaaaaaaaaaaaaaaaaaabafabadadatatatatatatatatatatatatatatatataeaeaeaeadadabafabaaaaaaaaaaaaaaaaaaaaaaaaaaaaaaaaaa",
"aaaaaaaaaaaaaaaaaaaaaaaaaaaaaaaaaaabafabababadadadadatatatatatatatatatatatatadadadacabababafabaaaaaaaaaaaaaaaaaaaaaaaaaaaaaaaaaa",
"aaaaaaaaaaaaaaaaaaaaaaaaaaaaaaaaaaaLababafafababababadadadadadadadadadadadadababababafafabafabaaaaaaaaaaaaaaaaaaaaaaaaaaaaaaaaaa",
"aaaaaaaaaaaaaaaaaaaaaaaaaaaaaaaaaaaaabafafazazazafafababababababababababababafarazayayafafabaaaaaaaaaaaaaaaaaaaaaaaaaaaaaaaaaaaa",
"aaaaaaaaaaaaaaaaaaaaaaaaaaaaaaaaaaaaabafafafafafafararafararazazazazarafafararafafafafafafabaaaaaaaaaaaaaaaaaaaaaaaaaaaaaaaaaaaa",
"aaaaaaaaaaaaaaaaaaaaaaaaaaaaaaaaaaaaaaabafafarararararararaMaMaMaMaMaMafafafararararafafabaaaaaaaaaaaaaaaaaaaaaaaaaaaaaaaaaaaaaa",
"aaaaaaaaaaaaaaaaaaaaaaaaaaaaaaaaaaaaaaaaababafafafafafafafafafafafafafafafafafafafafababaaaaaaaaaaaaaaaaaaaaaaaaaaaaaaaaaaaaaaaa",
"aaaaaaaaaaaaaaaaaaaaaaaaaaaaaaaaaaaaaaaaaaaaababababababababababababababababababababaaaaaaaaaaaaaaaaaaaaaaaaaaaaaaaaaaaaaaaaaaaa",
"aaaaaaaaaaaaaaaaaaaaaaaaaaaaaaaaaaaaaaaaaaaaaaaaaaaaaaaaaaaaaaaaaaaaaaaaababaaabaaaaaaaaaaaaaaaaaaaaaaaaaaaaaaaaaaaaaaaaaaaaaaaa",
"aaaaaaaaaaaaaaaaaaaaaaaaaaaaaaaaaaaaaaaaaaaaaaaaaaaaaaaaaaaaaaaaaaaaaaaaaaaaaaaaaaaaaaaaaaaaaaaaaaaaaaaaaaaaaaaaaaaaaaaaaaaaaaaa",
"aaaaaaaaaaaaaaaaaaaaaaaaaaaaaaaaaaaaaaaaaaaaaaaaaaaaaaaaaaaaaaaaaaaaaaaaaaaaaaaaaaaaaaaaaaaaaaaaaaaaaaaaaaaaaaaaaaaaaaaaaaaaaaaa"
};
