/* XPM */
static char *car2_p2_s4[] = {
"64 64 39 2",
"aa	c #ff00ff",
"ab	c #000000",
"ac	c #080707",
"ad	c #0c0b0a",
"ae	c #0f0e0e",
"af	c #130707",
"ag	c #181513",
"ah	c #1c1918",
"ai	c #3c1603",
"aj	c #330e0c",
"ak	c #3a1104",
"al	c #3e2304",
"am	c #311005",
"an	c #2a0d07",
"ao	c #381709",
"ap	c #240e0c",
"aq	c #3c2008",
"ar	c #1a0908",
"as	c #391505",
"at	c #131212",
"au	c #3e2806",
"av	c #3f300b",
"aw	c #322923",
"ax	c #16181b",
"ay	c #200808",
"az	c #1d0e0d",
"aA	c #371e0f",
"aB	c #3f3e2c",
"aC	c #3f3d20",
"aD	c #3f3d25",
"aE	c #150d0b",
"aF	c #3f3411",
"aG	c #3f3921",
"aH	c #3e2a0d",
"aI	c #3d2e16",
"aJ	c #2c090b",
"aK	c #280a0b",
"aL	c #232120",
"aM	c #251210",
"aaaaaaaaaaaaaaaaaaababacacacacadadadadadaeaeaeaeaeaeaeaeaeaeaeaeaeaeaeaeaeaeaeaeaeaeaeaeaeaeadadacacacacacadadadadadadacacababab",
"aaaaaaaaaaaaaaaaaaabacacacacacadadadadadadaeaeaeaeaeaeaeaeaeaeaeaeaeaeaeaeaeaeaeaeaeaeaeaeadadadacacacacadadadadadadadadadacacab",
"aaaaaaaaaaaaaaaaaaabacacacacacadadadadadadaeaeaeaeaeaeababababababababababaeaeaeaeaeaeaeaeaeadadacacacacadadadadadadadadadacacab",
"aaaaaaaaaaaaaaaaaaaaabacacacacacadadadadadadaeaeabababafafafafafafafafafafabababaeaeaeaeaeadadadadacacacacadadadadadadadadacacab",
"aaaaaaaaaaaaaaaaaaaaaaabacacacacadadadadadaeababafafafafafafafafafafafafafafafacababaeaeadadadadadacacacacacacadadadadadacacacab",
"aaaaaaaaaaaaaaaaaaaaaaaaabacacadadadadadadabacadabafafafafafafafafafafafafafafabacadabaeadadadadadadacacacacacacadadadacacacacab",
"aaaaaaaaaaaaaaaaaaaaaaabacadadadadadadadabacacagabafafafafafafafafafafafafafafabahacacabadadadadadadacacacacacacacacabacacacabaa",
"aaaaaaaaaaaaaaaaaaaaaaabacadadadadadadabacacagabafafafafafafafafafafafafafafafafabahacadacadadadadadadacacacacacacababacacabaaaa",
"aaaaaaaaaaaaaaaaaaaaaaabacacadadacadadabacagabafafafafafafafafafafafafafafafafafafabahacabadadadadadadacacacacababababababaaaaaa",
"aaaaaaaaaaaaaaaaaaaaaaaaabacacadacadabadababafafafafafafafafafafafafafafafafafafafafababacabadadadadacacacacacababababaaaaaaaaaa",
"aaaaaaaaaaaaaaaaaaaaaaaaaaababacadadabacafafafafafafafafafafafafafafafafafafafacafacacabacabadadadadacacacacacabaaaaaaaaaaaaaaaa",
"aaaaaaaaaaaaaaaaaaaaaaaaaaabacacadabafafafafafafafafafafafaiafafafafafafafafafafacafafacacababadadadacacacacacabaaaaaaaaaaaaaaaa",
"aaaaaaaaaaaaaaaaaaaaaaaaabacacadadabafafafafafafafafafafaiaiafafafafafafafafafafacafafafafacabadadacacababababaaaaaaaaaaaaaaaaaa",
"aaaaaaaaaaaaaaaaaaaaaaababacadadadabafafafafafafafafafafaiaiaiafafafajafafafafafacafafafafacabadadacabababaaaaaaaaaaaaaaaaaaaaaa",
"aaaaaaaaaaaaaaaaaaaaaaababadadacadabafafafafafafafafafafaiaiaiababababakafafafafafacafafafacabadadacababaaaaaaaaaaaaaaaaaaaaaaaa",
"aaaaaaaaaaaaaaaaaaaaaaababadadadacabafafafafafafafababababaiaiacacacabakakafabafafafafafafacabadadadacababaaaaaaaaaaaaaaaaaaaaaa",
"aaaaaaaaaaaaaaaaaaaaaaababacadadadabafafafafafafababadadadaiacadadacacalalakadabafafafafafacabadadadacababaaaaaaaaaaaaaaaaaaaaaa",
"aaaaaaaaaaaaaaaaaaaaaaaaabacacadadabafafafafafabacadadadadadacadacacakalalamadadabafafanafacabadadadadacabaaaaaaaaaaaaaaaaaaaaaa",
"aaaaaaaaaaaaaaaaaaaaaaaaabacacadadadabafafafabacacakadadadacadadacacakalalamadadadabafaoafacabadadadadacabaaaaaaaaaaaaaaaaaaaaaa",
"aaaaaaaaaaaaaaaaaaaaaaaaaaabadadadadapaqafafabacakakadadadadacadacakakalalamadadadabafaoafababadadadadabaaaaaaaaaaaaaaaaaaaaaaaa",
"aaaaaaaaaaaaaaaaaaaaaaaaaaaaadadadadapafafafabakakakakacadacacacakakalalalamamadabafaraoaoababadadadabaaaaaaaaaaaaaaaaaaaaaaaaaa",
"aaaaaaaaaaaaaaaaaaaaaaaaaaaaaeaeaeaeadanafaracakakalakakacacakakakalalalalaiamadabafararaqabadadadacaaaaaaaaaaaaaaaaaaaaaaaaaaaa",
"aaaaaaaaaaaaaaaaaaaaaaaaaaaaagaeaeaeadarasabacanalalalakakacakakalalalalalaiamababafararaqadadadadadaaaaaaaaaaaaaaaaaaaaaaaaaaaa",
"aaaaaaaaaaaaaaaaaaaaaaaaaaaaagaeaeatadasasafafanakalalauakakakalalalalavalaiamabamabaraqaqamadadadagaaaaaaaaaaaaaaaaaaaaaaaaaaaa",
"aaaaaaaaaaaaaaaaaaaaaaaaaaaaawapadatatakasanafafanakalalakakakalalalavalalalamabamabakalaqamagabaxahahaaaaaaaaaaaaaaaaaaaaaaaaaa",
"aaaaaaaaaaaaaaaaaaaaaaaaaaaaaaapadatatatakasafayanakalauauakalalalavavalalalamamamamalalakazagabaxahahaaaaaaaaaaaaaaaaaaaaaaaaaa",
"aaaaaaaaaaaaaaaaaaaaaaaaaaaaaaaAapadatatasasanananakalauauakalalavavalalalalamakakalalakakabababahasaaaaaaaaaaaaaaaaaaaaaaaaaaaa",
"aaaaaaaaaaaaaaaaaaaaaaaaaaaaamaBasatatatakauauanakakauauaualalalaCavalalalalalakalalalakapabagagakasaaaaaaaaaaaaaaaaaaaaaaaaaaaa",
"aaaaaaaaaaaaaaaaaaaaaaaaaaaaaaasamanatamamauauakakaiauauaualalavaDavavalalalasalalalakakapaEakakakaaaaaaaaaaaaaaaaaaaaaaaaaaaaaa",
"aaaaaaaaaaaaaaaaaaaaaaaaaaaaaaakasanatamamaFaFakaiauauauavalavavaDavavalalalasalayayauakakakakauakaaaaaaaaaaaaaaaaaaaaaaaaaaaaaa",
"aaaaaaaaaaaaaaaaaaaaaaaaaaaaaaakauamamamalaFaFaFaiauaiauavavavaDaDaDavalalavalamayamauakauakauauakaaaaaaaaaaaaaaaaaaaaaaaaaaaaaa",
"aaaaaaaaaaaaaaaaaaaaaaaaaaaaamakalavamalalaFaFaFaiauaFauauaDaDaDaDavalalavavaqamaqabalakauauauakakaaaaaaaaaaaaaaaaaaaaaaaaaaaaaa",
"aaaaaaaaaaaaaaaaaaaaaaaaaaaaakakalavavalalaFaFabauauaDauauaDaDaDavavalalavavaqaqaqabalauauauakakaaaaaaaaaaaaaaaaaaaaaaaaaaaaaaaa",
"aaaaaaaaaaaaaaaaaaaaaaaaaaaaamakalavaDavaFaqaFabauauaDauauaDaDaDavavalavavavaiavaqabauauaGauakaaaaaaaaaaaaaaaaaaaaaaaaaaaaaaaaaa",
"aaaaaaaaaaaaaaaaaaaaaaaaaaaaaaamalavaDaDaFaqaFabauauaDaDauaDaDaDaDavavavavavavavaqabauaGaGauakamaaaaaaaaaaaaaaaaaaaaaaaaaaaaaaaa",
"aaaaaaaaaaaaaaaaaaaaaaaaaaaaaaamaualavaDaDaFababauaDaDaDaFaDaDaDaDaDavavavavaDaFababaGaGaGauasanaaaaaaaaaaaaaaaaaaaaaaaaaaaaaaaa",
"aaaaaaaaaaaaaaaaaaaaaaaaaaaaaaaaamalauavaDaDababauaDaDaDaDaDaDaDaDaDavavaDaDaDaFaHaHaGaGaFauanaaaaaaaaaaaaaaaaaaaaaaaaaaaaaaaaaa",
"aaaaaaaaaaaaaaaaaaaaaaaaaaaaaaaaaaamamauauaDababanauaDaDaDaDaDaDaDaDaDaDaDaDaIasabaGaCaFalayaaaaaaaaaaaaaaaaaaaaaaaaaaaaaaaaaaaa",
"aaaaaaaaaaaaaaaaaaaaaaaaaaaaaaaaaaabaranasayabayayapaHaDaDaDaDaDaDaDaDaDaDaDanararabaCaoaJayabaaaaaaaaaaaaaaaaaaaaaaaaaaaaaaaaaa",
"aaaaaaaaaaaaaaaaaaaaaaaaaaaaaaaaaaabaraKayarabayayababababababababababababababararabaraJaJayabaaaaaaaaaaaaaaaaaaaaaaaaaaaaaaaaaa",
"aaaaaaaaaaaaaaaaaaaaaaaaaaaaaaaaaaabaraKajayayayababadaeaeaeaeaeaeaeaeadadadabararabaraJaJayabaaaaaaaaaaaaaaaaaaaaaaaaaaaaaaaaaa",
"aaaaaaaaaaaaaaaaaaaaaaaaaaaaaaaaaaabaraKaJayayayabadaeaeaeaeaeaeaeaeaeaeagadadabarararaJaJayabaaaaaaaaaaaaaaaaaaaaaaaaaaaaaaaaaa",
"aaaaaaaaaaaaaaaaaaaaaaaaaaaaaaaaababaraKaJayayayabadaeaeaeaeaeaeaeaeaeaeatatadabarararaJaJayababaaaaaaaaaaaaaaaaaaaaaaaaaaaaaaaa",
"aaaaaaaaaaaaaaaaaaaaaaaaaaaaaaaaabafaraKaJaJayayabadaeaeaeaeaeaeaeaeaeaeaeatadabararaJaJaJayababaaaaaaaaaaaaaaaaaaaaaaaaaaaaaaaa",
"aaaaaaaaaaaaaaaaaaaaaaaaaaaaaaaaabafaraJaJaJayayabadadaeaeaeaeaeaeaeaeaeaeaeadabararaJaJaJaKarabaaaaaaaaaaaaaaaaaaaaaaaaaaaaaaaa",
"aaaaaaaaaaaaaaaaaaaaaaaaaaaaaaaaabafaKaJaJaJayayabadadadaeaeaeaeaeaeaeaeaeaeadabararaJaJaJaKarabaaaaaaaaaaaaaaaaaaaaaaaaaaaaaaaa",
"aaaaaaaaaaaaaaaaaaaaaaaaaaaaaaaaabafaKayaJaJaJayarabadadaeaeaeaeaeaeaeaeacacabararaJaJaJaJaKarabaaaaaaaaaaaaaaaaaaaaaaaaaaaaaaaa",
"aaaaaaaaaaaaaaaaaaaaaaaaaaaaaaaaabafafayaJaJaJayaraKababaeaeaeaeaeaeaeaeababafafaKaJaJaJaJararabaaaaaaaaaaaaaaaaaaaaaaaaaaaaaaaa",
"aaaaaaaaaaaaaaaaaaaaaaaaaaaaaaaaabafafafaKaJaJayaraJaJafababababababababayayaKaKaKaKaJaJaJararabaaaaaaaaaaaaaaaaaaaaaaaaaaaaaaaa",
"aaaaaaaaaaaaaaaaaaaaaaaaaaaaaaaaabafafababayaJaJaraJaJaJaJaJaJaJaJaJaJaJaJaJaKaKaKaKaKababararabaaaaaaaaaaaaaaaaaaaaaaaaaaaaaaaa",
"aaaaaaaaaaaaaaaaaaaaaaaaaaaaaaaaabafafabatabaJaJaJaJaJaJaJaJaJaJaJaJaJaJaJaJaKaKaKaKabaeabararabaaaaaaaaaaaaaaaaaaaaaaaaaaaaaaaa",
"aaaaaaaaaaaaaaaaaaaaaaaaaaaaaaaaabafafabatatababababaJaJaJaJaJaJaJaJaJaJaJaJababababaeaeabararabaaaaaaaaaaaaaaaaaaaaaaaaaaaaaaaa",
"aaaaaaaaaaaaaaaaaaaaaaaaaaaaaaaaabafafabatatatatatatababababababababababababataeaeaeadaeabararabaaaaaaaaaaaaaaaaaaaaaaaaaaaaaaaa",
"aaaaaaaaaaaaaaaaaaaaaaaaaaaaaaaaaaabafabadadatatatatatatatatatatatatatatatataeaeaeaeadadabafabaaaaaaaaaaaaaaaaaaaaaaaaaaaaaaaaaa",
"aaaaaaaaaaaaaaaaaaaaaaaaaaaaaaaaaaabafabababadadadadatatatatatatatatatatatatadadadacabababafabaaaaaaaaaaaaaaaaaaaaaaaaaaaaaaaaaa",
"aaaaaaaaaaaaaaaaaaaaaaaaaaaaaaaaaaaLababafafababababadadadadadadadadadadadadababababafafabafabaaaaaaaaaaaaaaaaaaaaaaaaaaaaaaaaaa",
"aaaaaaaaaaaaaaaaaaaaaaaaaaaaaaaaaaaaabafafazazazafafababababababababababababafarazayayafafabaaaaaaaaaaaaaaaaaaaaaaaaaaaaaaaaaaaa",
"aaaaaaaaaaaaaaaaaaaaaaaaaaaaaaaaaaaaabafafafafafafararafararazazazazarafafararafafafafafafabaaaaaaaaaaaaaaaaaaaaaaaaaaaaaaaaaaaa",
"aaaaaaaaaaaaaaaaaaaaaaaaaaaaaaaaaaaaaaabafafarararararararaMaMaMaMaMaMafafafararararafafabaaaaaaaaaaaaaaaaaaaaaaaaaaaaaaaaaaaaaa",
"aaaaaaaaaaaaaaaaaaaaaaaaaaaaaaaaaaaaaaaaababafafafafafafafafafafafafafafafafafafafafababaaaaaaaaaaaaaaaaaaaaaaaaaaaaaaaaaaaaaaaa",
"aaaaaaaaaaaaaaaaaaaaaaaaaaaaaaaaaaaaaaaaaaaaababababababababababababababababababababaaaaaaaaaaaaaaaaaaaaaaaaaaaaaaaaaaaaaaaaaaaa",
"aaaaaaaaaaaaaaaaaaaaaaaaaaaaaaaaaaaaaaaaaaaaaaaaaaaaaaaaaaaaaaaaaaaaaaaaababaaabaaaaaaaaaaaaaaaaaaaaaaaaaaaaaaaaaaaaaaaaaaaaaaaa",
"aaaaaaaaaaaaaaaaaaaaaaaaaaaaaaaaaaaaaaaaaaaaaaaaaaaaaaaaaaaaaaaaaaaaaaaaaaaaaaaaaaaaaaaaaaaaaaaaaaaaaaaaaaaaaaaaaaaaaaaaaaaaaaaa",
"aaaaaaaaaaaaaaaaaaaaaaaaaaaaaaaaaaaaaaaaaaaaaaaaaaaaaaaaaaaaaaaaaaaaaaaaaaaaaaaaaaaaaaaaaaaaaaaaaaaaaaaaaaaaaaaaaaaaaaaaaaaaaaaa"
};
