/* XPM */
static char *boost3[] = {
"64 64 6 2",
"aa c #000000",
"ab c #2A2A2A",
"ac c #383838",
"ad c #44EE66",
"ae c #009933",
"af c #FF00FF",
/* pixels */
"afafafafafafafafafafafafafafafafafafafafafafafafafafafafafafafafafafafafafafafafafafafafafafafafafafafafafafafafafafafafafafafaf",
"afafafafafafafafafafafafafafafafafafafafafafafafafafafafafafafafafafafafafafafafafafafafafafafafafafafafafafafafafafafafafafafaf",
"afafafafafafafafafafafafafafafafafafafafafafafafafafafafafafafafafafafafafafafafafafafafafafafafafafafafafafafafafafafafafafafaf",
"afafafafafafafafafafafafafafafafafafafafafafafafafafafafafafafafafafafafafafafafafafafafafafafafafafafafafafafafafafafafafafafaf",
"afafafafafafafafafafafafafafafafafafafafafafafafafafafafafafafafafafafafafafafafafafafafafafafafafafafafafafafafafafafafafafafaf",
"afafafafafafafafafafafafafafafafafafafafafafafafafafafafafafafafafafafafafafafafafafafafafafafafafafafafafafafafafafafafafafafaf",
"afafafafafafafafafafafafafafafafafafafafafafafafafafafafafafafafafafafafafafafafafafafafafafafafafafafafafafafafafafafafafafafaf",
"afafafafafafafafafafafafafafafafafafafafafafafafafafafafafafafafafafafafafafafafafafafafafafafafafafafafafafafafafafafafafafafaf",
"afafafafafafafafafafafafafafafafafafafafafafafafafafafafafafafafafafafafafafafafafafafafafafafafafafafafafafafafafafafafafafafaf",
"afafafafafafafafafafafafafafafafafafafafafafafafafafafafafafafafafafafafafafafafafafafafafafafafafafafafafafafafafafafafafafafaf",
"afafafafafafafafafafafafafafafafafafafafafafafafafafafafafafafadadafafafafafafafafafafafafafafafafafafafafafafafafafafafafafafaf",
"afafafafafafafafafafafafafafafafafafafafafafafafafafafafafafadadaeadafafafafafafafafafafafafafafafafafafafafafafafafafafafafafaf",
"afafafafafafafafafafafafafafafafafafafafafafafafafafafafafadacadadadadafafafafafafafafafafafafafafafafafafafafafafafafafafafafaf",
"afafafafafafafafafafafafafafafafafafafafafafafafafafafafadadadadadadadadafafafafafafafafafafafafafafafafafafafafafafafafafafafaf",
"afafafafafafafafafafafafafafafafafafafafafafafafafafafadadadaeafafaeadadadafafafafafafafafafafafafafafafafafafafafafafafafafafaf",
"afafafafafafafafafafafafafafafafafafafafafafafafafafadacadadafafafafadadadadafafafafafafafafafafafafafafafafafafafafafafafafafaf",
"afafafafafafafafafafafafafafafafafafafafafafafafafafaeadadafafafafafafadadadafafafafafafafafafafafafafafafafafafafafafafafafafaf",
"afafafafafafafafafafafafafafafafafafafafafafafafafafadadafafafafafafafafadadafafafafafafafafafafafafafafafafafafafafafafafafafaf",
"afafafafafafafafafafafafafafafafafafafafafafafafafafacafafafafafafafafafafadafafafafafafafafafafafafafafafafafafafafafafafafafaf",
"afafafafafafafafafafafafafafafafafafafafafafafafafafafafafafafafafafafafafafafafafafafafafafafafafafafafafafafafafafafafafafafaf",
"afafafafafafafafafafafafafafafafafafafafafafafafafafafafafafafafafafafafafafafafafafafafafafafafafafafafafafafafafafafafafafafaf",
"afafafafafafafafafafafafafafafafafafafafafafafafafafafafafafafafafafafafafafafafafafafafafafafafafafafafafafafafafafafafafafafaf",
"afafafafafafafafafafafafafafafafafafafafafafafafafafafafafafafafafafafafafafafafafafafafafafafafafafafafafafafafafafafafafafafaf",
"afafafafafafafafafafafafafafafafafafafafafafafafafafafafafafafafafafafafafafafafafafafafafafafafafafafafafafafafafafafafafafafaf",
"afafafafafafafafafafafafafafafafafafafafafafafafafafafafafafafafafafafafafafafafafafafafafafafafafafafafafafafafafafafafafafafaf",
"afafafafafafafafafafafafafafafafafafafafafafafafafafafafafafafadadafafafafafafafafafafafafafafafafafafafafafafafafafafafafafafaf",
"afafafafafafafafafafafafafafafafafafafafafafafafafafafafafafadadadadafafafafafafafafafafafafafafafafafafafafafafafafafafafafafaf",
"afafafafafafafafafafafafafafafafafafafafafafafafafafafafafadadadadadadafafafafafafafafafafafafafafafafafafafafafafafafafafafafaf",
"afafafafafafafafafafafafafafafafafafafafafafafafafafafafadadadadadadadadafafafafafafafafafafafafafafafafafafafafafafafafafafafaf",
"afafafafafafafafafafafafafafafafafafafafafafafafafafafafadadadadadadadadadafafafafafafafafafafafafafafafafafafafafafafafafafafaf",
"afafafafafafafafafafafafafafafafafafafafafafafafafafafadadadadafafadadadadadafafafafafafafafafafafafafafafafafafafafafafafafafaf",
"afafafafafafafafafafafafafafafafafafafafafafafafafafadadadadafafafafadadadadafafafafafafafafafafafafafafafafafafafafafafafafafaf",
"afafafafafafafafafafafafafafafafafafafafafafafafafafadadadafafafafafafadadadafafafafafafafafafafafafafafafafafafafafafafafafafaf",
"afafafafafafafafafafafafafafafafafafafafafafafafafafadadafafafafafafafafadadafafafafafafafafafafafafafafafafafafafafafafafafafaf",
"afafafafafafafafafafafafafafafafafafafafafafafafafafadafafafafafafafafafafadafafafafafafafafafafafafafafafafafafafafafafafafafaf",
"afafafafafafafafafafafafafafafafafafafafafafafafafafafafafafafafafafafafafafafafafafafafafafafafafafafafafafafafafafafafafafafaf",
"afafafafafafafafafafafafafafafafafafafafafafafafafafafafafafafafafafafafafafafafafafafafafafafafafafafafafafafafafafafafafafafaf",
"afafafafafafafafafafafafafafafafafafafafafafafafafafafafafafafafafafafafafafafafafafafafafafafafafafafafafafafafafafafafafafafaf",
"afafafafafafafafafafafafafafafafafafafafafafafafafafafafafafafafafafafafafafafafafafafafafafafafafafafafafafafafafafafafafafafaf",
"afafafafafafafafafafafafafafafafafafafafafafafafafacafafafacacafafacababafafafafafafafafafafafafafafafafafafafafafafafafafafafaf",
"afafafafafafafafafafafafafafafafafafafacacacacacacacacacacacafafafafacacababafafabacacacacafafafafafafafafafafafafafafafafafafaf",
"afafafafafafafafafafafafafafafafafafafacacacacacacacacacacafafadadafafacacacacacacacacacacafafafafafafafafafafafafafafafafafafaf",
"afafafafafafafafafafafafafafafafafafafacacacacacacacacacafafadadadadafafacacacacacacacacacafafafafafafafafafafafafafafafafafafaf",
"afafafafafafafafafafafafafafafafafafafacacacacacacacacafafadadadadadadafafacacacacacacacacafafafafafafafafafafafafafafafafafafaf",
"afafafafafafafafafafafafafafafafafafafacacacacacacacafafadadadadadadadadafafacacacacacacacafafafafafafafafafafafafafafafafafafaf",
"afafafafafafafafafafafafafafafafafafafacacacacacacafafadadadadadadadadadadafafacacacacacacafafafafafafafafafafafafafafafafafafaf",
"afafafafafafafafafafafafafafafafafafafacacacacacacafadadadadadaaaaadadadadadafacacacacacacafafafafafafafafafafafafafafafafafafaf",
"afafafafafafafafafafafafafafafafafafafacacacacacacafadadadadaaadadaaadadadadafacacacacacacafafafafafafafafafafafafafafafafafafaf",
"afafafafafafafafafafafafafafafafafafafacacacacadadafadadadaaadacacadaaadadadafacacacacacacafafafafafafafafafafafafafafafafafafaf",
"afafafafafafafafafafafafafafafafafafafacacacacacadafadadaaadacacacacadaaadadafacacacacacacafafafafafafafafafafafafafafafafafafaf",
"afafafafafafafafafafafafafafafafafafafacacacacacadafadaaadacacacacabacadaaadafacacacacacacafafafafafafafafafafafafafafafafafafaf",
"afafafafafafafafafafafafafafafafafafafacacacacacadafafadacacacacacacacacadafafacacacacacacafafafafafafafafafafafafafafafafafafaf",
"afafafafafafafafafafafafafafafafafafafacacacacacacacacacacabacacacacacacacacacacacacacacacafafafafafafafafafafafafafafafafafafaf",
"afafafafafafafafafafafafafafafafafafafacacacacacacacacacacacacacacacacacacacacacacacacacacafafafafafafafafafafafafafafafafafafaf",
"afafafafafafafafafafafafafafafafafafafacacacacacacacacacacacacacacacacacacacacacacacacacacafafafafafafafafafafafafafafafafafafaf",
"afafafafafafafafafafafafafafafafafafafacacacacacacacacacacacacacacacacacacacacacacacacacacafafafafafafafafafafafafafafafafafafaf",
"afafafafafafafafafafafafafafafafafafafacacacacacacacacacacacacacacacacacacacacacacacacacacafafafafafafafafafafafafafafafafafafaf",
"afafafafafafafafafafafafafafafafafafafafafafafafafafafafafafafafafafafafafafafafafafafafafafafafafafafafafafafafafafafafafafafaf",
"afafafafafafafafafafafafafafafafafafafafafafafafafafafafafafafafafafafafafafafafafafafafafafafafafafafafafafafafafafafafafafafaf",
"afafafafafafafafafafafafafafafafafafafafafafafafafafafafafafafafafafafafafafafafafafafafafafafafafafafafafafafafafafafafafafafaf",
"afafafafafafafafafafafafafafafafafafafafafafafafafafafafafafafafafafafafafafafafafafafafafafafafafafafafafafafafafafafafafafafaf",
"afafafafafafafafafafafafafafafafafafafafafafafafafafafafafafafafafafafafafafafafafafafafafafafafafafafafafafafafafafafafafafafaf",
"afafafafafafafafafafafafafafafafafafafafafafafafafafafafafafafafafafafafafafafafafafafafafafafafafafafafafafafafafafafafafafafaf",
"afafafafafafafafafafafafafafafafafafafafafafafafafafafafafafafafafafafafafafafafafafafafafafafafafafafafafafafafafafafafafafafaf"
};

