/* XPM */
static char * obstacle5_xpm[] = {
"64 64 37 1",
"a c None",
"b c #DE8F47",
"c c #65220F",
"d c #BC501D",
"e c #E8721E",
"f c #FFCB5F",
"g c #FAA734",
"h c #FD9C38",
"i c #F1721D",
"j c #FEB22F",
"k c #E07226",
"l c #B44F2B",
"m c #C0BFBD",
"n c #C7501E",
"o c #9E3D1E",
"p c #B95F59",
"q c #8C99A3",
"r c #F9FAF7",
"s c #C7D7D8",
"t c #B6BCC6",
"u c #CBCBC5",
"v c #969FA4",
"w c #9BA4AC",
"x c #B9ACAC",
"y c #C45724",
"z c #A65115",
"A c #C3CBCD",
"B c #8B8F99",
"C c #989292",
"D c #F1F3F4",
"E c #AE9276",
"F c #B08760",
"G c #F07925",
"H c #9F3610",
"I c #6F2226",
"J c #872B17",
"K c #F99E47",
"aaaaaaaaaaaaaaaaaaaaaaaaaaaaaaaaaaaaaaaaaaaaaaaaaaaaaaaaaaaaaaaa",
"aaaaaaaaaaaaaaaaaaaaaaaaaaaaaaaaaaaaaaaaaaaaaaaaaaaaaaaaaaaaaaaa",
"aaaaaaaaaaaaaaaaaaaaaaaaaaaaaaaaaaaaaaaaaaaaaaaaaaaaaaaaaaaaaaaa",
"aaaaaaaaaaaaaaaaaaaaaaaaaaaaaaaaaaaaaaaaaaaaaaaaaaaaaaaaaaaaaaaa",
"aaaaaaaaaaaaaaaaaaaaaaaaaaaaaaaaaaaaaaaaaaaaaaaaaaaaaaaaaaaaaaaa",
"aaaaaaaaaaaaaaaaaaaaaaaaaaaaaaaaaaaaaaaaaaaaaaaaaaaaaaaaaaaaaaaa",
"aaaaaaaaaaaaaaaaaaaaaaaaaaaaaaaaaaaaaaaaaaaaaaaaaaaaaaaaaaaaaaaa",
"aaaaaaaaaaaaaaaaaaaaaaaaaaaaaaaaaaaaaaaaaaaaaaaaaaaaaaaaaaaaaaaa",
"aaaaaaaaaaaaaaaaaaaaaaaaaaaaaaaaaaaaaaaaaaaaaaaaaaaaaaaaaaaaaaaa",
"aaaaaaaaaaaaaaaaaaaaaaaaaaaaaaaaaaaaaaaaaaaaaaaaaaaaaaaaaaaaaaaa",
"aaaaaaaaaaaaaaaaaaaaaaaaaaaaaaaaaaaaaaaaaaaaaaaaaaaaaaaaaaaaaaaa",
"aaaaaaaaaaaaaaaaaaaaaaaaaaaaaaabbbaaaaaaaaaaaaaaaaaaaaaaaaaaaaaa",
"aaaaaaaaaaaaaaaaaaaaaaaaaaaaaabcccdaaaaaaaaaaaaaaaaaaaaaaaaaaaaa",
"aaaaaaaaaaaaaaaaaaaaaaaaaaaaaabcccdaaaaaaaaaaaaaaaaaaaaaaaaaaaaa",
"aaaaaaaaaaaaaaaaaaaaaaaaaaaaaaefggdaaaaaaaaaaaaaaaaaaaaaaaaaaaaa",
"aaaaaaaaaaaaaaaaaaaaaaaaaaaaaaehiddaaaaaaaaaaaaaaaaaaaaaaaaaaaaa",
"aaaaaaaaaaaaaaaaaaaaaaaaaaaaaeeiiddaaaaaaaaaaaaaaaaaaaaaaaaaaaaa",
"aaaaaaaaaaaaaaaaaaaaaaaaaaaaaejiidddaaaaaaaaaaaaaaaaaaaaaaaaaaaa",
"aaaaaaaaaaaaaaaaaaaaaaaaaaaaaejiiiddaaaaaaaaaaaaaaaaaaaaaaaaaaaa",
"aaaaaaaaaaaaaaaaaaaaaaaaaaaakkjiiiddaaaaaaaaaaaaaaaaaaaaaaaaaaaa",
"aaaaaaaaaaaaaaaaaaaaaaaaaaaakkjiiidllaaaaaaaaaaaaaaaaaaaaaaaaaaa",
"aaaaaaaaaaaaaaaaaaaaaaaaaaaakkjiiidllaaaaaaaaaaaaaaaaaaaaaaaaaaa",
"aaaaaaaaaaaaaaaaaaaaaaaaaaaamjjiinopqaaaaaaaaaaaaaaaaaaaaaaaaaaa",
"aaaaaaaaaaaaaaaaaaaaaaaaaaaamrsssstqqaaaaaaaaaaaaaaaaaaaaaaaaaaa",
"aaaaaaaaaaaaaaaaaaaaaaaaaaauursssssvwwaaaaaaaaaaaaaaaaaaaaaaaaaa",
"aaaaaaaaaaaaaaaaaaaaaaaaaaauurssssswwvaaaaaaaaaaaaaaaaaaaaaaaaaa",
"aaaaaaaaaaaaaaaaaaaaaaaaaaauurssssswwwaaaaaaaaaaaaaaaaaaaaaaaaaa",
"aaaaaaaaaaaaaaaaaaaaaaaaaaxurrssssswwwyaaaaaaaaaaaaaaaaaaaaaaaaa",
"aaaaaaaaaaaaaaaaaaaaaaaaaaeerrssssswvyyaaaaaaaaaaaaaaaaaaaaaaaaa",
"aaaaaaaaaaaaaaaaaaaaaaaaaaeegrssssslyyyaaaaaaaaaaaaaaaaaaaaaaaaa",
"aaaaaaaaaaaaaaaaaaaaaaaaazeegjiiiiiiyyyyaaaaaaaaaaaaaaaaaaaaaaaa",
"aaaaaaaaaaaaaaaaaaaaaaaaakkgggiiiiiiyyyyaaaaaaaaaaaaaaaaaaaaaaaa",
"aaaaaaaaaaaaaaaaaaaaaaaaakkgggiiiiiiyyyyaaaaaaaaaaaaaaaaaaaaaaaa",
"aaaaaaaaaaaaaaaaaaaaaaaaakkgggiiiiiiyyyyaaaaaaaaaaaaaaaaaaaaaaaa",
"aaaaaaaaaaaaaaaaaaaaaaaaAukggiiiiiiiyyyqqaaaaaaaaaaaaaaaaaaaaaaa",
"aaaaaaaaaaaaaaaaaaaaaaaaAArrgiiiiiiiBqqqqaaaaaaaaaaaaaaaaaaaaaaa",
"aaaaaaaaaaaaaaaaaaaaaaaaAArrrAAssssssqqqqaaaaaaaaaaaaaaaaaaaaaaa",
"aaaaaaaaaaaaaaaaaaaaaaaaAArrrssssssssqqqqaaaaaaaaaaaaaaaaaaaaaaa",
"aaaaaaaaaaaaaaaaaaaaaaaAAArrrssssssssqqqqqaaaaaaaaaaaaaaaaaaaaaa",
"aaaaaaaaaaaaaaaaaaaaaaaCADrrrssssssssqqqqdaaaaaaaaaaaaaaaaaaaaaa",
"aaaaaaaaaaaaaaaaaaaaaaaiEDrrrssssssssqqqddaaaaaaaaaaaaaaaaaaaaaa",
"aaaaaaaaaaaaaaaaaaaaaaeiiFrrrssssssssqqddddaaaaaaaaaaaaaaaaaaaaa",
"aaaaaaaaaaaaaaaaaaaaaaeiigggAsssssssqdddddnaaaaaaaaaaaaaaaaaaaaa",
"aaaaaaaaaaaaaaaaaaaeGaiiigggiiiiiiiiiiddddnannaaaaaaaaaaaaaaaaaa",
"aaaaaaaaaaaaaaaaaeieiHeiigggiiiiiiiiiiddnnnInnnnaaaaaaaaaaaaaaaa",
"aaaaaaaaaaaaaaaeeeiiioiiigggiiiiiiiiiinnnnnInnnnnnaaaaaaaaaaaaaa",
"aaaaaaaaaaaaaaeeiiiiioiiigggiiiiiiiiiinnnnnInnnnnnoaaaaaaaaaaaaa",
"aaaaaaaaaaaaaaehhiiiiioiiiggiiiiiiiiiinnnnJnnnnnnnoaaaaaaaaaaaaa",
"aaaaaaaaaaaaaaeeehhiiiioiiggiiiiiiiiiinnnJnnnnkkoooaaaaaaaaaaaaa",
"aaaaaaaaaaaaaaaeeeehhiGGHHggiiiiiiiiiiiJJnnnkkooooaaaaaaaaaaaaaa",
"aaaaaaaaaaaaaaaaaeeiihGGGGHHiiiiiiiiHHHGGGGGooooaaaaaaaaaaaaaaaa",
"aaaaaaaaaaaaaaaaaaaeeGKGGGGGHHHHHHHHiiGGGGooooaaaaaaaaaaaaaaaaaa",
"aaaaaaaaaaaaaaaaaaaaaGGGGGGiiiiiiiiiiiiiooooaaaaaaaaaaaaaaaaaaaa",
"aaaaaaaaaaaaaaaaaaaaaaaGGGGKiiiiiiiiKKooooaaaaaaaaaaaaaaaaaaaaaa",
"aaaaaaaaaaaaaaaaaaaaaaaaaGGGKKiiiiKKooooaaaaaaaaaaaaaaaaaaaaaaaa",
"aaaaaaaaaaaaaaaaaaaaaaaaaaaeeeKKKKooooaaaaaaaaaaaaaaaaaaaaaaaaaa",
"aaaaaaaaaaaaaaaaaaaaaaaaaaaaakkkkoooaaaaaaaaaaaaaaaaaaaaaaaaaaaa",
"aaaaaaaaaaaaaaaaaaaaaaaaaaaaaakkkoaaaaaaaaaaaaaaaaaaaaaaaaaaaaaa",
"aaaaaaaaaaaaaaaaaaaaaaaaaaaaaaaaaaaaaaaaaaaaaaaaaaaaaaaaaaaaaaaa",
"aaaaaaaaaaaaaaaaaaaaaaaaaaaaaaaaaaaaaaaaaaaaaaaaaaaaaaaaaaaaaaaa",
"aaaaaaaaaaaaaaaaaaaaaaaaaaaaaaaaaaaaaaaaaaaaaaaaaaaaaaaaaaaaaaaa",
"aaaaaaaaaaaaaaaaaaaaaaaaaaaaaaaaaaaaaaaaaaaaaaaaaaaaaaaaaaaaaaaa",
"aaaaaaaaaaaaaaaaaaaaaaaaaaaaaaaaaaaaaaaaaaaaaaaaaaaaaaaaaaaaaaaa",
"aaaaaaaaaaaaaaaaaaaaaaaaaaaaaaaaaaaaaaaaaaaaaaaaaaaaaaaaaaaaaaaa"
};
