/* XPM */
static char * obstacle7_xpm[] = {
"64 64 35 1",
"a c None",
"b c #B6BCC6",
"c c #6C727D",
"d c #5F6771",
"e c #D9DEDB",
"f c #D0D1CF",
"g c #D8D7D4",
"h c #85272B",
"i c #B95F59",
"j c #605E60",
"k c #E0EEE1",
"l c #A3363B",
"m c #9D383E",
"n c #B9ACAC",
"o c #9C3430",
"p c #F4DFD1",
"q c #A8A9A1",
"r c #5B233B",
"s c #CBCBC5",
"t c #E0E1E5",
"u c #C0BFBD",
"v c #C7D7D8",
"w c #D4C5D0",
"x c #A94138",
"y c #8F7F7D",
"z c #B98E8C",
"A c #A58167",
"B c #989292",
"C c #C3CBCD",
"D c #555A66",
"E c #788088",
"F c #656362",
"G c #A4ACB3",
"H c #717781",
"I c #9BA4AC",
"aaaaaaaaaaaaaaaaaaaaaaaaaaaaaaaaaaaaaaaaaaaaaaaaaaaaaaaaaaaaaaaa",
"aaaaaaaaaaaaaaaaaaaaaaaaaaaaaaaaaaaaaaaaaaaaaaaaaaaaaaaaaaaaaaaa",
"aaaaaaaaaaaaaaaaaaaaaaaaaaaaaaaaaaaaaaaaaaaaaaaaaaaaaaaaaaaaaaaa",
"aaaaaaaaaaaaaaaaaaaaaaaaaaaaaaaaaaaaaaaaaaaaaaaaaaaaaaaaaaaaaaaa",
"aaaaaaaaaaaaaaaaaaaaaaaaaaaaaaaaaaaaaaaaaaaaaaaaaaaaaaaaaaaaaaaa",
"aaaaaaaaaaaaaaaaaaaaaaaaaaaaaaaaaaaaaaaaaaaaaaaaaaaaaaaaaaaaaaaa",
"aaaaaaaaaaaaaaaaaaaaaaaaaaaaaaaabbbaaaaaaaaaaaaaaaaaaaaaaaaaaaaa",
"aaaaaaaaaaaaaaaaaaaaaaaaaaaaaaaacbdaaaaaaaaaaaaaaaaaaaaaaaaaaaaa",
"aaaaaaaaaaaaaaaaaaaaaaaaaaaaaaaadddaaaaaaaaaaaaaaaaaaaaaaaaaaaaa",
"aaaaaaaaaaaaaaaaaaaaaaaaaaeefffaaaaaaaaaaaaaaaaaaaaaaaaaaaaaaaaa",
"aaaaaaaaaaaaaaaaaaaaaaaaaeghiifggggjaaaaaaaaaaaaaaaaaaaaaaaaaaaa",
"aaaaaaaaaaaaaaaaaaaaaaaakehllllllmggggggaaaaaaaaaaaaaaaaaaaaaaaa",
"aaaaaaaaaaaaaaaaaaaaaaaenolllllllllllogggaaaaaaaaaaaaaaaaaaaaaaa",
"aaaaaaaaaaaaaaaaaaaaaafllllllllllpllllllngaaaaaaaaaaaaaaaaaaaaaa",
"aaaaaaaaaaaaaaaaaaaaqflllllllllllrllllllngeaaaaaaaaaaaaaaaaaaaaa",
"aaaaaaaaaaaaaaaaaaaegllllllllllllllllllllnstaaaaaaaaaaaaaaaaaaaa",
"aaaaaaaaaaaaaaaaaaaelllllllllllllllllllllluutaaaaaaaaaaaaaaaaaaa",
"aaaaaaaaaaaaaaaaaaaellllllllllllllllllllllluueaaaaaaaaaaaaaaaaaa",
"aaaaaaaaaaaaaaaaaaaellvfggllfflllllllllllllluseaaaaaaaaaaaaaaaaa",
"aaaaaaaaaaaaaaaaaaaellfmmfwmfffgflllllllllllmsgeaaaaaaaaaaaaaaaa",
"aaaaaaaaaaaaaaaaaaaelmfmmmmmxxvyyllsssllllllllgeaaaaaaaaaaaaaaaa",
"aaaaaaaaaaaaaaaaaaaellsfmmmxxxvollgzmsmllfggolmeaaaaaaaaaaaaaaaa",
"aaaaaaaaaaaaaaaaaaaelllssflxxxvollgmmsflmffgglmkaaaaaaaaaaaaaaaa",
"aaaaaaaaaaaaaaaaaaaemmmmmfmmxxvollgmmmflmflmflmkaaaaaaaaaaaaaaaa",
"aaaaaaaaaaaaaaaaaaaemusmmfflxxvollgmmmglivlmglmkaaaaaaaaaaaaaaaa",
"aaaaaaaaaaaaaaaaaaaemmssmffllxvolmgmmmgmivllelmkaaaaaaaaaaaaaaaa",
"aaaaaaaaaaaaaaaaaaaemmlssslllxvolmgmmmglivegmmmkaaaaaaaaaaaaaaaa",
"aaaaaaaaaaaaaaaaaaaemmlllllllxvlmlffmgglivmmmmmkaaaaaaaaaaaaaaaa",
"aaaaaaaaaaaaaaaaaaaefllllllllllllllffflllvlllmmkaaaaaaaaaaaaaaaa",
"aaaaaaaaaaaaaaaaaaaatulllllllllllllllllllvlllmmkaaaaaaaaaaaaaaaa",
"aaaaaaaaaaaaaaaaaaaaatulllllllllllllllllllllllmtaaaaaaaaaaaaaaaa",
"aaaaaaaaaaaaaaaaaaaaaaefllllllllllllllllllllllmtaaaaaaaaaaaaaaaa",
"aaaaaaaaaaaaaaaaaaaaaaaewlllllllllllllllllllllgeaaaaaaaaaaaaaaaa",
"aaaaaaaaaaaaaaaaaaaaaaaaezlllllllllllllllllllwwaaaaaaaaaaaaaaaaa",
"aaaaaaaaaaaaaaaaaaaaaaaaafAllllllBllllllllllwwaaaaaaaaaaaaaaaaaa",
"aaaaaaaaaaaaaaaaaaaaaaaaaaCsllllllllllllllxwaaaaaaaaaaaaaaaaaaaa",
"aaaaaaaaaaaaaaaaaaaaaaaaaaauufffBllllllllxwaaaaaaaaaaaaaaaaaaaaa",
"aaaaaaaaaaaaaaaaaaaaaaaaaaaaaaaaCCCsslllxwaaaaaaaaaaaaaaaaaaaaaa",
"aaaaaaaaaaaaaaaaaaaaaaaaaaaaaaaaaaaaffffwaaaaaaaaaaaaaaaaaaaaaaa",
"aaaaaaaaaaaaaaaaaaaaaaaaaaaaaaaaDDDaaaaaaaaaaaaaaaaaaaaaaaaaaaaa",
"aaaaaaaaaaaaaaaaaaaaaaaaaaaaaaaajDDaaaaaaaaaaaaaaaaaaaaaaaaaaaaa",
"aaaaaaaaaaaaaaaaaaaaaaaaaaaaaaaaEDFaaaaaaaaaaaaaaaaaaaaaaaaaaaaa",
"aaaaaaaaaaaaaaaaaaaaaaaaaaaaaaaaEGFaaaaaaaaaaaaaaaaaaaaaaaaaaaaa",
"aaaaaaaaaaaaaaaaaaaaaaaaaaaaaaaaEGdaaaaaaaaaaaaaaaaaaaaaaaaaaaaa",
"aaaaaaaaaaaaaaaaaaaaaaaaaaaaaaaaEGdaaaaaaaaaaaaaaaaaaaaaaaaaaaaa",
"aaaaaaaaaaaaaaaaaaaaaaaaaaaaaaaaEGdaaaaaaaaaaaaaaaaaaaaaaaaaaaaa",
"aaaaaaaaaaaaaaaaaaaaaaaaaaaaaaaaEGdaaaaaaaaaaaaaaaaaaaaaaaaaaaaa",
"aaaaaaaaaaaaaaaaaaaaaaaaaaaaaaaaEGcaaaaaaaaaaaaaaaaaaaaaaaaaaaaa",
"aaaaaaaaaaaaaaaaaaaaaaaaaaaaaaaaEGcaaaaaaaaaaaaaaaaaaaaaaaaaaaaa",
"aaaaaaaaaaaaaaaaaaaaaaaaaaaaaaaaEGcaaaaaaaaaaaaaaaaaaaaaaaaaaaaa",
"aaaaaaaaaaaaaaaaaaaaaaaaaaaaaaaaEGcaaaaaaaaaaaaaaaaaaaaaaaaaaaaa",
"aaaaaaaaaaaaaaaaaaaaaaaaaaaaaaaaEGcaaaaaaaaaaaaaaaaaaaaaaaaaaaaa",
"aaaaaaaaaaaaaaaaaaaaaaaaaaaaaaaaEGcaaaaaaaaaaaaaaaaaaaaaaaaaaaaa",
"aaaaaaaaaaaaaaaaaaaaaaaaaaaaaaaaEGcaaaaaaaaaaaaaaaaaaaaaaaaaaaaa",
"aaaaaaaaaaaaaaaaaaaaaaaaaaaaaaaaHGcaaaaaaaaaaaaaaaaaaaaaaaaaaaaa",
"aaaaaaaaaaaaaaaaaaaaaaaaaaaaaaaaEGcaaaaaaaaaaaaaaaaaaaaaaaaaaaaa",
"aaaaaaaaaaaaaaaaaaaaaaaaaaaaaaaaEIcaaaaaaaaaaaaaaaaaaaaaaaaaaaaa",
"aaaaaaaaaaaaaaaaaaaaaaaaaaaaaaaaEIcaaaaaaaaaaaaaaaaaaaaaaaaaaaaa",
"aaaaaaaaaaaaaaaaaaaaaaaaaaaaaaaaEbcaaaaaaaaaaaaaaaaaaaaaaaaaaaaa",
"aaaaaaaaaaaaaaaaaaaaaaaaaaaaaaaaEbcaaaaaaaaaaaaaaaaaaaaaaaaaaaaa",
"aaaaaaaaaaaaaaaaaaaaaaaaaaaaaaaaEbcaaaaaaaaaaaaaaaaaaaaaaaaaaaaa",
"aaaaaaaaaaaaaaaaaaaaaaaaaaaaaaaaEbcaaaaaaaaaaaaaaaaaaaaaaaaaaaaa",
"aaaaaaaaaaaaaaaaaaaaaaaaaaaaaaaaEbdaaaaaaaaaaaaaaaaaaaaaaaaaaaaa",
"aaaaaaaaaaaaaaaaaaaaaaaaaaaaaaaaECdaaaaaaaaaaaaaaaaaaaaaaaaaaaaa"
};
