/* XPM */
static char * obstacle6_xpm[] = {
"64 64 17 1",
"a c None",
"b c #3E414C",
"c c #434853",
"d c #484E58",
"e c #363B47",
"f c #33353F",
"g c #1E232C",
"h c #262933",
"i c #5F6771",
"j c #656362",
"k c #2F2F37",
"l c #4F525D",
"m c #555A66",
"n c #292E3C",
"o c #171926",
"p c #605E60",
"q c #100F13",
"aaaaaaaaaaaaaaaaaaaaaaaaaaaaaaaaaaaaaaaaaaaaaaaaaaaaaaaaaaaaaaaa",
"aaaaaaaaaaaaaaaaaaaaaaaaaaaaaaaaaaaaaaaaaaaaaaaaaaaaaaaaaaaaaaaa",
"aaaaaaaaaaaaaaaaaaaaaaaaaaaaaaaaaaaaaaaaaaaaaaaaaaaaaaaaaaaaaaaa",
"aaaaaaaaaaaaaaaaaaaaaaaaaaaaaaaaaaaaaaaaaaaaaaaaaaaaaaaaaaaaaaaa",
"aaaaaaaaaaaaaaaaaaaaaaaaaaaaaaaaaaaaaaaaaaaaaaaaaaaaaaaaaaaaaaaa",
"aaaaaaaaaaaaaaaaaaaaaaaaaaaaaaaaaaaaaaaaaaaaaaaaaaaaaaaaaaaaaaaa",
"aaaaaaaaaaaaaaaaaaaaaaaaaaaaaaaaaaaaaaaaaaaaaaaaaaaaaaaaaaaaaaaa",
"aaaaaaaaaaaaaaaaaaaaaaaaaaaaaaaaaaaaaaaaaaaaaaaaaaaaaaaaaaaaaaaa",
"aaaaaaaaaaaaaaaaaaaaaaaaaaaaaaaaaaaaaaaaaaaaaaaaaaaaaaaaaaaaaaaa",
"aaaaaaaaaaaaaaaaaaaaaaaaaaaaaaaaaaaaaaaaaaaaaaaaaaaaaaaaaaaaaaaa",
"aaaaaaaaaaaaaaaaaaaaaaaaaaaaaaaaaaaaaaaaaaaaaaaaaaaaaaaaaaaaaaaa",
"aaaaaaaaaaaaaaaaaaaaaaaaaaaaaaaaaaaaaaaaaaaaaaaaaaaaaaaaaaaaaaaa",
"aaaaaaaaaaaaaaaaaaaaaaaaaaaaaaaaaaaaaaaaaaaaaaaaaaaaaaaaaaaaaaaa",
"aaaaaaaaaaaaaaaaaaaaaaaaaaaaaaaaaaaaaaaaaaaaaaaaaaaaaaaaaaaaaaaa",
"aaaaaaaaaaaaaaaaaaaaaaaaaaaaaaaaaaaaaaaaaaaaaaaaaaaaaaaaaaaaaaaa",
"aaaaaaaaaaaaaaaaaaaaaaaaaaaaaaaaaaaaaaaaaaaaaaaaaaaaaaaaaaaaaaaa",
"aaaaaaaaaaaaaaaaaaaaaaaaaaaaaaaaaaaaaaaaaaaaaaaaaaaaaaaaaaaaaaaa",
"aaaaaaaaaaaaaaaaaaaaaaaaaaaaaaaaaaaaaaaaaaaaaaaaaaaaaaaaaaaaaaaa",
"aaaaaaaaaaaaaaaaaaaaaaaaaaaaaaaaaaaaaaaaaaaaaaaaaaaaaaaaaaaaaaaa",
"aaaaaaaaaaaaaaaaaaaaaaaaaaaaaaaaaaaaaaaaaaaaaaaaaaaaaaaaaaaaaaaa",
"aaaaaaaaaaaaaaaaaaaaaaaaaabcccccddddeeeefaaaaaaaaaaaaaaaaaaaaaaa",
"aaaaaaaaaaaaaaaaaaaaaaeeebccccccddddddddddgfaaaaaaaaaaaaaaaaaaaa",
"aaaaaaaaaaaaaaaaaaaahfiffeccccccdddciijdddddkkkkaaaaaaaaaaaaaaaa",
"aaaaaaaaaaaaaaaaaabbhhfdddhefhhkkkkkkkkdddddddllefaaaaaaaaaaaaaa",
"aaaaaaaaaaaaaaaaebmmccdddhhhhddddlllllkkhhcbddllllfaaaaaaaaaaaaa",
"aaaaaaaaaaaaaafemmeeccchhcccchhhhhhhhhllllhhbllllllffaaaaaaaaaaa",
"aaaaaaaaaaaaaeemmeldhhhcchhhhaaaaaaaaahhhhllkhdlllldffaaaaaaaaaa",
"aaaaaaaaaaaaeemmflfggccnhaaaaaaaaaaaaaaaaahhlmhedddddnbaaaaaaaaa",
"aaaaaaaaaaaeemmfddggccnaaaaaaaaaaaaaaaaaaaaahbmhfdddddchaaaaaaaa",
"aaaaaaaaaaaeemmfdggccaaaaaaaaaaaaaaaaaaaaaaaahmlhddddddhaaaaaaaa",
"aaaaaaaaaaeeemondhhcaaaaaaaaaaaaaaaaaaaaaaaaaahlhhdddddhnaaaaaaa",
"aaaaaaaaaaehemondhhcaaaaaaaaagggggggggaaaaaaaaaihhddddchnaaaaaaa",
"aaaaaaaaaahdellndhhcaaaaaaaggggggggggggggaaaaaainnddddnngaaaaaaa",
"aaaaaaaaaaddfllndhhcaaaagaaggaaaaaaaaagggggaaaaindddddnnnaaaaaaa",
"aaaaaaaaaadgfllnnnhhdaaogaaaaaaaaaaaaaaaaaggaapneddddcnonaaaaaaa",
"aaaaaaaaaagddnllleehhdaaaaaaaaaaaaaaaaaaaaaaamnkddddcnnhgaaaaaaa",
"aaaaaaaaaahcnnlllleehnnaaaaaaaaaaaaaaaaaaaaankkcdddcnonhhaaaaaaa",
"aaaaaaaaaahhnllnnllmlknnnaaaaaaaaaaaaaaaaanffddacdcnonohhaaaaaaa",
"aaaaaaaaaahhnlalknnfmmnnkffffaaaaaaaaaeeffdllllaaccconnqhaaaaaaa",
"aaaaaaaaaahhnaflllnlmllllmmeeeeffffeeedlddllldndaaccnonqqaaaaaaa",
"aaaaaaaaaahgnofflnlllffeeemmmmedddddddldddlllnddbaabnonqnaaaaaaa",
"aaaaaaaaaahfqobencllqllllmeemmmcdddddddkkkdlllabbaabnoqnnaaaaaaa",
"aaaaaaaaaagffogekdfoellefmmmmmmmmmdddfglllogllaabaaefonngaaaaaaa",
"aaaaaaaaaaggffoofffoebeammmffmmccdknddkalllonnnaeanoonnggaaaaaaa",
"aaaaaaaaaagfofeeofoeebeambmklmmodddadddalleoeeeanoonnngggaaaaaaa",
"aaaaaaaaaaaffoffeoooeeoebbbaeeeoeeeaddeafeeeeeofannnnahhaaaaaaaa",
"aaaaaaaaaaanffofffffoooeeboeeeofeeeoddegffeeeogonnnaahhhaaaaaaaa",
"aaaaaaaaaaaafffoofffeeeooooeefoeeeoccfeffoooohnnnnahhhhaaaaaaaaa",
"aaaaaaaaaaaahhnffooeeeeeeeoooooooooggggoonnnnnnnoohhhhhaaaaaaaaa",
"aaaaaaaaaaaaahoeofeoooeeeeeeeeeeeeeogeebeooooooonnhhhhaaaaaaaaaa",
"aaaaaaaaaaaaaaaofaegeeaaaafeeeeeeeeeebeeeooooonnnhhhaaaaaaaaaaaa",
"aaaaaaaaaaaaaaaaeaheeeeeeeoooooooooooooooonoffnkhhhaaaaaaaaaaaaa",
"aaaaaaaaaaaaaaaaaageeaeeeoeeeeeeofeefonfeenqffankaaaaaaaaaaaaaaa",
"aaaaaaaaaaaaaaaaaaahfageegeeoeeeeofeefonhehqffanaaaaaaaaaaaaaaaa",
"aaaaaaaaaaaaaaaaaaaaaageefgeeeoeeeafefonnhhafaaaaaaaaaaaaaaaaaaa",
"aaaaaaaaaaaaaaaaaaaaaaaaaagbbboeeeaeeeannaaaaaaaaaaaaaaaaaaaaaaa",
"aaaaaaaaaaaaaaaaaaaaaaaaaaaaaaaaaaaaaaaaaaaaaaaaaaaaaaaaaaaaaaaa",
"aaaaaaaaaaaaaaaaaaaaaaaaaaaaaaaaaaaaaaaaaaaaaaaaaaaaaaaaaaaaaaaa",
"aaaaaaaaaaaaaaaaaaaaaaaaaaaaaaaaaaaaaaaaaaaaaaaaaaaaaaaaaaaaaaaa",
"aaaaaaaaaaaaaaaaaaaaaaaaaaaaaaaaaaaaaaaaaaaaaaaaaaaaaaaaaaaaaaaa",
"aaaaaaaaaaaaaaaaaaaaaaaaaaaaaaaaaaaaaaaaaaaaaaaaaaaaaaaaaaaaaaaa",
"aaaaaaaaaaaaaaaaaaaaaaaaaaaaaaaaaaaaaaaaaaaaaaaaaaaaaaaaaaaaaaaa",
"aaaaaaaaaaaaaaaaaaaaaaaaaaaaaaaaaaaaaaaaaaaaaaaaaaaaaaaaaaaaaaaa",
"aaaaaaaaaaaaaaaaaaaaaaaaaaaaaaaaaaaaaaaaaaaaaaaaaaaaaaaaaaaaaaaa"
};
