/* XPM */
static char * obstacle2_xpm[] = {
"64 64 78 1",
"a c None",
"b c #788088",
"c c #969FA4",
"d c #4F525D",
"e c #555A66",
"f c #5F6771",
"g c #484E58",
"h c #9BA4AC",
"i c #A8A9A1",
"j c #6C727D",
"k c #434853",
"l c #B1B8BB",
"m c #C3CBCD",
"n c #8C99A3",
"o c #838991",
"p c #C0BFBD",
"q c #90949D",
"r c #A4ACB3",
"s c #D8D7D4",
"t c #B9BFC1",
"u c #8B8F99",
"v c #D0D1CF",
"w c #717781",
"x c #C7D7D8",
"y c #292E3C",
"z c #3E414C",
"A c #ABB2B5",
"B c #262933",
"C c #171926",
"D c #1E232C",
"E c #363B47",
"F c #2F2F37",
"G c #B6BCC6",
"H c #33353F",
"I c #4B3630",
"J c #6B4D3C",
"K c #654738",
"L c #3E2C29",
"M c #583C36",
"N c #8D6B54",
"O c #3D271F",
"P c #765D4B",
"Q c #817E80",
"R c #4A3125",
"S c #96765C",
"T c #83644D",
"U c #311F1E",
"V c #7F5F46",
"W c #6F6D67",
"X c #38493D",
"Y c #989292",
"Z c #100F13",
"0 c #605E60",
"1 c #63705E",
"2 c #6B8263",
"3 c #956D4F",
"4 c #C79C74",
"5 c #583D2D",
"6 c #8F7F7D",
"7 c #916949",
"8 c #9E7553",
"9 c #75533D",
"! c #B08760",
"# c #BD936D",
"$ c #7B5843",
"% c #8C6348",
"& c #784034",
"( c #D9DEDB",
") c #CBCBC5",
"* c #9A8F75",
"+ c #ADB0BE",
", c #455D4A",
"- c #90A182",
". c #597C5A",
"/ c #91AF7D",
": c #628C5F",
"; c #4E7452",
"< c #97B98C",
"aaaaaaaaaaaaaaaaaaaaaaaaaaaaaaaaaaaaaaaaaaaaaaaaaaaaaaaaaaaaaaaa",
"aaaaaaaaaaaaaaaaaaaaaaaaaaaaaaaaaaaaaaaaaaaaaaaaaaaaaaaaaaaaaaaa",
"aaaaaaaaaaaaaaaaaaaaaaaaaaaaaaaaaaaaaaaaaaaaaaaaaaaaaaaaaaaaaaaa",
"aaaaaaaaaaaaaaaaaaaaaaaaaaaaaaaaaaaaaaaaaaaaaaaaaaaaaaaaaaaaaaaa",
"aaaaaaaaaaaaaaaaaaaaaaaaaaaaaaaaaaaaaaaaaaaaaaaaaaaaaaaaaaaaaaaa",
"aaaaaaaaaaaaaaaaaaaaaaaaaaaaaaaaaaaaaaaaaaaaaaaaaaaaaaaaaaaaaaaa",
"aaaaaaaaaaaaaaaaaaaaaaaaaaaaaaaaaaaaaaaaaaaaaaaaaaaaaaaaaaaaaaaa",
"aaaaaaaaaaaaaaaaaaaaaaaaaaaaaaaaaaaaaaaaaaaaaaaaaaaaaaaaaaaaaaaa",
"aaaaaaaaaaaaaaaaaaaaaaaaaaaaaaaaaaaaaaaaaaaaaaaaaaaaaaaaaaaaaaaa",
"aaaaaaaaaaaaaaaaaaaaaaaaaaaaaaaaaaaaaaaaaaaaaaaaaaaaaaaaaaaaaaaa",
"aaaaaaaaaaaaaaaaabbbbbbaaaaaaaaaaaaaaaaaaaaaaaaaaaaaaaaaaaaaaaaa",
"aaaaaaaaaaaaaaacccdddeeffaaaaaaaaaaaaaaaaaaaaaaaaaaaaaaaaaaaaaaa",
"aaaaaaaaaaaaaccgggchhifffjfaaaaaaaaaaaaaaaaaaaaaaaaaaaaaaaaaaaaa",
"aaaaaaaaaaaaccdcccckkgllljfjjjaaaaaaaaaaaaaaaaaaaaaaaaaaaaaaaaaa",
"aaaaaaaaaaaccdccmmmnoogggpphjjjjaaaaaaaaaaaaaaaaaaaaaaaaaaaaaaaa",
"aaaaaaaaaaccecccggqmmroooggpppjffffaaaaaaaaaaaaaaaaaaaaaaaaaaaaa",
"aaaaaaaaaaqdecmcccgdghssnccgggttfffjjaaaaaaaaaaaaaaaaaaaaaaaaaaa",
"aaaaaaaaauqdcrmmmccnngggvvccbbkkllljjjwwaaaaaaaaaaaaaaaaaaaaaaaa",
"aaaaaaaaaokockkchmmcnnnnggxxtmbbkkklllggggaaaaaaaaaaaaaaaaaaaaaa",
"aaaaaaaauokofffkgchmvnnnnngglmmmooqlggnnnqqjwwjaaaaaaaaaaaaaaaaa",
"aaaaaaaaukfooffjjggchmvnnnnnggqctttyfqnnmmmuuuuqqaaaaaaaaaaaaaaa",
"aaaaaaaeuzfoAlljjjjggccxxxnnnnkmttyncnmmuaaaaaafuuaaaaaaaaaaaaaa",
"aaaaaaaewzjjjAAlljjwwkgboxxxmnmmmBmmmmwCaBBBBBBBBuaaaaaaaaaaaaaa",
"aaaaaaaewzfzjjjjlllwwwwggbbmmmmmDmmmmaaBBBBBkkBBBBuaaaaaaaaaaaaa",
"aaaaaaaeEfqEEjjjjjlttwwbbggdnmmDmmmmaBBBkByBBkkggyooaaaaaaaaaaaa",
"aaaaaaaeEffhhEEjjjjjtttbbbbeqmBmmmmaBBFFBkkBBBBgggBoaaaaaaaaaaaa",
"aaaaaaafEffffrrEEjffjuqttueGGychmmaBFFFFyBkkggBBBgBoaaaaaaaaaaaa",
"aaaaaaafEfEffffrrEEffjjuqttnqEccmyaBFFFFyBkDggggggBBoaaaaaaaaaaa",
"aaaaaaafEfHHHffffhhEEffffnnnEncnmBaBFFFaaaaaaFgggggBoaaaaaaaaaaa",
"aaaaaaaffEooHHHffffrrEEffjnnEqnmBFFaaFFaIIIIIayggggBbaaaaaaaaaaa",
"aaaaaaaafEeEooHHHyfffrrHHfnEuqnmaFFFaFFFaIIIIaFHgggBbaaaaaaaaaaa",
"aaaaaaaafEEEzEbgaaazffjrrfnEuumHaFDFaaFFFaIIaggggggybaaaaaaaaaaa",
"aaaaaaaaaeEEzzaaJJaaaadwwheEoumaFFFFKaFFaLIaakgggggybaaaaaaaaaaa",
"aaaaaaaaaeFffaMaaJaMKaEdwoEoouGaFFFaKIaaLLKIIagggggybaaaaaaaaaaa",
"aaaaaaaaaafyfaMNaaaMMaEEdbEooGfaFaaKKIaLLLOKIIaggggybaaaaaaaaaaa",
"aaaaaaaaaaaaeeaMPPMLawwEzbEbolaaaKKKJIaLLMLKKIIagyyybaaaaaaaaaaa",
"aaaaaaaaaaaaaagaMLaaQkgbbwEbelaLKKKKKJaLLLMKKIIaggywbaaaaaaaaaaa",
"aaaaaaaaaaaaaaaaaLIaakggbwEbelaLKKKKKKJaLLLIIIIaggyjaaaaaaaaaaaa",
"aaaaaaaaaaaaaaaLLaaaLaagddHbeAaRKKRKKRKaLLLaaaaaggywaaaaaaaaaaaa",
"aaaaaaaaaaaaaaKKKLKaLIIaEdHbeAaRRKKLaRKaLaadcccagFjwaaaaaaaaaaaa",
"aaaaaaaaaaaaaKKKLKOOLMMaEHHbfAaRRRRaSSaaaqqqggbqFgwaaaadfffezjaa",
"aaaaaaaaaaaaKTTLKTMUMVTLaWHHfAaaRRaiXDXFYjggoobFFjwaaaaddeeeqcaa",
"aaaaaaaaaaaLKTTRTTMMaMVLLajHffhaRaiXXXXFgjkooEHWWaaaaaadeuqqddaa",
"aaaaaaaaaaaRPPTTTTTMZUMLLaaBf0caL1XXXXX2FjjFFF34444aaaadddddddaa",
"aaaaaaaaaaaRPPMTTTIIO5LLLLa6B0caL1XXXXXXBBF777384443aaaddddgd0aa",
"aaaaaaaaaaaRLPUITIIIILLLLLaaaeeoaXXXXXXX9!###33#4333#aaddFFPPPaa",
"aaaaaaaaaaLRLLOIIIIILLLLLLLaaadooaXXXaaa$V%###3333####7adPPPPMTN",
"aaaaaaaaaaJPPPOOIIILLLLLJLLaaaa0oQaaahrraa%%7##3$#####7adPPPPPMT",
"aaaaaaaaaLJJPPPOLLLLLLLJJLLaaaaadQa0hdedAla77#########aaaaaaaPTT",
"aaaaaaaaaLLPPPPKOLLLLLJJLLLaaaaaaaaidcccdla77%%7####aaaaaaaaaaaa",
"aaaaaaaaaILIPJKKKKLLLLLLLLaaaaaaaaadcgdgr0a7##%###aaWWWaaaaaaaaa",
"aaaaaaaaaLLILKKKLLLLLLLJLaa2iiaaaaa&&rrrd0a73#4KaaaWWW(aattmmaaa",
"aaaaaaaaaaLILLLLLLLLLLLaaX2222iaaaa&&&dd00a773aaWWWWWWaolWlwttta",
"aaaaaaaaaaaaaaLLLLLLLaabbbz222Xaaaa&&&&)*PaaaaWWWWWWWaslwAjAjwlt",
"aaaaaaaaaaaaaaaaaaaaak+llbbz,,HEfaa&&&*)*PaWWWWzXzX-WWallwrjAlj(",
"aaaaaaaaaaaaaaaaaaaakhkklbweEEEEjaa&&&*)*PaWWWzX..-,--aajlrijjla",
"aaaaaaaaaaaaaaaaaaaargwnklwEEEEFaaa&&&*)*9aazz////,-,---aaphAlaa",
"aaaaaaaaaaaaaaaaaaaargwnkleEEEaaaaaJ&&&&J9a-//.::,/,.,--aaaaaaaa",
"aaaaaaaaaaaaaaaaaaaalkwwkueEEaaaaaaaWWYYYaaa/;.:::;//.X-aaaaaaaa",
"aaaaaaaaaaaaaaaaaaaaalwkkueaaaaaaaaaaaaaaaaaa//;::;;;<<aaaaaaaaa",
"aaaaaaaaaaaaaaaaaaaaaabennaaaaaaaaaaaaaaaaaaaa/:;;<<<aaaaaaaaaaa",
"aaaaaaaaaaaaaaaaaaaaaaaaaaaaaaaaaaaaaaaaaaaaaaa<<<aaaaaaaaaaaaaa",
"aaaaaaaaaaaaaaaaaaaaaaaaaaaaaaaaaaaaaaaaaaaaaaaaaaaaaaaaaaaaaaaa",
"aaaaaaaaaaaaaaaaaaaaaaaaaaaaaaaaaaaaaaaaaaaaaaaaaaaaaaaaaaaaaaaa"
};
