/* XPM */
static char * obstacle1_xpm[] = {
"64 64 35 1",
"a c None",
"b c #8D6B54",
"c c #916949",
"d c #956D4F",
"e c #9E7553",
"f c #6B4D3C",
"g c #75533D",
"h c #C79C74",
"i c #AA845C",
"j c #A17A55",
"k c #583D2D",
"l c #654738",
"m c #4A3125",
"n c #3D271F",
"o c #8C6348",
"p c #7B5843",
"q c #B08760",
"r c #CAA47D",
"s c #7F5F46",
"t c #BD936D",
"u c #AE9276",
"v c #743E2C",
"w c #3E2C29",
"x c #311F1E",
"y c #4B3630",
"z c #25181A",
"A c #765D4B",
"B c #100F13",
"C c #583C36",
"D c #D3AB82",
"E c #83644D",
"F c #B29D7C",
"G c #96765C",
"H c #9A8F75",
"I c #A58167",
"aaaaaaaaaaaaaaaaaaaaaaaaaaaaaaaaaaaaaaaaaaaaaaaaaaaaaaaaaaaaaaaa",
"aaaaaaaaaaaaaaaaaaaaaaaaaaaaaaaaaaaaaaaaaaaaaaaaaaaaaaaaaaaaaaaa",
"aaaaaaaaaaaaaaaaaaaaaaaaaaaaaaaaaaaaaaaaaaaaaaaaaaaaaaaaaaaaaaaa",
"aaaaaaaaaaaaaaaaaaaaaaaaaaaaaaaaaaaaaaaaaaaaaaaaaaaaaaaaaaaaaaaa",
"aaaaaaaaaaaaaaaaaaaaaaaaaaaaaaaaaaaaaaaaaaaaaaaaaaaaaaaaaaaaaaaa",
"aaaaaaaaaaaaaaaaaaaaaaaaaaaaaaaaaaaaaaaaaaaaaaaaaaaaaaaaaaaaaaaa",
"aaaaaaaaaaaaaaaaaaaaaaaaaaaaaaabcaaaaaaaaaaaaaaaaaaaaaaaaaaaaaaa",
"aaaaaaaaaaaaaaaaaaaaaaaaaaaaaddddddaaaaaaaaaaaaaaaaaaaaaaaaaaaaa",
"aaaaaaaaaaaaaaaaaaaaaaaaaaaeefghhddijaaaaaaaaaaaaaaaaaaaaaaaaaaa",
"aaaaaaaaaaaaaaaaaaaaaaaaajeeehhffhhiiiiaaaaaaaaaaaaaaaaaaaaaaaaa",
"aaaaaaaaaaaaaaaaaaaaaakjjeehhfffffghhiiiiiaaaaaaaaaaaaaaaaaaaaaa",
"aaaaaaaaaaaaaaaaaaaajjjjhhhllfmmmmfgfhhiiiiiaaaaaaaaaaaaaaaaaaaa",
"aaaaaaaaaaaaaaaaaaiiiihhhlllnmfeegmmffghhhiiiiaaaaaaaaaaaaaaaaaa",
"aaaaaaaaaaaaaaaaiiiihhhkkknnojeppeeemmlllhhhiiiqiaaaaaaaaaaaaaaa",
"aaaaaaaaaaaaadqiijrrfffnnnjjossjeemmjjjmmkkkhhiqqqqaaaaaaaaaaaaa",
"aaaaaaaaaaaeeeeehhfllnnejjjoojjjmmjjjjjjemmmkkhhiqqqqqaaaaaaaaaa",
"aaaaaaaajjeeeehhllllndeejjjjjjkkjjjjjjjjlsssmmkkhiqqqqqqaaaaaaaa",
"aaaaaattggggggnnnnnddgggeejkkgjjjjjjjjkkjjjjjjmmkkkllllkuuaaaaaa",
"aaaaaasshheeeqqqnncdggjejkksjjjjjjjjkkjjjjjjjjmmiiiiddrrllaaaaaa",
"aaaaaassoohhejqqiinnejjvkjjjsjjjjkkkjjjjjjjsmmtticcdhhflllaaaaaa",
"aaaaaakqooocrriiiiiinnnejsssjjjkkjjjjjjjjmmnttdcccttffflblaaaaaa",
"aaaaaasmoogcccrriiiiiiinnejjjvvjjjjjjjjmntttodttttfffffwwlaaaaaa",
"aaaaaamsoocgccggrrriiiiiixnfvjjjjjjjjmmtttocttttffffwwfffmaaaaaa",
"aaaaaadnnocccccgggprriiiiiinnjjjjjjmmttccctttfffffmmfffxxyaaaaaa",
"aaaaaadfjxxoccccccppprrriiiqqnmjjkmttccctttfffffyyyffzwAyfaaaaaa",
"aaaaaadfeyxxxccccccccggrriiddttmmthoojhhtffffykkfffxxfwpyfaaaaaa",
"aaaaaadfjynlxxxcccccccgggrricllhpooehhhfffffkkffgxBfffmgyfaaaaaa",
"aaaaaadfjynpsCkxxxcccccgppsDDqtkkshhhfffffffffaaxxbfffmAyfaaaaaa",
"aaaaaabfjynssEllllxxcccdppppdgrrrllllfffffffaawyzyofffyAyfaaaaaa",
"aaaaaabfjynsssEoffkkzzcddpppdesssxlllfffffaawwwyzofffxyAyfaaaaaa",
"aaaaaabfjknsszzoofffkyzzccccgestfxkkffffzawmmffzoofffxyAffaaaaaa",
"aaaaaacsjknskzFzgooolfyyzzccggstfnlllfzzwmmffffzofffwxyAffaaaaaa",
"aaaaaabsjknpxuuzkooocoffkkzxcgstfnllzzwwmmffffzoofllxxyAffaaaaaa",
"aaaaaabsjlnnEukakoocccccppkkxxstfnnzwwwmffffffzofffzCxyAlfaaaaaa",
"aaaaaabselnaubakkoocccciaaskkcxxnnlzwwfffffffxofffzzCxyAlfaaaaaa",
"aaaaaabfelnaubakkmmocccafGaokclhgwlzlfffffffxcffffzyfxyAlfaaaaaa",
"aaaaaabfelnauEagggmmllcarGaokclhgmlxlfffffffxollfzyffxyAlfaaaaaa",
"aaaaaabfelnauuaggccfmmarGaaokcdhgmlxlffffnnxcflllxfffxyAlfaaaaaa",
"aaaaaabfelnauuagcfccccaFEakokcdhfmlxlffnnnlxclllxffffxyAlfaaaaaa",
"aaaaaabfelwEauAaffoccBFGaakokddhfmlxlxxxddxdfllxxffffxyAlgaaaaaa",
"aaaaaabfelwEauFaEoccoBFbagkkkddhfffxxxbfffxdlllxlfffwxyAlfaaaaaa",
"aaaaaabfdlwmEaFGaEocBFFzggdgkdchfffzAAfffxdfflxlfffwwxyAlgaaaaaa",
"aaaaaabfdlwsmmaFGBBBlFFaggddkdchfffzllffxdffllxllwwwlxyAlgaaaaaa",
"aaaaaabldlwssoaaHuuuuFaggdddkdohfffzlllfxdfllxlxnffglzyACgaaaaaa",
"aaaaaabldlmssocnnAuffagggdddkdohfffzlllxdfflnxmEEllllzmACgaaaaaa",
"aaaaaabldlmsoosclaaaakggggdbkdohfffzlllxbfllxlsllllllzwACgaaaaaa",
"aaaaaalmdlmssoooooffkkkdddffkdshfffxllxbfffxlllllllllxwAxxaaaaaa",
"aaaaaassnnnnssoogggdddemmdddkdshfffxlxbffflxllllllllxxxxffaaaaaa",
"aaaaaassshhDnnpgdgddllojjmmdkdphfffxlxbfffxlllllllxxGGlffyaaaaaa",
"aaaaaassssssrrnngfddcclsjjjmkdphfffzzbfffxxlllllnxGGfffwfAaaaaaa",
"aaaaaassssssssrrnnffccclpppjkdphfnlzzbfffxlmlmnnGGfffffflmaaaaaa",
"aaaaaaaassssssssrrnmmmcdpppekdghfnlxEfffxllnmmbbffllffffaaaaaaaa",
"aaaaaaaaaasssssssEhhommleppekdgtfnlxffflxnnbbbblllffffaaaaaaaaaa",
"aaaaaaaaaaaassssssEsthhnngGekdftfnlxfflxxbbbblllffffaaaaaaaaaaaa",
"aaaaaaaaaaaaaasssssssEthhmmpmdltfnlxyfxxbbllllllffaaaaaaaaaaaaaa",
"aaaaaaaaaaaaaaaapssssssbthhmmbltgnfxxyGGllllllflaaaaaaaaaaaaaaaa",
"aaaaaaaaaaaaaaaaaaassssssGGtmbktgnfxgGllllllllaaaaaaaaaaaaaaaaaa",
"aaaaaaaaaaaaaaaaaaaaassssssGGmktgnnggglllllaaaaaaaaaaaaaaaaaaaaa",
"aaaaaaaaaaaaaaaaaaaaaaasssssGGGnnngkgllllaaaaaaaaaaaaaaaaaaaaaaa",
"aaaaaaaaaaaaaaaaaaaaaaaaassssksIpngkgglaaaaaaaaaaaaaaaaaaaaaaaaa",
"aaaaaaaaaaaaaaaaaaaaaaaaaaassssIgngkgaaaaaaaaaaaaaaaaaaaaaaaaaaa",
"aaaaaaaaaaaaaaaaaaaaaaaaaaaaassIgngaaaaaaaaaaaaaaaaaaaaaaaaaaaaa",
"aaaaaaaaaaaaaaaaaaaaaaaaaaaaaaapgaaaaaaaaaaaaaaaaaaaaaaaaaaaaaaa",
"aaaaaaaaaaaaaaaaaaaaaaaaaaaaaaaaaaaaaaaaaaaaaaaaaaaaaaaaaaaaaaaa"
};
