/* XPM */
static char * obstacle3_xpm[] = {
"64 64 63 1",
"a c None",
"b c #75533D",
"c c #4A3125",
"d c #7B5843",
"e c #9A8F75",
"f c #3E2C29",
"g c #956D4F",
"h c #9E7553",
"i c #6C727D",
"j c #4B3630",
"k c #989292",
"l c #583D2D",
"m c #965241",
"n c #A85D41",
"o c #622826",
"p c #717781",
"q c #3E414C",
"r c #363B47",
"s c #8B8F99",
"t c #531920",
"u c #656362",
"v c #6F6D67",
"w c #817E80",
"x c #605E60",
"y c #555A66",
"z c #838991",
"A c #A8A9A1",
"B c #ABB2B5",
"C c #484E58",
"D c #434853",
"E c #90949D",
"F c #4F525D",
"G c #8F7F7D",
"H c #C3CBCD",
"I c #CBCBC5",
"J c #F1F3F4",
"K c #D0D1CF",
"L c #E0E1E5",
"M c #292E3C",
"N c #5F6771",
"O c #B9BFC1",
"P c #C0BFBD",
"Q c #A4ACB3",
"R c #D8D7D4",
"S c #ECEAE7",
"T c #B1B8BB",
"U c #969FA4",
"V c #D9DEDB",
"W c #33353F",
"X c #C7D7D8",
"Y c #9BA4AC",
"Z c #788088",
"0 c #B6BCC6",
"1 c #1E232C",
"2 c #8C99A3",
"3 c #262933",
"4 c #171926",
"5 c #ADB0BE",
"6 c #F9FAF7",
"7 c #100F13",
"8 c #8D6B54",
"9 c #38493D",
"! c #2F2F37",
"aaaaaaaaaaaaaaaaaaaaaaaaaaaaaaaaaaaaaaaaaaaaaaaaaaaaaaaaaaaaaaaa",
"aaaaaaaaaaaaaaaaaaaaaaaaaaaaaaaaaaaaaaaaaaaaaaaaaaaaaaaaaaaaaaaa",
"aaaaaaaaaaaaaaaaaaaaaaaaaaaaaaaaaaaaaaaaaaaaaaaaaaaaaaaaaaaaaaaa",
"aaaaaaaaaaaaaaaaaaaaaaaaaaaaaaaaaaaaaaaaaaaaaaaaaaaaaaaaaaaaaaaa",
"aaaaaaaaaaaaaaaaaaaaaaaaaaaaaaaaaaaaaaaaaaaaaaaaaaaaaaaaaaaaaaaa",
"aaaaaaaaaaaaaaaaaaaaaaaaaaaaaaaaaaaaaaaaaaaaaaaaaaaaaaaaaaaaaaaa",
"aaaaaaaaaaaaaaaaaaaaaaaaaaaaaaaaaaaaaaaaaaaaaaabccdaaaaaaaaaaaaa",
"aaaaaaaaaaaaaaaaaaaaaaaaaaaaaaaaaaaaaaaaaaaaaaefaaccghaaaaaaaaaa",
"aaaaaaaaaaaaaaaaaaaaaaaaaaaaaaaaaaaaaaaaaaaaaijaaaaacchhaaaaaaaa",
"aaaaaaaaaaaaaaaaaaaaaaaaaaaaaaaaaaaaaaaaaaaakiaaaaaaaaallmnaaaaa",
"aaaaaaaaaaaaaaaaaaaaaaaaaaaaaaaaaaaaaaaaaaaaiaaaaaaaaaaaaooomnaa",
"aaaaaaaaaaaaaaaaaaaaaaaaaaaaaaaaaaaaaaaaaaappaaaaaaaaaaaaaaaoomm",
"aaaaaaaaaaaaaaaaaaaaaaaaaaaaaaaaaaaaaaaaaaapqrssaaaaaaaaaaaaaatt",
"aaaaaaaaaaaaaaaaaaaaaaaaaaaaaaaaaaaaaaaauvawaaaassaaaaaaaaaaaaaa",
"aaaaaaaaaaaaaaaaaaaaaaaaaaaaaaaaaaaaaaxuaaayaaaqaazwaaaaaaaaaaaA",
"aaaaaaaaaaaaaaaaaaaaaaaaaaaaaaaaaaavuuaaaaayaaaqaaaaBwzaaaaaaaAA",
"aaaaaaaaaaaaaaaaaaaaaaaaaaaaaaaapiiaaaaCaaayaaaraaDaaaaEkaaaaaAa",
"aaaaaaaaaaaaaaaaaaaaaaaaaaaaaaiiaaaqaaaDaaayaaraaaDaaFaaawGGaAAa",
"aaaaaaaaaaaaaaaaaaaaaaaaaaavvaaaaaaqaaaDaaFaaaraaHDaaFaaaaaaaAaa",
"aaaaaaaaaaaaaaaaaaaaaaaavvvaaaaraaaqaaaDaaFaaaqaaCaaaFaaaaaIJzaa",
"aaaaaaaaaaaaaaaaaaaaavvvaaaqaaaraaaqaaaCaaFaaaqaaFaaaFaaaKIIazaa",
"aaaaaaaaaaaaaaaaaaaipaaaaaaqaaaraaaqaaDCCaFaqqqaaFKaaaHHIaaaaEaa",
"aaaaaaaaaaaaaaaawwaaaaaraaaqaaaqaaaqDDDHaaFaarLMNaaOPPaaqDHaQaaa",
"aaaaaaaaaaaaaaaIaaJraaaqaaaqaaaqHqqqaaDHaFFaaraaaKKaaaIzqaaaQaaa",
"aaaaaaaaaaaaaaaBRaaraaaqaaaqaarDqaqIaaDHaFaIaaKKKaaHqSrTqaaaQaaa",
"aaaaaaaaaaaaaaaaaKRaaaaqaaaqqqKqaaqaaaDKaaaaKKaaaraHqrraqaaUsaaa",
"aaaaaaaaaaaaaaaaEaaPPaaqaqqqaaaqaaqaaaaaaKKKaaKqKrarrLCTqraUaaaa",
"aaaaaaaaaaaaaaaaEVqaaRRWaVaqaaaqaaDaaapVRaaaVDKrXrarrLYZYLaUaaaa",
"aaaaaaaaaaaaaaaaPVqqOaa00aaaaaaDaaaaVVaaaaYWVDXrRWaraW00WWWUaaaa",
"aaaaaaaaaaaaaaaaEDqqarOaaFOPaaaaaBBBaazai1YrVqXrRrOzHH23aaEaaaaa",
"aaaaaaaaaaaaaaaaODOqOrarHaaaTTTTTaaaaaz1i1YrVqXr2OOsHr2MaaEaaaaa",
"aaaaaaaaaaaaaaaaC0000r0rHWOaaaaaaVNHaaz1D1Yrrqq22ECzHW2MaaEaaaaa",
"aaaaaaaaaaaaaaaaa0qq000rHWO4aqQ3aasMMMz111YYH2UUqaiXFHp3asEaaaaa",
"aaaaaaaaaaaaaaaaaOrq0r0OrWO1arB1arsMMMzDXRNHaO3UraiXFHpaasaaaaaa",
"aaaaaaaaaaaaaaaaaTrqiar0O0O1arB3DqBMQQYQ4MEMJ41UraiXyHiaasaaaaaa",
"aaaaaaaaaaaaaaaaaOOrNarTMM0OqrB11QQQQ3Y1TTTW1HYYrMiiBBHaisaaaaaa",
"aaaaaaaaaaaaaaaaaYTTTrW5LMZWOpBTLQQ313Y111TMS3MzTTTzVrKaEaaaaaaa",
"aaaaaaaaaaaaaaaaaQMMTBBBWrKrWrB1rNQ360U3VzzM3EzB11z7aWHaEaaaaaaa",
"aaaaaaaaaaaaaaaaaQMMTWWQBWKWVrB31rQMMMU33zzzRz53Xzz4Szrasaaaaaaa",
"aaaaaaaaaaaaaaaaazBMMIIMBTBrrrBMSMQMMYUUH3z3MMLpXMz11zzZzaaaaaaa",
"aaaaaaaaaaaaaaaaaaazQMMHrrBTTrBM3zQQRWYMMHz3SMZWMZzzzzaaaaaaaaaa",
"aaaaaaaaaaaaaaaaaaaaaTTrrHHrTEQsTNQarNKM23Z3ZZZZZZaaaaayaaaaaaaa",
"aaaaaaaaaaaaaaaaaaaaaaaYTMWrTrQMTTiL1rzMMYZpaaaaaaaaaaayiaaaaaaa",
"aaaaaaaaaaaaaaaaaaaaaaaaa2ETrrQMMMi1ZzzzzaaaKayaaaaaaaaaiaaaaaaa",
"aaaaaaaaaaaaaaaaaaaaaaaaaaaiTpQMyUiUCaaaaaaaaayaaaaaaaaaaZaaaaaa",
"aaaaaaaaaaaaaaaaaaaaaaaaaaaaaaQQUUaaaaaaryaaaawaaaaaaaaaapaaaaaa",
"aaaaaaaaaaaaaaaaaaaaaaaaaaaaCCaaaaaaaa44rr1aaaaUaaaaaaaaXapaaaaa",
"aaaaaaaaaaaaaaaaaaaaaaaaaaFFCaaaaaaaaa41111aaaaUaaaaaaaaaaiaaaaa",
"aaaaaaaaaaaaaaaaaaaaaaaFyxaaaaaaaaaaaaa111aaaaaUaaaaaaaapppaaaaa",
"aaaaaaaaaaaaaaaaaaaaayyxaaaaaaaaaaaaaaaaaaaaaaNUaaaaawwwFaaaaaaa",
"aaaaaaaaaaaaaaaaaaEryaaaaaaaaaaaaaaaaaaaaaaaaEkaaaZZwwaaaaaaaaaa",
"aaaaaaaaaaaaaaaaaaEaaaaaaaaaaaaaaaaaaaaaaaaaaaaiipaaaaWWxuaaaaaa",
"aaaaaaaaaaaaaaaaaaEkTaaaaaaaaaaaaaaaaaaaaaaUUNvaaaaaaaaaaaaaaaaa",
"aaaaaaaaaaaaaaaaaaaazBBaaaaaaaaaaaaaaaaawwwpaaaaaaaaaaraaaaaaaaa",
"aaaaaaaaaaaaaaaaaaMaaaNBBaaaaaaaaaaazzwwwaaaaaaaaaaaaaraaaWaaaaa",
"aaaaaaaaaaaaaaaaaaMaAaaaaPPaaaaaakkzwaaaaaaaaaaaaaaaaarWaWWaaaaa",
"aaaaaaaaaaaaaaaaaaWMaWaaaaaTBBTTT9aaaaaaaaaaaaaaaaaaaaaWWWaaaaaa",
"aaaaaaaaaaaaaaaaaaaaaaaaaaaaaaaaaaAaaaaaaaaaaaaaaaaaaaaaaaaaaaaa",
"aaaaaaaaaaaaaaaaaaaaaaaaaaaaaaaaakAaaaaaaaaaaaaaaaaaaaaaaaaaaaaa",
"aaaaaaaaaaaaaaaaaaaaaaaaaaaaaaaraAQaaaaaaaaaaaaaaaaaaaaaaaaaaaaa",
"aaaaaaaaaaaaaaaaaaaaaaaaaaaaaaaraAaWaaaaaaaaaaaaaaaaaaaaaaaaaaaa",
"aaaaaaaaaaaaaaaaaaaaaaaaaaaaaaaWWaWWaaaaaaaaaaaaaaaaaaaaaaaaaaaa",
"aaaaaaaaaaaaaaaaaaaaaaaaaaaaaaaa!WWaaaaaaaaaaaaaaaaaaaaaaaaaaaaa",
"aaaaaaaaaaaaaaaaaaaaaaaaaaaaaaaaaaaaaaaaaaaaaaaaaaaaaaaaaaaaaaaa"
};
