/* XPM */
static char * shield_aura_xpm[] = {
"64 64 21 1",
" 	c #FF00FF",
"a	c #FFFACD",
"b	c #F9E79F",
"c	c #FFDD00",
"d	c #FFEE66",
"e	c #CCAA00",
"f	c #FFFFAA",
"g	c #FFFF44",
"h	c #FFCC00",
"i	c #FFEE44",
"j	c #FFFF99",
"k	c #DDCC44",
"l	c #FFFFCC",
"m	c #FFD700",
"n	c #E8C547",
"o	c #FDE68A",
"p	c #CC9966",
"q	c #CCCC33",
"r	c #CCCC66",
"s	c #CCCC99",
"t	c #FFCC33",
"                                                                ",
"                                                                ",
"                                                                ",
"                                                                ",
"                                                                ",
"                                                                ",
"                                                                ",
"                                                                ",
"                                                                ",
"                                                                ",
"                                                                ",
"                           rrkqkqkrrs                           ",
"                           kkqeheqqqn                           ",
"                       rrnnitttccitttnndo                       ",
"                     kkniitititttttttitiidr                     ",
"                   rqqtiidddiiitttttcccccikkr                   ",
"                  kketidofjjjdgtiigiitccciteqk                  ",
"                 nqttinjfallfrdidddodkicccittqn                 ",
"                dtiitijfa            briitttthtk                ",
"               oitttdjf                 dititicer               ",
"               kitinjl                   odkttchq               ",
"              ditikjb                      diittqk              ",
"              ktttdf                        dtmctk              ",
"             rqttij                          iictqr             ",
"             ntctib                          ditctn             ",
"             ntctk                           riictn             ",
"             itmid                            dtctk             ",
"           rqimiio                             ittqkr           ",
"           rktttd                              ktttkr           ",
"           rqttij                              otttqn           ",
"           nqttdf                              oitiqn           ",
"           ketin                               fiitqk           ",
"           kqtid                               liciqk           ",
"           rqkd                                adidkp           ",
"           rroo                                                 ",
"                                                                ",
"                                                                ",
"                                                                ",
"                                                                ",
"                                                                ",
"                                                                ",
"                                                                ",
"                                                                ",
"                                                                ",
"                                                                ",
"                                                                ",
"                                                                ",
"                                                                ",
"                                                                ",
"                                                                ",
"                                                                ",
"                                                                ",
"                                                                ",
"                                                                ",
"                                                                ",
"                                                                ",
"                                                                ",
"                                                                ",
"                                                                ",
"                                                                ",
"                                                                ",
"                                                                ",
"                                                                ",
"                                                                "
};
