/* XPM */
static char * shield_xpm[] = {
"64 64 21 1",
" 	c #FF00FF",
"a	c #CCCCCC",
"b	c #999999",
"c	c #666666",
"d	c #333333",
"e	c #F0F0F0",
"f	c #2A2A2A",
"g	c #383838",
"h	c #444444",
"i	c #555555",
"j	c #F8F8F8",
"k	c #282828",
"l	c #EEEEEE",
"m	c #7A7A7A",
"n	c #4A4A4A",
"o	c #D6EAF8",
"p	c #777777",
"q	c #505050",
"r	c #686868",
"s	c #F4F4F4",
"t	c #AAAAAA",
"                                                                ",
"                                                                ",
"                                                                ",
"                                                                ",
"                                                                ",
"                                                                ",
"                                                                ",
"                                                                ",
"                                                                ",
"                                                                ",
"                              aamm                              ",
"                             aaammb                             ",
"                          aaaaaammmmmm                          ",
"                       aaataaaa  mmptmbmp                       ",
"                   aaaaaaaaoa  mi  bmmmmmmmmp                   ",
"               ttttttraaaa   mmtmic   ppmammmmpmm               ",
"               tttataa    prpttambqici    mmmpmam               ",
"               tml    iicbbbttaapmmmmciicn   km m               ",
"               tt rpmctbbaabattabpmpbpmcicciii mm               ",
"               tt pbbtaaaatttttammmmmmmpicnqmc mm               ",
"               tt rbbtaaaatttttammmmmmmmiirimi mm               ",
"               ttfpbtaaaaatbtatammmmmmmmicqimi mm               ",
"               tt rbtbaaaabttbtammmmmmmmcqcqmi mm               ",
"               tt pbbtaaaatbbtbammmmmmmmiiiimi em               ",
"               mm rbbbaaaabbbbbammmmmmmmiiicmikim               ",
"               ttfrtbtaaaabbbbbammmmmmmmcqiimi mm               ",
"               ta pbtbaaaabbbbbammmmmmmmiicqmc pm               ",
"               tt ptbtaaaabbbbbammmmmmmmiiicmqfmm               ",
"               tt rbbtaaaabbbbbammmmmmmmiciqmq mp               ",
"               tta ptbaaaabbbbbammmmmmmmichcrfmmm               ",
"               pat rbtaaaabbbbbammmmmmmmiccqrfpap               ",
"                bt ptbaaaabbbbbammmmmmmmiiicr mm                ",
"                bt pbtaaaabbbbbammmmmmmmiicip mm                ",
"                tt rbbaaaabbbbbammmmmmmmiiqcifbm                ",
"                tta pbtaaabbbbbammmmmmmpcciikmmm                ",
"                tta rttaaabbbbbammmmmmmcqcqc mmm                ",
"                 tl ptbaaabbbbbammmmmmmicirq bm                 ",
"                 tlr btaaabbbbbammmmmmmciiig tm                 ",
"                 b s tbbaabbbbbammmmmmpciiqdbmm                 ",
"                 bbl bbtaabbbbbammmmmmciiiikbmm                 ",
"                  bbe tbaaabbtbammmmmmiiii bmr                  ",
"                  btl btbobttbbampmmmmiiii trr                  ",
"                   bbl bbatbbbtambmmmiiii brr                   ",
"                   ttlj bpatbbbammmmiici mrrp                   ",
"                    tcbb ttbttbampbbcii mrcp                    ",
"                     tbbs btbbbambmnic mprp                     ",
"                      bbbe btttamtiic mprp                      ",
"                       bbbl tbbamqri brrr                       ",
"                        bbbl bbaiii tprr                        ",
"                         tbgs  bc  rrrr                         ",
"                          tbbba  pcprr                          ",
"                           bttbarpmrp                           ",
"                             tbaprc                             ",
"                              brrp                              ",
"                                                                ",
"                                                                ",
"                                                                ",
"                                                                ",
"                                                                ",
"                                                                ",
"                                                                ",
"                                                                ",
"                                                                ",
"                                                                "
};
