/* XPM */
static char *digit_4[] = {
"24 32 3 2",
"aa c #F4F4F4",
"ab c #000000",
"ac c #FF00FF",
/* pixels */
"acacacacacacacacacacacabaaaaaaaaaaaaaaaaabacacac",
"acacacacacacacacacacacabaaaaaaaaaaaaaaaaabacacac",
"acacacacacacacacacacacabaaaaaaaaaaaaaaaaabacacac",
"acacacacacacacacacacacabaaaaaaaaaaaaaaaaabacacac",
"acacacacacacacabababababaaaaaaaaaaaaaaaaabacacac",
"acacacacacacacabaaaaaaaaababababaaaaaaaaabacacac",
"acacacacacacacabaaaaaaaaabacacabaaaaaaaaabacacac",
"acacacacacacacabaaaaaaaaabacacabaaaaaaaaabacacac",
"acacacabababababaaaaaaaaabacacabaaaaaaaaabacacac",
"acacacabaaaaaaaaabababababacacabaaaaaaaaabacacac",
"acacacabaaaaaaaaabacacacacacacabaaaaaaaaabacacac",
"acacacabaaaaaaaaabacacacacacacabaaaaaaaaabacacac",
"acacacabaaaaaaaaabacacacacacacabaaaaaaaaabacacac",
"ababababaaaaaaaaabacacacacacacabaaaaaaaaabacacac",
"aaaaaaaaabababababacacacacacacabaaaaaaaaabacacac",
"aaaaaaaaabacacacacacacacacacacabaaaaaaaaabacacac",
"aaaaaaaaabacacacacacacacacacacabaaaaaaaaabacacac",
"aaaaaaaaababababababababababababaaaaaaaaabababab",
"aaaaaaaaaaaaaaaaaaaaaaaaaaaaaaaaaaaaaaaaaaaaaaaa",
"aaaaaaaaaaaaaaaaaaaaaaaaaaaaaaaaaaaaaaaaaaaaaaaa",
"aaaaaaaaaaaaaaaaaaaaaaaaaaaaaaaaaaaaaaaaaaaaaaaa",
"aaaaaaaaaaaaaaaaaaaaaaaaaaaaaaaaaaaaaaaaaaaaaaaa",
"aaaaaaaaaaaaaaaaaaaaaaaaaaaaaaaaaaaaaaaaaaaaaaaa",
"ababababababababababababababababaaaaaaaaabababab",
"acacacacacacacacacacacacacacacabaaaaaaaaabacacac",
"acacacacacacacacacacacacacacacabaaaaaaaaabacacac",
"acacacacacacacacacacacacacacacabaaaaaaaaabacacac",
"acacacacacacacacacacacacacacacabaaaaaaaaabacacac",
"acacacacacacacacacacacacacacacabaaaaaaaaabacacac",
"acacacacacacacacacacacacacacacabaaaaaaaaabacacac",
"acacacacacacacacacacacacacacacabaaaaaaaaabacacac",
"acacacacacacacacacacacacacacacabaaaaaaaaabacacac"
};
