/* XPM */
static char *digit_5[] = {
"24 32 3 2",
"aa c #F4F4F4",
"ab c #000000",
"ac c #FF00FF",
/* pixels */
"aaaaaaaaaaaaaaaaaaaaaaaaaaaaaaaaaaaaaaaaaaaaaaaa",
"aaaaaaaaaaaaaaaaaaaaaaaaaaaaaaaaaaaaaaaaaaaaaaaa",
"aaaaaaaaaaaaaaaaaaaaaaaaaaaaaaaaaaaaaaaaaaaaaaaa",
"aaaaaaaaaaaaaaaaaaaaaaaaaaaaaaaaaaaaaaaaaaaaaaaa",
"aaaaaaaaaaaaaaaaaaaaaaaaaaaaaaaaaaaaaaaaaaaaaaaa",
"aaaaaaaaabababababababababababababababababababab",
"aaaaaaaaabacacacacacacacacacacacacacacacacacacac",
"aaaaaaaaabacacacacacacacacacacacacacacacacacacac",
"aaaaaaaaabacacacacacacacacacacacacacacacacacacac",
"aaaaaaaaabacacacacacacacacacacacacacacacacacacac",
"aaaaaaaaabacacacacacacacacacacacacacacacacacacac",
"aaaaaaaaabacacacacacacacacacacacacacacacacacacac",
"aaaaaaaaabacacacacacacacacacacacacacacacacacacac",
"aaaaaaaaabababababababababababababababababacacac",
"aaaaaaaaaaaaaaaaaaaaaaaaaaaaaaaaaaaaaaaaabacacac",
"aaaaaaaaaaaaaaaaaaaaaaaaaaaaaaaaaaaaaaaaabacacac",
"aaaaaaaaaaaaaaaaaaaaaaaaaaaaaaaaaaaaaaaaabacacac",
"aaaaaaaaaaaaaaaaaaaaaaaaaaaaaaaaaaaaaaaaabababab",
"ababababababababababababababababababababaaaaaaaa",
"acacacacacacacacacacacacacacacacacacacabaaaaaaaa",
"acacacacacacacacacacacacacacacacacacacabaaaaaaaa",
"acacacacacacacacacacacacacacacacacacacabaaaaaaaa",
"abababababacacacacacacacacacacacacacacabaaaaaaaa",
"aaaaaaaaabacacacacacacacacacacacacacacabaaaaaaaa",
"aaaaaaaaabacacacacacacacacacacacacacacabaaaaaaaa",
"aaaaaaaaabacacacacacacacacacacacacacacabaaaaaaaa",
"aaaaaaaaababababababababababababababababaaaaaaaa",
"ababababaaaaaaaaaaaaaaaaaaaaaaaaaaaaaaaaabababab",
"acacacabaaaaaaaaaaaaaaaaaaaaaaaaaaaaaaaaabacacac",
"acacacabaaaaaaaaaaaaaaaaaaaaaaaaaaaaaaaaabacacac",
"acacacabaaaaaaaaaaaaaaaaaaaaaaaaaaaaaaaaabacacac",
"acacacabaaaaaaaaaaaaaaaaaaaaaaaaaaaaaaaaabacacac"
};
