/* XPM */
static char *digit_9[] = {
"24 32 3 2",
"aa c #F4F4F4",
"ab c #000000",
"ac c #FF00FF",
/* pixels */
"acacacabaaaaaaaaaaaaaaaaaaaaaaaaaaaaaaaaabacacac",
"acacacabaaaaaaaaaaaaaaaaaaaaaaaaaaaaaaaaabacacac",
"acacacabaaaaaaaaaaaaaaaaaaaaaaaaaaaaaaaaabacacac",
"acacacabaaaaaaaaaaaaaaaaaaaaaaaaaaaaaaaaabacacac",
"ababababaaaaaaaaaaaaaaaaaaaaaaaaaaaaaaaaabababab",
"aaaaaaaaababababababababababababababababaaaaaaaa",
"aaaaaaaaabacacacacacacacacacacacacacacabaaaaaaaa",
"aaaaaaaaabacacacacacacacacacacacacacacabaaaaaaaa",
"aaaaaaaaabacacacacacacacacacacacacacacabaaaaaaaa",
"aaaaaaaaabacacacacacacacacacacacacacacabaaaaaaaa",
"aaaaaaaaabacacacacacacacacacacacacacacabaaaaaaaa",
"aaaaaaaaabacacacacacacacacacacacacacacabaaaaaaaa",
"aaaaaaaaabacacacacacacacacacacacacacacabaaaaaaaa",
"aaaaaaaaababababababababababababababababaaaaaaaa",
"ababababaaaaaaaaaaaaaaaaaaaaaaaaaaaaaaaaaaaaaaaa",
"acacacabaaaaaaaaaaaaaaaaaaaaaaaaaaaaaaaaaaaaaaaa",
"acacacabaaaaaaaaaaaaaaaaaaaaaaaaaaaaaaaaaaaaaaaa",
"acacacabaaaaaaaaaaaaaaaaaaaaaaaaaaaaaaaaaaaaaaaa",
"acacacabababababababababababababababababaaaaaaaa",
"acacacacacacacacacacacacacacacacacacacabaaaaaaaa",
"acacacacacacacacacacacacacacacacacacacabaaaaaaaa",
"acacacacacacacacacacacacacacacacacacacabaaaaaaaa",
"abababababacacacacacacacacacacacacacacabaaaaaaaa",
"aaaaaaaaabacacacacacacacacacacacacacacabaaaaaaaa",
"aaaaaaaaabacacacacacacacacacacacacacacabaaaaaaaa",
"aaaaaaaaabacacacacacacacacacacacacacacabaaaaaaaa",
"aaaaaaaaababababababababababababababababaaaaaaaa",
"ababababaaaaaaaaaaaaaaaaaaaaaaaaaaaaaaaaabababab",
"acacacabaaaaaaaaaaaaaaaaaaaaaaaaaaaaaaaaabacacac",
"acacacabaaaaaaaaaaaaaaaaaaaaaaaaaaaaaaaaabacacac",
"acacacabaaaaaaaaaaaaaaaaaaaaaaaaaaaaaaaaabacacac",
"acacacabaaaaaaaaaaaaaaaaaaaaaaaaaaaaaaaaabacacac"
};
