/* XPM */
static char *digit_7[] = {
"24 32 3 2",
"aa c #F4F4F4",
"ab c #000000",
"ac c #FF00FF",
/* pixels */
"aaaaaaaaaaaaaaaaaaaaaaaaaaaaaaaaaaaaaaaaaaaaaaaa",
"aaaaaaaaaaaaaaaaaaaaaaaaaaaaaaaaaaaaaaaaaaaaaaaa",
"aaaaaaaaaaaaaaaaaaaaaaaaaaaaaaaaaaaaaaaaaaaaaaaa",
"aaaaaaaaaaaaaaaaaaaaaaaaaaaaaaaaaaaaaaaaaaaaaaaa",
"aaaaaaaaaaaaaaaaaaaaaaaaaaaaaaaaaaaaaaaaaaaaaaaa",
"ababababababababababababababababababababaaaaaaaa",
"acacacacacacacacacacacacacacacacacacacabaaaaaaaa",
"acacacacacacacacacacacacacacacacacacacabaaaaaaaa",
"acacacacacacacacacacacacacacacabababababaaaaaaaa",
"acacacacacacacacacacacacacacacabaaaaaaaaabababab",
"acacacacacacacacacacacacacacacabaaaaaaaaabacacac",
"acacacacacacacacacacacacacacacabaaaaaaaaabacacac",
"acacacacacacacacacacacacacacacabaaaaaaaaabacacac",
"acacacacacacacacacacacabababababaaaaaaaaabacacac",
"acacacacacacacacacacacabaaaaaaaaabababababacacac",
"acacacacacacacacacacacabaaaaaaaaabacacacacacacac",
"acacacacacacacacacacacabaaaaaaaaabacacacacacacac",
"acacacacacacacabababababaaaaaaaaabacacacacacacac",
"acacacacacacacabaaaaaaaaabababababacacacacacacac",
"acacacacacacacabaaaaaaaaabacacacacacacacacacacac",
"acacacacacacacabaaaaaaaaabacacacacacacacacacacac",
"acacacacacacacabaaaaaaaaabacacacacacacacacacacac",
"acacacabababababaaaaaaaaabacacacacacacacacacacac",
"acacacabaaaaaaaaabababababacacacacacacacacacacac",
"acacacabaaaaaaaaabacacacacacacacacacacacacacacac",
"acacacabaaaaaaaaabacacacacacacacacacacacacacacac",
"acacacabaaaaaaaaabacacacacacacacacacacacacacacac",
"acacacabaaaaaaaaabacacacacacacacacacacacacacacac",
"acacacabaaaaaaaaabacacacacacacacacacacacacacacac",
"acacacabaaaaaaaaabacacacacacacacacacacacacacacac",
"acacacabaaaaaaaaabacacacacacacacacacacacacacacac",
"acacacabaaaaaaaaabacacacacacacacacacacacacacacac"
};
