/* XPM */
static char *digit_2[] = {
"24 32 3 2",
"aa c #F4F4F4",
"ab c #000000",
"ac c #FF00FF",
/* pixels */
"acacacabaaaaaaaaaaaaaaaaaaaaaaaaaaaaaaaaabacacac",
"acacacabaaaaaaaaaaaaaaaaaaaaaaaaaaaaaaaaabacacac",
"acacacabaaaaaaaaaaaaaaaaaaaaaaaaaaaaaaaaabacacac",
"acacacabaaaaaaaaaaaaaaaaaaaaaaaaaaaaaaaaabacacac",
"ababababaaaaaaaaaaaaaaaaaaaaaaaaaaaaaaaaabababab",
"aaaaaaaaababababababababababababababababaaaaaaaa",
"aaaaaaaaabacacacacacacacacacacacacacacabaaaaaaaa",
"aaaaaaaaabacacacacacacacacacacacacacacabaaaaaaaa",
"aaaaaaaaabacacacacacacacacacacacacacacabaaaaaaaa",
"abababababacacacacacacacacacacacacacacabaaaaaaaa",
"acacacacacacacacacacacacacacacacacacacabaaaaaaaa",
"acacacacacacacacacacacacacacacacacacacabaaaaaaaa",
"acacacacacacacacacacacacacacacacacacacabaaaaaaaa",
"acacacacacacacacacacacabababababababababaaaaaaaa",
"acacacacacacacacacacacabaaaaaaaaaaaaaaaaabababab",
"acacacacacacacacacacacabaaaaaaaaaaaaaaaaabacacac",
"acacacacacacacacacacacabaaaaaaaaaaaaaaaaabacacac",
"acacacabababababababababaaaaaaaaaaaaaaaaabacacac",
"acacacabaaaaaaaaaaaaaaaaabababababababababacacac",
"acacacabaaaaaaaaaaaaaaaaabacacacacacacacacacacac",
"acacacabaaaaaaaaaaaaaaaaabacacacacacacacacacacac",
"acacacabaaaaaaaaaaaaaaaaabacacacacacacacacacacac",
"ababababaaaaaaaaaaaaaaaaabacacacacacacacacacacac",
"aaaaaaaaabababababababababacacacacacacacacacacac",
"aaaaaaaaabacacacacacacacacacacacacacacacacacacac",
"aaaaaaaaabacacacacacacacacacacacacacacacacacacac",
"aaaaaaaaabababababababababababababababababababab",
"aaaaaaaaaaaaaaaaaaaaaaaaaaaaaaaaaaaaaaaaaaaaaaaa",
"aaaaaaaaaaaaaaaaaaaaaaaaaaaaaaaaaaaaaaaaaaaaaaaa",
"aaaaaaaaaaaaaaaaaaaaaaaaaaaaaaaaaaaaaaaaaaaaaaaa",
"aaaaaaaaaaaaaaaaaaaaaaaaaaaaaaaaaaaaaaaaaaaaaaaa",
"aaaaaaaaaaaaaaaaaaaaaaaaaaaaaaaaaaaaaaaaaaaaaaaa"
};
