/* XPM */
static char *blossom_mossy_rock_xpm[] = {
"64 64 19 1",
"a c #FF00FF",
"b c #A8A298",
"c c #8B944C",
"d c #959387",
"e c #788746",
"f c #818078",
"g c #8F6B57",
"h c #696964",
"i c #83634B",
"j c #6A653F",
"k c #5D5E56",
"l c #555B3D",
"m c #6A4933",
"n c #4A4C49",
"o c #3F4536",
"p c #583A27",
"q c #472E1D",
"r c #2D332F",
"s c #000000",
/* pixels */
"aaaaaaaaaaaaaaaaaaaaaaaaaaaaaaaaaaaaaaaaaaaaaaaaaaaaaaaaaaaaaaaa",
"aaaaaaaaaaaaaaaaaaaaaaaaaaaaaaaaaaaaaaaaaaaaaaaaaaaaaaaaaaaaaaaa",
"aaaaaaaaaaaaaaaaaaaaaaaaaaaaaaaaaaaaaaaaaaaaaaaaaaaaaaaaaaaaaaaa",
"aaaaaaaaaaaaaaaaaaaaaaaaaaaaaaaaaaaaaaaaaaaaaaaaaaaaaaaaaaaaaaaa",
"aaaaaaaaaaaaaaaaaaaaaaaaaaaaaaaaaaaaaaaaaaaaaaaaaaaaaaaaaaaaaaaa",
"aaaaaaaaaaaaaaaaaaaaaaaaaaaaaaaaaaaaaaaaaaaaaaaaaaaaaaaaaaaaaaaa",
"aaaaaaaaaaaaaaaaaaaaaaaaaaaaaaaaaaaaaaaaaaaaaaaaaaaaaaaaaaaaaaaa",
"aaaaaaaaaaaaaaaaaaaaaaaaaaaaaaaaaaaaaaaaaaaaaaaaaaaaaaaaaaaaaaaa",
"aaaaaaaaaaaaaaaaaaaaaaaaaaaaaaaaaaaaaaaaaaaaaaaaaaaaaaaaaaaaaaaa",
"aaaaaaaaaaaaaaaaaaaaaaaaaaaaaaaaaaaaaaaaaaaaaaaaaaaaaaaaaaaaaaaa",
"aaaaaaaaaaaaaaaaaaaaaaaaaaaaaaaaaaaaaaaaaaaaaaaaaaaaaaaaaaaaaaaa",
"aaaaaaaaaaaaaaaaaaaaaaaaaaaaaaaaaaaaaaaaaaaaaaaaaaaaaaaaaaaaaaaa",
"aaaaaaaaaaaaaaaaaaaaaaaaaaaaaaaaaaaaaaaaaaaaaaaaaaaaaaaaaaaaaaaa",
"aaaaaaaaaaaaaaaaaaaaaaaaaaaaaaaassssssaaaaaaaaaaaaaaaaaaaaaaaaaa",
"aaaaaaaaaaaaaaaaaaaaaaaaaaaaasssjjjjjlsssaaaaaaaaaaaaaaaaaaaaaaa",
"aaaaaaaaaaaaaaaaaaaaaaaaaasssjjjeeejjjjllssaaaaaaaaaaaaaaaaaaaaa",
"aaaaaaaaaaaaaaaaaaaaaaaassjjjjcjeeeeeeelellsaaaaaaaaaaaaaaaaaaaa",
"aaaaaaaaaaaaaaaaaaaaaaasjjccccccjeeeeeeleellsaaaaaaaaaaaaaaaaaaa",
"aaaaaaaaaaaaaaaaaaaaaasjlcccccccjjjeeeeleeeesaaaaaaaaaaaaaaaaaaa",
"aaaaaaaaaaaaaaaaaaaaasjjjllccjjccjjeellleeeeesaaaaaaaaaaaaaaaaaa",
"aaaaaaaaaaaaaaaaaaaasjjjeeeoojjjccjjjeeelleeesaaaaaaaaaaaaaaaaaa",
"aaaaaaaaaaaaaaaaaaaskjddeoofojjoojojjeoojeeeejsaaaaaaaaaaaaaaaaa",
"aaaaaaaaaaaaaaaaaaaskfdolffffoooboojjoodeeelelsaaaaaaaaaaaaaaaaa",
"aaaaaaaaaaaaaaaaaaskkfffffffffobbbboooddjoolloosaaaaaaaaaaaaaaaa",
"aaaaaaaaaaaaaaaaaaskfffffffffffffflddddjohhoooosaaaaaaaaaaaaaaaa",
"aaaaaaaaaaaaaaaaaskkkffffffffffkffffddookhkohooosaaaaaaaaaaaaaaa",
"aaaaaaaaaaaaaaaaaskkkkfffffffflfkkhhhoookhhhhooosaaaaaaaaaaaaaaa",
"aaaaaaaaaaaaaaaaskkkkkkkffffffffkkkoooookhhhhhooosaaaaaaaaaaaaaa",
"aaaaaaaaaaaaaaaaseekkkkkkkfffkkkkfoooookkhhhhhhojsaaaaaaaaaaaaaa",
"aaaaaaaaaaaaaaaseeejnnkkkkkkkkkkkfookookkhhhhhokjjsaaaaaaaaaaaaa",
"aaaaaaaaaaaaaaslleejjjnnnkkkkkkkkkokokkkkkhffkkkffosaaaaaaaaaaaa",
"aaaaaaaaaaaaasllllecjjjjjjoooeeekkkkkkkkkkffflfnnooosaaaaaaaaaaa",
"aaaaaaaaaaaaaslllllcjccjjjllleeeokkkkkkkkkfflllnnooosaaaaaaaaaaa",
"aaaaaaaaaaaasllfllllcccccccleeeokdkkfkkkkkfllllnssoosaaaaaaaaaaa",
"aaaaaaaaaaaaslfffoolcjjcccceeeoodkkbkkkkkkkllsssggsoosaaaaaaaaaa",
"aaaaaaaaaaasllfffokoooooolleoohodbbbsssssssssgggppsoosaaaaaaaaaa",
"aaaaaaaaaaaslfffffhhoookkolookhfbbbfsiigggggggppssooosaaaaaaaaaa",
"aaaaaaaaaaskkfffffkkookoooohooffffbfsppqqqppppssooooosaaaaaaaaaa",
"aaaaaaaaaaskkffffkkkkokhhhhhhoofffffksssssssssooooooosaaaaaaaaaa",
"aaaaaaaaaaskkkffkfkkokhhhhhhhoofffffkkkkksgmmsssssooosaaaaaaaaaa",
"aaaaaaaaaaskrkkkkkkkokhhhhhhhhofffffkkkkksgmmsggpsooosaaaaaaaaaa",
"aaaaaaaaaasrokkkkkkookkhhhhhhhoofffkksssssgmmsppsoooosaaaaaaaaaa",
"aaaaaaaaaasrrrokkokokkkhhhhhhkooffkkksiiiqgmmsssoooosaaaaaaaaaaa",
"aaaaaaaaaaasrrookoookkkkkkohhkoohhhhhhssssgmmsoooooosaaaaaaaaaaa",
"aaaaaaaaaaaasrooooookkkkkkkkkkoookhhhhhhosimmsoooooosaaaaaaaaaaa",
"aaaaaaaaaaaaasroooookkkkkkokooooookohhhoosgmmsooooosaaaaaaaaaaaa",
"aaaaaaaaaaaaaasroooookookhkoooooooooooooosimmsooossaaaaaaaaaaaaa",
"aaaaaaaaaaaaaaassoooooookkkoooooooooooooosimmsossaaaaaaaaaaaaaaa",
"aaaaaaaaaaaaaaaaassoooooooooooooooooooooosimmssaaaaaaaaaaaaaaaaa",
"aaaaaaaaaaaaaaaaaaassooooooooooooooooossssimmsaaaaaaaaaaaaaaaaaa",
"aaaaaaaaaaaaaaaaaaaaasssssssssssssssssaaasgmmsaaaaaaaaaaaaaaaaaa",
"aaaaaaaaaaaaaaaaaaaaaaaaaaaaaaaaaaaaaaaaasgpesaaaaaaaaaaaaaaaaaa",
"aaaaaaaaaaaaaaaaaaaaaaaaaaaaaaaaaaaaaaaaaappoaaaaaaaaaaaaaaaaaaa",
"aaaaaaaaaaaaaaaaaaaaaaaaaaaaaaaaaaaaaaaaaaaaaaaaaaaaaaaaaaaaaaaa",
"aaaaaaaaaaaaaaaaaaaaaaaaaaaaaaaaaaaaaaaaaaaaaaaaaaaaaaaaaaaaaaaa",
"aaaaaaaaaaaaaaaaaaaaaaaaaaaaaaaaaaaaaaaaaaaaaaaaaaaaaaaaaaaaaaaa",
"aaaaaaaaaaaaaaaaaaaaaaaaaaaaaaaaaaaaaaaaaaaaaaaaaaaaaaaaaaaaaaaa",
"aaaaaaaaaaaaaaaaaaaaaaaaaaaaaaaaaaaaaaaaaaaaaaaaaaaaaaaaaaaaaaaa",
"aaaaaaaaaaaaaaaaaaaaaaaaaaaaaaaaaaaaaaaaaaaaaaaaaaaaaaaaaaaaaaaa",
"aaaaaaaaaaaaaaaaaaaaaaaaaaaaaaaaaaaaaaaaaaaaaaaaaaaaaaaaaaaaaaaa",
"aaaaaaaaaaaaaaaaaaaaaaaaaaaaaaaaaaaaaaaaaaaaaaaaaaaaaaaaaaaaaaaa",
"aaaaaaaaaaaaaaaaaaaaaaaaaaaaaaaaaaaaaaaaaaaaaaaaaaaaaaaaaaaaaaaa",
"aaaaaaaaaaaaaaaaaaaaaaaaaaaaaaaaaaaaaaaaaaaaaaaaaaaaaaaaaaaaaaaa",
"aaaaaaaaaaaaaaaaaaaaaaaaaaaaaaaaaaaaaaaaaaaaaaaaaaaaaaaaaaaaaaaa"
};
