/* XPM */
static char *blossom_rocks_xpm[] = {
"64 64 10 1",
"a c #FF00FF",
"b c #BBAFA5",
"c c #A8A298",
"d c #959387",
"e c #818078",
"f c #696964",
"g c #5D5E56",
"h c #4A4C49",
"i c #3F4536",
"j c #000000",
/* pixels */
"aaaaaaaaaaaaaaaaaaaaaaaaaaaaaaaaaaaaaaaaaaaaaaaaaaaaaaaaaaaaaaaa",
"aaaaaaaaaaaaaaaaaaaaaaaaaaaaaaaaaaaaaaaaaaaaaaaaaaaaaaaaaaaaaaaa",
"aaaaaaaaaaaaaaaaaaaaaaaaaaaaaaaaaaaaaaaaaaaaaaaaaaaaaaaaaaaaaaaa",
"aaaaaaaaaaaaaaaaaaaaaaaaaaaaaaaaaaaaaaaaaaaaaaaaaaaaaaaaaaaaaaaa",
"aaaaaaaaaaaaaaaaaaaaaaaaaaaaaaaaaaaaaaaaaaaaaaaaaaaaaaaaaaaaaaaa",
"aaaaaaaaaaaaaaaaaaaaaaaaaaaaaaaaaaaaaaaaaaaaaaaaaaaaaaaaaaaaaaaa",
"aaaaaaaaaaaaaaaaaaaaaaaaaaaaaaaaaaaaaaaaaaaaaaaaaaaaaaaaaaaaaaaa",
"aaaaaaaaaaaaaaaaaaaaaaaaaaaaaaaaaaaaaaaaaaaaaaaaaaaaaaaaaaaaaaaa",
"aaaaaaaaaaaaaaaaaaaaaaaaaaaaaaaaaaaaaaaaaaaaaaaaaaaaaaaaaaaaaaaa",
"aaaaaaaaaaaaaaaaaaaaaaaaaaaaaaaaaaaaaaaaaaaaaaaaaaaaaaaaaaaaaaaa",
"aaaaaaaaaaaaaaaaaaaaaaaaaaaaaaaaaaaaaaaaaaaaaaaaaaaaaaaaaaaaaaaa",
"aaaaaaaaaaaaaaaaaaaaaaajjjjaaaaaaaaaaaaaaaaaaaaaaaaaaaaaaaaaaaaa",
"aaaaaaaaaaaaaaaaaaaaajjeeeejaaaaaaaaaaaaaaaaaaaaaaaaaaaaaaaaaaaa",
"aaaaaaaaaaaaaaaaaaajjccccceejaaaaaaaaaaaaaaaaaaaaaaaaaaaaaaaaaaa",
"aaaaaaaaaaaaaaaaaajcccccccceejaaaaaaaaaaaaaaaaaaaaaaaaaaaaaaaaaa",
"aaaaaaaaaaaaaaaaajcccccccceeefjaaaaaaaaaaaaaaaaaaaaaaaaaaaaaaaaa",
"aaaaaaaaaaaaaaaajecccccccceeffjaaaaaaaaaaaaaaaaaaaaaaaaaaaaaaaaa",
"aaaaaaaaaaaaaaajeccccccceeefffhjaaaaaaaaaaaaaaaaaaaaaaaaaaaaaaaa",
"aaaaaaaaaaaaaaajecccccceefffffhjaaaaaaaaaaaaaaaaaaaaaaaaaaaaaaaa",
"aaaaaaaaaaaaaajffeeeeeeefffffhhhjaaaaaaaaaaaaaaaaaaaaaaaaaaaaaaa",
"aaaaaaaaaaaaaajffffeeeeffffffhhhjaaaaaaaaaaaaaaaaaaaaaaaaaaaaaaa",
"aaaaaaaaaaaaaahffffffffffffffhhhjaaaaaaaaaaaaaaaaaaaaaaaaaaaaaaa",
"aaaaaaaaaaaaajffffffffffffffhfhhhjaaaaaaaaaaaaaaaaaaaaaaaaaaaaaa",
"aaaaaaaaaaaaajeefeccbfffffffhfhhhjaaaaaaaaaaaaaaaaaaaaaaaaaaaaaa",
"aaaaaaaaaaaaajeeeeeeccffffffffhhhjaaaaaaaaaaaaaaaaaaaaaaaaaaaaaa",
"aaaaaaaaaaaaajeeeeeeecffffffffhhhjaaaaaaaaaaaaaaaaaaaaaaaaaaaaaa",
"aaaaaaaaaaaaajdeeeeeecfhfffffffhhhjaaaaaaaaaaaaaaaaaaaaaaaaaaaaa",
"aaaaaaaaaaaajddeeeeeeechffffecffhhjaaaaaaaajjjjjjaaaaaaaaaaaaaaa",
"aaaaaaaaaaaajdeeeeeeeechfffeccfffhhjaaaaajjccccccjaaaaaaaaaaaaaa",
"aaaaaaaaaaajeeeeeeeeeechfffecffffhhjaaajjcccccccccjaaaaaaaaaaaaa",
"aaaaaaaaaaajeeeeeeeeeeehfffccffffhhjajjecccccccccchjaaaaaaaaaaaa",
"aaaaaaaaaaajeeeeeeeeeeehfffcfffffhhjjeeccccccccccchhjaaaaaaaaaaa",
"aaaaaaaaaaajeeeeeeeeeeehfffcffffhhhjeccccccccccccehhjaaaaaaaaaaa",
"aaaaaaaaaaajheeeeeeeeechgggcfffhhhjeeeecccccccccehhhfjaaaaaaaaaa",
"aaaaaaaaaaajhheeeeeeecifeegfffhhhhjeeeeeecccccchhhhffjaaaaaaaaaa",
"aaaaaaaaaaajhhheeeeeeiffeehhfhhhhjeeeeeeeeeeehhhhhfffhjaaaaaaaaa",
"aaaaaaaaaaaajhhhhfeehffeeefhhhhhhjeecbeeeeiiihhhhffffhjaaaaaaaaa",
"aaaaaaaaaaaaajhhhhhhhhhfeefhhhhhhjeeeccccceefihfffffhhjaaaaaaaaa",
"aaaaaaaaaaaaaajjhhhhhhhhhhhhhhhjjjeeeeeccccccchffffhhhjaaaaaaaaa",
"aaaaaaaaaaaaaaaajjjhhhhhhhhhjjjaaajfeeeeeeccceehhhhhhhjaaaaaaaaa",
"aaaaaaaaaaaaaaaaaaajjjjjjjjjaaaaaaajggeeeeeeeeehhhhhhjaaaaaaaaaa",
"aaaaaaaaaaaaaaaaaaaaaaaaaaaaaaaaaaaajggggggggehhhhhjjaaaaaaaaaaa",
"aaaaaaaaaaaaaaaaaaaaaaaaaaaaajjjjjjaajjjhhhhhhhhhjjaaaaaaaaaaaaa",
"aaaaaaaaaaaaaaaaaaaaaaaaaajjjeccccejaaaajjjjjjjjjaaaaaaaaaaaaaaa",
"aaaaaaaaaaaaaaaaaaaaaaaaajeeeccccccejaaaaaaaaaaaaaaaaaaaaaaaaaaa",
"aaaaaaaaaaaaaaaaaaaaaaaajeeeccccccceejaaaaaaaaaaaaaaaaaaaaaaaaaa",
"aaaaaaaaaaaaaaaaaaaaaaajeeeeeeccceeehhjaaaaaaaaaaaaaaaaaaaaaaaaa",
"aaaaaaaaaaaaaaaaaaaaaajecceeeeeeeeehhhjaaaaaaaaaaaaaaaaaaaaaaaaa",
"aaaaaaaaaaaaaaaaaaaaajeeeccceeeeeehhhhjaaaaaaaaaaaaaaaaaaaaaaaaa",
"aaaaaaaaaaaaaaaaaaaaajehhfeeccehhhhhhhjaaaaaaaaaaaaaaaaaaaaaaaaa",
"aaaaaaaaaaaaaaaaaaaaaajhhhhhhhhhhhhhhjaaaaaaaaaaaaaaaaaaaaaaaaaa",
"aaaaaaaaaaaaaaaaaaaaaaajjhhhhhhhhhhjjaaaaaaaaaaaaaaaaaaaaaaaaaaa",
"aaaaaaaaaaaaaaaaaaaaaaaaajjjjjjjjjjaaaaaaaaaaaaaaaaaaaaaaaaaaaaa",
"aaaaaaaaaaaaaaaaaaaaaaaaaaaaaaaaaaaaaaaaaaaaaaaaaaaaaaaaaaaaaaaa",
"aaaaaaaaaaaaaaaaaaaaaaaaaaaaaaaaaaaaaaaaaaaaaaaaaaaaaaaaaaaaaaaa",
"aaaaaaaaaaaaaaaaaaaaaaaaaaaaaaaaaaaaaaaaaaaaaaaaaaaaaaaaaaaaaaaa",
"aaaaaaaaaaaaaaaaaaaaaaaaaaaaaaaaaaaaaaaaaaaaaaaaaaaaaaaaaaaaaaaa",
"aaaaaaaaaaaaaaaaaaaaaaaaaaaaaaaaaaaaaaaaaaaaaaaaaaaaaaaaaaaaaaaa",
"aaaaaaaaaaaaaaaaaaaaaaaaaaaaaaaaaaaaaaaaaaaaaaaaaaaaaaaaaaaaaaaa",
"aaaaaaaaaaaaaaaaaaaaaaaaaaaaaaaaaaaaaaaaaaaaaaaaaaaaaaaaaaaaaaaa",
"aaaaaaaaaaaaaaaaaaaaaaaaaaaaaaaaaaaaaaaaaaaaaaaaaaaaaaaaaaaaaaaa",
"aaaaaaaaaaaaaaaaaaaaaaaaaaaaaaaaaaaaaaaaaaaaaaaaaaaaaaaaaaaaaaaa",
"aaaaaaaaaaaaaaaaaaaaaaaaaaaaaaaaaaaaaaaaaaaaaaaaaaaaaaaaaaaaaaaa",
"aaaaaaaaaaaaaaaaaaaaaaaaaaaaaaaaaaaaaaaaaaaaaaaaaaaaaaaaaaaaaaaa"
};
