/* XPM */
static char *blossom_lantern2_xpm[] = {
"64 64 12 1",
"a c #FF00FF",
"b c #A8A298",
"c c #959387",
"d c #818078",
"e c #696964",
"f c #5D5E56",
"g c #555B3D",
"h c #4A4C49",
"i c #3F4536",
"j c #2D332F",
"k c #322012",
"l c #000000",
/* pixels */
"aaaaaaaaaaaaaaaaaaaaaaaaaaaaaaaaaaaaaaaaaaaaaaaaaaaaaaaaaaaaaaaa",
"aaaaaaaaaaaaaaaaaaaaaaaaaaaaaaaaaaaaaaaaaaaaaaaaaaaaaaaaaaaaaaaa",
"aaaaaaaaaaaaaaaaaaaaaaaaaaaaaaaaaaaaaaaaaaaaaaaaaaaaaaaaaaaaaaaa",
"aaaaaaaaaaaaaaaaaaaaaaaaaaaaaaaaaaaaaaaaaaaaaaaaaaaaaaaaaaaaaaaa",
"aaaaaaaaaaaaaaaaaaaaaaaaaaaaaaaaaaaaaaaaaaaaaaaaaaaaaaaaaaaaaaaa",
"aaaaaaaaaaaaaaaaaaaaaaaaaaaaaaaaaaaaaaaaaaaaaaaaaaaaaaaaaaaaaaaa",
"aaaaaaaaaaaaaaaaaaaaaaaaaaaaaaaaaaaaaaaaaaaaaaaaaaaaaaaaaaaaaaaa",
"aaaaaaaaaaaaaaaaaaaaaaaaaaaaaaaaaaaaaaaaaaaaaaaaaaaaaaaaaaaaaaaa",
"aaaaaaaaaaaaaaaaaaaaaaaaaaaaaaaaaaaaaaaaaaaaaaaaaaaaaaaaaaaaaaaa",
"aaaaaaaaaaaaaaaaaaaaaaaaaaaaaaaaaaaaaaaaaaaaaaaaaaaaaaaaaaaaaaaa",
"aaaaaaaaaaaaaaaaaaaaaaaaaaaaaaaaaaaaaaaaaaaaaaaaaaaaaaaaaaaaaaaa",
"aaaaaaaaaaaaaaaaaaaaaaaaaaaaaallllaaaaaaaaaaaaaaaaaaaaaaaaaaaaaa",
"aaaaaaaaaaaaaaaaaaaaaaaaaaaaalbbbelaaaaaaaaaaaaaaaaaaaaaaaaaaaaa",
"aaaaaaaaaaaaaaaaaaaaaaaaaaaalbbccdflaaaaaaaaaaaaaaaaaaaaaaaaaaaa",
"aaaaaaaaaaaaaaaaaaaaaaaaaallldcbcdflllaaaaaaaaaaaaaaaaaaaaaaaaaa",
"aaaaaaaaaaaaaaaaaaaaaaalllddlddddfflhhlllaaaaaaaaaaaaaaaaaaaaaaa",
"aaaaaaaaaaaaaaaaaaaaallbbcdddlddfflhhheeellaaaaaaaaaaaaaaaaaaaaa",
"aaaaaaaaaaaaaaaaaaallbbbbbbdddllllhhheeeeehllaaaaaaaaaaaaaaaaaaa",
"aaaaaaaaaaaaaaaaaalbbbbbbbbbddfhhhhheeeeeeeehlaaaaaaaaaaaaaaaaaa",
"aaaaaaaaaaaaaaaaalbbbbbbddbbddddddddeeeeeeeeeelaaaaaaaaaaaaaaaaa",
"aaaaaaaaaaaaaaaaalbbbbbbbbddddddddddeeeeeeeeeelaaaaaaaaaaaaaaaaa",
"aaaaaaaaaaaaaaaaalbbbbddddbbddddddddhheeeeeedflaaaaaaaaaaaaaaaaa",
"aaaaaaaaaaaaaaaaalhdbbddddddddddddddhdheeeddhhlaaaaaaaaaaaaaaaaa",
"aaaaaaaaaaaaaaaaaalhhdbbbbdddddddddfddddddhhhlaaaaaaaaaaaaaaaaaa",
"aaaaaaaaaaaaaaaaaaallfffffbbbbbbbbbbbdfffhhllaaaaaaaaaaaaaaaaaaa",
"aaaaaaaaaaaaaaaaaaaaallllffffffffffffffllllaaaaaaaaaaaaaaaaaaaaa",
"aaaaaaaaaaaaaaaaaaaaaaalhllllllllllllllhlaaaaaaaaaaaaaaaaaaaaaaa",
"aaaaaaaaaaaaaaaaaaaaaaalghhlhhhhhhjjljjhlaaaaaaaaaaaaaaaaaaaaaaa",
"aaaaaaaaaaaaaaaaaaaaaaaleblhhhhhhhhjjjdhlaaaaaaaaaaaaaaaaaaaaaaa",
"aaaaaaaaaaaaaaaaaaaaaaalebkhhhddddjjjjdhlaaaaaaaaaaaaaaaaaaaaaaa",
"aaaaaaaaaaaaaaaaaaaaaallebjhhhddddjjjjdhllaaaaaaaaaaaaaaaaaaaaaa",
"aaaaaaaaaaaaaaaaaaaaaldlefbjjddddddjjdfhjflaaaaaaaaaaaaaaaaaaaaa",
"aaaaaaaaaaaaaaaaaaaaldddjddbbddddddddfhjffflaaaaaaaaaaaaaaaaaaaa",
"aaaaaaaaaaaaaaaaaaaaldbddjjjddeeeeeejjjffbflaaaaaaaaaaaaaaaaaaaa",
"aaaaaaaaaaaaaaaaaaaaldbbddddjjjiiiiiffffbbflaaaaaaaaaaaaaaaaaaaa",
"aaaaaaaaaaaaaaaaaaaalddbbbdddddddddddbbbffflaaaaaaaaaaaaaaaaaaaa",
"aaaaaaaaaaaaaaaaaaaaaledddbbbbbbbbbbbbfffhlaaaaaaaaaaaaaaaaaaaaa",
"aaaaaaaaaaaaaaaaaaaaaallddddddddddddffffllaaaaaaaaaaaaaaaaaaaaaa",
"aaaaaaaaaaaaaaaaaaaaalehllddddddddfffflliilaaaaaaaaaaaaaaaaaaaaa",
"aaaaaaaaaaaaaaaaaaaaleeeehllllljjjjllliiihhlaaaaaaaaaaaaaaaaaaaa",
"aaaaaaaaaaaaaaaaaaaalecccehhhhiiiiiiiiiiffglaaaaaaaaaaaaaaaaaaaa",
"aaaaaaaaaaaaaaaaaaaldccccccceeeffifffffffffflaaaaaaaaaaaaaaaaaaa",
"aaaaaaaaaaaaaaaaaaaldccdhccccceefffffffifffglaaaaaaaaaaaaaaaaaaa",
"aaaaaaaaaaaaaaaaaaalccchillcccceffffflljjhfflaaaaaaaaaaaaaaaaaaa",
"aaaaaaaaaaaaaaaaaaalcchilaalccccfffflaalihhglaaaaaaaaaaaaaaaaaaa",
"aaaaaaaaaaaaaaaaaalfcchilaalecccfffflaalijegglaaaaaaaaaaaaaaaaaa",
"aaaaaaaaaaaaaaaaaalggchilaaalcccffflaaaliiggglaaaaaaaaaaaaaaaaaa",
"aaaaaaaaaaaaaaaaaalgggilaaaaleccffflaaaaliggglaaaaaaaaaaaaaaaaaa",
"aaaaaaaaaaaaaaaaaalggiilaaaaleccffflaaaaliggglaaaaaaaaaaaaaaaaaa",
"aaaaaaaaaaaaaaaaaaallllaaaaalfcfffflaaaaallllaaaaaaaaaaaaaaaaaaa",
"aaaaaaaaaaaaaaaaaaaaaaaaaaaalfcfffflaaaaaaaaaaaaaaaaaaaaaaaaaaaa",
"aaaaaaaaaaaaaaaaaaaaaaaaaaaalffffiilaaaaaaaaaaaaaaaaaaaaaaaaaaaa",
"aaaaaaaaaaaaaaaaaaaaaaaaaaaallffiilaaaaaaaaaaaaaaaaaaaaaaaaaaaaa",
"aaaaaaaaaaaaaaaaaaaaaaaaaaaaaallllaaaaaaaaaaaaaaaaaaaaaaaaaaaaaa",
"aaaaaaaaaaaaaaaaaaaaaaaaaaaaaaaaaaaaaaaaaaaaaaaaaaaaaaaaaaaaaaaa",
"aaaaaaaaaaaaaaaaaaaaaaaaaaaaaaaaaaaaaaaaaaaaaaaaaaaaaaaaaaaaaaaa",
"aaaaaaaaaaaaaaaaaaaaaaaaaaaaaaaaaaaaaaaaaaaaaaaaaaaaaaaaaaaaaaaa",
"aaaaaaaaaaaaaaaaaaaaaaaaaaaaaaaaaaaaaaaaaaaaaaaaaaaaaaaaaaaaaaaa",
"aaaaaaaaaaaaaaaaaaaaaaaaaaaaaaaaaaaaaaaaaaaaaaaaaaaaaaaaaaaaaaaa",
"aaaaaaaaaaaaaaaaaaaaaaaaaaaaaaaaaaaaaaaaaaaaaaaaaaaaaaaaaaaaaaaa",
"aaaaaaaaaaaaaaaaaaaaaaaaaaaaaaaaaaaaaaaaaaaaaaaaaaaaaaaaaaaaaaaa",
"aaaaaaaaaaaaaaaaaaaaaaaaaaaaaaaaaaaaaaaaaaaaaaaaaaaaaaaaaaaaaaaa",
"aaaaaaaaaaaaaaaaaaaaaaaaaaaaaaaaaaaaaaaaaaaaaaaaaaaaaaaaaaaaaaaa",
"aaaaaaaaaaaaaaaaaaaaaaaaaaaaaaaaaaaaaaaaaaaaaaaaaaaaaaaaaaaaaaaa"
};
