/* XPM */
static char *blossom_petals3_xpm[] = {
"64 64 20 1",
"a c #FF00FF",
"b c #FDFBF9",
"c c #F7E4DF",
"d c #F3D7D3",
"e c #EFCBCC",
"f c #F5BAC8",
"g c #F2AFBE",
"h c #EEA3B9",
"i c #D4ADA5",
"j c #E997AD",
"k c #DB85A0",
"l c #D57895",
"m c #CB6C8B",
"n c #BF6083",
"o c #BA5272",
"p c #AC5375",
"q c #A8466A",
"r c #99405E",
"s c #8C3B55",
"t c #83354C",
/* pixels */
"aaaaaaaaaaaaaaaaaaaaaaaaaaaaaaaaaaaaaaaaaaaaaaaaaaaaaaaaaaaaaaaa",
"aaaaaaaaaaaaaaaaaaaaaaaaaaaaaaaaaaaaaaaaaaaaaaaaaaaaaaaaaaaaaaaa",
"aaaaaaaaaaaaaaaaaaaaaaaaaaaaaaaaaaaaaaaaaaaaaaaaaaaaaaaaaaaaaaaa",
"aaaaaaaaaaaaaaaaaaaaaaaaaaaaaaaaaaaaaaaaaaaaaaaaaaaaaaaaaaaaaaaa",
"aaaaaaaaaaaaaaaaaaaaaaaaaaaaaaaaaaaaaaaaaaaaaaaaaaaaaaaaaaaaaaaa",
"aaaaaaaaaaaaaaaaaaaaaaaaaaaaaaaaaaaaaaaaaaaaaaaaaaaaaaaaaaaaaaaa",
"aaaaaaaaaaaaaaaaaaaaaaaaaaaaaaaaaaaaaaaaaaaaaaafffaaaaaaaaaaaaaa",
"aaaaaaaaaaaaaaaaaaaaaaaaaaaaaaaaaaaaaaaaaaaaaaffffaaaaaaaaggaaaa",
"aaaaaaaaaaaaaaaaaaaaaaaaaaaaaaaaaaaaaaaaaallaaassaaaghqaggggaaaa",
"aaaaaaaaaaaaaaaaaaaaaaaaaaaaaaaaaaaaaaaajkelaaaaaaaqhhqannnaaaaa",
"aaaaaaaaaaaaaaaaaaaaaaaaaaaaaaaaaaaaffaareelaaaaaaaqggqaaaaaaaaa",
"aaaaaaaaaaaaaaaaaaaaaaaaaaaaaaaaaalffffarrraarraaaaarraaaaaaaaaa",
"aaaaaaaaaaaaaaaaaaaaaaaaaaaaggggaarffqaaaaahhhhraaaaaaaaaaaaaaaa",
"aaaaaaaaaaaaaaaaaaaaaaaaaaanggggaarrqaaaaahhhghreffaaaahggaaaaaa",
"aaaaaaaaaaaaaaaaaaaaaaaaaaaoggqgaaaaaakkkkfhqlqeeeraaaarggraaaaa",
"aaaaaaaaaaaaaaaaaaaaaafmaaaaqqaaaaaallffjefaqqqqqraaaaaarraaaaaa",
"aaaaaaaaaaaaaaaaaaaaaffmaaaaaaaaaaaaffffjffraaaaaaaaqppaaaaaaaaa",
"aaaaaaaaaaaaaaaaaaaanffsaaaaaaaooooaaaaajeeraaaaooaaqedqaaaaaaaa",
"aaaaaaaaaaaaaaaaaaaaassaaaaaaaggggoaaaaaassaaaamffsaabbqaaaaaaaa",
"aaaaaaaaaaaaaaaaaaaaaaaaaffoooggggggagggaaaaaammffgaakiaaaaaaaaa",
"aaaaaaaaaaaaaaaaaaaaaaaaffffooaaqaammaaaggaaameemmaaaaalfgaaaaaa",
"aaaaaaaaaaaaaaaaaaaaaaaaffffaaapdmdcnmmagghaameeaaaaaaqffgaaaaaa",
"aaaaaaaaaaaaaaaaaaaaaaaagrrraanddmccnnagggraaarraaaaaarrraaaaaaa",
"aaaaaaaaaaaaaaaaaaaaaaaaaaaaaandnnnnnnngggaaaaaaaaaaaaaaaaaaaaaa",
"aaaaaaaaaaaaaaaaaaaaaaaaahhhaaanaaanhhhoggaaaaaaaaaaaaaaaaaaaaaa",
"aaaaaaaaaaaaaaaaaaaaaaaahhhhaaddnnnahhhagggaaaaaaaaaaaaaaaaaaaaa",
"aaaaaaaaaaaaaaaaaaaaaaaaahhaaaddddnahhhaaaaaaaaaaaaaaaaaaaaaaaaa",
"aaaaaaaaaaaaaaaaaaaaaaaaaaaaaaqqdddqhhhnaaaaaaaaaaaaaaaaaaaaaaaa",
"aaaaaaaaaaaaaaaaaaaaaaaaaaaaafaaqqqqppnaaaaaaaaaaaaaaaaaaaaaaaaa",
"aaaaaaaaaaaaaaaaaaaaaaaaaaaaqffraaaaaannmaaaaaaaaaaaaaaaaaaaaaaa",
"aaaaaaaaaaaaaaaaaaaaaaaaaaaareeraaahhmnnnnaaaaaaaaaaaaaaaaaaaaaa",
"aaaaaaaaaaaaaaaaaaaaaaaanffaassaaanhhnannnaaaaaaaaaaaaaaaaaaaaaa",
"aaaaaaaaaaaaaaaaaaaaaaaanefqaaaaannhhnaaaaaooaaaaaaaaaaaaaaaaaaa",
"aaaaaaaaaaaaaaaooaaaooaaaqrraaaaonhnnaaagghogoaaaaaaaaaaaaaaaaaa",
"aaaaaaaaaaaaafffqaanhhoaaaaaaahhhhnnaaalggooooaaaaaaaaaaaaaaaaaa",
"aaaaaaaaaaaaarrqaaahhooaaaaaahhhnnffaahhggofffaaaaaaaaaaaaaaaaaa",
"aaaaaaaaaaaaaaaaaaaooaaaaaaaamhhapffqahhtaffffaafffaaaaaaaaaaaaa",
"aaaaaaaaaaaaaaaaaaaaaaaaaaaaaaaaappqaattaajfffoaqffnaaaaaaaaaaaa",
"aaaaaaaqqqqqaaallaaaaaaaaajjaaaaaaaaaaaaaaaqqooaaffoaaaaaaaaaaaa",
"aaaaaapfffqqaaleeqaaarraajeeraaaaarraonaaaaaaaaaaqqaaaaaaaaaaaaa",
"aaaaaaasrraaamedqaaaaggraeedraaaaffereesaaaaaaaaaaaaaaaaaaaaaaaa",
"aaaaaaaaaaaaaqqqaaaaasgsaarsaaaanfeerrsaaaaaaaaaaaaaaaaaaaaaaaaa",
"aaaaaaaaaaaaaaaaaaffaattaaaannaaafrraaaaaaaaaaaaaaaaaaaaaaaaaaaa",
"aaaaaaaaaaaaaaaaagffgaaaaaopgggaaaaaaammaaaaaggaaaaaaaaaaaaaaaaa",
"aaaaaaaaaaaaaaaaaagggaaaaapgggggaaaaamffmaaqfgfjaaaaaaaaaaaaaaaa",
"aaaaaaaaaaaaaaoooaaaaaaaaappgaaahhhaamffnaaqfffjaaaaaaaaaaaaaaaa",
"aaaaaacnnnaaanhgoaaaaoooaaaaaaahhhhhattaaaaarrsaaaaaaaaaaaaaaaaa",
"aaaaaannoaaaangghqaafffoaaaaaajjgggsaaaaaaaaaaaaaaaaaaaaaaaaaaaa",
"aaaaaappaaaaaaqqqqaafffaaaaaaaaasssaaaaaaaaaaaaaaaaaaaaaaaaaaaaa",
"aaaaaaaaaaaaaaaaaaarrrraaaaaqqkaaaaaaaaaaaaaaaaaaaaaaaaaaaaaaaaa",
"aaaaaaaaaaajaaaaaaaaaaaaaaapffqaaaaaaaaaggaaaaaaaaaaaaaaaaaaaaaa",
"aaaaaaaaajjjaaaannnnaaaaaaapffqaaaaaaaahhggaaaaaaaaaaaaaaaaaaaaa",
"aaaaaaaaaajjjaaofffoaaaaaaaaqqaaaaaaaaarrraaaaaaaaaaaaaaaaaaaaaa",
"aaaaaaaaaajjaaapoooaaaaaaaaaaaafgaaaaaaaaaaaaaaaaaaaaaaaaaaaaaaa",
"aaaaaaahaaaaaaaaaaaaaaaaaaaaaaqfffsaaaaaaaaaaaaaaaaaaaaaaaaaaaaa",
"aaaaahhhhoaaaaaaaaaaaaaggaqaaaafrsaaaaaaaaaaaaaaaaaaaaaaaaaaaaaa",
"aaaaahhhhqaaaaaaaaaaaagggfqaaaaaaaaaaaaaaaaaaaaaaaaaaaaaaaaaaaaa",
"aaaaaaqqqaaaaaaaaaaaaaggqqaaaaaaaaaaaaaaaaaaaaaaaaaaaaaaaaaaaaaa",
"aaaaaaaaaaaaaaaaaaaaaaaaaaaaaaaaaaaaaaaaaaaaaaaaaaaaaaaaaaaaaaaa",
"aaaaaaaaaaaaaaaaaaaaaaaaaaaaaaaaaaaaaaaaaaaaaaaaaaaaaaaaaaaaaaaa",
"aaaaaaaaaaaaaaaaaaaaaaaaaaaaaaaaaaaaaaaaaaaaaaaaaaaaaaaaaaaaaaaa",
"aaaaaaaaaaaaaaaaaaaaaaaaaaaaaaaaaaaaaaaaaaaaaaaaaaaaaaaaaaaaaaaa",
"aaaaaaaaaaaaaaaaaaaaaaaaaaaaaaaaaaaaaaaaaaaaaaaaaaaaaaaaaaaaaaaa",
"aaaaaaaaaaaaaaaaaaaaaaaaaaaaaaaaaaaaaaaaaaaaaaaaaaaaaaaaaaaaaaaa"
};
