/* XPM */
static char *blossom_log2_xpm[] = {
"64 64 16 1",
"a c #FF00FF",
"b c #F7D5AB",
"c c #EBC499",
"d c #E3C0B9",
"e c #D6AA83",
"f c #CC9378",
"g c #B48A64",
"h c #A67C58",
"i c #8F6B57",
"j c #83634B",
"k c #79543C",
"l c #6A4933",
"m c #583A27",
"n c #472E1D",
"o c #322012",
"p c #000000",
/* pixels */
"aaaaaaaaaaaaaaaaaaaaaaaaaaaaaaaaaaaaaaaaaaaaaaaaaaaaaaaaaaaaaaaa",
"aaaaaaaaaaaaaaaaaaaaaaaaaaaaaaaaaaaaaaaaaaaaaaaaaaaaaaaaaaaaaaaa",
"aaaaaaaaaaaaaaaaaaaaaaaaaaaaaaaaaaaaaaaaaaaaaaaaaaaaaaaaaaaaaaaa",
"aaaaaaaaaaaaaaaaaaaaaaaaaaaaaaaaaaaaaaaaaaaaaaaaaaaaaaaaaaaaaaaa",
"aaaaaaaaaaaaaaaaaaaaaaaaaaaaaaaaaaaaaaaaaaaaaaaaaaaaaaaaaaaaaaaa",
"aaaaaaaaaaaaaaaaaaaaaaaaaaaaaaaaaaaaaaaaaaaaaaaaaaaaaaaaaaaaaaaa",
"aaaaaaaaaaaaaaaaaaaaaaaaaaaaaaaaaaaaaaaaaaaaaaaaaaaaaaaaaaaaaaaa",
"aaaaaaaaaaaaaaaaaaaaaaaaaaaaaaaaaaaaaaaaaaaaaaaaaaaaaaaaaaaaaaaa",
"aaaaaaaaaaaaaaaaaaaaaaaaaaaaaaaaaaaaaaaaaaaaaaaaaaaaaaaaaaaaaaaa",
"aaaaaaaaaaaaaaaaaaaaaaaaaaaaaaaaaaaaaaaaaaaaaaaaaaaaaaaaaaaaaaaa",
"aaaaaaaaaaaaaaaaaaaaaaaaaaaaaaaaaaaaaaaaaaaaaaaaaaaaaaaaaaaaaaaa",
"aaaaaaaaaaaaaaaaaaaaaaaaaaaaaaaaaaaaaaaaaaaaaaaaaaaaaaaaaaaaaaaa",
"aaaaaaaaaaaaaaaaaaaaaaaaaaaaaaaaaaaaaaaaaaaaaaaaaaaaaaaaaaaaaaaa",
"aaaaaaaaaaaaaaaaaaaapppaaaaaaaaaaaaaaaaaaaaaaaaaaaaaaaaaaaaaaaaa",
"aaaaaaaaaaaaaaaaaaapdbbaaaaaaaaaaaaaaaaaaaaaaaaaaaaaaaaaaaaaaaaa",
"aaaaaaaaaaaaaaaaaaapiigpaaaaaaaaaaaaaaaaaaaaaaaaaaaaaaaaaaaaaaaa",
"aaaaaaaaaaaaaaaaaaaapngkpaaaaaaaaaaaaaaaaaaaaaaaaaaaaaaaaaaaaaaa",
"aaaaaaaaappppaaaaaaapnnlpaaaaaaaaaaaaaaaaaaaaaaaaaaaaaaaaaaaaaaa",
"aaaaaaappmmnmpppaaaaapnllpaaaaaaaaaaaaaaaaaaaaaaaaaaaaaaaaaaaaaa",
"aaaaaapnnnnklnnnppaaapnllpaaaaaaaaaaaaaaaaaaaaaaaaaaaaaaaaaaaaaa",
"aaaaaapnkkknmlkknnppppnlllpaaaaaaaaaaaaaaaaaaaaaaaaaaaaaaaaaaaaa",
"aaaaapnomkkkmmkkmnnnnpnlllpaaaaaaaaaaaaaaaaaaaaaaaaaaaaaaaaaaaaa",
"aaaaapnonnkkkkmmklnnnpnnlllpaaaaaaaaaaaaaaaaaaaaaaaaaaaaaaaaaaaa",
"aaaapnnoonnkkkkmmnnnnpnnnlllpaaaaaaaaaaaaaaaaaaaaaaaaaaaaaaaaaaa",
"aaaapnnnkkknnnlkkkknnnpnnllllppaaaaaaaaaaaaaaaaaaaaaaaaaaaaaaaaa",
"aaaapnnnnknkllnnnkkkknnnnnllllnpppaaaaaaaaaaaaaaaaaaaaaaaaaaaaaa",
"aaaapnnnnnnnooonnmmkkknnnnnlllllnnppaaaaaaaaaaaaaaaaaaaaaaaaaaaa",
"aaaaapnnnnnnllnooommmkkkmmnnllnlllnnppaaaaaaaaaaaaaaaaaaaaaaaaaa",
"aaaaaappnnnnoollkoommmmkkmmnnnllllnnmmpaaaaaaaaaaaaaaaaaaaaaaaaa",
"aaaapponnnnpooonmkkooommmkllllnnlmnbbbpaaaaaaaaaaaaaaaaaaaaaaaaa",
"aaaaaponnnnpponnmmmkmmooooooonnnnfbbbbppaaaappaaaaaaaaaaaaaaaaaa",
"aaaaaapnnoppnnnnommmmmmoobbbbbbnbbfeeebpaaapllpaaaaaaaaaaaaaaaaa",
"aaaaaaapppoonnnnooommoonnoobbbbbbfcccfbpaaaplllpaaaaaaaaaaaaaaaa",
"aaaaaaaaaapppnnnoomooonnnnooobbbffffffbpappnnlllppaaaaaaaaaaaaaa",
"aaaaaaaaaaaaapppoooonnnnnnnnnoobfccfcfbpapnmheklllpppaaaaaaaaaaa",
"aaaaaaaaaaaaaaaappooooommnonnnobgccfcfbppeehmmollllllppaaaaaaaaa",
"aaaaaaaaaaaaaaaaaappooooomnmnoobgcfcffbpllpeeelolllklkkpppaaaaaa",
"aaaaaaaaaaaaaaaaaaaapppoooomnnobgcfcfbpplllppgfoooollkkkjjpaaaaa",
"aaaaaaaaaaaaaaaaaaaaaaapppoomnobbfcfbpppnlolggfffjkooonncbbpaaaa",
"aaaaaaaaaaaaaaaaaaaaaaaaaappoonobfcfpaapnlmooooffeeeeinccffcpaaa",
"aaaaaaaaaaaaaaaaaaaaaaaaaaaappnobbppaaaapmmmmmooommeeencfcfbpaaa",
"aaaaaaaaaaaaaaaaaaaaaaaaaaaaaappppaaaappmooommmmooooocncfcfbpaaa",
"aaaaaaaaaaaaaaaaaaaaaaaapppaaaaaaaaaaapoommmoommmomooobgcfebpaaa",
"aaaaaaaaaaaaaaaaaaaaaaapcccppaaaaaaaaapooooommoommmomocgcffbpaaa",
"aaaaaaaaaaaaaaaaaaaaaapcgccccpppaaaaaaapooooooooooomoocgcffbpaaa",
"aaaaaaaaaaaaaaaaaaaaaapccfffccccppaaaaaapppooooooooooocgcffbpaaa",
"aaaaaaaaaaaaaaaaaaaaaappcccccffccfpppaaaaaapppppoooooocgcfcpaaaa",
"aaaaaaaaaaaaaaaaaaaaaaaapppccccccfeeepaaaaaaaaaapppoooccgcpaaaaa",
"aaaaaaaaaaaaaaaaaaaaaaaaaaapppccccccepaaaaaaaaaaaaapppnggpaaaaaa",
"aaaaaaaaaaaaaaaaaaaaaaaaaaaaaapppeeepaaaaaaaaaaaaaaaaapppaaaaaaa",
"aaaaaaaaaaaaaaaaaaaaaaaaaaaaaaaaapppaaaaaaaaaaaaaaaaaaaaaaaaaaaa",
"aaaaaaaaaaaaaaaaaaaaaaaaaaaaaaaaaaaaaaaaaaaaaaaaaaaaaaaaaaaaaaaa",
"aaaaaaaaaaaaaaaaaaaaaaaaaaaaaaaaaaaaaaaaaaaaaaaaaaaaaaaaaaaaaaaa",
"aaaaaaaaaaaaaaaaaaaaaaaaaaaaaaaaaaaaaaaaaaaaaaaaaaaaaaaaaaaaaaaa",
"aaaaaaaaaaaaaaaaaaaaaaaaaaaaaaaaaaaaaaaaaaaaaaaaaaaaaaaaaaaaaaaa",
"aaaaaaaaaaaaaaaaaaaaaaaaaaaaaaaaaaaaaaaaaaaaaaaaaaaaaaaaaaaaaaaa",
"aaaaaaaaaaaaaaaaaaaaaaaaaaaaaaaaaaaaaaaaaaaaaaaaaaaaaaaaaaaaaaaa",
"aaaaaaaaaaaaaaaaaaaaaaaaaaaaaaaaaaaaaaaaaaaaaaaaaaaaaaaaaaaaaaaa",
"aaaaaaaaaaaaaaaaaaaaaaaaaaaaaaaaaaaaaaaaaaaaaaaaaaaaaaaaaaaaaaaa",
"aaaaaaaaaaaaaaaaaaaaaaaaaaaaaaaaaaaaaaaaaaaaaaaaaaaaaaaaaaaaaaaa",
"aaaaaaaaaaaaaaaaaaaaaaaaaaaaaaaaaaaaaaaaaaaaaaaaaaaaaaaaaaaaaaaa",
"aaaaaaaaaaaaaaaaaaaaaaaaaaaaaaaaaaaaaaaaaaaaaaaaaaaaaaaaaaaaaaaa",
"aaaaaaaaaaaaaaaaaaaaaaaaaaaaaaaaaaaaaaaaaaaaaaaaaaaaaaaaaaaaaaaa",
"aaaaaaaaaaaaaaaaaaaaaaaaaaaaaaaaaaaaaaaaaaaaaaaaaaaaaaaaaaaaaaaa"
};
