/* XPM */
static char *blossom_petals2_xpm[] = {
"64 64 22 1",
"a c #FF00FF",
"b c #FDFBF9",
"c c #F7E4DF",
"d c #F3D7D3",
"e c #EFCBCC",
"f c #E3C0B9",
"g c #F5BAC8",
"h c #F2AFBE",
"i c #EEA3B9",
"j c #D4ADA5",
"k c #E997AD",
"l c #DB85A0",
"m c #D57895",
"n c #CB6C8B",
"o c #BF6083",
"p c #8F6B57",
"q c #AC5375",
"r c #BA5272",
"s c #A8466A",
"t c #99405E",
"u c #8C3B55",
"v c #83354C",
/* pixels */
"aaaaaaaaaaaaaaaaaaaaaaaaaaaaaaaaaaaaaaaaaaaaaaaaaaaaaaaaaaaaaaaa",
"aaaaaaaaaaaaaaaaaaaaaaaaaaaaaaaaaaaaaaaaaaaaaaaaaaaaaaaaaaaaaaaa",
"aaaaaaaaaaaaaaaaaaaaaaaaaaaaaaaaaaaaaaaaaaaaaaaaaaaaaaaaaaaaaaaa",
"aaaaaaaaaaaaaaaaaaaaaaaaaaaaaaaaaaaaaaaaaaaaaaaaaaaaaaaaaaaaaaaa",
"aaaaaaaaaaaaaaaaaaaaaaaaaaaaaaaaaaaaaaaaaaaaaaaaaaaaaaaaaaaaaaaa",
"aaaaaaaaaaaaaaaaaaaaaaaaaaaaaaaaaaaaaaaaaaaaaaaaaaaaaaaaaaaaaaaa",
"aaaaaaaaaaaaaaaaaaaaaaaaaaaaaaaaaaaaaaaaaaaaaaaaaaaaaaaaaaaaaaaa",
"aaaaaaaaaaaaaaaaaaaaaaaaaaaaaaaaaaaaaaaaaaaaaaaaaaaaaaaaaaaaaaaa",
"aaaaaaaaaaaaaaaaaaaaaaaaaaaaaaaaaaaaaaaaaaaaaaaaaaaaaaaaaaaaaaaa",
"aaaaaaaaaaaaaaaaaaaaaaaaaaaaaaaaaaaaaaaaaaaaaaaaaaaaaaaaaaaaaaaa",
"aaaaaaaaaaaaaaaaaaaaaaaaaaaaaaaaaaaaaaaaaaaaaaaaaaaaaaaaaaaaaaaa",
"aaaaaaaaaaaaaaaaaaaaaaaaaaaaaaaaaaooaaaaaaaaaaaaaaaaaaaaaaaaaaaa",
"aaaaaaaaaaaaaaaaaaaaaaaaaaaaaaaaaohhnaaaaaaaaaaaaaaaaaaaaaaaaaaa",
"aaaaaaaaaaaaaaaaaaaaaaaaaaaaaaaaarhgoaaaaaaaaaaaaaaaaaaaaaaaaaaa",
"aaaaaaaaaaaaaaaaannaaaaaaaaaaaaaaastaaaaaaaaaaaaaaaaaaaaaaaaaaaa",
"aaaaaaaaaaaaaaaaggnnaaaallllaaaaaaaaaaaaaaaaaaahhhaaaaaaaaaaaaaa",
"aaaaaaaaaaaaaaaagggnaaasgggsaaaaaaaaaaaaaaaaaaphhhhaaaaaaaaaaaaa",
"aaaaaaaaaaaaaaaaaannaaassssaaaaaaaaaaaarggaaaaahhhaaaaaaaaaaaaaa",
"aaaaaaaaaaaaaaaaaaaaaaaaaaaaaaaaaaaaaaseduaaaaaaaaaaaaaaaaaaaaaa",
"aaaaaaaaaaaaaaaaaaaaaaaaaaaaaaaaaaaaaatteaaaaaaaaaaaakaaaaaaaaaa",
"aaaaaaaaaaaaaaaaaaaaaaaaaaaaaaaaaaaaaaaaaaaaaaaaaaaaaimaaaaaaaaa",
"aaaaaaaaaaaaaaaaaggqaaaalllaaaaaqqaaaaaaaaaaaaaaaaaammmaaaaaaaaa",
"aaaaaaaaaaggaaaaagggsaathgghaaaqggitaaaaaatuaaaaaaaaaaaaaaaaaaaa",
"aaaaaaaaamgggaaaaasttaaauttuaasgegtaaakkaaccnnaaaaaaaaaaaaaaaaaa",
"aaaaaaaaaavvuvaaaaaaaaaaaaaaaassstaaooaakaatnnaaaaaaaaaaaaaaaaaa",
"aaaaaaaaaaaaaaaaaaaaaaaanaaaaaaaaaankooakaaabihhaaaaaaaaaaaaaaaa",
"aaaaaaaaaaaaaaaaasssaaaoonaaarrooaakkkogggtahuuhaaaaaaaaaaaaaaaa",
"aaaaaaaaaaaaaaaasihsaaaoonnnnhhhoakddkggggattaaaaooaaaaaaaaaaaaa",
"aaaaaaaaaaaaaaaattsaaaaaggncchhoookdddgeggkaaaaaoonaaaaaaaaaaaaa",
"aaaaaaaaaaaaaaaaaaaaaaagggnccnnoonolidiussaaaaaaooaaaaaaaaaaaaaa",
"aaaaaaaaaaaaaaaaaaaaaaagonnnnnnovddniiivaaasttaaaaaaaaassaaaaaaa",
"aaaaaaiiiaaaaaaaaaaaqqqgaoonnndddddnhuvaassiiiisaaaaaarggmaaaaaa",
"aaaaaaiiiqaaaaaaaaaqqqqqaaondodddslemmaaasssiiiiaaaaaasggmaaaaaa",
"aaaaaaasssaaaaaaaaaaqqaangnedddssseeemllteesaiiqaaaaaaatuaaaaaaa",
"aaaaaaaaaaaaacddaaaaaaoogggoddrdddtteesmeeetarqmtaaaaaaaaaaaaaaa",
"aaaaaaaaaaaaddrraaaaamgggggrddrddddddeseeetalggguaaaaaaaaaaaaaaa",
"aaaaaaaaaaaaarraaaaaamggsgghrrrrddddrqeevvaatggtaaaaaaaaaaaaaaaa",
"aaaaaaaaaaaaaaaaaoooammmtssqqqaaqqqqaqqqaaaatttaaaaaaaaaaaaaaaaa",
"aaaaaaaaaaaaaaaaaohggattaavqqhgaaasqqaaaaaaaaaaaaaaaaaaaaaaaaaaa",
"aaaaaaaaaaaaaaaaaolgggaaaaavghhaaaqqqqqaaaaaaaiiaaaaaaaaaaaaaaaa",
"aaaaaaaaaaaaaaaaaassshaaanghhhaaaaasmggrffaaaiiiiaaaaoihhaaaaaaa",
"aaaaaaaaaaaaaaaaaaaaaaaaaoggaaaaooaaqggrfffaakiiraaaaavhhhaaaaaa",
"aaaaaaaaaaaaaarhhaaaaaaaaattuaaujksarggttthaaasssaaaaaauuvaaaaaa",
"aaaaaaaaaaaaaarhhhaaaaaaaaaaaaaauuaaattaaaaaaaaaaaaaaaaaaaaaaaaa",
"aaaaaaaaaaaaaaatttaaaaaaaaaaaaaaaaaaaaaaaaaaaaaaaaaaaaaaaaaaaaaa",
"aaaaaaaaaaaaaaaaaaaaaaaahhhhaaaaaaaooaaaaaaaaaaaaaaaaaaaaaaaaaaa",
"aaaaaaaaaaaaaaaaaaaaaaahhhhraaaaaaohgoaaaaaaaaaaaaaaaaaaaaaaaaaa",
"aaaaaaaaaaaaaaaaaaaaaaaasssaaaaaaaoggtaaakkaaaaaaaaaaaaaaaaaaaaa",
"aaaaaaaaaaaahhaaaaaaaaaaaaaaaaaaaaastaaagggiaaaaaaaaaaaaaaaaaaaa",
"aaaaaaaaaaaqhhraaaaaaaaaaaaaaaaaaaaaaaaaaahiaaaaaaaaaaaaaaaaaaaa",
"aaaaaaaaaasihhtaaaaaaaaaaaaaaaaaaaaaaaaaaaaaaaaaaaaaaaaaaaaaaaaa",
"aaaaaaaaaaatttaaaaaaaaaaaaarraaaaaaaaaaaaaaaaaaaaaaaaaaaaaaaaaaa",
"aaaaaaaaaaaaaaaaaaaaaaaaaarhioaaaaaaaaaaaaaaaaaaaaaaaaaaaaaaaaaa",
"aaaaaaaaaaaaaaaaaaaaaaaaaarhooaaaaaaaaaaaaaaaaaaaaaaaaaaaaaaaaaa",
"aaaaaaaaaaaaaaaaaaaaaaaaaaqqaaaaaaaaaaaaaaaaaaaaaaaaaaaaaaaaaaaa",
"aaaaaaaaaaaaaaaaaaaaaaaaaaaaaaaaaaaaaaaaaaaaaaaaaaaaaaaaaaaaaaaa",
"aaaaaaaaaaaaaaaaaaaaaaaaaaaaaaaaaaaaaaaaaaaaaaaaaaaaaaaaaaaaaaaa",
"aaaaaaaaaaaaaaaaaaaaaaaaaaaaaaaaaaaaaaaaaaaaaaaaaaaaaaaaaaaaaaaa",
"aaaaaaaaaaaaaaaaaaaaaaaaaaaaaaaaaaaaaaaaaaaaaaaaaaaaaaaaaaaaaaaa",
"aaaaaaaaaaaaaaaaaaaaaaaaaaaaaaaaaaaaaaaaaaaaaaaaaaaaaaaaaaaaaaaa",
"aaaaaaaaaaaaaaaaaaaaaaaaaaaaaaaaaaaaaaaaaaaaaaaaaaaaaaaaaaaaaaaa",
"aaaaaaaaaaaaaaaaaaaaaaaaaaaaaaaaaaaaaaaaaaaaaaaaaaaaaaaaaaaaaaaa",
"aaaaaaaaaaaaaaaaaaaaaaaaaaaaaaaaaaaaaaaaaaaaaaaaaaaaaaaaaaaaaaaa",
"aaaaaaaaaaaaaaaaaaaaaaaaaaaaaaaaaaaaaaaaaaaaaaaaaaaaaaaaaaaaaaaa"
};
