/* XPM */
static char *blossom_flower_xpm[] = {
"64 64 29 1",
"a c #FF00FF",
"b c #FDFBF9",
"c c #F7E4DF",
"d c #F3D7D3",
"e c #EFCBCC",
"f c #F5BAC8",
"g c #F2AFBE",
"h c #EEA3B9",
"i c #E997AD",
"j c #CC9378",
"k c #DB85A0",
"l c #D57895",
"m c #CB6C8B",
"n c #A67C58",
"o c #BF6083",
"p c #AC5375",
"q c #BA5272",
"r c #8F6B57",
"s c #79543C",
"t c #6A4933",
"u c #A8466A",
"v c #99405E",
"w c #8C3B55",
"x c #83354C",
"y c #583A27",
"z c #733241",
"A c #48160A",
"B c #472E1D",
"C c #322012",
/* pixels */
"aaaaaaaaaaaaaaaaaaaaaaaaaaaaaaaaaaaaaaaaaaaaaaaaaaaaaaaaaaaaaaaa",
"aaaaaaaaaaaaaaaaaaaaaaaaaaaaaaaaaaaaaaaaaaaaaaaaaaaaaaaaaaaaaaaa",
"aaaaaaaaaaaaaaaaaaaaaaaaaaaaaaaaaaaaaaaaaaaaaaaaaaaaaaaaaaaaaaaa",
"aaaaaaaaaaaaaaaaaaaaaaaaaaaaaaaaaaaaaaaaaaaaaaaaaaaaaaaaaaaaaaaa",
"aaaaaaaaaaaaaaaaaaaaaaaaaaaaaaaaaaaaaaaaaaaaaaaaaaaaaaaaaaaaaaaa",
"aaaaaaaaaaaaaaaaaaaaaaaaaaaaaaaaaaaaaaaaaaaaaaaaaaaaaaaaaaaaaaaa",
"aaaaaaaaaaaaaaaaaaaaaaaaaaaaaaaaaaaaaaaaaaaaaaaaaaaaaaaaaaaaaaaa",
"aaaaaaaaaaaaaaaaaaaaaaaaaaaaaaaaaaaaaaaaaaaaaaaaaaaaaaaaaaaaaaaa",
"aaaaaaaaaaaaaaaaaaaaaaaaaaaaaaaaaaaaaaaaaaaaaaaaaaaaaaaaaaaaaaaa",
"aaaaaaaaaaaaaaaaaaaaaaaaaaaaaaaaaaaaaaaaaaaaaaaaaaaaaaaaaaaaaaaa",
"aaaaaaaaaaaaaaaaaaaaaaaaaaaaaaaaaaaaaaaaaaaaaaaaaaaaaaaaaaaaaaaa",
"aaaaaaaaaaaaaaaaaaaaaaaaaaaaaaaaaaaaaaaaaaaaaaaaaaaaaaaaaaaaaaaa",
"aaaaaaaaaaaaaaaaaaaaaaaaaaaaaaaaaaaaaaaaaaaaaaaaaaaaaaaaaaaaaaaa",
"aaaaaaaaaaaaaaaaaaaaaaaaaaaaaaaaaaaaaaaaaaaaaaaaaaaaaaaaaaaaaaaa",
"aaaaaaaaaaaaaaaaaaaaaaaaaaaaaaaaaaaaaaaaaaaaaaaaaaaaaaaaaaaaaaaa",
"aaaaaaaaaaaaaaaaaaaaaaaaaaaaaaaasssaaaaaaaaaaaaaaaaaaaaaaaaaaaaa",
"aaaaaaaaaaaaaaaaaaaaaaaaaaaaaaaashgtaaaaaaaaaaaaaaaaaaaaaaaaaaaa",
"aaaaaaaaaaaaaaaaaaaaaaaaaaaaaaaazhggyaaaaaaaaaAAaaaaaaaaaaaaaaaa",
"aaaaaaaaaaaaaaaaaAAaaaaaaaaaaaaaayggyaaaaaaAAAjAaaaaaaaaaaaaaaaa",
"aaaaaaaaaaaaaaaaaBjAAAaaaaaaaaaaaaBBaaaaaaAjjjjAaaaaaaaaaaaaaaaa",
"aaaaaaaaaaaaaaaaaBjjjjCaaaaaaaaaaaaaaaaaaAjjnjjAaaaaaaaaaaaaaaaa",
"aaaaaaaaaaaaaaaaaAjjjjjCaaaaaaaaaaaaaaaaaAjnjjjAaaaaaaaaaaaaaaaa",
"aaaaaaaaaaaaaaaaaaBjjjjCaaaaaaaaaaaaaaaaaAnjjjAaaaaaaaaaaaaaaaaa",
"aaaaaaaaaaaaaaaaaaBjjjjCaaaaaaaapppaaaaaaAjnAAaaaaaaaaaaaaaaaaaa",
"aaaaaaaaaaaaaaaaaaaBjjjnCaaaaaaofffvaaaaaAAAaaaaaaaaaaaaaaaaaaaa",
"aaaaaaaaaaaaaaaaaaaaCBBrCaauvawffffwaaaaaaaaaaaaaaaaaaaaaaaaaaaa",
"aaaaaaaaaaaaaaaaaaaaaaaaaauhaCmxmmzgppaaaaaaaaaaaaaaaaaaaaaaaaaa",
"aaaaaaaaaaaaaaaaaaaaaaaaaauhBmmmxxgggguaaaaaaaaaaaaaaaaaaaaaaaaa",
"aaaaaaaaaaaagggaaaaaaaaaaaxCommmzzgggguuppaaaaaaaaaaaaaaaaaaaaaa",
"aaaaaaaaaaaqgggqaaaafflaxxxxzmmmffxgggugffpaaaaavvvvaaaaaaaaaaaa",
"aaaaaaaaaaaqgggqaaahfffwvvxxzzffffzxgvffffpaaaavmmmmlaaaaaaaaaaa",
"aaaaaaaaaaaaqqqaaaaaoooCvzeezzzffxfxvBBffpaaaaaawmmmmaaaaaaaaaaa",
"aaaaaaaaaaaaaaaaaaaoeeCvzeedoooyffffwwvvvaaaaaaaazzzzaaaaaaaaaaa",
"aaaaaaaaaaaaaaaaaaoeepdCeedBBBmmyyfkfffvaaaaaaaaaaaaaaaaaaaaaaaa",
"aaaaaaaaaaaaaaaaaappaffcBBBBemmmyyyffffzaaaaapppaaaaaaaaaaaaaaaa",
"aaaaaaaaaaaaaaaaaaaaaugglffffmmmffzyyyBaaaaapfffpaaaaaaaaaaaaaaa",
"aaaaaaaaaaaaaaaaaaaaauffgmlmmmmfffzbiiBBaaapffffuaaaaaaaaaaaaaaa",
"aaaaaaaaaaaaaaaaaaaaaavuggmmmgffxzaxhhhBBaaawvvvaaaaaaaaaaaaaaaa",
"aaaaaaaaaaaaaaaaaaaaaaaaggggggxxaaaxihhxBaaaaaaaaaaaaaaaaaaaaaaa",
"aaaaaaaaaaaaaaaaaaaaaaaavggggxaaaaaaxhhxaaaaaaaaaaaaaaaaaaaaaaaa",
"aaaaaaaaaaaaaaaaaAAAAaaaawwwxaaaaaaaazzzaaaaaaaaaaaaaaaaaaaaaaaa",
"aaaaaaaaaaaaaaaaAjjjAaaaaaaaaaaaoooaaaaaaaaaaaaaaaaaaaaaaaaaaaaa",
"aaaaaaaaaaaaaaaAjjjjAaaaaaaaaaaogggoaaaaaaaaaaaaaaaaaaaaaaaaaaaa",
"aaaaaaaaaaaaaaAjjjjjjaaaaaaaaaapgffpaaaaaaAAAAaaaaaaaaaaaaaaaaaa",
"aaaaaaaaaaaaaaAjjjjAaaaaaaaaaaaauvvaaaaaaBjjjjAaaaaaaaaaaaaaaaaa",
"aaaaaaaaaaaaaAAAAAAaaaaaaaaaaaaaaaaaaaaaaBnnjAaaaaaaaaaaaaaaaaaa",
"aaaaaaaaaaaaaaaaaaaaaaaaammmaaaaaaaaaaaaaaAAAaaaaaaaaaaaaaaaaaaa",
"aaaaaaaaaaaaaaaaaaaaaaaaamggmaaaaaaaaaaaaaaaaaaaaaaaaaaaaaaaaaaa",
"aaaaaaaaaaaaaaaaaaaaaaaaamggoaaaaaaaaaaaaaaaaaaaaaaaaaaaaaaaaaaa",
"aaaaaaaaaaaaaaaaaaaaaaaaaaooaaaaaaaaaaaaaaaaaaaaaaaaaaaaaaaaaaaa",
"aaaaaaaaaaaaaaaaaaaaaaaaaaaaaaaaaaaaaaaaaaaaaaaaaaaaaaaaaaaaaaaa",
"aaaaaaaaaaaaaaaaaaaaaaaaaaaaaaaaaaaaaaaaaaaaaaaaaaaaaaaaaaaaaaaa",
"aaaaaaaaaaaaaaaaaaaaaaaaaaaaaaaaaaaaaaaaaaaaaaaaaaaaaaaaaaaaaaaa",
"aaaaaaaaaaaaaaaaaaaaaaaaaaaaaaaaaaaaaaaaaaaaaaaaaaaaaaaaaaaaaaaa",
"aaaaaaaaaaaaaaaaaaaaaaaaaaaaaaaaaaaaaaaaaaaaaaaaaaaaaaaaaaaaaaaa",
"aaaaaaaaaaaaaaaaaaaaaaaaaaaaaaaaaaaaaaaaaaaaaaaaaaaaaaaaaaaaaaaa",
"aaaaaaaaaaaaaaaaaaaaaaaaaaaaaaaaaaaaaaaaaaaaaaaaaaaaaaaaaaaaaaaa",
"aaaaaaaaaaaaaaaaaaaaaaaaaaaaaaaaaaaaaaaaaaaaaaaaaaaaaaaaaaaaaaaa",
"aaaaaaaaaaaaaaaaaaaaaaaaaaaaaaaaaaaaaaaaaaaaaaaaaaaaaaaaaaaaaaaa",
"aaaaaaaaaaaaaaaaaaaaaaaaaaaaaaaaaaaaaaaaaaaaaaaaaaaaaaaaaaaaaaaa",
"aaaaaaaaaaaaaaaaaaaaaaaaaaaaaaaaaaaaaaaaaaaaaaaaaaaaaaaaaaaaaaaa",
"aaaaaaaaaaaaaaaaaaaaaaaaaaaaaaaaaaaaaaaaaaaaaaaaaaaaaaaaaaaaaaaa",
"aaaaaaaaaaaaaaaaaaaaaaaaaaaaaaaaaaaaaaaaaaaaaaaaaaaaaaaaaaaaaaaa",
"aaaaaaaaaaaaaaaaaaaaaaaaaaaaaaaaaaaaaaaaaaaaaaaaaaaaaaaaaaaaaaaa"
};
