/* XPM */
static char *blossom_umbrella_broken_xpm[] = {
"64 64 30 1",
"a c #FF00FF",
"b c #FDFBF9",
"c c #F7E4DF",
"d c #F3D7D3",
"e c #F7D5AB",
"f c #EFCBCC",
"g c #E3C0B9",
"h c #EBC499",
"i c #F5BAC8",
"j c #F2AFBE",
"k c #D4ADA5",
"l c #D6AA83",
"m c #C09D99",
"n c #CC9378",
"o c #B48A64",
"p c #A5847A",
"q c #A67C58",
"r c #8F6B57",
"s c #818078",
"t c #696964",
"u c #6A653F",
"v c #83634B",
"w c #79543C",
"x c #5D5E56",
"y c #555B3D",
"z c #6A4933",
"A c #4A4C49",
"B c #3F4536",
"C c #583A27",
"D c #000000",
/* pixels */
"aaaaaaaaaaaaaaaaaaaaaaaaaaaaaaaaaaaaaaaaaaaaaaaaaaaaaaaaaaaaaaaa",
"aaaaaaaaaaaaaaaaaaaaaaaaaaaaaaaaaaaaaaaaaaaaaaaaaaaaaaaaaaaaaaaa",
"aaaaaaaaaaaaaaaaaaaaaaaaaaaaaaaaaaaaaaaaaaaaaaaaaaaaaaaaaaaaaaaa",
"aaaaaaaaaaaaaaaaaaaaaaaaaaaaaaaaaaaaaaaaaaaaaaaaaaaaaaaaaaaaaaaa",
"aaaaaaaaaaaaaaaaaaaaaaaaaaaaaaaaaaaaaaaaaaaaaaaaaaaaaaaaaaaaaaaa",
"aaaaaaaaaaaaaaaaaaaaaaaaaaaaaaaaaaaaaaaaaaaaaaaaaaaaaaaaaaaaaaaa",
"aaaaaaaaaaaaaaaaaaaaaaaaaaaaaaaaaaaaaaaaaaaaaaaaaaaaaaaaaaaaaaaa",
"aaaaaaaaaaaaaaaaaaaaaaaaaaaaaaaaaaaaaaaaaaaaaaaaaaaaaaaaaaaaaaaa",
"aaaaaaaaaaaaaaaaaaaaaaaaaaaaaaaaaaaaaaaaaaaaaaaaaaaaaaaaaaaaaaaa",
"aaaaaaaaaaaaaaaaaaaaaaaaaaaaaaaaaaaaaaaaaaaaaaaaaaaaaaaaaaaaaaaa",
"aaaaaaaaaaaaaaaaaaaaaaaaaaaaaaaaaaaaaaaaaDaaaaaaaaaaaaaaaaaaaaaa",
"aaaaaaaaaaaaaaaaaaaaaaaaaaaaaaaaaaaaaaaaDoDaaaaaaaaaaaaaaaaaaaaa",
"aaaaaaaaaaaaaaaaaaaaaaaaaaaaaaaaaaaaaaaDqDDaaaaaaaaaaaaaaaaaaaaa",
"aaaaaaaaaaaaaaaaaaaaaaaaaaaaaaaaaaaaaaDwwDaaaaaaaaaaaaaaaaaaaaaa",
"aaaaaaaaaaaaaaaaaaaaaaaaaaaaaataaaaaaDwwDaaaaaaaaaaaaaaaaaaaaaaa",
"aaaaaaaaaaaaaaaaaaaaaaaaaaaaaDtaACaaDwwDaaaaaaaaaaaaaaaaaaaaaaaa",
"aaaaaaaaaaaaaaaaaaaaaaaaaaaaDdDDhyaDwwDaaaaaaaaaaaaaaaaaaaaaaaaa",
"aaaaaaaaaaaaaaaaaaaaaaaaaaaDddpzDfDwwDaaaaaaaaaaaaaaaaaaaaaaaaaa",
"aaaaaaaaaaaaaaaaaaaaaaaaaaDdddwccDwDDaaaaaaaaaaaaaaaaaaaaaaaaaaa",
"aaaaaaaaaaaaaaaaaaaaaaaaaDddducccDDaDaaaaaaaaaaaaaaaaaaaaaaaaaaa",
"aaaaaaaaaaaaaaaaaaaaaaaaDddduccczccDaaaaaaaaaaaaaaaaaaaaaaaaaaaa",
"aaaaaaaaaaaaaaaaaaaaaaaDddduccczcccDDaaaaaaaaaaaaaaaaaaaaaaaaaaa",
"aaaaaaaaaaaaaaaaaaaaaaDfddwcdczcccydDmDaaaaaaaaaaaaaaaaaaaaaaaaa",
"aaaaaaaaaaaaaaaaaaaaaDffdwdddzcccydffuDaaaaaaaaaaaaaaaaaaaaaaaaa",
"aaaaaaaaaaaaaaaaaaaaDfffwdddzcdcyfffkDaaaaaaaaaaaaaaaaaaaaaaaaaa",
"aaaaaaaaaaaaaaaaaaaaDffwdddzcddufffmvDaaaaaaaaaaaaaaaaaaaaaaaaaa",
"aaaaaaaaaaaaaaaaaaaDffzdddwcddufffmrkkvDaaaaaaDzaaaaaaaaaaaaaaaa",
"aaaaaaaaaaaaaaaaaaDffzdddwcddugggrrkkkDaaaaaaDdCaaDDaaaaaaaaaaaa",
"aaaaaaaaaaaaaaaaaDffzdddwcddwjggrrkkkrDaaaaDDdddvwcDaaaaDDDaaaaa",
"aaaaaaaaaaaaaaaaDffzdddwcddwjjgvrmkkDDaaaaDddddvvccbsaDDDzDaaaaa",
"aaaaaaaaaaaaaaaDgiwdddwdddwjjgvmmmkDaaaaaDdfflvvccccrDCCwDaaaaaa",
"aaaaaaaaaaaaaaDkgwdfdwddvwjjvvmmmwDaaaaaDffpzzcccccrzzDDDaaaaaaa",
"aaaaaaaaaaaaaDDgvfddwddvddkvmmmmDDaaaaDDflwzpccccczzpDaaaaaaaaaa",
"aaaaaaaaaaaaDDgvkkdvddvfkkwmmmmDaaaaaDegwvuccccwwwddddDtsaaaaaaa",
"aaaaaaaaaaaaDggvkkvddvmkpvmmmDDaaaaDDggvwccccwzmfddddfsDaaaaaaaa",
"aaaaaaaaaaaDggvkvvvdvvmwmpmDDaaaaaDqqwvcccczzfffmmmmDDDaaaaaaaaa",
"aaaaaaaaaaDvgvgvrvkvgkvmrrDaaaaaaDqqwwddzzzgffmmmDDDaaaaaaaaaaaa",
"aaaaaaaaaCCgvgrrrgvggvmmDDaaaaaaDvzzggzzqgggqqDDDaaaaaaaaaaaaaaa",
"aaaaaaaaaDkvgrrggvgvvvmDaaaaaaaDrDDkwzggqqDDDDaaaaaaaaaaaaaaaaaa",
"aaaaaaaaDvvgrrngrgvkvDDaaaaaaaaDDqvCkkzDDDaaaaaaaaaaaaaaaaaaaaaa",
"aaaaaaaDvvvvrrrrgrrDDaaaaaaaaaaaaDDDDDuaaaaaaaaaaaaaaDDDDDDaaaaa",
"aaaaaaaDvvvvpprnrrDaaaaaaaaDDDaaaaaaaaaaaaaaaaDDDDDDDoooooDaaaaa",
"aaaaaaDBDvvvpwrrDDaaaaaaaaDqqqDDaaaaaaaaaaDCCCoooooooDDDDDaaaaaa",
"aaaaaaDBxDvvvqDDaaaaaaaaaaaDDDqqDDDDaaaaaaDDDDDDDDDDDaaaaaaaaaaa",
"aaaaaaDBxxDvwDaaaaaaaaaaaaaaaaDDqqqqDDDaaaaaaaaaaaaaaaaaaaaaaaaa",
"aaaaaDuBBxuDDaaaaaaDDDDDDDaaaaaaDDDDqqqDDDDaaaaaaaaaaaaaaaaaaaaa",
"aaaaaDuuDDDaaaaaaaaDgfffffDDDDaaaaaaDDDrrqqDDDaaaaaaaaaaaaaaaaaa",
"aaaaaaDDaaaaaaaaaaaasfffffffffDDaaaaaaaDDDqqqqDDDaaaaaaaaaaaaaaa",
"aaaaaaaaaaaaaaaaaaaaDffffffffDaaaaaaaaaaaaDDDqqqqDDDDaaaaaaaaaaa",
"aaaaaaaaaaaaaaaaaaaaDdddddDDDaaaaaaDDDDaaaaaaDDDDqqqqDaaaaaaaaaa",
"aaaaaaaaaaaaaaaaaaaaaDdDDDaaaaaaaDDqqDDaaaaaaaaaaDDDDDaaaaaaaaaa",
"aaaaaaaaaaaaaaaaaaaaaaDaaaaaaaDDDqoDDaaaaaaaaaaaaaaaaaaaaaaaaaaa",
"aaaaaaaaaaaaaaaaaaaaaaaaaaaaDDqqqDDaaaaaaaaaaaaaaaaaaaaaaaaaaaaa",
"aaaaaaaaaaaaaaaaaaaaaaaaaaaDqqqDDaaaaaaaaaaaaaaaaaaaaaaaaaaaaaaa",
"aaaaaaaaaaaaaaaaaaaaaaaaaaaaDDDaaaaaaaaaaaaaaaaaaaaaaaaaaaaaaaaa",
"aaaaaaaaaaaaaaaaaaaaaaaaaaaaaaaaaaaaaaaaaaaaaaaaaaaaaaaaaaaaaaaa",
"aaaaaaaaaaaaaaaaaaaaaaaaaaaaaaaaaaaaaaaaaaaaaaaaaaaaaaaaaaaaaaaa",
"aaaaaaaaaaaaaaaaaaaaaaaaaaaaaaaaaaaaaaaaaaaaaaaaaaaaaaaaaaaaaaaa",
"aaaaaaaaaaaaaaaaaaaaaaaaaaaaaaaaaaaaaaaaaaaaaaaaaaaaaaaaaaaaaaaa",
"aaaaaaaaaaaaaaaaaaaaaaaaaaaaaaaaaaaaaaaaaaaaaaaaaaaaaaaaaaaaaaaa",
"aaaaaaaaaaaaaaaaaaaaaaaaaaaaaaaaaaaaaaaaaaaaaaaaaaaaaaaaaaaaaaaa",
"aaaaaaaaaaaaaaaaaaaaaaaaaaaaaaaaaaaaaaaaaaaaaaaaaaaaaaaaaaaaaaaa",
"aaaaaaaaaaaaaaaaaaaaaaaaaaaaaaaaaaaaaaaaaaaaaaaaaaaaaaaaaaaaaaaa",
"aaaaaaaaaaaaaaaaaaaaaaaaaaaaaaaaaaaaaaaaaaaaaaaaaaaaaaaaaaaaaaaa"
};
