/* XPM */
static char *car_blue_10_s1[] = {
/* columns rows colors chars-per-pixel */
"64 64 37 1 ",
"  c None",
". c #010000",
"X c #252923",
"o c #2D342B",
"O c #282936",
"+ c #37442E",
"@ c #3A4338",
"# c #141A50",
"$ c #262856",
"% c #162065",
"& c #1B2078",
"* c #22286F",
"= c #423875",
"- c #444B43",
"; c #55614C",
": c #66696E",
"> c #1E2285",
", c #1B2595",
"< c #272D87",
"1 c #2D339B",
"2 c #2335AB",
"3 c #3433AB",
"4 c #2D34B8",
"5 c #3736BD",
"6 c #453DA9",
"7 c #584582",
"8 c #2830C7",
"9 c #2730D2",
"0 c #3C40CF",
"q c #5352D4",
"w c #4A49E1",
"e c #808185",
"r c #8A8798",
"t c #989BA0",
"y c #A6A8AB",
"u c #B8BBBC",
"i c #B0A8C9",
/* pixels */
"                                                                ",
"                                                                ",
"                                                                ",
"                                                                ",
"                                                                ",
"                                                                ",
"                                                                ",
"                                                                ",
"                           ..........                           ",
"                       ....ieeeeeeeee....                       ",
"                      .::r............eee.                      ",
"                      ....%8&889999,5&....                      ",
"                 .... .  .58>999999,55.  . ....                 ",
"                .ooX@. ...98>999999,85... .XX@@.                ",
"                .ooX@.  .18>99999999,51.  .X@X@.                ",
"                .ooX@....,8>99999999,8,....@X@@.                ",
"                .oXXX.::.,8>99999999,81.::.@@@@.                ",
"                .o@X-.:.>88>99999999,85,.:.@@@@.                ",
"                .oX@X.:.>8>9999999999>4,.:.X@XX.                ",
"                .ooX@...88>9999999999>84>..@X@@.                ",
"                .oXoX..588>9999999999>444..X@XX.                ",
"                .ooXo..488>990000w999&444..XX-X.                ",
"                .ooXX.3&&&&&>&>>>>>&&&&&&3.XXXX.                ",
"                 .....2..................3.....                 ",
"                     ..t<<<<<<<<<<<<<==.t..                     ",
"                    .*.t.e...+..........t.>.                    ",
"                   .**.t..@@@..oooooooo.t.>>.                   ",
"                   .**.t.@...o.otoooooo.t.>>.                   ",
"                   .3*.t..ooo.o.toooooX.t.>3.                   ",
"                   .3*.t.o...oo.toooooX.t.>3.                   ",
"                   .3*.t......oooo......t.>3.                   ",
"                   .3*.t.77777.oo.77777.t.>3.                   ",
"                   .3*.y.77777.oo.77777.t.>3.                   ",
"                   .6*.y.77777.oo.77777.t.>3.                   ",
"                   .6*.y.=777O.oo.$777=.y.>3.                   ",
"                   .6<.y................y.<3.                   ",
"                   .6<.y.tttttyyytttttt.y.<3.                   ",
"                   .6<..rt............rr..<3.                   ",
"                   .6<.r..e...XXoX...e..r.13.                   ",
"                   .*<.r..e.XXooooXX.e..r.11.                   ",
"                    .*.:..@e........e:..;.1.                    ",
"                    .1,&6..t.;;;;;;.y..3&33.                    ",
"                    .0,&5..t.;;;;;;.u..3&33.                    ",
"                 ....w5&5..t.;;;;;;.y..3>4q....                 ",
"                .XXX.05>5.:.+........e.3>4q.XXX.                ",
"                .XXX.05>5.:.$$$$$$$$.e.3<4q.Xoo.                ",
"                .XXX.05,5.:.#######$.e.3,4q.oXo.                ",
"                .X@X.05,5.:.$$$$$$$$.e.3,3q.ooX.                ",
"                .@X@.#555.:..........e.3,2%.@X@.                ",
"                .X@X@.%5>===========<<&&&%.XXX@.                ",
"                .XX@@@....................XX@X@.                ",
"                .X@X@@....-.. .XXX ..;....X@X@@.                ",
"                .XXo@X.   .----;;;-;;.   .XX@X@.                ",
"                .X-o@X.    ..........    .-+XXX.                ",
"                .oooXX.                  .@XXXX.                ",
"                 .....                    .....                 ",
"                                                                ",
"                                                                ",
"                                                                ",
"                                                                ",
"                                                                ",
"                                                                ",
"                                                                ",
"                                                                "
};
