/* XPM */
static char *car_red_dmg2[] = {
"64 64 16 1",
"  c #FF00FF",
"B c #c0392b",
"C c #a93226",
"D c #5d6d7e",
"G c #aaaaaa",
"H c #e74c3c",
"L c #fef9e7",
"S c #922b21",
"T c #1a1a1a",
"W c #85c1e9",
"X c #e74c3c",
"Z c #222222",
"d c #2e4057",
"k c #333333",
"l c #f9e79f",
"w c #d6eaf8",
/* pixels */
"                                                                ",
"                                G                               ",
"                               G G                              ",
"                              G G G                             ",
"          BBBBBBBBBBBBBBBBSSGSSSSSSSGSBBBBBBBBBBBBBBBB          ",
"          BLLLLLLLLHHHHHHHSSddSSSSSSSSHHHHHHHLLLLLLLLB          ",
"          BLllllllLHHHHHHHSSSSSSSSSSSSHHHHHHHLllllllLB          ",
"          BLllllllLHHHHHHHSSSSSSSSSSSSHHHHHHHLllllllLB          ",
"          BLLLLLLLLHHHHHHHSSSSSSSSSSSSHHddHHHLLLLLLLLB          ",
"          BBBBHHHHHHHHHHHHSSSSSSSSSSSSHHHHHHHHHHHHBBBB          ",
"  TTTTTTTTBBBBHHHHHHHHHHHHSSSSSSSSSSdddHHHHHHHHHHHBBBBTTTTTTTT  ",
"  TkkkkkkkBBBBHHHHHHHHHHHHSSSSSSSSSSSSHHHHHHHHHHHHBBBBkkkkkkkT  ",
"  TkkkkkkkBBBBHHHdHHHHHHHHSSSSSSSSSSSddHHHHHHHHHHHBBBBkkkkkkkT  ",
"  TkkkkkkkBBBBHHHdHHHHHHHHSSSSSdddSSSSHHHHHHHHHHHHBBBBkkkkkkkT  ",
"  TkkkkkkkBBBBBWWWWWWWWWWWWWWWWWWWWWWWWWWWWWWWWWWBBBBBkkkkkkkT  ",
"  TkkkkkkkBBBBBWWwwwwwwwwwwWWWWWWWWWWWWWWWWWWWWWWBBBBBkkkkkkkT  ",
"  TkkkkkkkBBBBBDWwwwwwwwwwwWWWWWDWWWWWWWWWWWWWWWWBBBBBkkkkkkkT  ",
"  TkkkkkkkBBBBBWWwwwwwwwwwwWWWWDWDWWWWWWWWWWWWWWWBBBBBkkkkkkkT  ",
"  TkkkkkkkBBBBBDWwwwwwwwwwwWWWDWWWDWWWWWWWWWWWWWWBBBBBkkkkkkkT  ",
"  TkkkkkkkBBBBBWDWWWWWWWWWWWWWWWWWWWWWWWWWWWWWWWWBBBBBkkkkkkkT  ",
"  TkkkkkkkBBBBBWWDWWWWWWWWWWWWWWWWWWWWWWWWWWWWWWWBBBBBkkkkkkkT  ",
"  TkkkkkkkBBBBBWWWDWWWDWWWWWWWWWWWWWWWWWWWWWWWWWWBBBBBkkkkkkkT  ",
"  TkkkkkkkBBBBBWWWDWWDWWWWWWWWWWWWWWWWWWWWWWWWWWWBBBBBkkkkkkkT  ",
"  TkkkkkkkBBBBBWWWWWDWWWWWWWWWWWWWWWWWWWWWWWWWWWWBBBBBkkkkkkkT  ",
"  TTTTTTTTBBBBBWWWWWWWWWWWWWWWWWWWWWWWWWWWWWWWWWWBBBBBTTTTTTTT  ",
"          BBBBBWWWWWWWWWWWWWWWWWWWWWWWWWWWWWWWWWWBBBBB          ",
"          BBBddWWWWWWWWWWWWWWWWWWWWWWWWWWWWWWWWWWBBBBB          ",
"          BBBCdCCCCdCCCCCCCCCCCSCCCCCCCCCCCCCCCCCCCBBB          ",
"          BBBCCCCCCCCCCCCCCCCCCSCCCCCCCCCCCCCCCCCCCBBB          ",
"          BdSSSSSSSSSSSSddSSSSSSSSSSSSSSSSSSSSSSSSSSSB          ",
"          BdBCCCCCCCCCCCdCCCCCCSCCCCCCCCCCCCdCCCCCCBBB          ",
"          BBBCCCCCCCCCCCCCCCCCCSCCCCCCCCCCCCdCCCCCCBBB          ",
"          BBBCCCCCCCCCCCCCCCCCCSCCCCCCCCCCCCCCCCCCCBBB          ",
"          BBBCCCCCCCCCCdddCCCCCSCCCCCCCCCCCCCCCCCCCBBB          ",
"          BBBCCCCCCCCCCCCCCCCCCSCCCCCCCCCCCCCCCCCCCBBB          ",
"          BBBCCCCCCCddCCCCCCCCCSCCCCCCCCCCCCCCCCCCCBBB          ",
"          BBBCCCCCCCCdCCCCCCCCCSCCCCCCCCCCCCCCCCCCCBBB          ",
"          BBBCCdCCCCCCCCCCCCCCCSCCCCCCCCCCCCCCCCCCCBBB          ",
"  TTTTTTTTBBBCCCCCCCCCCCCCCCCCCSCCCCCCCCCCCCCCCCCCCBBBTTTTTTTT  ",
"  TkkkkkkkBBBCCCCCCCCCCCCCdddCCSCCCCCCCCCCCCCCCCCCCBBBkkkkkkkT  ",
"  TkkkkkkkBBBCCCCCCCCCCCddCCCCCSCCCCCCCCCCCCCCCCCCCBBBkkkkkkkT  ",
"  TkkkkkkkBBBCCCCCCCCCCCdCCCCCCSCCCCCCCCCCCCCCCCCCCBBBkkkkkkkT  ",
"  TkkkkkkkBBBBBBBBBBBBBBBBSSSSSSSSSSSSBBBBBBBBBBBBBBBBkkkkkkkT  ",
"  TkkkkkkkBBBBBWWWWWWWWWWWWWWWWWWWWWWWWWWWWWWWWWWBBBBBkkkkkkkT  ",
"  TkkkkkkkBBBBBWWWWWWWWWWWWWWWWWWWWWWWWWWWWWWWWWWBBBBBkkkkkkkT  ",
"  TkkkkkkkBBBBdWWWWWWWWWWWWWWWWWWWWWWWWWWWWWWWWWWBBBBBkkkkkkkT  ",
"  TkkkkkkkBBBBBWWWWWWWWWWWWWWWWWWWWWWWWWWWWWWWWWWBBBBBkkkkkkkT  ",
"  TkkkkkkkBBBBBWWWWWWWWWWWWWWWWWWWWWWWWWWWWWWWWWWBBBBBkkkkkkkT  ",
"  TkkkkkkkBBBBBWWWWWWWWWWWWWWWWWWWWWWWWWWWWWWWWWWBBBBBkkkkkkkT  ",
"  TkkkkkkkBBBBBWWWWWWWWWWWWWWWWWWWWWWWWWWWWWWWWWWBBBBBkkkkkkkT  ",
"  TkkkkkkkBBBBBWWWWWWWWWWWWWWWWWWWWWWWWWWWWWWWWWWBBBBBkkkkkkkT  ",
"  TkkkkkkkBBBBBWWWWWWWWWWWWWWWWWWWWWWWWWWWWWWWWWWBBBBBkkkkkkkT  ",
"  TTTTTTTTBBBBBBBBBddBBBBBSSSSSSSSSSSSBBBBBBBBBBBBBBBBTTTTTTTT  ",
"          BBBBBBBBBBBBBBBBSSSSSSSSSSSSBBBBBBBBBBBBBBBB          ",
"          BXXXXXXXXBBBBBBBSSSSSdSSSSSSBBBBBBBXXXXXXXXB          ",
"          BXXXXXXXXBBBBdBBSSSSSSSSSSSSBBBBBBBXXXXXXXXB          ",
"          BXXXXXXXXBBBBdBBSSSSSSSSSSSSBBBBddBXXXXXXXXB          ",
"          BXXXXXXXXBBBBBBBSSSSSSSSSSddBBBBdBBXXXXXXXXB          ",
"          BXXXXXXXXBBBBBBBSSSSSSSSSSSSBBBBBBBXXXXXXXXB          ",
"          BBBBBBBBBBBBBBBBSSSSSSSSSSSSBBBBBBBBBBBBBBBB          ",
"              ZZZZZZZZZZZZZZZZZZZZZZZZZZZZZZZZZZZZZ             ",
"                ZZZZZZZZZZZZZZZZZZZZZZZZZZZZZZZZZ               ",
"                    ZZZZZZZZZZZZZZZZZZZZZZZZZ                   ",
"                                Z                               "
};


