/* XPM */
static char *exit_button[] = {
"32 12 5 1",
"  c #0d0d1a",
"B c #dc2626",
"D c #7f1d1d",
"H c #f87171",
"T c #ffffff",
/* pixels */
"                                ",
"                                ",
"  HHHHHHHHHHHHHHHHHHHHHHHHHH    ",
"  BBBBBBTTTBTBTBTTTBTTTBBBBBD   ",
"  BBBBBBTBBBTBTBBTBBBTBBBBBBD   ",
"  BBBBBBTTTBBTBBBTBBBTBBBBBBD   ",
"  BBBBBBTBBBTBTBBTBBBTBBBBBBD   ",
"  BBBBBBTTTBTBTBTTTBBTBBBBBBD   ",
"  BBBBBBBBBBBBBBBBBBBBBBBBBBD   ",
"   DDDDDDDDDDDDDDDDDDDDDDDDDD   ",
"                                ",
"                                "
};