/* XPM */
static char *getaway_car_title[] = {
/* columns rows colors chars-per-pixel */
"64 32 11 1",
"  c #0d0d1a",
". c #1a1a2e",
"B c #2563eb",
"G c #e8c547",
"K c #111111",
"R c #dc2626",
"W c #ffffff",
"Y c #e8c547",
"b c #93c5fd",
"r c #fca5a5",
"s c #aaaaaa",
/* pixels */
"               s                                          s     ",
"     s                                       s                  ",
"                              s                        s        ",
"          s                        s                            ",
"                  YYY YYY YYY  Y  Y Y  Y  Y Y     s             ",
"                  Y   YY   Y  Y Y Y Y Y Y Y Y                   ",
"                  Y Y YYY  Y  YYY Y Y YYY  Y                    ",
"                  Y Y Y    Y  Y Y YYY Y Y  Y                    ",
"                  YYY YYY  Y  Y Y  Y  Y Y  Y                    ",
"                                                                ",
"                                                                ",
"                          WWW  W  WW                            ",
"                          W   W W W W                           ",
"                          W   WWW WW                            ",
"                          W   W W W W                           ",
"                          WWW W W W W                           ",
"        G..............................................G        ",
"        G......................GG......................G        ",
"        G...BbbBbbB.........................RrrRrrR....G        ",
"        G...BbbBbbB.........................RrrRrrR....G        ",
"        G..BBBBBBBBB...........GG..........RRRRRRRRR...G        ",
"        G..BBBBBBBBB.......................RRRRRRRRR...G        ",
"        G...KK...KK.........................KK...KK....G        ",
"        G......................GG......................G        ",
"        G..............................................G        ",
"        G..............................................G        ",
"        G......................GG......................G        ",
"        G..............................................G        ",
"        G..............................................G        ",
"        G......................GG......................G        ",
"        G..............................................G        ",
"        G..............................................G        "
};