/* XPM */
static char *start_button[] = {
"32 12 5 1",
"  c #0d0d1a",
"B c #e8c547",
"D c #92400e",
"H c #fde68a",
"T c #0d0d1a",
/* pixels */
"                                ",
"                                ",
"  HHHHHHHHHHHHHHHHHHHHHHHHHH    ",
"  BBBBTTTBTTTBBTBBTTBBTTTBBBD   ",
"  BBBBTBBBBTBBTBTBTBTBBTBBBBD   ",
"  BBBBTTTBBTBBTTTBTTBBBTBBBBD   ",
"  BBBBBBTBBTBBTBTBTBTBBTBBBBD   ",
"  BBBBTTTBBTBBTBTBTBTBBTBBBBD   ",
"  BBBBBBBBBBBBBBBBBBBBBBBBBBD   ",
"   DDDDDDDDDDDDDDDDDDDDDDDDDD   ",
"                                ",
"                                "
};