/* XPM */
static char *car_red_12_s1[] = {
/* columns rows colors chars-per-pixel */
"64 64 28 1 ",
"  c None",
". c #000100",
"X c #362829",
"o c #2B2D34",
"O c #501419",
"+ c #65161F",
"@ c #781B1F",
"# c #562628",
"$ c #6F2227",
"% c #754338",
"& c #2E3744",
"* c #851E21",
"= c #951B24",
"- c #87272C",
"; c #9B2D32",
": c #B83123",
"> c #AB2334",
", c #B82D33",
"< c #AB3533",
"1 c #BD3836",
"2 c #C7282E",
"3 c #D2272E",
"4 c #CF3C3F",
"5 c #C9B0A8",
"6 c #CAC6CE",
"7 c #D6D5DE",
"8 c #EDE5EB",
"9 c #F9F5F5",
/* pixels */
"                                                                ",
"                                                                ",
"                                                                ",
"                                                                ",
"                                                                ",
"                                                                ",
"                                                                ",
"                                                                ",
"                                                                ",
"                                                                ",
"                          ............                          ",
"                     .....************.....                     ",
"                    .<,,111111111111<<,<<<<.                    ",
"                   .@1@@11............,,@@<*.                   ",
"                   .*@@1..&&&&&&&&&&&&..:***.                   ",
"                   .*@*1.o&&&&&&&&&&&&&.4***.                   ",
"                  .*-**1*..............*4**--.                  ",
"                  .*-**11*,,,,,,,,,,1<*=4**--.                  ",
"                  .*-.*11**==========**3=-.--.                  ",
"                  .--..@1*333333333333*4=..--.                  ",
"                  .--..@1*333333333333=4=..--.                  ",
"                  .--..@1*333333333333=4=..--.                  ",
"                  .--.X.1*333333333333=,.X.--.                  ",
"                  ..-.X.1*333333333333=,.X.-..                  ",
"                   .-.X.1*333333333333=,.X.-.                   ",
"                   .-.X.1*333333333333=2.X.-.                   ",
"                   .-.X.1*333333333333=2.X.-.                   ",
"                   .-.o.1-333333333333=2.X.-.                   ",
"                   .%.o.1-333333333333=2.X.-.                   ",
"                   .%.o.1-333333333333=4.X.-.                   ",
"                   .%.&.1-333333333333=4.X.$.                   ",
"                   .%.&.1-333333333333=4.X.$.                   ",
"                   .%.&.1-333333333333=4.o.$.                   ",
"                   .-..11*333333333333=41o.$.                   ",
"                   .-..1..************..1X.$.                   ",
"                   .-..1.&............&.1o.-.                   ",
"                   .-..,.&&&&&&&&&&&&&&.,o.-.                   ",
"                 ...-.,..&&&&&&&&&&&&&&.@,.-...                 ",
"                 .;;..,.&&&&&&&&&&&&&&&&.,..--.                 ",
"                  .;;.,.&&&&&&&&&&&&&&&&.,.$-.                  ",
"                   ...,.&&&&&&&&&&&&&&&&.,...                   ",
"                   .$+,.&&&&&&&&&&&&&&&&.,$$.                   ",
"                   .$+,..&&&&&&&&&&&&&&&.>$$.                   ",
"                   .$+>>...&&&&&&&&&&...>>$$.                   ",
"                  .$$+=>111..........,,>>$$$$.                  ",
"                  .$$+..*=,,111111111,==..$$$.                  ",
"                  .$-.68.**============.97.$$.                  ",
"                  .+-.669.============.977.-$.                  ",
"                  .+--.69.=====55=====.97.--#.                  ",
"                  .++--..O=====55*=====..*--#.                  ",
"                  .++----O+O+OOOOOOOOOO@**-##.                  ",
"                   .X++++$$$$$$$@$$$@@@**X##.                   ",
"                   .XXoX................XXXX.                   ",
"                    ....                ....                    ",
"                                                                ",
"                                                                ",
"                                                                ",
"                                                                ",
"                                                                ",
"                                                                ",
"                                                                ",
"                                                                ",
"                                                                ",
"                                                                "
};
