/* XPM */
static char *car_blue_00_s1[] = {
/* columns rows colors chars-per-pixel */
"64 64 37 1 ",
"  c #FF00FF",
". c #010000",
"X c #282936",
"o c #37442E",
"O c #141A50",
"+ c #262856",
"@ c #162065",
"# c #1B2078",
"$ c #423875",
"% c #444B43",
"& c #55614C",
"* c #5A745F",
"= c #66696E",
"- c #6E8351",
"; c #899C6A",
": c #1E2285",
"> c #1B2595",
", c #272D87",
"< c #2D339B",
"1 c #2335AB",
"2 c #3433AB",
"3 c #2D34B8",
"4 c #3736BD",
"5 c #453DA9",
"6 c #2830C7",
"7 c #2730D2",
"8 c #3C40CF",
"9 c #2046E3",
"0 c #8A8798",
"q c #BCC994",
"w c #B0A8C9",
"e c #B5B6D8",
"r c #BDBFEE",
"t c #C6CECA",
"y c #D5DED6",
"u c #E5EBED",
"i c #F5F5F9",
/* pixels */
"                                                                ",
"                                                                ",
"                                                                ",
"                                                                ",
"                                                                ",
"                         ..............                         ",
"                     ....>>>>>>>>>>>:::....                     ",
"                    .00ti>>99999999999:uy$$.                    ",
"                   .>0tu#99999999999999@yy<#.                   ",
"                   .>yu#9999999999999999#yy#.                   ",
"                  .>1y#999999999999999999@y::.                  ",
"                  .>1#99999999999999999999>:1.                  ",
"                  .19199999999999999999999>91.                  ",
"                 .:19199999999999999999999>91>.                 ",
"                 .>19199999999999999999999>91>.                 ",
"                 .>1919999............9999>91>.                 ",
"                 .>69199..&----&&&&&--..99>91>.                 ",
"                 .>691..&&&-;;;;;;;qqq--..>91>.                 ",
"                 .>67.&;;;;;;;;;;;qqqqqqq=.11:.                 ",
"                 ...7.&;;;;;;;;;;qqqqqqqq=.1...                 ",
"                .<<..4.;;;;;;;;;qqqqqqqqq.2..33.                ",
"               .<<<..4.;;;;;;;;qqqqqqqqqq.5..333.               ",
"               ....,..2.;;;;;;qqqqqqqqqq.5..1....               ",
"                  .,.%<.;..............q.4*.<.                  ",
"                  .<.*<..>999999999999>..4*.1.                  ",
"                  .<.*.199999999999999991.*.>.                  ",
"                  .<.*.199999999999999991.*.>.                  ",
"                  .<.*.199999999999999991.*.>.                  ",
"                  .<.*.199999999999999991.*.>.                  ",
"                  .,.*.199999999999999991.*.>.                  ",
"                  .,.*.199999999999999991.*.<.                  ",
"                  .,.*.199999999999999991.*.<.                  ",
"                  .,.*.199999999999999991.*.<.                  ",
"                  .,.o.199999999999999991.+.,.                  ",
"                  .,,,.199999999999999991.+.,.                  ",
"                  .,,..199999999999999991..,,.                  ",
"                  .,.*.199999999999999991.*.,.                  ",
"                  .,.*.199999999999999991.*.,.                  ",
"                  .,.*.199999999999999991.*.<.                  ",
"                  .,.*.199999999999999991.*.<.                  ",
"                  .,.*.199999999999999991.-.<.                  ",
"                  .<.O>7999999999999999911X.<.                  ",
"                  .<.O>7199999999999999111X.<.                  ",
"                  .<.>>77111111111111119111.1.                  ",
"                 .>1.>667779999999999999111.11.                 ",
"                 .>1>16...779999999999...11111.                 ",
"                 .1111.---............&&&:1111.                 ",
"                 .1111.---------------;;&.1111.                 ",
"                 .1111.-;;;;;;;;;;;;;;;;;.1111.                 ",
"                 .>1@1.-;;;;;;;;;;;;;;;;;.1@11.                 ",
"                 .>OO:3..;;;;;;;;;;;;;;..1@@@1.                 ",
"                 .>@1O:33..............>8@@1@>.                 ",
"                 .>@88O:>44433666688888>@@88@>.                 ",
"                 .>>@88O>>>>>>>rr>>>>>>>@88@>>.                 ",
"                  .>>O@O@>>>>>>>>>>>>>>@O@@>>.                  ",
"                  .>>>>>>@@@@@@@@@@@@@@>>>>>>.                  ",
"                   .>>>>>>>>>>>>>>>>>>>>>>>>.                   ",
"                    ..>>>>>>>eeeeew<<<<<<<..                    ",
"                      ....................                      ",
"                                                                ",
"                                                                ",
"                                                                ",
"                                                                ",
"                                                                "
};
