/* XPM */
static char *mode_race_card[] = {
"200 200 60 2",
"aa c #000000",
"ab c #CCCCCC",
"ac c #666666",
"ad c #333333",
"ae c #2A2A2A",
"af c #383838",
"ag c #444444",
"ah c #555555",
"ai c #282828",
"aj c #EEEEEE",
"ak c #191919",
"al c #1B1B1B",
"am c #5D4037",
"an c #7A7A7A",
"ao c #4A4A4A",
"ap c #003399",
"aq c #1A5276",
"ar c #2471A3",
"as c #154360",
"at c #1A1A1A",
"au c #222222",
"av c #D6EAF8",
"aw c #2C7FB0",
"ax c #1A3E58",
"ay c #123048",
"az c #777777",
"aA c #505050",
"aB c #303030",
"aC c #A93226",
"aD c #922B21",
"aE c #8A2820",
"aF c #6E2018",
"aG c #686868",
"aH c #484848",
"aI c #330000",
"aJ c #333300",
"aK c #336666",
"aL c #3399CC",
"aM c #1A1A2E",
"aN c #3344BB",
"aO c #4455CC",
"aP c #111122",
"aQ c #6677DD",
"aR c #0A0A1E",
"aS c #660000",
"aT c #000033",
"aU c #4444AA",
"aV c #0D0D1A",
"aW c #7F1D1D",
"aX c #E8C547",
"aY c #FDE68A",
"aZ c #111111",
"a0 c #AAAAAA",
"a1 c #669999",
"a2 c #6699CC",
"a3 c #993366",
"a4 c #996633",
"a5 c #9999CC",
"a6 c #99CCCC",
"a7 c #CCCC66",
/* pixels */
"aaaaaaaaaaaaaaaaaaaaaaaaaaaaaaaaaaaaaaaaaaaaaaaaaaaaaaaaaaaaaaaaaaaaaaaaaaaaaaaaaaaaaaaaaaaaaaaaaaaaaaaaaaaaaaaaaaaaaaaaaaaaaaaaaaaaaaaaaaaaaaaaaaaaaaaaaaaaaaaaaaaaaaaaaaaaaaaaaaaaaaaaaaaaaaaaaaaaaaaaaaaaaaaaaaaaaaaaaaaaaaaaaaaaaaaaaaaaaaaaaaaaaaaaaaaaaaaaaaaaaaaaaaaaaaaaaaaaaaaaaaaaaaaaaaaaaaaaaaaaaaaaaaaaaaaaaaaaaaaaaaaaaaaaaaaaaaaaaaaaaaaaaaaaaaaaaaaaaaaaaaaaaaaaaaaaaaaaaaaaaaaaaaaaaaaaaaaaaaaa",
"aaaaaaaaaaaaaaaaaaaaaaaaaaaaaaaaaaaaaaaaaaaaaaaaaaaaaaaaaaaaaaaaaaaaaaaaaaaaaaaaaaaaaaaaaaaaaaaaaaaaaaaaaaaaaaaaaaaaaaaaaaaaaaaaaaaaaaaaaaaaaaaaaaaaaaaaaaaaaaaaaaaaaaaaaaaaaaaaaaaaaaaaaaaaaaaaaaaaaaaaaaaaaaaaaaaaaaaaaaaaaaaaaaaaaaaaaaaaaaaaaaaaaaaaaaaaaaaaaaaaaaaaaaaaaaaaaaaaaaaaaaaaaaaaaaaaaaaaaaaaaaaaaaaaaaaaaaaaaaaaaaaaaaaaaaaaaaaaaaaaaaaaaaaaaaaaaaaaaaaaaaaaaaaaaaaaaaaaaaaaaaaaaaaaaaaaaaaaaaaa",
"aaaaaaaaaaaaaaaaaaaaaaaaaaaaaaaaaaaaaaaaaaaaaaaaaaaaaaaaaaaaaaaaaaaaaaaaaaaaaaaaaaaaaaaaaaaaaaaaaaaaaaaaaaaaaaaaaaaaaaaaaaaaaaaaaaaaaaaaaaaaaaaaaaaaaaaaaaaaaaaaaaaaaaaaaaaaaaaaaaaaaaaaaaaaaaaaaaaaaaaaaaaaaaaaaaaaaaaaaaaaaaaaaaaaaaaaaaaaaaaaaaaaaaaaaaaaaaaaaaaaaaaaaaaaaaaaaaaaaaaaaaaaaaaaaaaaaaaaaaaaaaaaaaaaaaaaaaaaaaaaaaaaaaaaaaaaaaaaaaaaaaaaaaaaaaaaaaaaaaaaaaaaaaaaaaaaaaaaaaaaaaaaaaaaaaaaaaaaaaaa",
"aaaaaaaaaaaaaaaaaaaaaaaaaaaaaaaaaaaaaaaaaaaaaaaaaaaaaaaaaaaaaaaaaaaaaaaaaaaaaaaaaaaaaaaaaaaaaaaaaaaaaaaaaaaaaaaaaaaaaaaaaaaaaaaaaaaaaaaaaaaaaaaaaaaaaaaaaaaaaaaaaaaaaaaaaaaaaaaaaaaaaaaaaaaaaaaaaaaaaaaaaaaaaaaaaaaaaaaaaaaaaaaaaaaaaaaaaaaaaaaaaaaaaaaaaaaaaaaaaaaaaaaaaaaaaaaaaaaaaaaaaaaaaaaaaaaaaaaaaaaaaaaaaaaaaaaaaaaaaaaaaaaaaaaaaaaaaaaaaaaaaaaaaaaaaaaaaaaaaaaaaaaaaaaaaaaaaaaaaaaaaaaaaaaaaaaaaaaaaaaa",
"aaaaaaaaaaaaaaaaaaaaaaaaaaaaaaaaaaaaaaaaaaaaaaaaaaaaaaaaaaaaaaaaaaaaaaaaaaaaaaaaaaaaaaaaaaaaaaaaaaaaaaaaaaaaaaaaaaaaaaaaaaaaaaaaaaaaaaaaaaaaaaaaaaaaaaaaaaaaaaaaaaaaaaaaaaaaaaaaaaaaaaaaaaaaaaaaaaaaaaaaaaaaaaaaaaaaaaaaaaaaaaaaaaaaaaaaaaaaaaaaaaaaaaaaaaaaaaaaaaaaaaaaaaaaaaaaaaaaaaaaaaaaaaaaaaaaaaaaaaaaaaaaaaaaaaaaaaaaaaaaaaaaaaaaaaaaaaaaaaaaaaaaaaaaaaaaaaaaaaaaaaaaaaaaaaaaaaaaaaaaaaaaaaaaaaaaaaaaaaaa",
"aaaaaaaaaaaaaaaaaaaaaaaaaaaaaaaaaaaaaaaaaaaaaaaaaaaaaaaaaaaaaaaaaaaaaaaaaaaaaaaaaaaaaaaaaaaaaaaaaaaaaaaaaaaaaaaaaaaaaaaaaaaaaaaaaaaaaaaaaaaaaaaaaaaaaaaaaaaaaaaaaaaaaaaaaaaaaaaaaaaaaaaaaaaaaaaaaaaaaaaaaaaaaaaaaaaaaaaaaaaaaaaaaaaaaaaaaaaaaaaaaaaaaaaaaaaaaaaaaaaaaaaaaaaaaaaaaaaaaaaaaaaaaaaaaaaaaaaaaaaaaaaaaaaaaaaaaaaaaaaaaaaaaaaaaaaaaaaaaaaaaaaaaaaaaaaaaaaaaaaaaaaaaaaaaaaaaaaaaaaaaaaaaaaaaaaaaaaaaaaa",
"aaaaaaaaaaaaaaaaaaaaaaaaaaaaaaaaaaaaaaaaaaaaaaaaaaaaaaaaaaaaaaaaaaaaaaaaaaaaaaaaaaaaaaaaaaaaaaaaaaaaaaaaaaaaaaaaaaaaaaaaaaaaaaaaaaaaaaaaaaaaaaaaaaaaaaaaaaaaaaaaaaaaaaaaaaaaaaaaaaaaaaaaaaaaaaaaaaaaaaaaaaaaaaaaaaaaaaaaaaaaaaaaaaaaaaaaaaaaaaaaaaaaaaaaaaaaaaaaaaaaaaaaaaaaaaaaaaaaaaaaaaaaaaaaaaaaaaaaaaaaaaaaaaaaaaaaaaaaaaaaaaaaaaaaaaaaaaaaaaaaaaaaaaaaaaaaaaaaaaaaaaaaaaaaaaaaaaaaaaaaaaaaaaaaaaaaaaaaaaaa",
"aaaaaaaaaaaaaaaaaaaaaaaaaaaaaaaaaaaaaaaaaaaaaaaaaaaaaaaaaaaaaaaaaaaaaaaaaaaaaaaaaaaaaaaaaaaaaaaaaaaaaaaaaaaaaaaaaaaaaaaaaaaaaaaaaaaaaaaaaaaaaaaaaaaaaaaaaaaaaaaaaaaaaaaaaaaaaaaaaaaaaaaaaaaaaaaaaaaaaaaaaaaaaaaaaaaaaaaaaaaaaaaaaaaaaaaaaaaaaaaaaaaaaaaaaaaaaaaaaaaaaaaaaaaaaaaaaaaaaaaaaaaaaaaaaaaaaaaaaaaaaaaaaaaaaaaaaaaaaaaaaaaaaaaaaaaaaaaaaaaaaaaaaaaaaaaaaaaaaaaaaaaaaaaaaaaaaaaaaaaaaaaaaaaaaaaaaaaaaaaa",
"aaaaaaaaaaaaaaaaaaaaaaaaaaaaaaaaaaaaaaaaaaaaaaaaaaaaaaaaaaaaaaaaaaaaaaaaaaaaaaaaaaaaaaaaaaaaaaaaaaaaaaaaaaaaaaaaaaaaaaaaaaaaaaaaaaaaaaaaaaaaaaaaaaaaaaaaaaaaaaaaaaaaaaaaaaaaaaaaaaaaaaaaaaaaaaaaaaaaaaaaaaaaaaaaaaaaaaaaaaaaaaaaaaaaaaaaaaaaaaaaaaaaaaaaaaaaaaaaaaaaaaaaaaaaaaaaaaaaaaaaaaaaaaaaaaaaaaaaaaaaaaaaaaaaaaaaaaaaaaaaaaaaaaaaaaaaaaaaaaaaaaaaaaaaaaaaaaaaaaaaaaaaaaaaaaaaaaaaaaaaaaaaaaaaaaaaaaaaaaaa",
"aaaaaaaaaaaaaaaaaaaaaaaaaaaaaaaaaaaaaaaaaaaaaaaaaaaaaaaaaaaaaaaaaaaaaaaaaaaaaaaaaaaaaaaaaaaaaaaaaaaaaaaaaaaaaaaaaaaaaaaaaaaaaaaaaaaaaaaaaaaaaaaaaaaaaaaaaaaaaaaaaaaaaaaaaaaaaaaaaaaaaaaaaaaaaaaaaaaaaaaaaaaaaaaaaaaaaaaaaaaaaaaaaaaaaaaaaaaaaaaaaaaaaaaaaaaaaaaaaaaaaaaaaaaaaaaaaaaaaaaaaaaaaaaaaaaaaaaaaaaaaaaaaaaaaaaaaaaaaaaaaaaaaaaaaaaaaaaaaaaaaaaaaaaaaaaaaaaaaaaaaaaaaaaaaaaaaaaaaaaaaaaaaaaaaaaaaaaaaaaa",
"aaaaaaaaaaaaaaaaaaaaaaaaaaaaaaaaaaaaaaaaaaaaaaaaaaaaaaaaaaaaaaaaaaaaaaaaaaaaaaaaaaaaaaaaaaaaaaaaaaaaaaaaaaaaaaaaaaaaaaaaaaaaaaaaaaaaaaaaaaaaaaaaaaaaaaaaaaaaaaaaaaaaaaaaaaaaaaaaaaaaaaaaaaaaaaaaaaaaaaaaaaaaaaaaaaaaaaaaaaaaaaaaaaaaaaaaaaaaaaaaaaaaaaaaaaaaaaaaaaaaaaaaaaaaaaaaaaaaaaaaaaaaaaaaaaaaaaaaaaaaaaaaaaaaaaaaaaaaaaaaaaaaaaaaaaaaaaaaaaaaaaaaaaaaaaaaaaaaaaaaaaaaaaaaaaaaaaaaaaaaaaaaaaaaaaaaaaaaaaaa",
"aaaaaaaaaaaaaaaaaaaaaaaaaaaaaaaaaaaaaaaaaaaaaaaaaaaaaaaaaaaaaaaaaaaaaaaaaaaaaaaaaaaaaaaaaaaaaaaaaaaaaaaaaaaaaaaaaaaaaaaaaaaaaaaaaaaaaaaaaaaaaaaaaaaaaaaaaaaaaaaaaaaaaaaaaaaaaaaaaaaaaaaaaaaaaaaaaaaaaaaaaaaaaaaaaaaaaaaaaaaaaaaaaaaaaaaaaaaaaaaaaaaaaaaaaaaaaaaaaaaaaaaaaaaaaaaaaaaaaaaaaaaaaaaaaaaaaaaaaaaaaaaaaaaaaaaaaaaaaaaaaaaaaaaaaaaaaaaaaaaaaaaaaaaaaaaaaaaaaaaaaaaaaaaaaaaaaaaaaaaaaaaaaaaaaaaaaaaaaaaa",
"aaaaaaaaaaaaaaaaaaaaaaaaaaaaaaaaaaaaaaaaaaaaaaaaaaaaaaaaaaaaaaaaaaaaaaaaaaaaaaaaaaaaaaaaaaaaaaaaaaaaaaaaaaaaaaaaaaaaaaaaaaaaaaaaaaaaaaaaaaaaaaaaaaaaaaaaaaaaaaaaaaaaaaaaaaaaaaaaaaaaaaaaaaaaaaaaaaaaaaaaaaaaaaaaaaaaaaaaaaaaaaaaaaaaaaaaaaaaaaaaaaaaaaaaaaaaaaaaaaaaaaaaaaaaaaaaaaaaaaaaaaaaaaaaaaaaaaaaaaaaaaaaaaaaaaaaaaaaaaaaaaaaaaaaaaaaaaaaaaaaaaaaaaaaaaaaaaaaaaaaaaaaaaaaaaaaaaaaaaaaaaaaaaaaaaaaaaaaaaaa",
"ajajajajaBaBaBaBaBaBaBaBaBaeaeaeaeajajajajajajajajajajajajajajajaBaBaBaBaBaBaBaBaBaeaeaiaiaiajajajajajajajajajajajavavaBaBaBaBadadaBaBaBaBaBaBaBajajajajajajajajajajajavavababaBaBaBaBaBaBaBaBaBaeaeaiaiajajajajajajajajajavavajajajaBaBaeaeaeaeaBaBaeaeaeaeaeajajajajajajajajajajajajajavavadadaBaBaBaBaBaBaBaeaeaiaiajajajajajajajajajajajajajajadadaBaBaBaBaBaBaBaBaBaeaeajajajajajajajajajajajajajajajaBaBaB",
"ajajajajaBaBaBaBaBaBaBaBaBaeaeaeaeajajajajajajajajajajajajajajajaBaBaBaBaBaBaBaBaBaeaeaiaiaiajajajajajajajajajajajavavaBaBaBaBadadaBaBaBaBaBaBaBajajajajajajajajajajajavavababaBaBaBaBaBaBaBaBaBaeaeaiaiajajajajajajajajajavavajajajaBaBaeaeaeaeaBaBaeaeaeaeaeajajajajajajajajajajajajajavavadadaBaBaBaBaBaBaBaeaeaiaiajajajajajajajajajajajajajajadadaBaBaBaBaBaBaBaBaBaeaeajajajajajajajajajajajajajajajaBaBaB",
"ajajavavaBaBaBaBaBaBaBaBaBaBaBaeaeajajajajajajajajajavavavavavavaBaBaBadadadadaBaBaeaeaeaeaeavavajajajajajajajajajavavaBaBaBaBadadaBaBaBaBaBaBaBavavajajajajajajajajajajajababadadadadadadadaBaBaBaBaeaeavavavavavavavavavavavavavavaBaBaBaBaBaBaBaBaBaBaBaeaeajajajajajajajajajajajajajavavadadaBaBaBaBaBadadaeaeaeaeajajajajajajajajajajajajajajadadadadaBaBadadaBaBaBaBaBajajajajajajajajajajajajajavavaBaBaB",
"ajajavavaBaBaBaBaBaBaBaBaBaBaBaeaeajajajajajajajajajavavavavavavaBaBaBadadadadaBaBaeaeaeaeaeavavajajajajajajajajajavavaBaBaBaBadadaBaBaBaBaBaBaBavavajajajajajajajajajajajababadadadadadadadaBaBaBaBaeaeavavavavavavavavavavavavavavaBaBaBaBaBaBaBaBaBaBaBaeaeajajajajajajajajajajajajajavavadadaBaBaBaBaBadadaeaeaeaeajajajajajajajajajajajajajajadadadadaBaBadadaBaBaBaBaBajajajajajajajajajajajajajavavaBaBaB",
"ajajavavaBaBaBaBaBaBaBaBaBaBaBaeaeajajajajajajajajajavavavavavavaBaBaBadadadadaBaBaeaeaeaeaeavavajajajajajajajajajavavaBaBaBaBadadaBaBaBaBaBaBaBavavajajajajajajajajajajajababadadadadadadadaBaBaBaBaeaeavavavavavavavavavavavavavavaBaBaBaBaBaBaBaBaBaBaBaeaeajajajajajajajajajajajajajavavadadaBaBaBaBaBadadaeaeaeaeajajajajajajajajajajajajajajadadadadaBaBadadaBaBaBaBaBajajajajajajajajajajajajajavavaBaBaB",
"ajajavavaBaBadadadadadadadaBaBaBaBavavajajajajajajajavavavavavavaBaBaBadadadadadadaBaBaBaBaBavavajajajajajajajajajavavaBaBaBaBadadadadadadadadadavavajajajajajajajavavajajavavadadadadadadadadadaBaBaBaBavavavavavavavavavajajajajajaBaBaBaBaBaBaBaBaBaBaBaeaeajajajajajajajajajajajajajavavadadadadadadadadadaBaBaBaBajajajajajajajajajajajavavavaBaBaBaBaBaBadadaBaBaBaBaBajajajajajajajajajajajajajajajaBaBaB",
"ajajavavaBaBadadadadadadadaBaBaBaBavavajajajajajajajavavavavavavaBaBaBadadadadadadaBaBaBaBaBavavajajajajajajajajajavavaBaBaBaBadadadadadadadadadavavajajajajajajajavavajajavavadadadadadadadadadaBaBaBaBavavavavavavavavavajajajajajaBaBaBaBaBaBaBaBaBaBaBaeaeajajajajajajajajajajajajajavavadadadadadadadadadaBaBaBaBajajajajajajajajajajajavavavaBaBaBaBaBaBadadaBaBaBaBaBajajajajajajajajajajajajajajajaBaBaB",
"ajajavavadadadadadadadaBaBaBaBaBaBavavavavavavavavavavavavavavavadadadadadadadadadaBaBaBaBaBavavavavavavavavajajajavavaBaBadadadadadadadadadadadajajavavajajajajajavavajajavavadadadadadadadaBaBaBaBaBaBavavavavavavavavavajajajajajaBaBaBaBaBaBaBaBaBaBaBaBaBajajajajajajajajajajajajajavavadadadadadadadadadaBaBaBaBajajajajajajajajajajajavavavaBaBaBaBadadaBaBaBaBaBaBaBajajajajajajajajajajajajajajajaBaBaB",
"ajajavavadadadadadadadaBaBaBaBaBaBavavavavavavavavavavavavavavavadadadadadadadadadaBaBaBaBaBavavavavavavavavajajajavavaBaBadadadadadadadadadadadajajavavajajajajajavavajajavavadadadadadadadaBaBaBaBaBaBavavavavavavavavavajajajajajaBaBaBaBaBaBaBaBaBaBaBaBaBajajajajajajajajajajajajajavavadadadadadadadadadaBaBaBaBajajajajajajajajajajajavavavaBaBaBaBadadaBaBaBaBaBaBaBajajajajajajajajajajajajajajajaBaBaB",
"ajajavavaBaBaBaBaBaBaBaBaBaBaBaBaBavavavavavavavavavajajavavavavadadadadadadadadadaBaBaBaBaBavavavavavavavavajajajavavadadadadadadadadadadadadadajajavavavavavajajajajajajavavadadadadadadadaBaBaBaBaBaBavavavavavavavavavavavavavavaBaBaBaBaBaBaBaBaBaBaBaBaBavavajajajajajajajajajajajajajaBaBadadadadadaBaBaBaBaBaBajajajajajajajajajajajajajajadadadadadadaBaBaBaBaBaBaBavavajajajajajajajajajajajajajaBaBaB",
"ajajavavaBaBaBaBaBaBaBaBaBaBaBaBaBavavavavavavavavavajajavavavavadadadadadadadadadaBaBaBaBaBavavavavavavavavajajajavavadadadadadadadadadadadadadajajavavavavavajajajajajajavavadadadadadadadaBaBaBaBaBaBavavavavavavavavavavavavavavaBaBaBaBaBaBaBaBaBaBaBaBaBavavajajajajajajajajajajajajajaBaBadadadadadaBaBaBaBaBaBajajajajajajajajajajajajajajadadadadadadaBaBaBaBaBaBaBavavajajajajajajajajajajajajajaBaBaB",
"ajajavavaBaBaBaBaBaBaBaBaBaBaBaBaBavavavavavavavavavajajajajajajaBaBaBaBaBaBaBaBaBaBaBaeaeaeavavavavavavajajajajajajajadadadadadadaBaBaBaBaBaBaBajajavavavavavajajavavajajajajaBaBaBaBaBaBaBaBaBaBaBaBaBavavavavavavavavavavavavavavaeaeaeaeaeaeaeaeaeaeaeaBaBavavavavavavajajajajajajajajajaeaeaBaBaBaBaBaBaBaBaBaBaBavavavavavajajajajajajajajajaBaBaBaBaBaBaeaeaeaeaeaeaeavavajajajajajajajajajajajajajaeaeae",
"ajajavavaBaBaBaBaBaBaBaBaBaBaBaBaBavavavavavavavavavajajajajajajaBaBaBaBaBaBaBaBaBaBaBaeaeaeavavavavavavajajajajajajajadadadadadadaBaBaBaBaBaBaBajajavavavavavajajavavajajajajaBaBaBaBaBaBaBaBaBaBaBaBaBavavavavavavavavavavavavavavaeaeaeaeaeaeaeaeaeaeaeaBaBavavavavavavajajajajajajajajajaeaeaBaBaBaBaBaBaBaBaBaBaBavavavavavajajajajajajajajajaBaBaBaBaBaBaeaeaeaeaeaeaeavavajajajajajajajajajajajajajaeaeae",
"aeaeaiaiavavavavavavavavavavavavavaBaBaBaBaBaBaBaBaBaeaeaiaiaiaiavavavavavavavavavajajajajajaeaeaBaBaBaBaBaBaBaBaBaeaeavavavavavavavavavavavajajaeaeaeaeaeaeaeaeaeaeaeaiaiaiaiavavavavavavavavavajajajajaBaBaBaBaBaBaBaBaBaeaeaiaiaiavavavavavavajajajajajajajaeaeaeaeaBaBaBaBaBaBaBaeaeaiaiavavavavavavavavavavavavavaBaBaBaBaBaBaBaeaeaeaeaiaiaiajajajajajajajajajajajajajaeaeaeaeaBaBaeaeaeaeaeaiaiaiaiavavav",
"aeaeaiaiavavavavavavavavavavavavavaBaBaBaBaBaBaBaBaBaeaeaiaiaiaiavavavavavavavavavajajajajajaeaeaBaBaBaBaBaBaBaBaBaeaeavavavavavavavavavavavajajaeaeaeaeaeaeaeaeaeaeaeaiaiaiaiavavavavavavavavavajajajajaBaBaBaBaBaBaBaBaBaeaeaiaiaiavavavavavavajajajajajajajaeaeaeaeaBaBaBaBaBaBaBaeaeaiaiavavavavavavavavavavavavavaBaBaBaBaBaBaBaeaeaeaeaiaiaiajajajajajajajajajajajajajaeaeaeaeaBaBaeaeaeaeaeaiaiaiaiavavav",
"aeaeaiaiavavavavavavavavavavavavavaBaBaBaBaBaBaBaBaBaeaeaiaiaiaiavavavavavavavavavajajajajajaeaeaBaBaBaBaBaBaBaBaBaeaeavavavavavavavavavavavajajaeaeaeaeaeaeaeaeaeaeaeaiaiaiaiavavavavavavavavavajajajajaBaBaBaBaBaBaBaBaBaeaeaiaiaiavavavavavavajajajajajajajaeaeaeaeaBaBaBaBaBaBaBaeaeaiaiavavavavavavavavavavavavavaBaBaBaBaBaBaBaeaeaeaeaiaiaiajajajajajajajajajajajajajaeaeaeaeaBaBaeaeaeaeaeaiaiaiaiavavav",
"aBaBaeaeavavavavavavavavavajajajajaBaBadadadadadadadaBaBaeaeaeaeavavavavavavavavavajajajajajaBaBaBaBaBaBaBaBadadadaeaeavavavavavavavavavavavajajaBaBaBaBaBaBaBaBaBaeaeaeaeaeaeavavavavavavavavavajajajajaBaBaBaBaBaBaBaBaBaBaBaeaeaeavavavavavavajajajajajajajaBaBaBaBaBaBaBaBaBaBaBaeaeaeaeavavavavavavavavavavavavavaBaBaBaBaBaBaBaBaBaBaBaeaeaeajajajajajajavavajajajajajaBaBaBaBaBaBaBaBaeaeaeaeaeaeaeavavav",
"aBaBaeaeavavavavavavavavavajajajajaBaBadadadadadadadaBaBaeaeaeaeavavavavavavavavavajajajajajaBaBaBaBaBaBaBaBadadadaeaeavavavavavavavavavavavajajaBaBaBaBaBaBaBaBaBaeaeaeaeaeaeavavavavavavavavavajajajajaBaBaBaBaBaBaBaBaBaBaBaeaeaeavavavavavavajajajajajajajaBaBaBaBaBaBaBaBaBaBaBaeaeaeaeavavavavavavavavavavavavavaBaBaBaBaBaBaBaBaBaBaBaeaeaeajajajajajajavavajajajajajaBaBaBaBaBaBaBaBaeaeaeaeaeaeaeavavav",
"adadaBaBavavavavavavavavavajajajajaBaBadadadadadadadaBaBaBaBaeaeavavavavavavavajajajajajajajaBaBadadadadadadadadadaBaBavavavavavavavavavavavavavaBaBaBaBaBaBaBaBaBaBaBaeaeaeaeavavavavavavavavavavavavavadadadadadadadaBaBaBaBaeaeaeavavavavavavajajajajajajajaBaBaBaBadadadadadaBaBaBaBaeaeavavavavavavavavavavavavavaBaBaBaBaBadadadadaBaBaBaBaBavavavavavavajajajajajajajaBaBaBaBadadadadaBaBaBaBaBaBaBavavav",
"adadaBaBavavavavavavavavavajajajajaBaBadadadadadadadaBaBaBaBaeaeavavavavavavavajajajajajajajaBaBadadadadadadadadadaBaBavavavavavavavavavavavavavaBaBaBaBaBaBaBaBaBaBaBaeaeaeaeavavavavavavavavavavavavavadadadadadadadaBaBaBaBaeaeaeavavavavavavajajajajajajajaBaBaBaBadadadadadaBaBaBaBaeaeavavavavavavavavavavavavavaBaBaBaBaBadadadadaBaBaBaBaBavavavavavavajajajajajajajaBaBaBaBadadadadaBaBaBaBaBaBaBavavav",
"aBaBaBaBavavavavavavavajajajajajajadadadadadadadaBaBaBaBaBaBaeaeavavavavavavavajajajajajajajaBaBaBaBaBaBaBaBadadadaBaBavavavavavavajajajajajajajaBaBaBaBaBaBaBaBaBaBaBaeaeaeaeavavavavavavavajajajajavavadadadadadadadadadaBaBaBaBaBavavavavavavajajajajajajajaBaBadadadadadadadaBaBaBaBaBaBavavavavavavavavavajajavavadadadadadadadadadaBaBaBaBaBavavavavavavajajajajajajajaBaBaBaBaBaBaBaBaBaBaBaBaBaBaBavavav",
"aBaBaBaBavavavavavavavajajajajajajadadadadadadadaBaBaBaBaBaBaeaeavavavavavavavajajajajajajajaBaBaBaBaBaBaBaBadadadaBaBavavavavavavajajajajajajajaBaBaBaBaBaBaBaBaBaBaBaeaeaeaeavavavavavavavajajajajavavadadadadadadadadadaBaBaBaBaBavavavavavavajajajajajajajaBaBadadadadadadadaBaBaBaBaBaBavavavavavavavavavajajavavadadadadadadadadadaBaBaBaBaBavavavavavavajajajajajajajaBaBaBaBaBaBaBaBaBaBaBaBaBaBaBavavav",
"aBaBaBaBavavavavavavavajajajajajajadadadadadadadadadaBaBaBaBaBaBavavavavavavavajajajajajajajaBaBadadaBaBaBaBadadadaBaBavavavavavavajajajajajajajaBaBaBaBaBaBaBaBaBaBaBaBaBaBaBavavavavavavavajajajajajajadadadadadadadadadaBaBaBaBaBavavavavavavajajajajajajajaBaBaBaBadadadadadaBaBaBaBaBaBavavavavavavavavavajajavavadadadadadadadadadaBaBaBaBaBavavavavavavajajajajajajajaBaBaBaBaBaBaBaBaBaBaBaBaBaBaBavavav",
"aBaBaBaBavavavavavavavajajajajajajadadadadadadadadadaBaBaBaBaBaBavavavavavavavajajajajajajajaBaBadadaBaBaBaBadadadaBaBavavavavavavajajajajajajajaBaBaBaBaBaBaBaBaBaBaBaBaBaBaBavavavavavavavajajajajajajadadadadadadadadadaBaBaBaBaBavavavavavavajajajajajajajaBaBaBaBadadadadadaBaBaBaBaBaBavavavavavavavavavajajavavadadadadadadadadadaBaBaBaBaBavavavavavavajajajajajajajaBaBaBaBaBaBaBaBaBaBaBaBaBaBaBavavav",
"aBaBaBaBavavavavavavavajajajajajajadadadadadadadadadaBaBaBaBaBaBavavavavavavavajajajajajajajaBaBadadaBaBadadadadadaBaBavavavavavavajajajajajajajaBaBaBaBaBaBaBaBaBaBaBaBaBaBaBavavavavavavavajajajajajajadadadadadadadadadaBaBaBaBaBavavavavavavajajajajajajajaBaBadadadadadadadaBaBaBaBaBaBavavavavavavavajajajajavavadadadadadadadadadadadaBaBaBavavavavavavajajajajajajajaBaBaBaBaBaBaBaBaBaBaBaBaBaBaBavavav",
"aBaBaBaBavavavavavavavajajajajajajadadadadadadadadadaBaBaBaBaBaBavavavavavavavajajajajajajajaBaBadadaBaBadadadadadaBaBavavavavavavajajajajajajajaBaBaBaBaBaBaBaBaBaBaBaBaBaBaBavavavavavavavajajajajajajadadadadadadadadadaBaBaBaBaBavavavavavavajajajajajajajaBaBadadadadadadadaBaBaBaBaBaBavavavavavavavajajajajavavadadadadadadadadadadadaBaBaBavavavavavavajajajajajajajaBaBaBaBaBaBaBaBaBaBaBaBaBaBaBavavav",
"aBaBaBaBavavavavavavavajajajajajajadadadadadadadadadaBaBaBaBaBaBavavavavavavavajajajajajajajaBaBadadaBaBadadadadadaBaBavavavavavavajajajajajajajaBaBaBaBaBaBaBaBaBaBaBaBaBaBaBavavavavavavavajajajajajajadadadadadadadadadaBaBaBaBaBavavavavavavajajajajajajajaBaBadadadadadadadaBaBaBaBaBaBavavavavavavavajajajajavavadadadadadadadadadadadaBaBaBavavavavavavajajajajajajajaBaBaBaBaBaBaBaBaBaBaBaBaBaBaBavavav",
"aaaaaaaaaaaaaaaaaaaaaaaaaaaaaaaaaaaaaaaaaaaaaaaaaaaaaaaaaaaaaaaaaaaaaaaaaaaaaaaaaaaaaaaaaaaaaaaaaaaaaaaaaaaaaaaaaaaaaaaaaaaaaaaaaaaaaaaaaaaaaaaaaaaaaaaaaaaaaaaaaaaaaaaaaaaaaaaaaaaaaaaaaaaaaaaaaaaaaaaaaaaaaaaaaaaaaaaaaaaaaaaaaaaaaaaaaaaaaaaaaaaaaaaaaaaaaaaaaaaaaaaaaaaaaaaaaaaaaaaaaaaaaaaaaaaaaaaaaaaaaaaaaaaaaaaaaaaaaaaaaaaaaaaaaaaaaaaaaaaaaaaaaaaaaaaaaaaaaaaaaaaaaaaaaaaaaaaaaaaaaaaaaaaaaaaaaaaaaaaa",
"aaaaaaaaaaaaaaaaaaaaaaaaaaaaaaaaaaaaaaaaaaaaaaaaaaaaaaaaaaaaaaaaaaaaaaaaaaaaaaaaaaaaaaaaaaaaaaaaaaaaaaaaaaaaaaaaaaaaaaaaaaaaaaaaaaaaaaaaaaaaaaaaaaaaaaaaaaaaaaaaaaaaaaaaaaaaaaaaaaaaaaaaaaaaaaaaaaaaaaaaaaaaaaaaaaaaaaaaaaaaaaaaaaaaaaaaaaaaaaaaaaaaaaaaaaaaaaaaaaaaaaaaaaaaaaaaaaaaaaaaaaaaaaaaaaaaaaaaaaaaaaaaaaaaaaaaaaaaaaaaaaaaaaaaaaaaaaaaaaaaaaaaaaaaaaaaaaaaaaaaaaaaaaaaaaaaaaaaaaaaaaaaaaaaaaaaaaaaaaaa",
"aaaaaaaaaaaaaaaaaaaaaaaaaaaaaaaaaaaaaaaaaaaaaaaaaaaaaaaaaaaaaaaaaaaaaaaaaaaaaaaaaaaaaaaaaaaaaaaaaaaaaaaaaaaaaaaaaaaaaaaaaaaaaaaaaaaaaaaaaaaaaaaaaaaaaaaaaaaaaaaaaaaaaaaaaaaaaaaaaaaaaaaaaaaaaaaaaaaaaaaaaaaaaaaaaaaaaaaaaaaaaaaaaaaaaaaaaaaaaaaaaaaaaaaaaaaaaaaaaaaaaaaaaaaaaaaaaaaaaaaaaaaaaaaaaaaaaaaaaaaaaaaaaaaaaaaaaaaaaaaaaaaaaaaaaaaaaaaaaaaaaaaaaaaaaaaaaaaaaaaaaaaaaaaaaaaaaaaaaaaaaaaaaaaaaaaaaaaaaaaa",
"aaaaaaaaaaaaaaaaaaaaaaaaaaaaaaaaaaaaaaaaaaaaaaaaaaaaaaaaaaaaaaaaaaaaaaaaaaaaaaaaaaaaaaaaaaaaaaaaaaaaaaaaaaaaaaaaaaaaaaaaaaaaaaaaaaaaaaaaaaaaaaaaaaaaaaaaaaaaaaaaaaaaaaaaaaaaaaaaaaaaaaaaaaaaaaaaaaaaaaaaaaaaaaaaaaaaaaaaaaaaaaaaaaaaaaaaaaaaaaaaaaaaaaaaaaaaaaaaaaaaaaaaaaaaaaaaaaaaaaaaaaaaaaaaaaaaaaaaaaaaaaaaaaaaaaaaaaaaaaaaaaaaaaaaaaaaaaaaaaaaaaaaaaaaaaaaaaaaaaaaaaaaaaaaaaaaaaaaaaaaaaaaaaaaaaaaaaaaaaaa",
"a7a7a7a7a7a7a7a7a7a7a7a7a7a7a7a7a7a7a7a7a7a7a7a7a7a7a7a7a7a7a7a7aYaYaYa7a7a7a7a7a7a7a7a7a7a7a7a7a7a7a7a7a7a7a7a7a7a7a7a7a7a7a7a7a7a7a7a7a7a7a7a7a7a7a7a7a7a7a7a7a7a7a7a7a7a7a7a7a7a7a7a7a7a7a7a7a7a7a7a7a7a7a7a7a7a7a7a7a7a7a7a7a7a7a7a7a7a7a7a7a7a7a7a7a7a7a7a7a7a7a7a7a7a7a7a7a7a7a7a7a7a7aYaYaYaYaYaYaYaYaYaYaYaYaYaYaYaYaYaYaYaYaYaYaYaYaYaYaYaYaYaYaYaYaYaYaYaYaYaYa7a7a7a7a7a7a7a7a7a7a7a7a7a7a7a7a7a7a7a7",
"a7a7a7a7a7a7a7a7a7a7a7a7a7a7a7a7a7a7a7a7a7a7a7a7a7a7a7a7a7a7a7a7aYaYaYa7a7a7a7a7a7a7a7a7a7a7a7a7a7a7a7a7a7a7a7a7a7a7a7a7a7a7a7a7a7a7a7a7a7a7a7a7a7a7a7a7a7a7a7a7a7a7a7a7a7a7a7a7a7a7a7a7a7a7a7a7a7a7a7a7a7a7a7a7a7a7a7a7a7a7a7a7a7a7a7a7a7a7a7a7a7a7a7a7a7a7a7a7a7a7a7a7a7a7a7a7a7a7a7a7a7a7aYaYaYaYaYaYaYaYaYaYaYaYaYaYaYaYaYaYaYaYaYaYaYaYaYaYaYaYaYaYaYaYaYaYaYaYaYaYa7a7a7a7a7a7a7a7a7a7a7a7a7a7a7a7a7a7a7a7",
"aXaXaXaXaXaXaXaXaXaXaXaXaXaXaXaXaXaXaXaXaXaXaXaXaXaXaXaXaXaXaXaXaXaXaXaXaXaXaXaXaXaXaXaXaXaXaXaXaXaXaXaXaXaXaXaXaXaXaXaXaXaXaXaXaXaXaXaXaXaXaXaXaXaXaXaXaXaXaXaXaXaXaXaXaXaXaXaXaXaXaXaXaXaXaXaXaXaXaXaXaXaXaXaXaXaXaXaXaXaXaXaXaXaXaXaXaXaXaXaXaXaXaXaXaXaXaXaXaXaXaXaXaXaXaXaXaXaXaXaXaXaXaXaXaXaXaXaXaXaXaXaXaXaXaXaXaXaXaXaXaXaXaXaXaXaXaXaXaXaXaXaXaXaXaXaXaXaXaXaXaXaXaXaXaXaXaXaXaXaXaXaXaXaXaXaXaXaXaXaX",
"aXaXaXaXaXaXaXaXaXaXaXaXaXaXaXaXaXaXaXaXaXaXaXaXaXaXaXaXaXaXaXaXaXaXaXaXaXaXaXaXaXaXaXaXaXaXaXaXaXaXaXaXaXaXaXaXaXaXaXaXaXaXaXaXaXaXaXaXaXaXaXaXaXaXaXaXaXaXaXaXaXaXaXaXaXaXaXaXaXaXaXaXaXaXaXaXaXaXaXaXaXaXaXaXaXaXaXaXaXaXaXaXaXaXaXaXaXaXaXaXaXaXaXaXaXaXaXaXaXaXaXaXaXaXaXaXaXaXaXaXaXaXaXaXaXaXaXaXaXaXaXaXaXaXaXaXaXaXaXaXaXaXaXaXaXaXaXaXaXaXaXaXaXaXaXaXaXaXaXaXaXaXaXaXaXaXaXaXaXaXaXaXaXaXaXaXaXaXaXaX",
"aXaXaXaXaXaXaXaXaXaXaXaXaXaXaXaXaXaXaXaXaXaXaXaXaXaXaXaXaXaXaXaXaXaXaXaXaXaXaXaXaXaXaXaXaXaXaXaXaXaXaXaXaXaXaXaXaXaXaXaXaXaXaXaXaXaXaXaXaXaXaXaXaXaXaXaXaXaXaXaXaXaXaXaXaXaXaXaXaXaXaXaXaXaXaXaXaXaXaXaXaXaXaXaXaXaXaXaXaXaXaXaXaXaXaXaXaXaXaXaXaXaXaXaXaXaXaXaXaXaXaXaXaXaXaXaXaXaXaXaXaXaXaXaXaXaXaXaXaXaXaXaXaXaXaXaXaXaXaXaXaXaXaXaXaXaXaXaXaXaXaXaXaXaXaXaXaXaXaXaXaXaXaXaXaXaXaXaXaXaXaXaXaXaXaXaXaXaXaXaX",
"aXaXaXaXaXaXaXaXaXaXaXaXaXaXaXaXaXaXaXaXaXaXaXaXaXaXaXaXaXaXaXaXaXaXaXaXaXaXaXaXaXaXaXaXaXaXaXaXaXaXaXaXaXaXaXaXaXaXaXaXaXaXaXaXaXaXaXaXaXaXaXaXaXaXaXaXaXaXaXaXaXaXaXaXaXaXaXaXaXaXaXaXaXaXaXaXaXaXaXaXaXaXaXaXaXaXaXaXaXaXaXaXaXaXaXaXaXaXaXaXaXaXaXaXaXaXaXaXaXaXaXaXaXaXaXaXaXaXaXaXaXaXaXaXaXaXaXaXaXaXaXaXaXaXaXaXaXaXaXaXaXaXaXaXaXaXaXaXaXaXaXaXaXaXaXaXaXaXaXaXaXaXaXaXaXaXaXaXaXaXaXaXaXaXaXaXaXaXaXaX",
"aXaXaXaXaXaXaXaXaXaXaXaXaXaXaXaXaXaXaXaXaXaXaXaXaXaXaXaXaXaXaXaXaXaXaXaXaXaXaXaXaXaXaXaXaXaXaXaXaXaXaXaXaXaXaXaXaXaXaXaXaXaXaXaXaXaXaXaXaXaXaXaXaXaXaXaXaXaXaXaXaXaXaXaXaXaXaXaXaXaXaXaXaXaXaXaXaXaXaXaXaXaXaXaXaXaXaXaXaXaXaXaXaXaXaXaXaXaXaXaXaXaXaXaXaXaXaXaXaXaXaXaXaXaXaXaXaXaXaXaXaXaXaXaXaXaXaXaXaXaXaXaXaXaXaXaXaXaXaXaXaXaXaXaXaXaXaXaXaXaXaXaXaXaXaXaXaXaXaXaXaXaXaXaXaXaXaXaXaXaXaXaXaXaXaXaXaXaXaXaX",
"aXaXaXaXaXaXaXaXaXaXaXaXaXaXaXaXaXaXaXaXaXaXaXaXaXaXaXaXaXaXaXaXaXaXaXaXaXaXaXaXaXaXaXaXaXaXaXaXaXaXaXaXaXaXaXaXaXaXaXaXaXaXaXaXaXaXaXaXaXaXaXaXaXaXaXaXaXaXaXaXaXaXaXaXaXaXaXaXaXaXaXaXaXaXaXaXaXaXaXaXaXaXaXaXaXaXaXaXaXaXaXaXaXaXaXaXaXaXaXaXaXaXaXaXaXaXaXaXaXaXaXaXaXaXaXaXaXaXaXaXaXaXaXaXaXaXaXaXaXaXaXaXaXaXaXaXaXaXaXaXaXaXaXaXaXaXaXaXaXaXaXaXaXaXaXaXaXaXaXaXaXaXaXaXaXaXaXaXaXaXaXaXaXaXaXaXaXaXaXaX",
"aXaXaXaXaXaXaXaXaXaXaXaXaXaXaXaXaXaXaXaXaXaXaXaXaXaXaXaXaXaXaXaXaXaXaXaXaXaXaXaXaXaXaXaXaXaXaXaXaXaXaXaXaXaXaXaXaXaXaXaXaXaXaXaXaXaXaXaXaXaXaXaXaXaXaXaXaXaXaXaXaXaXaXaXaXaXaXaXaXaXaXaXaXaXaXaXaXaXaXaXaXaXaXaXaXaXaXaXaXaXaXaXaXaXaXaXaXaXaXaXaXaXaXaXaXaXaXaXaXaXaXaXaXaXaXaXaXaXaXaXaXaXaXaXaXaXaXaXaXaXaXaXaXaXaXaXaXaXaXaXaXaXaXaXaXaXaXaXaXaXaXaXaXaXaXaXaXaXaXaXaXaXaXaXaXaXaXaXaXaXaXaXaXaXaXaXaXaXaXaX",
"a7a7a7a7a7a7a7a7a7a7a7a7a7a7a7a7a7a7a7aYaYaYaYaYaYaYaYaYaYaYaYaYaYaYaYaYaYaYaYaYaYaYaYaYaYaYa7a7a7a7a7a7a7a7a7a7a7a7a7a7a7a7a7a7a7a7a7a7a7a7a7a7a7a7a7a7a7a7a7a7a7a7a7a7a7a7a7aXaXaXaXaXaXaXaXaXaXaXaXaXa7a7a7a7a7aXaXaXaXaXaXaXaXaXaXaXaXaXa7a7a7a7a7a7a7a7a7a7a7a7a7a7a7a7a7a7a7a7a7a7a7a7a7a7a7a7a7a7a7a7a7aYaYaYaYaYaYaYaYaYaYaYaYaYaYaYaYaYaYaYaYaYaYaYaYaYaYaYaYaYaYaYa7a7a7a7a7a7a7a7a7a7a7a7a7a7a7a7a7a7",
"a7a7a7a7a7a7a7a7a7a7a7a7a7a7a7a7a7a7a7aYaYaYaYaYaYaYaYaYaYaYaYaYaYaYaYaYaYaYaYaYaYaYaYaYaYaYa7a7a7a7a7a7a7a7a7a7a7a7a7a7a7a7a7a7a7a7a7a7a7a7a7a7a7a7a7a7a7a7a7a7a7a7a7a7a7a7a7aXaXaXaXaXaXaXaXaXaXaXaXaXa7a7a7a7a7aXaXaXaXaXaXaXaXaXaXaXaXaXa7a7a7a7a7a7a7a7a7a7a7a7a7a7a7a7a7a7a7a7a7a7a7a7a7a7a7a7a7a7a7a7a7aYaYaYaYaYaYaYaYaYaYaYaYaYaYaYaYaYaYaYaYaYaYaYaYaYaYaYaYaYaYaYa7a7a7a7a7a7a7a7a7a7a7a7a7a7a7a7a7a7",
"aaaaaaaaaaaaaaaaaaaaaaaaaaaaaaaaaaaaaaaaaaaaaaaaaaaaaaaaaaaaaaaaaaaaaaaaaaaaaaaaaaaaaaaaaaaaaaaaaaaaaaaaaaaaaaaaaaaaaaaaaaaaaaaaaaaaaaaaaaaaaaaaaaaaaaaaaaaaaaaaaaaaaaaaaaaaaaaaaaaaaaaaaaaaaaaaaaaaaaaaaaaaaaaaaaaaaaaaaaaaaaaaaaaaaaaaaaaaaaaaaaaaaaaaaaaaaaaaaaaaaaaaaaaaaaaaaaaaaaaaaaaaaaaaaaaaaaaaaaaaaaaaaaaaaaaaaaaaaaaaaaaaaaaaaaaaaaaaaaaaaaaaaaaaaaaaaaaaaaaaaaaaaaaaaaaaaaaaaaaaaaaaaaaaaaaaaaaaaaaa",
"aaaaaaaaaaaaaaaaaaaaaaaaaaaaaaaaaaaaaaaaaaaaaaaaaaaaaaaaaaaaaaaaaaaaaaaaaaaaaaaaaaaaaaaaaaaaaaaaaaaaaaaaaaaaaaaaaaaaaaaaaaaaaaaaaaaaaaaaaaaaaaaaaaaaaaaaaaaaaaaaaaaaaaaaaaaaaaaaaaaaaaaaaaaaaaaaaaaaaaaaaaaaaaaaaaaaaaaaaaaaaaaaaaaaaaaaaaaaaaaaaaaaaaaaaaaaaaaaaaaaaaaaaaaaaaaaaaaaaaaaaaaaaaaaaaaaaaaaaaaaaaaaaaaaaaaaaaaaaaaaaaaaaaaaaaaaaaaaaaaaaaaaaaaaaaaaaaaaaaaaaaaaaaaaaaaaaaaaaaaaaaaaaaaaaaaaaaaaaaaa",
"aaaaaaaaaaaaaaaaaaaaaaaaaaaaaaaaaaaaaaaaaaaaaaaaaaaaaaaaaaaaaaaaaaaaaaaaaaaaaaaaaaaaaaaaaaaaaaaaaaaaaaaaaaaaaaaaaaaaaaaaaaaaaaaaaaaaaaaaaaaaaaaaaaaaaaaaaaaaaaaaaaaaaaaaaaaaaaaaaaaaaaaaaaaaaaaaaaaaaaaaaaaaaaaaaaaaaaaaaaaaaaaaaaaaaaaaaaaaaaaaaaaaaaaaaaaaaaaaaaaaaaaaaaaaaaaaaaaaaaaaaaaaaaaaaaaaaaaaaaaaaaaaaaaaaaaaaaaaaaaaaaaaaaaaaaaaaaaaaaaaaaaaaaaaaaaaaaaaaaaaaaaaaaaaaaaaaaaaaaaaaaaaaaaaaaaaaaaaaaaa",
"aaaaaaaaaaaaaaaaaaaaaaaaaaaaaaaaaaaaaaaaaaaaaaaaaaaaaaaaaaaaaaaaaaaaaaaaaaaaaaaaaaaaaaaaaaaaaaaaaaaaaaaaaaaaaaaaaaaaaaaaaaaaaaaaaaaaaaaaaaaaaaaaaaaaaaaaaaaaaaaaaaaaaaaaaaaaaaaaaaaaaaaaaaaaaaaaaaaaaaaaaaaaaaaaaaaaaaaaaaaaaaaaaaaaaaaaaaaaaaaaaaaaaaaaaaaaaaaaaaaaaaaaaaaaaaaaaaaaaaaaaaaaaaaaaaaaaaaaaaaaaaaaaaaaaaaaaaaaaaaaaaaaaaaaaaaaaaaaaaaaaaaaaaaaaaaaaaaaaaaaaaaaaaaaaaaaaaaaaaaaaaaaaaaaaaaaaaaaaaaa",
"aaaaaaaaaaaaaaaaaaaaaaaaaaaaaaaaaaaaaaaaaaaaaaaaaaaaaaaaaaaaaaaaaaaaaaaaaaaaaaaaaaaaaaaaaaaaaaaaaaaaaaaaaaaaaaaaaaaaaaaaaaaaaaaaaaaaaaaaaaaaaaaaaaaaaaaaaaaaaaaaaaaaaaaaaaaaaaaaaaaaaaaaaaaaaaaaaaaaaaaaaaaaaaaaaaaaaaaaaaaaaaaaaaaaaaaaaaaaaaaaaaaaaaaaaaaaaaaaaaaaaaaaaaaaaaaaaaaaaaaaaaaaaaaaaaaaaaaaaaaaaaaaaaaaaaaaaaaaaaaaaaaaaaaaaaaaaaaaaaaaaaaaaaaaaaaaaaaaaaaaaaaaaaaaaaaaaaaaaaaaaaaaaaaaaaaaaaaaaaaa",
"aaaaaaaaaaaaaaaaaaaaaaaaaaaaaaaaaaaaaaaaaaaaaaaaaaaaaaaaaaaaaaaaaaaaaaaaaaaaaaaaaaaaaaaaaaaaaaaaaaaaaaaaaaaaaaaaaaaaaaaaaaaaaaaaaaaaaaaaaaaaaaaaaaaaaaaaaaaaaaaaaaaaaaaaaaaaaaaaaaaaaaaaaaaaaaaaaaaaaaaaaaaaaaaaaaaaaaaaaaaaaaaaaaaaaaaaaaaaaaaaaaaaaaaaaaaaaaaaaaaaaaaaaaaaaaaaaaaaaaaaaaaaaaaaaaaaaaaaaaaaaaaaaaaaaaaaaaaaaaaaaaaaaaaaaaaaaaaaaaaaaaaaaaaaaaaaaaaaaaaaaaaaaaaaaaaaaaaaaaaaaaaaaaaaaaaaaaaaaaaa",
"aaaaaaaaaaaaaaaaaaaaaaaaaaaaaaaaaaaaaaaaaaaaaaaaaaaaaaaaaaaaaaaaaaaaaaaaaaaaaaaaaaaaaaaaaaaaaaaaaaaaaaaaaaaaaaaaaaaaaaaaaaaaaaaaaaaaaaaaaaaaaaaaaaaaaaaaaaaaaaaaaaaaaaaaaaaaaaaaaaaaaaaaaaaaaaaaaaaaaaaaaaaaaaaaaaaaaaaaaaaaaaaaaaaaaaaaaaaaaaaaaaaaaaaaaaaaaaaaaaaaaaaaaaaaaaaaaaaaaaaaaaaaaaaaaaaaaaaaaaaaaaaaaaaaaaaaaaaaaaaaaaaaaaaaaaaaaaaaaaaaaaaaaaaaaaaaaaaaaaaaaaaaaaaaaaaaaaaaaaaaaaaaaaaaaaaaaaaaaaaa",
"aaaaaaaaaaaaaaaaaaaaaaaaaaaaaaaaaaaaaaaaaaaaaaaaaaaaaaaaaaaaaaaaaaaaaaaaaaaaaaaaaaaaaaaaaaaaaaaaaaaaaaaaaaaaaaaaaaaaaaaaaaaaaaaaaaaaaaaaaaaaaaaaaaaaaaaaaaaaaaaaaaaaaaaaaaaaaaaaaaaaaaaaaaaaaaaaaaaaaaaaaaaaaaaaaaaaaaaaaaaaaaaaaaaaaaaaaaaaaaaaaaaaaaaaaaaaaaaaaaaaaaaaaaaaaaaaaaaaaaaaaaaaaaaaaaaaaaaaaaaaaaaaaaaaaaaaaaaaaaaaaaaaaaaaaaaaaaaaaaaaaaaaaaaaaaaaaaaaaaaaaaaaaaaaaaaaaaaaaaaaaaaaaaaaaaaaaaaaaaaa",
"aaaaaaaaaaaaaaaaaaaaaaaaaaaaaaaaaaaaaaaaaaaaaaaaaaaaaaaaaaaaaaaaaaaaaaaaaaaaaaaaaaaaaaaaaaaaaaaaaaaaaaaaaaaaaaaaaaaaaaaaaaaaaaaaaaaaaaaaaaaaaaaaaaaaaaaaaaaaaaaaaaaaaaaaaaaaaaaaaaaaaaaaaaaaaaaaaaaaaaaaaaaaaaaaaaaaaaaaaaaaaaaaaaaaaaaaaaaaaaaaaaaaaaaaaaaaaaaaaaaaaaaaaaaaaaaaaaaaaaaaaaaaaaaaaaaaaaaaaaaaaaaaaaaaaaaaaaaaaaaaaaaaaaaaaaaaaaaaaaaaaaaaaaaaaaaaaaaaaaaaaaaaaaaaaaaaaaaaaaaaaaaaaaaaaaaaaaaaaaaa",
"aaaaaaaaaaaaaaaaaaaaaaaaaaaaaaaaaaaaaaaaaaaaaaaaaaaaaaaaaaaaaaaaaaaaaaaaaaaaaaaaaaaaaaaaaaaaaaaaaaaaaaaaaaaaaaaaaaaaaaaaaaaaaaaaaaaaaaaaaaaaaaaaaaaaaaaaaaaaaaaaaaaaaaaaaaaaaaaaaaaaaaaaaaaaaaaaaaaaaaaaaaaaaaaaaaaaaaaaaaaaaaaaaaaaaaaaaaaaaaaaaaaaaaaaaaaaaaaaaaaaaaaaaaaaaaaaaaaaaaaaaaaaaaaaaaaaaaaaaaaaaaaaaaaaaaaaaaaaaaaaaaaaaaaaaaaaaaaaaaaaaaaaaaaaaaaaaaaaaaaaaaaaaaaaaaaaaaaaaaaaaaaaaaaaaaaaaaaaaaaa",
"aaaaaaaaaaaaaaaaaaaaaaaaaaaaaaaaaaaaaaaaaaaaaaaaaaaaaaaaaaaaaaaaaaaaaaaaaaaaaaaaaaaaaaaaaaaaaaaaaaaaaaaaaaaaaaaaaaaaaaaaaaaaaaaaaaaaaaaaaaaaaaaaaaaaaaaaaaaaaaaaaaaaaaaaaaaaaaaaaaaaaaaaaaaaaaaaaaaaaaaaaaaaaaaaaaaaaaaaaaaaaaaaaaaaaaaaaaaaaaaaaaaaaaaaaaaaaaaaaaaaaaaaaaaaaaaaaaaaaaaaaaaaaaaaaaaaaaaaaaaaaaaaaaaaaaaaaaaaaaaaaaaaaaaaaaaaaaaaaaaaaaaaaaaaaaaaaaaaaaaaaaaaaaaaaaaaaaaaaaaaaaaaaaaaaaaaaaaaaaaa",
"aaaaaaaaaaaaaaaaaaaaaaaaaaaaaaaaaaaaaaaaaaaaaaaaaaaaaaaaaaaaaaaaaaaaaaaaaaaaaaaaaaaaaaaaaaaaaaaaaaaaaaaaaaaaaaaaaaaaaaaaaaaaaaaaaaaaaaaaaaaaaaaaaaaaaaaaaaaaaaaaaaaaaaaaaaaaaaaaaaaaaaaaaaaaaaaaaaaaaaaaaaaaaaaaaaaaaaaaaaaaaaaaaaaaaaaaaaaaaaaaaaaaaaaaaaaaaaaaaaaaaaaaaaaaaaaaaaaaaaaaaaaaaaaaaaaaaaaaaaaaaaaaaaaaaaaaaaaaaaaaaaaaaaaaaaaaaaaaaaaaaaaaaaaaaaaaaaaaaaaaaaaaaaaaaaaaaaaaaaaaaaaaaaaaaaaaaaaaaaaa",
"aaaaaaaaaaaaaaaaaaaaaaaaaaaaaaaaaaaaaaaaaaaaaaaaaaaaaaaaaaaaaaaaaaaaaaaaaaaaaaaaaaaaaaaaaaaaaaaaaaaaaaaaaaaaaaaaaaaaaaaaaaaaaaaaaaaaaaaaaaaaaaaaaaaaaaaaaaaaaaaaaaaaaaaaaaaaaaaaaaaaaaaaaaaaaaaaaaaaaaaaaaaaaaaaaaaaaaaaaaaaaaaaaaaaaaaaaaaaaaaaaaaaaaaaaaaaaaaaaaaaaaaaaaaaaaaaaaaaaaaaaaaaaaaaaaaaaaaaaaaaaaaaaaaaaaaaaaaaaaaaaaaaaaaaaaaaaaaaaaaaaaaaaaaaaaaaaaaaaaaaaaaaaaaaaaaaaaaaaaaaaaaaaaaaaaaaaaaaaaaa",
"aaaaaaaaaaaaaaaaaaaaaaaaaaaaaaaaaaaaaaaaaaaaaaaaaaaaaaaaaaaaaaaaaaaaaaaaaaaaaaaaaaaaaaaaaaaaaZaZaaaaaaaaaaaaaaaaaaaaaaaaaaaaaaaaaaaaaaaaaaaaaaaaaaaaaaaaaaaaaaaaaaaaaaaaaaaaaaaaaaaaaaaaaaaaaaaaaaaaaaaaaaaaaaaaaaaaaaaaaaaaaaaaaaaaaaaaaaaaaaaaaaaaaaaaaaaaaaaaaaaaaaaaaaaaaaaaaaaaaaaaaaaaaaaaaaaaaaaaaaaaaaaaaaaaaaaaaaaaaaaaaaaaaaaaaaaaaaaaaaaaaaaaaaaaaaaaaaaaaaaaaaaaaaaaaaaaaaaaaaaaaaaaaaaaaaaaaaaaaaaa",
"aaaaaaaaaaaaaaaaaaaaaaaaaaaaaaaaaaaaaaaaaaaaaaaaaaaaaaaaaaaaaaaaaaaaaaaaaaaaaaaaaaaaaaaaaaaaaZaZaaaaaaaaaaaaaaaaaaaaaaaaaaaaaaaaaaaaaaaaaaaaaaaaaaaaaaaaaaaaaaaaaaaaaaaaaaaaaaaaaaaaaaaaaaaaaaaaaaaaaaaaaaaaaaaaaaaaaaaaaaaaaaaaaaaaaaaaaaaaaaaaaaaaaaaaaaaaaaaaaaaaaaaaaaaaaaaaaaaaaaaaaaaaaaaaaaaaaaaaaaaaaaaaaaaaaaaaaaaaaaaaaaaaaaaaaaaaaaaaaaaaaaaaaaaaaaaaaaaaaaaaaaaaaaaaaaaaaaaaaaaaaaaaaaaaaaaaaaaaaaaa",
"aaaaaaaaaaaaaaaaaaaaaaaaaaaaaaaaaaaaaaaaaaaaaaaaaaaaaVaVaaaaaaaaaaaaaaaaaaaaaaaaaaaaaaaaaaaaaaaaaZaZaaaaaaaaaaaaaaaaaaaaaaaaaaaaaaaaaaaaaaaaaaaaaaaaaaaaaaaaaaaaaaaaaaaaaaaaaaaaaaaaaaaaaaaaaaaaaaaaaaaaaaaaaaaaaaaaaaaaaaaaaaaaaaaaaaaaaaaaaaaaaaaaaaaaaaaaaaaaaaaaaaaaaaaaaaaaaaaaaaaaaaaaaaaaaaaaaaaaaaaaaaaaaaaaaaaaaaaaaaaaaaaaaaaaaaaaaaaaaaaaaaaaaaaaaaaaaaaaaaaaaaaaaaaaaaaaaaaaaaaaaaaaaaaaaaaaaaaaaaaa",
"aaaaaaaaaaaaaaaaaaaaaaaaaaaaaaaaaaaaaaaaaaaaaaaaaaaaaVaVaaaaaaaaaaaaaaaaaaaaaaaaaaaaaaaaaaaaaaaaaZaZaaaaaaaaaaaaaaaaaaaaaaaaaaaaaaaaaaaaaaaaaaaaaaaaaaaaaaaaaaaaaaaaaaaaaaaaaaaaaaaaaaaaaaaaaaaaaaaaaaaaaaaaaaaaaaaaaaaaaaaaaaaaaaaaaaaaaaaaaaaaaaaaaaaaaaaaaaaaaaaaaaaaaaaaaaaaaaaaaaaaaaaaaaaaaaaaaaaaaaaaaaaaaaaaaaaaaaaaaaaaaaaaaaaaaaaaaaaaaaaaaaaaaaaaaaaaaaaaaaaaaaaaaaaaaaaaaaaaaaaaaaaaaaaaaaaaaaaaaaaa",
"aaaaaaaaaaaaaaaaaaaaaaaaaaaaaaaaaaaaaaaaaaaaaaaaaaaaaVaVaaaaaaaaaaaaaaaaaaaaaaaaaaaaaaaaaaaaaaaaaZaZaaaaaaaaaaaaaaaaaaaaaaaaaaaaaaaaaaaaaaaaaaaaaaaaaaaaaaaaaaaaaaaaaaaaaaaaaaaaaaaaaaaaaaaaaaaaaaaaaaaaaaaaaaaaaaaaaaaaaaaaaaaaaaaaaaaaaaaaaaaaaaaaaaaaaaaaaaaaaaaaaaaaaaaaaaaaaaaaaaaaaaaaaaaaaaaaaaaaaaaaaaaaaaaaaaaaaaaaaaaaaaaaaaaaaaaaaaaaaaaaaaaaaaaaaaaaaaaaaaaaaaaaaaaaaaaaaaaaaaaaaaaaaaaaaaaaaaaaaaaa",
"aaaaaaaaaaaaaaaaaaaaaaaaaaaRaRaRaRaRaRaTaTaTaTaTa1a1a1a1a1a1a2a2a1a1a1a1a1a1a1a1a1a2a2a2a2a2a2a2aTaTaRaRaRaRaRaRaRaRaRaaaaaaaaaaaaaaaaaaaaaaaaaaaaaaaaaaaaaaaaaaaaaaaaaaaaaaaaaaaaaaaaaaaaaaaaaaaaaaaaaaaaaaaaaaaaaaaaaaaaaaaaaaaaaaaaaaaaaaaaaaaaaaaaaaaaaaaaaaaaaaaaaaaaaaaaaaaaaaaaaaaaaaaaaaaaaaaaaaaaaaaaaaaaaaaaaaaaaaaaaaaaaaaaaaaaaaaaaaaaaaaaaaaaaaaaaaaaaaaaaaaaaaaaaaaaaaaaaaaaaaaaaaaaaaaaaaaaaaaaaa",
"aaaaaaaaaaaaaaaaaaaaaaaaaaaRaRaRaRaRaRaTaTaTaTaTa1a1a1a1a1a1a2a2a1a1a1a1a1a1a1a1a1a2a2a2a2a2a2a2aTaTaRaRaRaRaRaRaRaRaRaaaaaaaaaaaaaaaaaaaaaaaaaaaaaaaaaaaaaaaaaaaaaaaaaaaaaaaaaaaaaaaaaaaaaaaaaaaaaaaaaaaaaaaaaaaaaaaaaaaaaaaaaaaaaaaaaaaaaaaaaaaaaaaaaaaaaaaaaaaaaaaaaaaaaaaaaaaaaaaaaaaaaaaaaaaaaaaaaaaaaaaaaaaaaaaaaaaaaaaaaaaaaaaaaaaaaaaaaaaaaaaaaaaaaaaaaaaaaaaaaaaaaaaaaaaaaaaaaaaaaaaaaaaaaaaaaaaaaaaaaa",
"aaaaaaaaaaaaaaaaaaaaaaaRaRayayaKaKa2a2a2a2ararara2a2arararararararararararararararararararararararara1a1a1a1aKaKaKaRaRaaaaaaaaaaaaaaaaaaaaaaaaaaaaaaaaaaaaaaaaaaaaaaaaaaaaaaaaaaaaaaaaaaaaaaaaaaaaaaaaaaaaaaaaaaaaaaaaaaaaaaaaaaaaaaaaaaaaaaaaaaaaaaaaaaaaaaaaaaaaaaaaaaaaaaaaaaaaaaaaaaaaaaaaaaaaaaaaaaaaaaaaaaaaaaaaaZaZaZaaaaaaaaaaaaaaaaaaaaaaaaaaaZaZaaaaaaaaaaaaaaaIaIaaaaaaaaaaaaaaaaaaaaaaaaaaaaaaaaaaaa",
"aaaaaaaaaaaaaaaaaaaaaaaRaRayayaKaKa2a2a2a2ararara2a2arararararararararararararararararararararararara1a1a1a1aKaKaKaRaRaaaaaaaaaaaaaaaaaaaaaaaaaaaaaaaaaaaaaaaaaaaaaaaaaaaaaaaaaaaaaaaaaaaaaaaaaaaaaaaaaaaaaaaaaaaaaaaaaaaaaaaaaaaaaaaaaaaaaaaaaaaaaaaaaaaaaaaaaaaaaaaaaaaaaaaaaaaaaaaaaaaaaaaaaaaaaaaaaaaaaaaaaaaaaaaaaZaZaZaaaaaaaaaaaaaaaaaaaaaaaaaaaZaZaaaaaaaaaaaaaaaIaIaaaaaaaaaaaaaaaaaaaaaaaaaaaaaaaaaaaa",
"aaaaaaaaaaaaaaaaaaaaaaaxaxaKaKaKaKararaqaqaLaLaLararararawawararararararararararararararararararawawararararaKaKaKayayaaaaaaaaaaaaaaaaaaaaaaaaaaaaaaaaaaaaaaaaaaaaaaaaaaaaaaaaaaaaaaaaaaaaaaaaaaaaaaaaaaaaaaaaaaaaaaaaaaaaaaaaaaaaaaaaaaaaaaaaaaaaaaaaaaaaaaaaaaaaaaaaaaaaaaaaaaaaaaaaaaaaaaaaaaaaaaaaaaaaaaaaaIaIaIaIamamamaBaBauauaeaeaiaiagagagaiaiaaaaadadaBaBamamamaIaIaaaaaIaIaaaaaaaaaaaaaaaaaaaaaaaaaaaa",
"aaaaaaaaaaaaaaaaaaaaaaaxaxaKaKaKaKararaqaqaLaLaLararararawawararararararararararararararararararawawararararaKaKaKayayaaaaaaaaaaaaaaaaaaaaaaaaaaaaaaaaaaaaaaaaaaaaaaaaaaaaaaaaaaaaaaaaaaaaaaaaaaaaaaaaaaaaaaaaaaaaaaaaaaaaaaaaaaaaaaaaaaaaaaaaaaaaaaaaaaaaaaaaaaaaaaaaaaaaaaaaaaaaaaaaaaaaaaaaaaaaaaaaaaaaaaaaaIaIaIaIamamamaBaBauauaeaeaiaiagagagaiaiaaaaadadaBaBamamamaIaIaaaaaIaIaaaaaaaaaaaaaaaaaaaaaaaaaaaa",
"aaaaaaaaaaaaaaaaaRaRaRasasararararararapapaQaQaQararararararararararararararararararararararararaLaLarararararararayayaRaRaaaaaaaaaaaaaaaaaaaaaaaaaaaaaaaaaaaaaaaaaaaaaaaaaaaaaaaaaaaaaaaaaaaaaaaaaaaaaaaaaaaaaaaaaaaaaaaaaaaaaaaaaaaaaaaaaaaaaaaaaaaaaaaaaaaaaaaaaaaaaaaaaaaaaaaaaaaaaaaaaaaaaaaaaaaaamamamamaEaEamamamamamaeaeauauaeaeaiaiamamamaeaeaBaBaeaeaFaFamamamaEaEaFaFamamaFaFaaaaaaaaaaaaaaaaaaaaaaaa",
"aaaaaaaaaaaaaaaaaRaRaRasasararararararapapaQaQaQararararararararararararararararararararararararaLaLarararararararayayaRaRaaaaaaaaaaaaaaaaaaaaaaaaaaaaaaaaaaaaaaaaaaaaaaaaaaaaaaaaaaaaaaaaaaaaaaaaaaaaaaaaaaaaaaaaaaaaaaaaaaaaaaaaaaaaaaaaaaaaaaaaaaaaaaaaaaaaaaaaaaaaaaaaaaaaaaaaaaaaaaaaaaaaaaaaaaaaamamamamaEaEamamamamamaeaeauauaeaeaiaiamamamaeaeaBaBaeaeaFaFamamamaEaEaFaFamamaFaFaaaaaaaaaaaaaaaaaaaaaaaa",
"aaaaaaaaaaaaaaaaaRaRaRasasarara2a2apaparara2a2a2ararararararararararararararararararararararararararasasarararararaxaxayayaaaaaaaaaaaaaaaaaaaaaaaaaaaaaaaaaaaaaaaaaaaaaaaaaaaaaaaaaaaaaaaaaaaaaaaaaaaaaaaaaaaaaaaaaaaaaaaaaaaaaaaaaaaaaaaaaaaaaaaaaaaaaaaaaaaaaaaaaaaaaaaaaaaaaaaaaaaaaaaaaaaaaaaIaIaIamamamamaDaDaEaEamamamaiaiaeaeaeaeauauaaaaaaaeaeaBaBaeaeaFaFaEaEaEaDaDaFaFamamaFaFaIaIaaaaaaaaaaaaaaaaaaaa",
"aaaaaaaaaaaaaaaaaRaRaRasasarara2a2apaparara2a2a2ararararararararararararararararararararararararararasasarararararaxaxayayaaaaaaaaaaaaaaaaaaaaaaaaaaaaaaaaaaaaaaaaaaaaaaaaaaaaaaaaaaaaaaaaaaaaaaaaaaaaaaaaaaaaaaaaaaaaaaaaaaaaaaaaaaaaaaaaaaaaaaaaaaaaaaaaaaaaaaaaaaaaaaaaaaaaaaaaaaaaaaaaaaaaaaaIaIaIamamamamaDaDaEaEamamamaiaiaeaeaeaeauauaaaaaaaeaeaBaBaeaeaFaFaEaEaEaDaDaFaFamamaFaFaIaIaaaaaaaaaaaaaaaaaaaa",
"aaaaaaaaaaaaaaaaaRaRaRasasarara2a2apaparara2a2a2ararararararararararararararararararararararararararasasarararararaxaxayayaaaaaaaaaaaaaaaaaaaaaaaaaaaaaaaaaaaaaaaaaaaaaaaaaaaaaaaaaaaaaaaaaaaaaaaaaaaaaaaaaaaaaaaaaaaaaaaaaaaaaaaaaaaaaaaaaaaaaaaaaaaaaaaaaaaaaaaaaaaaaaaaaaaaaaaaaaaaaaaaaaaaaaaIaIaIamamamamaDaDaEaEamamamaiaiaeaeaeaeauauaaaaaaaeaeaBaBaeaeaFaFaEaEaEaDaDaFaFamamaFaFaIaIaaaaaaaaaaaaaaaaaaaa",
"aaaaaaaaaaaaaaaaaRaRaRaqaqararaLaLapapa2a2arararararararararapapapapapapapapapaqaqarararararararararaqaqarara2a2a2aKaKayayaaaaaaaaaaaaaaaaaaaaaaaaaaaaaaaaaaaaaaaaaaaaaaaaaaaaaaaaaaaaaaaaaaaaaaaaaaaaaaaaaaaaaaaaaaaaaaaaaaaaaaaaaaaaaaaaaaaaaaaaaaaaaaaaaaaaaaaaaaaaaaaaaaaaaaaaaaaaaaaaaaaaaaaFaFaFamamaEaEaDaDaDaDaDaDaDaFaFaeaeauauaZaZadadadaZaZauauaeaeaFaFaEaEaEaDaDaFaFaEaEaFaFaFaFaaaaaaaaaaaaaaaaaaaa",
"aaaaaaaaaaaaaaaaaRaRaRaqaqararaLaLapapa2a2arararararararararapapapapapapapapapaqaqarararararararararaqaqarara2a2a2aKaKayayaaaaaaaaaaaaaaaaaaaaaaaaaaaaaaaaaaaaaaaaaaaaaaaaaaaaaaaaaaaaaaaaaaaaaaaaaaaaaaaaaaaaaaaaaaaaaaaaaaaaaaaaaaaaaaaaaaaaaaaaaaaaaaaaaaaaaaaaaaaaaaaaaaaaaaaaaaaaaaaaaaaaaaaFaFaFamamaEaEaDaDaDaDaDaDaDaFaFaeaeauauaZaZadadadaZaZauauaeaeaFaFaEaEaEaDaDaFaFaEaEaFaFaFaFaaaaaaaaaaaaaaaaaaaa",
"aaaaaaaaaaaaaaaaaRaRaRararararaLaLapapaQaQarararararararaqaqaqaqaLaLaLaLaLawawararaqaqarararararararasasapapa2a2a2aKaKayayaPaPaaaaaaaaaaaaaaaaaaaaaaaaaaaaaaaaaaaaaaaaaaaaaaaaaaaaaaaaaaaaaaaaaaaaaaaaaaaaaaaaaaaaaaaaaaaaaaaaaaaaaaaaaaaaaaaaaaaaaaaaaaaaaaaaaaaaaaaaaaaaaaaaaaaaaaaaaaaaaaaaaaamamamamamaEaEaDaDaDaDaEaEaEaFaFaaaaaaaaauauaeaeaealalauauakakaFaFaEaEaEaDaDaFaFaEaEamamamamaaaaaaaaaaaaaaaaaaaa",
"aaaaaaaaaaaaaaaaaRaRaRararararaLaLapapaQaQarararararararaqaqaqaqaLaLaLaLaLawawararaqaqarararararararasasapapa2a2a2aKaKayayaPaPaaaaaaaaaaaaaaaaaaaaaaaaaaaaaaaaaaaaaaaaaaaaaaaaaaaaaaaaaaaaaaaaaaaaaaaaaaaaaaaaaaaaaaaaaaaaaaaaaaaaaaaaaaaaaaaaaaaaaaaaaaaaaaaaaaaaaaaaaaaaaaaaaaaaaaaaaaaaaaaaaaamamamamamaEaEaDaDaDaDaEaEaEaFaFaaaaaaaaauauaeaeaealalauauakakaFaFaEaEaEaDaDaFaFaEaEamamamamaaaaaaaaaaaaaaaaaaaa",
"aaaaaaaaaaaaaRaRaxaxaxarararara2a2awawararawawawararaqaqararawawarararararararararaqaqarararararararawawapapaQaQaQaUaUaxaxadadaaaaaaaaaaaaaaaaaaaaaaaaaaaaaaaaaaaaaaaaaaaaaaaaaaaaaaaaaaaaaaaaaaaaaaaaaaaaaaaaaaaaaaaaaaaaaaaaaaaaaaaaaaaaaaaaaaaaaaaaaaaaaaaaaaaaaaaaaaaaaaaaaaaaaaaaaaaaaaaaaaaFaFaFaEaEaDaDaCaCaDaDaDaDaDaFaFaZaZaeaeaeaeaeaeaeaeaeauauaaaaaFaFaDaDaDaDaDaFaFaEaEaDaDaFaFaaaaaaaaaaaaaaaaaaaa",
"aaaaaaaaaaaaaRaRaxaxaxarararara2a2awawararawawawararaqaqararawawarararararararararaqaqarararararararawawapapaQaQaQaUaUaxaxadadaaaaaaaaaaaaaaaaaaaaaaaaaaaaaaaaaaaaaaaaaaaaaaaaaaaaaaaaaaaaaaaaaaaaaaaaaaaaaaaaaaaaaaaaaaaaaaaaaaaaaaaaaaaaaaaaaaaaaaaaaaaaaaaaaaaaaaaaaaaaaaaaaaaaaaaaaaaaaaaaaaaFaFaFaEaEaDaDaCaCaDaDaDaDaDaFaFaZaZaeaeaeaeaeaeaeaeaeauauaaaaaFaFaDaDaDaDaDaFaFaEaEaDaDaFaFaaaaaaaaaaaaaaaaaaaa",
"aaaaaaaaaaaaaaaaaxaxaxarararara2a2aQaQarararararararaqaqawawarararararawawararararaqaqarararararararaLaLapapaQaQaQaUaUaxaxadadaaaaaaaaaaaaaaaaaaaaaaaaaaaaaaaaaaaaaaaaaaaaaaaaaaaaaaaaaaaaaaaaaaaaaaaaaaaaaaaaaaaaaaaaaaaaaaaaaaaaaaaaaaaaaaaaaaaaaaaaaaaaaaaaaaaaaaaaaaaaaaaaaaaaaaaaaaaaaaaaaaaFaFaFaDaDaEaEaCaCaDaDaEaEaEaFaFaaaaauauaBaBaeaeaeaeaeauauaaaaaFaFaEaEaEaCaCaFaFaEaEaDaDaFaFaaaaaaaaaaaaaaaaaaaa",
"aaaaaaaaaaaaaaaaaxaxaxarararara2a2aQaQarararararararaqaqawawarararararawawararararaqaqarararararararaLaLapapaQaQaQaUaUaxaxadadaaaaaaaaaaaaaaaaaaaaaaaaaaaaaaaaaaaaaaaaaaaaaaaaaaaaaaaaaaaaaaaaaaaaaaaaaaaaaaaaaaaaaaaaaaaaaaaaaaaaaaaaaaaaaaaaaaaaaaaaaaaaaaaaaaaaaaaaaaaaaaaaaaaaaaaaaaaaaaaaaaaFaFaFaDaDaEaEaCaCaDaDaEaEaEaFaFaaaaauauaBaBaeaeaeaeaeauauaaaaaFaFaEaEaEaCaCaFaFaEaEaDaDaFaFaaaaaaaaaaaaaaaaaaaa",
"aaaaaaaaaaaaaRaRayayayaqaqarara2a2aLaLarararararararaqaqawawarararararararararararasasarararararararawawapapaQaQaQaUaUaxaxayayaaaaaaaaaaaaaaaaaaaaaaaaaaaaaaaaaaaaaaaaaaaaaaaaaaaaaaaaaaaaaaaaaaaaaaaaaaaaaaaaaaaaaaaaaaaaaaaaaaaaaaaaaaaaaaaaaaaaaaaaaaaaaaaaaaaaaaaaaaaaaaaaaaaaaaaaaaaaaaaaaaaFaFaFaEaEaEaEaDaDaDaDaDaDaDaFaFaZaZaBaBaeaeafafafadadaeaeaaaaaJaJaDaDaDaCaCaFaFaDaDaDaDaFaFaIaIaIaaaaaaaaaaaaaa",
"aaaaaaaaaaaaaRaRayayayaqaqarara2a2aLaLarararararararaqaqawawarararararararararararasasarararararararawawapapaQaQaQaUaUaxaxayayaaaaaaaaaaaaaaaaaaaaaaaaaaaaaaaaaaaaaaaaaaaaaaaaaaaaaaaaaaaaaaaaaaaaaaaaaaaaaaaaaaaaaaaaaaaaaaaaaaaaaaaaaaaaaaaaaaaaaaaaaaaaaaaaaaaaaaaaaaaaaaaaaaaaaaaaaaaaaaaaaaaFaFaFaEaEaEaEaDaDaDaDaDaDaDaFaFaZaZaBaBaeaeafafafadadaeaeaaaaaJaJaDaDaDaCaCaFaFaDaDaDaDaFaFaIaIaIaaaaaaaaaaaaaa",
"aaaaaaaaaaaaaRaRayayayaqaqarara2a2aLaLarararararararaqaqawawarararararararararararasasarararararararawawapapaQaQaQaUaUaxaxayayaaaaaaaaaaaaaaaaaaaaaaaaaaaaaaaaaaaaaaaaaaaaaaaaaaaaaaaaaaaaaaaaaaaaaaaaaaaaaaaaaaaaaaaaaaaaaaaaaaaaaaaaaaaaaaaaaaaaaaaaaaaaaaaaaaaaaaaaaaaaaaaaaaaaaaaaaaaaaaaaaaaFaFaFaEaEaEaEaDaDaDaDaDaDaDaFaFaZaZaBaBaeaeafafafadadaeaeaaaaaJaJaDaDaDaCaCaFaFaDaDaDaDaFaFaIaIaIaaaaaaaaaaaaaa",
"aaaaaaaaaaaaaaaaaxaxaxarararara2a2aQaQarararararararaqaqawawarararararararawawararapaparararararawawa2a2apapawawawaUaUaxaxaBaBaaaaaaaaaaaaaaaaaaaaaaaaaaaaaaaaaaaaaaaaaaaaaaaaaaaaaaaaaaaaaaaaaaaaaaaaaaaaaaaaaaaaaaaaaaaaaaaaaaaaaaaaaaaaaaaaaaaaaaaaaaaaaaaaaaaaaaaaaaaaaaaaaaaaaaaaaaaaaaaaaaaFaFaFaDaDaDaDaCaCaDaDamamamaFaFaZaZaaaaaaaaaaaaaaaaaaaaaaaaaaaFaFa4a4a4aDaDaWaWaDaDaEaEaFaFaaaaaaaaaaaaaaaaaaaa",
"aaaaaaaaaaaaaaaaaxaxaxarararara2a2aQaQarararararararaqaqawawarararararararawawararapaparararararawawa2a2apapawawawaUaUaxaxaBaBaaaaaaaaaaaaaaaaaaaaaaaaaaaaaaaaaaaaaaaaaaaaaaaaaaaaaaaaaaaaaaaaaaaaaaaaaaaaaaaaaaaaaaaaaaaaaaaaaaaaaaaaaaaaaaaaaaaaaaaaaaaaaaaaaaaaaaaaaaaaaaaaaaaaaaaaaaaaaaaaaaaFaFaFaDaDaDaDaCaCaDaDamamamaFaFaZaZaaaaaaaaaaaaaaaaaaaaaaaaaaaFaFa4a4a4aDaDaWaWaDaDaEaEaFaFaaaaaaaaaaaaaaaaaaaa",
"aaaaaaaaaZaZaaaaayayayararararawawaQaQarararararararaqaqawawarararararararararararaqaqaUaUaUararararaLaLasasa2a2a2aUaUaxaxafafaaaaaaaaaaaaaaaaaaaaaaaaaaaaaaaaaaaaaaaaaaaaaaaaaaaaaaaaaaaaaaaaaaaaaaaaaaaaaaaaaaaaaaaaaaaaaaaaaaaaaaaaaaaaaaaaaaaaaaaaaaaaaaaaaaaaaaaaaaaaaaaaaaaaaaaaaaaaaaaaaaaFaFaFaEaEaEaEaDaDaDaDamamamaeaeauauaeaeaiaiafafafaiaiaBaBaeaeaFaFaDaDaDaCaCaWaWaEaEaEaEaFaFaaaaaaaaaaaaaaaaaaaa",
"aaaaaaaaaZaZaaaaayayayararararawawaQaQarararararararaqaqawawarararararararararararaqaqaUaUaUararararaLaLasasa2a2a2aUaUaxaxafafaaaaaaaaaaaaaaaaaaaaaaaaaaaaaaaaaaaaaaaaaaaaaaaaaaaaaaaaaaaaaaaaaaaaaaaaaaaaaaaaaaaaaaaaaaaaaaaaaaaaaaaaaaaaaaaaaaaaaaaaaaaaaaaaaaaaaaaaaaaaaaaaaaaaaaaaaaaaaaaaaaaFaFaFaEaEaEaEaDaDaDaDamamamaeaeauauaeaeaiaiafafafaiaiaBaBaeaeaFaFaDaDaDaCaCaWaWaEaEaEaEaFaFaaaaaaaaaaaaaaaaaaaa",
"aaaaaaaaaaaaaaaaaxaxaxarararara2a2aLaLawawarararawawaqaqawawarararararararararararaqaqarararararararawawaqaqawawawaUaUaxaxafafaaaaaaaaaaaaaaaaaaaaaaaaaaaaaaaaaaaaaaaaaaaaaaaaaaaaaaaaaaaaaaaaaaaaaaaaaaaaaaaaaaaaaaaaaaaaaaaaaaaaaaaaaaaaaaaaaaaaaaaaaaaaaaaaaaaaaaaaaaaaaaaaaaaaaaaaaaaaaaaaaaaFaFaFaDaDaEaEaDaDaDaDamamamaFaFaeaeaBaBaiaiamamamaeaeaBaBaBaBaFaFaEaEaEaCaCaSaSaDaDa3a3aFaFaaaaaaaaaaaaaaaaaaaa",
"aaaaaaaaaaaaaaaaaxaxaxarararara2a2aLaLawawarararawawaqaqawawarararararararararararaqaqarararararararawawaqaqawawawaUaUaxaxafafaaaaaaaaaaaaaaaaaaaaaaaaaaaaaaaaaaaaaaaaaaaaaaaaaaaaaaaaaaaaaaaaaaaaaaaaaaaaaaaaaaaaaaaaaaaaaaaaaaaaaaaaaaaaaaaaaaaaaaaaaaaaaaaaaaaaaaaaaaaaaaaaaaaaaaaaaaaaaaaaaaaFaFaFaDaDaEaEaDaDaDaDamamamaFaFaeaeaBaBaiaiamamamaeaeaBaBaBaBaFaFaEaEaEaCaCaSaSaDaDa3a3aFaFaaaaaaaaaaaaaaaaaaaa",
"aaaaaaaaaZaZaaaaaxaxaxarararara2a2awawarararararararaqaqawawarararararararararararasasararararararara2a2asasa2a2a2aUaUaxaxagagaaaaaaaaaaaaaaaaaaaaaaaaaaaaaaaaaaaaaaaaaaaaaaaaaaaaaaaaaaaaaaaaaaaaaaaaaaaaaaaaaaaaaaaaaaaaaaaaaaaaaaaaaaaaaaaaaaaaaaaaaaaaaaaaaaaaaaaaaaaaaaaaaaaaaaaaaaaaaaaaaaaFaFaFaWaWaEaEaDaDaEaEamamamaBaBaeaeaBaBaiaiafafafaeaeaiaiaeaeamamamamamaEaEaFaFaEaEaEaEaFaFaaaaaaaaaaaaaaaaaaaa",
"aaaaaaaaaZaZaaaaaxaxaxarararara2a2awawarararararararaqaqawawarararararararararararasasararararararara2a2asasa2a2a2aUaUaxaxagagaaaaaaaaaaaaaaaaaaaaaaaaaaaaaaaaaaaaaaaaaaaaaaaaaaaaaaaaaaaaaaaaaaaaaaaaaaaaaaaaaaaaaaaaaaaaaaaaaaaaaaaaaaaaaaaaaaaaaaaaaaaaaaaaaaaaaaaaaaaaaaaaaaaaaaaaaaaaaaaaaaaFaFaFaWaWaEaEaDaDaEaEamamamaBaBaeaeaBaBaiaiafafafaeaeaiaiaeaeamamamamamaEaEaFaFaEaEaEaEaFaFaaaaaaaaaaaaaaaaaaaa",
"aaaaaaaaaaaaaZaZayayayararararawawararasasaTaTaTaTaTaRaRaTaTaRaRaTaTaTaTaTaRaRaTaTaRaRaRaRaRaTaTaTaTa2a2asasa2a2a2aUaUaxaxayayaaaaaaaaaaaaaaaaaaaaaaaaaaaaaaaaaaaaaaaaaaaaaaaaaaaaaaaaaaaaaaaaaaaaaaaaaaaaaaaaaaaaaaaaaaaaaaaaaaaaaaaaaaaaaaaaaaaaaaaaaaaaaaaaaaaaaaaaaaaaaaaaaaaaaaaaaaaaaaaaaaaFaFaFamamamamaaaaaaaaadadadadadaeaeaBaBaBaBaBaBaBadadaBaBauauaBaBaBaBaBaaaaaIaIamama3a3aFaFaaaaaaaZaZaaaaaaaaaa",
"aaaaaaaaaaaaaZaZayayayararararawawararasasaTaTaTaTaTaRaRaTaTaRaRaTaTaTaTaTaRaRaTaTaRaRaRaRaRaTaTaTaTa2a2asasa2a2a2aUaUaxaxayayaaaaaaaaaaaaaaaaaaaaaaaaaaaaaaaaaaaaaaaaaaaaaaaaaaaaaaaaaaaaaaaaaaaaaaaaaaaaaaaaaaaaaaaaaaaaaaaaaaaaaaaaaaaaaaaaaaaaaaaaaaaaaaaaaaaaaaaaaaaaaaaaaaaaaaaaaaaaaaaaaaaFaFaFamamamamaaaaaaaaadadadadadaeaeaBaBaBaBaBaBaBadadaBaBauauaBaBaBaBaBaaaaaIaIamama3a3aFaFaaaaaaaZaZaaaaaaaaaa",
"aaaaaaaaaaaaacacaRaRaRarararara1a1aRaRaTaTaKaKaKaKaKaKaKaGaGaGaGaGaGaGazazaGaGa5a5azazacacacaGaGaGaGaTaTaTaTa1a1a1aUaUaxaxaRaRaaaaaaaaaaaaaaaaaaaaaaaaaaaaaaaaaaaaaaaaaaaaaaaaaaaaaaaaaaaaaaaaaaaaaaaaaaaaaaaaaaaaaaaaaaaaaaaaaaaaaaaaaaaaaaaaaaaaaaaaaaaaaaaaaaaaaaaaaaaaaaaaaaaaaaaaaaaaaaaaaaamamamaFaFaIaIafafaBaBaeaeaeaBaBaBaBaBaBaBaBadadadaeaeadadaBaBauauadadadaiaiaIaIaIaIamamamamaaaaaaaaaaaaaaaaaaaa",
"aaaaaaaaaaaaacacaRaRaRarararara1a1aRaRaTaTaKaKaKaKaKaKaKaGaGaGaGaGaGaGazazaGaGa5a5azazacacacaGaGaGaGaTaTaTaTa1a1a1aUaUaxaxaRaRaaaaaaaaaaaaaaaaaaaaaaaaaaaaaaaaaaaaaaaaaaaaaaaaaaaaaaaaaaaaaaaaaaaaaaaaaaaaaaaaaaaaaaaaaaaaaaaaaaaaaaaaaaaaaaaaaaaaaaaaaaaaaaaaaaaaaaaaaaaaaaaaaaaaaaaaaaaaaaaaaaamamamaFaFaIaIafafaBaBaeaeaeaBaBaBaBaBaBaBaBadadadaeaeadadaBaBauauadadadaiaiaIaIaIaIamamamamaaaaaaaaaaaaaaaaaaaa",
"aaaaaaaaaaaaacacaRaRaRarararara1a1aRaRaTaTaKaKaKaKaKaKaKaGaGaGaGaGaGaGazazaGaGa5a5azazacacacaGaGaGaGaTaTaTaTa1a1a1aUaUaxaxaRaRaaaaaaaaaaaaaaaaaaaaaaaaaaaaaaaaaaaaaaaaaaaaaaaaaaaaaaaaaaaaaaaaaaaaaaaaaaaaaaaaaaaaaaaaaaaaaaaaaaaaaaaaaaaaaaaaaaaaaaaaaaaaaaaaaaaaaaaaaaaaaaaaaaaaaaaaaaaaaaaaaaamamamaFaFaIaIafafaBaBaeaeaeaBaBaBaBaBaBaBaBadadadaeaeadadaBaBauauadadadaiaiaIaIaIaIamamamamaaaaaaaaaaaaaaaaaaaa",
"aaaaaaaaaaaaaaaaaaaaaaararaqaqaTaTaGaGaKaKazazazaGaGazazacacacacaGaGaGaGaGaGaGa5a5acacaGaGaGacacacacaKaKaKaKaTaTaTaUaUaxaxaRaRaaaaaaaaaaaaaaaaaaaaaaaaaaaaaaaaaaaaaaaaaaaaaaaaaaaaaaaaaaaaaaaaaaaaaaaaaaaaaaaaaaaaaaaaaaaaaaaaaaaaaaaaaaaaaaaaaaaaaaaaaaaaaaaaaaaaaaaaaaaaaaaaaaaaaaaaaaaaaaaaaaamamamamamaIaIaeaeaBaBaBaBaBaBaBaBaBadadaBaBadadadadadaBaBaBaBaeaeadadadaiaiaiaiaIaIamamamamaaaaaaaaaaaaaaaaaaaa",
"aaaaaaaaaaaaaaaaaaaaaaararaqaqaTaTaGaGaKaKazazazaGaGazazacacacacaGaGaGaGaGaGaGa5a5acacaGaGaGacacacacaKaKaKaKaTaTaTaUaUaxaxaRaRaaaaaaaaaaaaaaaaaaaaaaaaaaaaaaaaaaaaaaaaaaaaaaaaaaaaaaaaaaaaaaaaaaaaaaaaaaaaaaaaaaaaaaaaaaaaaaaaaaaaaaaaaaaaaaaaaaaaaaaaaaaaaaaaaaaaaaaaaaaaaaaaaaaaaaaaaaaaaaaaaaamamamamamaIaIaeaeaBaBaBaBaBaBaBaBaBadadaBaBadadadadadaBaBaBaBaeaeadadadaiaiaiaiaIaIamamamamaaaaaaaaaaaaaaaaaaaa",
"aaaaaaaaaaaaaaaaaRaRaRaqaqararaTaTaGaGacacacacacaGaGaGaGazazaKaKa5a5a5azaza5a5acacaGaGacacacaGaGacacaKaKaKaKaRaRaRaUaUaxaxaaaaaaaaaaaaaaaaaaaaaaaaaaaaaaaaaaaaaaaaaaaaaaaaaaaaaaaaaaaaaaaaaaaaaaaaaaaaaaaaaaaaaaaaaaaaaaaaaaaaaaaaaaaaaaaaaaaaaaaaaaaaaaaaaaaaaaaaaaaaaaaaaaaaaaaaaaaaaaaaaaaaaaamamamamamamamadadaBaBadadadadadadadadadadadaBaBaBadadadadaBaBaBaBaBaBaBaBaBaaaaamamamamafafaaaaaaaaaaaaaaaaaaaa",
"aaaaaaaaaaaaaaaaaRaRaRaqaqararaTaTaGaGacacacacacaGaGaGaGazazaKaKa5a5a5azaza5a5acacaGaGacacacaGaGacacaKaKaKaKaRaRaRaUaUaxaxaaaaaaaaaaaaaaaaaaaaaaaaaaaaaaaaaaaaaaaaaaaaaaaaaaaaaaaaaaaaaaaaaaaaaaaaaaaaaaaaaaaaaaaaaaaaaaaaaaaaaaaaaaaaaaaaaaaaaaaaaaaaaaaaaaaaaaaaaaaaaaaaaaaaaaaaaaaaaaaaaaaaaaamamamamamamamadadaBaBadadadadadadadadadadadaBaBaBadadadadaBaBaBaBaBaBaBaBaBaaaaamamamamafafaaaaaaaaaaaaaaaaaaaa",
"aaaaaaaaaaaaaaaaaVaVaVaxaxaKaKaKaKacacacacacacacaKaKaKaKaKaKa5a5acacaca5a5aKaKaGaGaKaKaKaKaKacacacacaKaKaVaVagagagaKaKafafaaaaaaaaaaaaaaaaaaaaaaaaaaaaaaaaaaaaaaaaaaaaaaaaaaaaaaaaaaaaaaaaaaaaaaaaaaaaaaaaaaaaaaaaaaaaaaaaaaaaaaaaaaaaaaaaaaaaaaaaaaaaaaaaaaaaaaaaaaaaaaaaaaaaaaaaaaaaaaaaaaaaaaamamamaIaIaaaaaaaaaIaIamamamaEaEaEaEaEaEaEaEamamamamamaEaEaEaEamamaFaFaFaIaIamamaaaaaIaIamamaaaaaaaaaaaaaaaaaaaa",
"aaaaaaaaaaaaaaaaaVaVaVaxaxaKaKaKaKacacacacacacacaKaKaKaKaKaKa5a5acacaca5a5aKaKaGaGaKaKaKaKaKacacacacaKaKaVaVagagagaKaKafafaaaaaaaaaaaaaaaaaaaaaaaaaaaaaaaaaaaaaaaaaaaaaaaaaaaaaaaaaaaaaaaaaaaaaaaaaaaaaaaaaaaaaaaaaaaaaaaaaaaaaaaaaaaaaaaaaaaaaaaaaaaaaaaaaaaaaaaaaaaaaaaaaaaaaaaaaaaaaaaaaaaaaaamamamaIaIaaaaaaaaaIaIamamamaEaEaEaEaEaEaEaEamamamamamaEaEaEaEamamaFaFaFaIaIamamaaaaaIaIamamaaaaaaaaaaaaaaaaaaaa",
"aaaaaaaaaaaaaaaaaVaVaVaTaTaTaTaxaxaGaGacacacacacaKaKaKaKa2a2aKaKaGaGaGaGaGaGaGaGaGaGaGaKaKaKaGaGaKaKaKaKaaaaaHaHaHaTaTaoaoaaaaaaaaaaaaaaaaaaaaaaaaaaaaaaaaaaaaaaaaaaaaaaaaaaaaaaaaaaaaaaaaaaaaaaaaaaaaaaaaaaaaaaaaaaaaaaaaaaaaaaaaaaaaaaaaaaaaaaaaaaaaaaaaaaaaaaaaaaaaaaaaaaaaaaaaaaaaaaaaaaaaaaaaaaaaaaaaaaaaamamamamaEaEaEaDaDaDaDaDaDaDaDaDaDaDaDaDaDaDaDaDaDaDaEaEaEaEaEamamaaaaaaaaaaaaaaaaaaaaaaaaaaaaaaaa",
"aaaaaaaaaaaaaaaaaVaVaVaTaTaTaTaxaxaGaGacacacacacaKaKaKaKa2a2aKaKaGaGaGaGaGaGaGaGaGaGaGaKaKaKaGaGaKaKaKaKaaaaaHaHaHaTaTaoaoaaaaaaaaaaaaaaaaaaaaaaaaaaaaaaaaaaaaaaaaaaaaaaaaaaaaaaaaaaaaaaaaaaaaaaaaaaaaaaaaaaaaaaaaaaaaaaaaaaaaaaaaaaaaaaaaaaaaaaaaaaaaaaaaaaaaaaaaaaaaaaaaaaaaaaaaaaaaaaaaaaaaaaaaaaaaaaaaaaaaamamamamaEaEaEaDaDaDaDaDaDaDaDaDaDaDaDaDaDaDaDaDaDaDaEaEaEaEaEamamaaaaaaaaaaaaaaaaaaaaaaaaaaaaaaaa",
"aaaaaaaaaaaaaaaaaaaaaaaGaGaTaTafafahahaGaGacacacaRaRaRaRaTaTaRaRaRaRaRaRaRaRaRaRaRaTaTaTaTaTaTaTaKaKaKaKaaaaazazazaGaGaaaaaaaaaaaaaaaaaaaaaaaaaaaaaaaaaaaaaaaaaaaaaaaaaaaaaaaaaaaaaaaaaaaaaaaaaaaaaaaaaaaaaaaaaaaaaaaaaaaaaaaaaaaaaaaaaaaaaaaaaaaaaaaaaaaaaaaaaaaaaaaaaaaaaaaaaaaaaaaaaaaaaaaaaaagagagaaaaadadaFaFa3a3aDaDaDaDaDaDaDaDaDaDaDaDaDaDaEaEaDaDaCaCaDaDaDaDaDaDaDaaaaagagaIaIamamaaaaaaaaaaaaaaaaaaaa",
"aaaaaaaaaaaaaaaaaaaaaaaGaGaTaTafafahahaGaGacacacaRaRaRaRaTaTaRaRaRaRaRaRaRaRaRaRaRaTaTaTaTaTaTaTaKaKaKaKaaaaazazazaGaGaaaaaaaaaaaaaaaaaaaaaaaaaaaaaaaaaaaaaaaaaaaaaaaaaaaaaaaaaaaaaaaaaaaaaaaaaaaaaaaaaaaaaaaaaaaaaaaaaaaaaaaaaaaaaaaaaaaaaaaaaaaaaaaaaaaaaaaaaaaaaaaaaaaaaaaaaaaaaaaaaaaaaaaaaaagagagaaaaadadaFaFa3a3aDaDaDaDaDaDaDaDaDaDaDaDaDaDaEaEaDaDaCaCaDaDaDaDaDaDaDaaaaagagaIaIamamaaaaaaaaaaaaaaaaaaaa",
"aaaaaaaaaaaaaaaaaaaaaaaGaGaTaTafafahahaGaGacacacaRaRaRaRaTaTaRaRaRaRaRaRaRaRaRaRaRaTaTaTaTaTaTaTaKaKaKaKaaaaazazazaGaGaaaaaaaaaaaaaaaaaaaaaaaaaaaaaaaaaaaaaaaaaaaaaaaaaaaaaaaaaaaaaaaaaaaaaaaaaaaaaaaaaaaaaaaaaaaaaaaaaaaaaaaaaaaaaaaaaaaaaaaaaaaaaaaaaaaaaaaaaaaaaaaaaaaaaaaaaaaaaaaaaaaaaaaaaaagagagaaaaadadaFaFa3a3aDaDaDaDaDaDaDaDaDaDaDaDaDaDaEaEaDaDaCaCaDaDaDaDaDaDaDaaaaagagaIaIamamaaaaaaaaaaaaaaaaaaaa",
"aaaaaaaaaaaaaaaaaaaaaaaRaRaRaRaaaaaqaqaqaqa2a2a2arararararararararararararararararawawarararararawawaqaqaAaAaRaRaRaRaRaVaVaaaaaZaZaaaaaaaaaaaaaaaaaaaaaaaaaaaaaaaaaaaaaaaaaaaaaaaaaaaaaaaaaaaaaaaaaaaaaaaaaaaaaaaaaaaaaaaaaaaaaaaaaaaaaaaaaaaaaaaaaaaaaaaaaaaaaaaaaaaaaaaaaaaaaaaaaaaaaaaaaaaaaaafafafaZaZaeaeaEaEaDaDaDaDaDaDaDaDaDaDaDaDaDaDaDaDaEaEaDaDaCaCaDaDaDaDaDaEaEaaaaaBaBaZaZamamaaaaaaaaaaaaaaaaaaaa",
"aaaaaaaaaaaaaaaaaaaaaaaRaRaRaRaaaaaqaqaqaqa2a2a2arararararararararararararararararawawarararararawawaqaqaAaAaRaRaRaRaRaVaVaaaaaZaZaaaaaaaaaaaaaaaaaaaaaaaaaaaaaaaaaaaaaaaaaaaaaaaaaaaaaaaaaaaaaaaaaaaaaaaaaaaaaaaaaaaaaaaaaaaaaaaaaaaaaaaaaaaaaaaaaaaaaaaaaaaaaaaaaaaaaaaaaaaaaaaaaaaaaaaaaaaaaaafafafaZaZaeaeaEaEaDaDaDaDaDaDaDaDaDaDaDaDaDaDaDaDaEaEaDaDaCaCaDaDaDaDaDaEaEaaaaaBaBaZaZamamaaaaaaaaaaaaaaaaaaaa",
"aaaaaaaaaaaaaaaaaaaaaaaKaKaRaRaGaGaqaqa2a2ararararararararararararararararararawawararawawawaNaNararaqaqaRaRacacacacacafafaaaaaaaaaaaaaaaaaaaaaaaaaaaaaaaaaaaaaaaaaaaaaaaaaaaaaaaaaaaaaaaaaaaaaaaaaaaaaaaaaaaaaaaaaaaaaaaaaaaaaaaaaaaaaaaaaaaaaaaaaaaaaaaaaaaaaaaaaaaaaaaaaaaaaaaaaaaaaaaaaaaaaaagagagaaaaadadaWaWaDaDaDaDaDaDaDaDaDaDaDaDaDaDaDaDaDaDaDaDaDaDaDaDaDaDaDaEaEaaaaafafaaaaamamaaaaaaaaaaaaaaaaaaaa",
"aaaaaaaaaaaaaaaaaaaaaaaKaKaRaRaGaGaqaqa2a2ararararararararararararararararararawawararawawawaNaNararaqaqaRaRacacacacacafafaaaaaaaaaaaaaaaaaaaaaaaaaaaaaaaaaaaaaaaaaaaaaaaaaaaaaaaaaaaaaaaaaaaaaaaaaaaaaaaaaaaaaaaaaaaaaaaaaaaaaaaaaaaaaaaaaaaaaaaaaaaaaaaaaaaaaaaaaaaaaaaaaaaaaaaaaaaaaaaaaaaaaaagagagaaaaadadaWaWaDaDaDaDaDaDaDaDaDaDaDaDaDaDaDaDaDaDaDaDaDaDaDaDaDaDaDaEaEaaaaafafaaaaamamaaaaaaaaaaaaaaaaaaaa",
"aaaaaaaaaaaaaaaaaaaaaaahahaRaRaGaGaqaqaQaQarararararararararararararararararararararararararararararaqaqaRaRacacacacacaxaxaaaaaaaaaaaaaaaaaaaaaaaaaaaaaaaaaaaaaaaaaaaaaaaaaaaaaaaaaaaaaaaaaaaaaaaaaaaaaaaaaaaaaaaaaaaaaaaaaaaaaaaaaaaaaaaaaaaaaaaaaaaaaaaaaaaaaaaaaaaaaaaaaaaaaaaaaaaaaaaaaaaaaaafafafaaaaadadaFaFaCaCaDaDaDaDaDaDaDaDaDaDaDaDaDaDaDaDaDaDaDaDaEaEaDaDaDaDaDaaaaafafaIaIamamaaaaaaaaaaaaaaaaaaaa",
"aaaaaaaaaaaaaaaaaaaaaaahahaRaRaGaGaqaqaQaQarararararararararararararararararararararararararararararaqaqaRaRacacacacacaxaxaaaaaaaaaaaaaaaaaaaaaaaaaaaaaaaaaaaaaaaaaaaaaaaaaaaaaaaaaaaaaaaaaaaaaaaaaaaaaaaaaaaaaaaaaaaaaaaaaaaaaaaaaaaaaaaaaaaaaaaaaaaaaaaaaaaaaaaaaaaaaaaaaaaaaaaaaaaaaaaaaaaaaaafafafaaaaadadaFaFaCaCaDaDaDaDaDaDaDaDaDaDaDaDaDaDaDaDaDaDaDaDaEaEaDaDaDaDaDaaaaafafaIaIamamaaaaaaaaaaaaaaaaaaaa",
"aaaaaaaaaaaaaaaaaaaaaaahahaaaaaGaGaqaqaQaQarararararararararararararararararararararararararararararaqaqaRaRacacacaKaKaxaxaRaRaaaaaaaaaaaaaaaaaaaaaaaaaaaaaaaaaaaaaaaaaaaaaaaaaaaaaaaaaaaaaaaaaaaaaaaaaaaaaaaaaaaaaaaaaaaaaaaaaaaaaaaaaaaaaaaaaaaaaaaaaaaaaaaaaaaaaaaaaaaaaaaaaaaaaaaaaaaaaaaaaaagagagaaaaaBaBaWaWaEaEaDaDaDaDaDaDaDaDaDaDaDaDaDaDaDaDaDaDaDaDaDaDaDaDaDaDaDaaaaaeaeaIaIamamaaaaaaaaaaaaaaaaaaaa",
"aaaaaaaaaaaaaaaaaaaaaaahahaaaaaGaGaqaqaQaQarararararararararararararararararararararararararararararaqaqaRaRacacacaKaKaxaxaRaRaaaaaaaaaaaaaaaaaaaaaaaaaaaaaaaaaaaaaaaaaaaaaaaaaaaaaaaaaaaaaaaaaaaaaaaaaaaaaaaaaaaaaaaaaaaaaaaaaaaaaaaaaaaaaaaaaaaaaaaaaaaaaaaaaaaaaaaaaaaaaaaaaaaaaaaaaaaaaaaaaaagagagaaaaaBaBaWaWaEaEaDaDaDaDaDaDaDaDaDaDaDaDaDaDaDaDaDaDaDaDaDaDaDaDaDaDaDaaaaaeaeaIaIamamaaaaaaaaaaaaaaaaaaaa",
"aaaaaaaaaaaaaaaaaaaaaaahahaRaRacacasasa2a2arararararararararararararararararararararararararararararasasaRaRaGaGaGacacaxaxaaaaaaaaaaaaaaaaaaaaaaaaaaaaaaaaaaaaaaaaaaaaaaaaaaaaaaaaaaaaaaaaaaaaaaaaaaaaaaaaaaaaaaaaaaaaaaaaaaaaaaaaaaaaaaaaaaaaaaaaaaaaaaaaaaaaaaaaaaaaaaaaaaaaaaaaaaaaaaaaaaaaaaafafafaaaaadadaFaFaDaDaDaDaDaDaDaDaDaDaDaDaDaDaDaDaCaCaDaDaDaDaDaDaDaDaDaDaDaaaaamamaIaIamamaaaaaaaaaaaaaaaaaaaa",
"aaaaaaaaaaaaaaaaaaaaaaahahaRaRacacasasa2a2arararararararararararararararararararararararararararararasasaRaRaGaGaGacacaxaxaaaaaaaaaaaaaaaaaaaaaaaaaaaaaaaaaaaaaaaaaaaaaaaaaaaaaaaaaaaaaaaaaaaaaaaaaaaaaaaaaaaaaaaaaaaaaaaaaaaaaaaaaaaaaaaaaaaaaaaaaaaaaaaaaaaaaaaaaaaaaaaaaaaaaaaaaaaaaaaaaaaaaaafafafaaaaadadaFaFaDaDaDaDaDaDaDaDaDaDaDaDaDaDaDaDaCaCaDaDaDaDaDaDaDaDaDaDaDaaaaamamaIaIamamaaaaaaaaaaaaaaaaaaaa",
"aaaaaaaaaaaaaaaaaaaaaaahahaRaRacacasasa2a2arararararararararararararararararararararararararararararasasaRaRaGaGaGacacaxaxaaaaaaaaaaaaaaaaaaaaaaaaaaaaaaaaaaaaaaaaaaaaaaaaaaaaaaaaaaaaaaaaaaaaaaaaaaaaaaaaaaaaaaaaaaaaaaaaaaaaaaaaaaaaaaaaaaaaaaaaaaaaaaaaaaaaaaaaaaaaaaaaaaaaaaaaaaaaaaaaaaaaaaafafafaaaaadadaFaFaDaDaDaDaDaDaDaDaDaDaDaDaDaDaDaDaCaCaDaDaDaDaDaDaDaDaDaDaDaaaaamamaIaIamamaaaaaaaaaaaaaaaaaaaa",
"aaaaaaaaaaaaaaaaaaaaaaahahaRaRacacasasa2a2arararararararararararararararararararararararararararararasasaRaRacacacacacafafaaaaaaaaaaaaaaaaaaaaaaaaaaaaaaaaaaaaaaaaaaaaaaaaaaaaaaaaaaaaaaaaaaaaaaaaaaaaaaaaaaaaaaaaaaaaaaaaaaaaaaaaaaaaaaaaaaaaaaaaaaaaaaaaaaaaaaaaaaaaaaaaaaaaaaaaaaaaaaaaaaaaaaamamamaIaIaFaFaFaFaDaDaDaDaDaDaDaDaDaDaDaDaDaDaDaDaDaDaDaDaDaDaDaDaDaDaDaEaEaaaaaeaeaIaIamamaaaaaaaaaaaaaaaaaaaa",
"aaaaaaaaaaaaaaaaaaaaaaahahaRaRacacasasa2a2arararararararararararararararararararararararararararararasasaRaRacacacacacafafaaaaaaaaaaaaaaaaaaaaaaaaaaaaaaaaaaaaaaaaaaaaaaaaaaaaaaaaaaaaaaaaaaaaaaaaaaaaaaaaaaaaaaaaaaaaaaaaaaaaaaaaaaaaaaaaaaaaaaaaaaaaaaaaaaaaaaaaaaaaaaaaaaaaaaaaaaaaaaaaaaaaaaamamamaIaIaFaFaFaFaDaDaDaDaDaDaDaDaDaDaDaDaDaDaDaDaDaDaDaDaDaDaDaDaDaDaDaEaEaaaaaeaeaIaIamamaaaaaaaaaaaaaaaaaaaa",
"aaaaaaaaaaaaaaaaaRaRaRahahaRaRazazasasaQaQarararararararararararararararararararararararararararararasasaRaRaGaGaGacacafafaaaaaaaaaaaaaaaaaaaaaaaaaaaaaaaaaaaaaaaaaaaaaaaaaaaaaaaaaaaaaaaaaaaaaaaaaaaaaaaaaaaaaaaaaaaaaaaaaaaaaaaaaaaaaaaaaaaaaaaaaaaaaaaaaaaaaaaaaaaaaaaaaaaaaaaaaaaaaaaaaaaaaaamamamaFaFaIaIaFaFaEaEaDaDaDaDaDaDaDaDaDaDaDaDaDaDaDaDaDaDaDaDaDaDaDaDaDaEaEaIaIaaaaamamadadaaaaaaaaaaaaaaaaaaaa",
"aaaaaaaaaaaaaaaaaRaRaRahahaRaRazazasasaQaQarararararararararararararararararararararararararararararasasaRaRaGaGaGacacafafaaaaaaaaaaaaaaaaaaaaaaaaaaaaaaaaaaaaaaaaaaaaaaaaaaaaaaaaaaaaaaaaaaaaaaaaaaaaaaaaaaaaaaaaaaaaaaaaaaaaaaaaaaaaaaaaaaaaaaaaaaaaaaaaaaaaaaaaaaaaaaaaaaaaaaaaaaaaaaaaaaaaaaamamamaFaFaIaIaFaFaEaEaDaDaDaDaDaDaDaDaDaDaDaDaDaDaDaDaDaDaDaDaDaDaDaDaDaEaEaIaIaaaaamamadadaaaaaaaaaaaaaaaaaaaa",
"aaaaaaaaaaaaaaaaaRaRaRaKaKaRaRa0a0asasaQaQararararararararararararararararararararaNaNarararararararaqaqaRaRaGaGaGacacafafaaaaaaaaaaaaaaaaaaaaaaaaaaaaaaaaaaaaaaaaaaaaaaaaaaaaaaaaaaaaaaaaaaaaaaaaaaaaaaaaaaaaaaaaaaaaaaaaaaaaaaaaaaaaaaaaaaaaaaaaaaaaaaaaaaaaaaaaaaaaaaaaaaaaaaaaaaaaaaaaaaaaaaamamamaFaFaFaFamamaFaFaFaFaFaFaFaFaFaFaFaFaFaFaFaFaFaFaFaFaFaFaFaFaFaFaFaFaFamamaBaBaFaFamamaaaaaaaaaaaaaaaaaaaa",
"aaaaaaaaaaaaaaaaaRaRaRaKaKaRaRa0a0asasaQaQararararararararararararararararararararaNaNarararararararaqaqaRaRaGaGaGacacafafaaaaaaaaaaaaaaaaaaaaaaaaaaaaaaaaaaaaaaaaaaaaaaaaaaaaaaaaaaaaaaaaaaaaaaaaaaaaaaaaaaaaaaaaaaaaaaaaaaaaaaaaaaaaaaaaaaaaaaaaaaaaaaaaaaaaaaaaaaaaaaaaaaaaaaaaaaaaaaaaaaaaaaamamamaFaFaFaFamamaFaFaFaFaFaFaFaFaFaFaFaFaFaFaFaFaFaFaFaFaFaFaFaFaFaFaFaFaFamamaBaBaFaFamamaaaaaaaaaaaaaaaaaaaa",
"aaaaaaaaaaaaaaaaaRaRaRaKaKaRaRacacasasa2a2arararararararararararararararararararararararararararararaqaqaRaRacacacacacafafaaaaaaaaaaaaaaaaaaaaaaaaaaaaaaaaaaaaaaaaaaaaaaaaaaaaaaaaaaaaaaaaaaaaaaaaaaaaaaaaaaaaaaaaaaaaaaaaaaaaaaaaaaaaaaaaaaaaaaaaaaaaaaaaaaaaaaaaaaaaaaaaaaaaaaaaaaaaaaaaaaaaaaaFaFaFaFaFamamadadaaaaaaaaaaaaaaaZaZaaaaaaaaaaaaaaaaaaaaaaaaaaaaaaaaaaaaaZaZamamaFaFaFaFamamaaaaaaaaaaaaaaaaaaaa",
"aaaaaaaaaaaaaaaaaRaRaRaKaKaRaRacacasasa2a2arararararararararararararararararararararararararararararaqaqaRaRacacacacacafafaaaaaaaaaaaaaaaaaaaaaaaaaaaaaaaaaaaaaaaaaaaaaaaaaaaaaaaaaaaaaaaaaaaaaaaaaaaaaaaaaaaaaaaaaaaaaaaaaaaaaaaaaaaaaaaaaaaaaaaaaaaaaaaaaaaaaaaaaaaaaaaaaaaaaaaaaaaaaaaaaaaaaaaFaFaFaFaFamamadadaaaaaaaaaaaaaaaZaZaaaaaaaaaaaaaaaaaaaaaaaaaaaaaaaaaaaaaZaZamamaFaFaFaFamamaaaaaaaaaaaaaaaaaaaa",
"aaaaaaaaaaaaaaaaaaaaaaaKaKaRaRananasasa2a2arararararararararawawararararararararararararararararararaxaxaTaTacacacaGaGafafaaaaaaaaaaaaaaaaaaaaaaaaaaaaaaaaaaaaaaaaaaaaaaaaaaaaaaaaaaaaaaaaaaaaaaaaaaaaaaaaaaaaaaaaaaaaaaaaaaaaaaaaaaaaaaaaaaaaaaaaaaaaaaaaaaaaaaaaaaaaaaaaaaaaaaaaaaaaaaaaaaaaaaamamamaFaFaFaFaaaaaiaiaBaBaBaBaBaBaBauauaBaBaiaiaiaeaeaBaBaeaeaeaeaiaiaialaladadaFaFaFaFaFaFaaaaaaaaaaaaaaaaaaaa",
"aaaaaaaaaaaaaaaaaaaaaaaKaKaRaRananasasa2a2arararararararararawawararararararararararararararararararaxaxaTaTacacacaGaGafafaaaaaaaaaaaaaaaaaaaaaaaaaaaaaaaaaaaaaaaaaaaaaaaaaaaaaaaaaaaaaaaaaaaaaaaaaaaaaaaaaaaaaaaaaaaaaaaaaaaaaaaaaaaaaaaaaaaaaaaaaaaaaaaaaaaaaaaaaaaaaaaaaaaaaaaaaaaaaaaaaaaaaaamamamaFaFaFaFaaaaaiaiaBaBaBaBaBaBaBauauaBaBaiaiaiaeaeaBaBaeaeaeaeaiaiaialaladadaFaFaFaFaFaFaaaaaaaaaaaaaaaaaaaa",
"aaaaaaaaaaaaaaaaaaaaaaaKaKaRaRananasasa2a2arararararararararawawararararararararararararararararararaxaxaTaTacacacaGaGafafaaaaaaaaaaaaaaaaaaaaaaaaaaaaaaaaaaaaaaaaaaaaaaaaaaaaaaaaaaaaaaaaaaaaaaaaaaaaaaaaaaaaaaaaaaaaaaaaaaaaaaaaaaaaaaaaaaaaaaaaaaaaaaaaaaaaaaaaaaaaaaaaaaaaaaaaaaaaaaaaaaaaaaamamamaFaFaFaFaaaaaiaiaBaBaBaBaBaBaBauauaBaBaiaiaiaeaeaBaBaeaeaeaeaiaiaialaladadaFaFaFaFaFaFaaaaaaaaaaaaaaaaaaaa",
"aaaaaaaaaaaaaaaaaRaRaRaKaKaRaRazazasasa2a2arararararararararararararararararararararararararararararasasaRaRaGaGaGacacayayaaaaaaaaaaaaaaaaaaaaaaaaaaaaaaaaaaaaaaaaaaaaaaaaaaaaaaaaaaaaaaaaaaaaaaaaaaaaaaaaaaaaaaaaaaaaaaaaaaaaaaaaaaaaaaaaaaaaaaaaaaaaaaaaaaaaaaaaaaaaaaaaaaaaaaaaaaaaaaaaaaaaaaaFaFaFamamamamaeaeaBaBaeaeaeaeaeaiaiafafaeaeaeaeaeaeaeadadadadaeaeadadadaBaBaIaIaFaFaEaEaFaFaaaaaaaaaaaaaaaaaaaa",
"aaaaaaaaaaaaaaaaaRaRaRaKaKaRaRazazasasa2a2arararararararararararararararararararararararararararararasasaRaRaGaGaGacacayayaaaaaaaaaaaaaaaaaaaaaaaaaaaaaaaaaaaaaaaaaaaaaaaaaaaaaaaaaaaaaaaaaaaaaaaaaaaaaaaaaaaaaaaaaaaaaaaaaaaaaaaaaaaaaaaaaaaaaaaaaaaaaaaaaaaaaaaaaaaaaaaaaaaaaaaaaaaaaaaaaaaaaaaFaFaFamamamamaeaeaBaBaeaeaeaeaeaiaiafafaeaeaeaeaeaeaeadadadadaeaeadadadaBaBaIaIaFaFaEaEaFaFaaaaaaaaaaaaaaaaaaaa",
"aaaaaaaaaaaaaaaaaRaRaRaKaKaRaRananasasasasaqaqaqa2a2aQaQaQaQawawa2a2a2a2a2awawa2a2a2a2a2a2a2a2a2asasaxaxaRaRahahahaGaGaxaxaaaaaaaaaaaaaaaaaaaaaaaaaaaaaaaaaaaaaaaaaaaaaaaaaaaaaaaaaaaaaaaaaaaaaaaaaaaaaaaaaaaaaaaaaaaaaaaaaaaaaaaaaaaaaaaaaaaaaaaaaaaaaaaaaaaaaaaaaaaaaaaaaaaaaaaaaaaaaaaaaaaaaaaFaFaFaWaWaFaFamamauauafafafaeaeaZaZadadaeaeaeaeaeadadaiaiaeaeaBaBaiaiaiaeaeaIaIaFaFaDaDaFaFaaaaaaaaaaaaaaaaaaaa",
"aaaaaaaaaaaaaaaaaRaRaRaKaKaRaRananasasasasaqaqaqa2a2aQaQaQaQawawa2a2a2a2a2awawa2a2a2a2a2a2a2a2a2asasaxaxaRaRahahahaGaGaxaxaaaaaaaaaaaaaaaaaaaaaaaaaaaaaaaaaaaaaaaaaaaaaaaaaaaaaaaaaaaaaaaaaaaaaaaaaaaaaaaaaaaaaaaaaaaaaaaaaaaaaaaaaaaaaaaaaaaaaaaaaaaaaaaaaaaaaaaaaaaaaaaaaaaaaaaaaaaaaaaaaaaaaaaFaFaFaWaWaFaFamamauauafafafaeaeaZaZadadaeaeaeaeaeadadaiaiaeaeaBaBaiaiaiaeaeaIaIaFaFaDaDaFaFaaaaaaaaaaaaaaaaaaaa",
"aaaaaaaaaaaaaaaaaRaRaRaMaMaRaRananaxaxasasaxaxaxasasasasasasaqaqasasasasasasasaqaqasasasasasaxaxasasayayaRaRacacacayayaxaxaaaaaaaaaaaaaaaaaaaaaaaaaaaaaaaaaaaaaaaaaaaaaaaaaaaaaaaaaaaaaaaaaaaaaaaaaaaaaaaaaaaaaaaaaaaaaaaaaaaaaaaaaaaaaaaaaaaaaaaaaaaaaaaaaaaaaaaaaaaaaaaaaaaaaaaaaaaaaaaaaaaaaaaFaFaFaDaDaFaFaaaaaZaZaaaaaaaaaaaaaaaaaaaaaaaZaZaZaaaaaaaaaZaZaaaaaaaaaaaIaIaFaFaFaFaEaEaFaFaZaZaZaaaaaaaaaaaaaa",
"aaaaaaaaaaaaaaaaaRaRaRaMaMaRaRananaxaxasasaxaxaxasasasasasasaqaqasasasasasasasaqaqasasasasasaxaxasasayayaRaRacacacayayaxaxaaaaaaaaaaaaaaaaaaaaaaaaaaaaaaaaaaaaaaaaaaaaaaaaaaaaaaaaaaaaaaaaaaaaaaaaaaaaaaaaaaaaaaaaaaaaaaaaaaaaaaaaaaaaaaaaaaaaaaaaaaaaaaaaaaaaaaaaaaaaaaaaaaaaaaaaaaaaaaaaaaaaaaaFaFaFaDaDaFaFaaaaaZaZaaaaaaaaaaaaaaaaaaaaaaaZaZaZaaaaaaaaaZaZaaaaaaaaaaaIaIaFaFaFaFaEaEaFaFaZaZaZaaaaaaaaaaaaaa",
"aaaaaaaaaaaaaaaaaRaRaRaxaxaRaRaRaRafafaxaxaRaRaRaRaRaRaRaTaTaRaRaRaRaRaRaRaRaRaRaRaRaRaRaRaRaTaTaRaRaxaxayayaRaRaRaxaxaxaxaaaaaaaaaaaaaaaaaaaaaaaaaaaaaaaaaaaaaaaaaaaaaaaaaaaaaaaaaaaaaaaaaaaaaaaaaaaaaaaaaaaaaaaaaaaaaaaaaaaaaaaaaaaaaaaaaaaaaaaaaaaaaaaaaaaaaaaaaaaaaaaaaaaaaaaaaaaaaaaaaaaaaaaFaFaFaDaDaFaFamamaiaiaBaBaBaeaeauauaeaeaZaZafafafauauaiaiaiaiaiaiadadadamamaFaFaFaFaEaEaFaFaaaaaaaaaaaaaaaaaaaa",
"aaaaaaaaaaaaaaaaaRaRaRaxaxaRaRaRaRafafaxaxaRaRaRaRaRaRaRaTaTaRaRaRaRaRaRaRaRaRaRaRaRaRaRaRaRaTaTaRaRaxaxayayaRaRaRaxaxaxaxaaaaaaaaaaaaaaaaaaaaaaaaaaaaaaaaaaaaaaaaaaaaaaaaaaaaaaaaaaaaaaaaaaaaaaaaaaaaaaaaaaaaaaaaaaaaaaaaaaaaaaaaaaaaaaaaaaaaaaaaaaaaaaaaaaaaaaaaaaaaaaaaaaaaaaaaaaaaaaaaaaaaaaaFaFaFaDaDaFaFamamaiaiaBaBaBaeaeauauaeaeaZaZafafafauauaiaiaiaiaiaiadadadamamaFaFaFaFaEaEaFaFaaaaaaaaaaaaaaaaaaaa",
"aaaaaaaaaaaaaaaaaaaaaaasasasasayayaRaRacacaGaGaGacacaKaKaGaGacacaGaGaGacacaKaKacaca5a5acacacaKaKaGaGaRaRayayaxaxaxasasaxaxaaaaaaaaaaaaaaaaaaaaaaaaaaaaaaaaaaaaaaaaaaaaaaaaaaaaaaaaaaaaaaaaaaaaaaaaaaaaaaaaaaaaaaaaaaaaaaaaaaaaaaaaaaaaaaaaaaaaaaaaaaaaaaaaaaaaaaaaaaaaaaaaaaaaaaaaaaaaaaaaaaaIaIaFaFaFaDaDaFaFaDaDaEaEaEaEaEamamaiaiaiaiaeaeamamamaeaeaeaeaiaiaEaEaDaDaDaDaDaDaDaFaFaEaEaFaFaaaaaaaaaaaaaaaaaaaa",
"aaaaaaaaaaaaaaaaaaaaaaasasasasayayaRaRacacaGaGaGacacaKaKaGaGacacaGaGaGacacaKaKacaca5a5acacacaKaKaGaGaRaRayayaxaxaxasasaxaxaaaaaaaaaaaaaaaaaaaaaaaaaaaaaaaaaaaaaaaaaaaaaaaaaaaaaaaaaaaaaaaaaaaaaaaaaaaaaaaaaaaaaaaaaaaaaaaaaaaaaaaaaaaaaaaaaaaaaaaaaaaaaaaaaaaaaaaaaaaaaaaaaaaaaaaaaaaaaaaaaaaIaIaFaFaFaDaDaFaFaDaDaEaEaEaEaEamamaiaiaiaiaeaeamamamaeaeaeaeaiaiaEaEaDaDaDaDaDaDaDaFaFaEaEaFaFaaaaaaaaaaaaaaaaaaaa",
"aaaaaaaaaaaaaaaaaaaaaaasasasasayayaRaRacacaGaGaGacacaKaKaGaGacacaGaGaGacacaKaKacaca5a5acacacaKaKaGaGaRaRayayaxaxaxasasaxaxaaaaaaaaaaaaaaaaaaaaaaaaaaaaaaaaaaaaaaaaaaaaaaaaaaaaaaaaaaaaaaaaaaaaaaaaaaaaaaaaaaaaaaaaaaaaaaaaaaaaaaaaaaaaaaaaaaaaaaaaaaaaaaaaaaaaaaaaaaaaaaaaaaaaaaaaaaaaaaaaaaaIaIaFaFaFaDaDaFaFaDaDaEaEaEaEaEamamaiaiaiaiaeaeamamamaeaeaeaeaiaiaEaEaDaDaDaDaDaDaDaFaFaEaEaFaFaaaaaaaaaaaaaaaaaaaa",
"aaaaaaaaaaaaaaaaaPaPaPaqaqasasaxaxaRaRaGaGaKaKaKaGaGacacaKaKacacaKaKaKazazaGaGaGaGaKaKaGaGaGacacaKaKaRaRayayaxaxaxararaxaxaVaVaaaaaaaaaaaaaaaaaaaaaaaaaaaaaaaaaaaaaaaaaaaaaaaaaaaaaaaaaaaaaaaaaaaaaaaaaaaaaaaaaaaaaaaaaaaaaaaaaaaaaaaaaaaaaaaaaaaaaaaaaaaaaaaaaaaaaaaaaaaaaaaaaaaaaaaaaaaaaaaIaIaFaFaFaEaEaWaWaDaDaEaEaEaEaEaEaEadadadadaFaFaEaEaEaFaFaBaBaiaiaEaEaDaDaDaDaDaDaDaWaWaEaEaFaFaaaaaaaaaaaaaaaaaaaa",
"aaaaaaaaaaaaaaaaaPaPaPaqaqasasaxaxaRaRaGaGaKaKaKaGaGacacaKaKacacaKaKaKazazaGaGaGaGaKaKaGaGaGacacaKaKaRaRayayaxaxaxararaxaxaVaVaaaaaaaaaaaaaaaaaaaaaaaaaaaaaaaaaaaaaaaaaaaaaaaaaaaaaaaaaaaaaaaaaaaaaaaaaaaaaaaaaaaaaaaaaaaaaaaaaaaaaaaaaaaaaaaaaaaaaaaaaaaaaaaaaaaaaaaaaaaaaaaaaaaaaaaaaaaaaaaIaIaFaFaFaEaEaWaWaDaDaEaEaEaEaEaEaEadadadadaFaFaEaEaEaFaFaBaBaiaiaEaEaDaDaDaDaDaDaDaWaWaEaEaFaFaaaaaaaaaaaaaaaaaaaa",
"aaaaaaaaaaaaaaaaayayayararaqaqaxaxaxaxaKaKazazazacacacacazazaKaKaGaGaGacacacaca5a5aGaGacacacaGaGaGaGaxaxaRaRaxaxaxararaxaxaMaMaaaaaaaaaaaaaaaaaaaaaaaaaaaaaaaaaaaaaaaaaaaaaaaaaaaaaaaaaaaaaaaaaaaaaaaaaaaaaaaaaaaaaaaaaaaaaaaaaaaaaaaaaaaaaaaaaaaaaaaaaaaaaaaaaaaaaaaaaaaaaaaaaaaaaaaaaaaaaaaaaaaFaFaFaDaDaFaFaDaDaCaCaDaDaDaDaDaeaeaiaiaJaJaDaDaDaFaFaiaiauauaEaEaCaCaCaCaCaDaDaWaWaEaEaFaFaaaaaaaaaaaaaaaaaaaa",
"aaaaaaaaaaaaaaaaayayayararaqaqaxaxaxaxaKaKazazazacacacacazazaKaKaGaGaGacacacaca5a5aGaGacacacaGaGaGaGaxaxaRaRaxaxaxararaxaxaMaMaaaaaaaaaaaaaaaaaaaaaaaaaaaaaaaaaaaaaaaaaaaaaaaaaaaaaaaaaaaaaaaaaaaaaaaaaaaaaaaaaaaaaaaaaaaaaaaaaaaaaaaaaaaaaaaaaaaaaaaaaaaaaaaaaaaaaaaaaaaaaaaaaaaaaaaaaaaaaaaaaaaFaFaFaDaDaFaFaDaDaCaCaDaDaDaDaDaeaeaiaiaJaJaDaDaDaFaFaiaiauauaEaEaCaCaCaCaCaDaDaWaWaEaEaFaFaaaaaaaaaaaaaaaaaaaa",
"aaaaaaaaaaaaaaaaayayayararararasasaGaGaGaGaGaGaGaKaKaGaGaKaKazazacacacacacaKaKa6a6aGaGaGaGaGaKaKacacaGaGaRaRaxaxaxararaxaxafafaaaaaaaaaaaaaaaaaaaaaaaaaaaaaaaaaaaaaaaaaaaaaaaaaaaaaaaaaaaaaaaaaaaaaaaaaaaaaaaaaaaaaaaaaaaaaaaaaaaaaaaaaaaaaaaaaaaaaaaaaaaaaaaaaaaaaaaaaaaaaaaaaaaaaaaaaaaaaaaIaIaFaFaFa3a3aFaFaEaEaDaDaDaDaDaDaDadadaBaBaeaeaEaEaEaFaFaBaBaiaiaEaEaCaCaCaDaDaDaDaFaFaEaEaFaFaZaZaZaaaaaaaaaaaaaa",
"aaaaaaaaaaaaaaaaayayayararararasasaGaGaGaGaGaGaGaKaKaGaGaKaKazazacacacacacaKaKa6a6aGaGaGaGaGaKaKacacaGaGaRaRaxaxaxararaxaxafafaaaaaaaaaaaaaaaaaaaaaaaaaaaaaaaaaaaaaaaaaaaaaaaaaaaaaaaaaaaaaaaaaaaaaaaaaaaaaaaaaaaaaaaaaaaaaaaaaaaaaaaaaaaaaaaaaaaaaaaaaaaaaaaaaaaaaaaaaaaaaaaaaaaaaaaaaaaaaaaIaIaFaFaFa3a3aFaFaEaEaDaDaDaDaDaDaDadadaBaBaeaeaEaEaEaFaFaBaBaiaiaEaEaCaCaCaDaDaDaDaFaFaEaEaFaFaZaZaZaaaaaaaaaaaaaa",
"aaaaaaaaaaaaaaaaayayayararawawasasaRaRaRaRaGaGaGaKaKacacaKaKaGaGaGaGaGa5a5aGaGaGaGaKaKazazazaKaKa1a1aTaTaxaxaxaxaxararaxaxafafaaaaaaaaaaaaaaaaaaaaaaaaaaaaaaaaaaaaaaaaaaaaaaaaaaaaaaaaaaaaaaaaaaaaaaaaaaaaaaaaaaaaaaaaaaaaaaaaaaaaaaaaaaaaaaaaaaaaaaaaaaaaaaaaaaaaaaaaaaaaaaaaaaaaaaaaaaaaaaaaaaamamamamamaFaFamamamamamamamamamaBaBaeaeaBaBamamamaBaBaBaBaeaeamamaEaEaEaDaDaEaEaFaFamamamamaaaaaaaaaaaaaaaaaaaa",
"aaaaaaaaaaaaaaaaayayayararawawasasaRaRaRaRaGaGaGaKaKacacaKaKaGaGaGaGaGa5a5aGaGaGaGaKaKazazazaKaKa1a1aTaTaxaxaxaxaxararaxaxafafaaaaaaaaaaaaaaaaaaaaaaaaaaaaaaaaaaaaaaaaaaaaaaaaaaaaaaaaaaaaaaaaaaaaaaaaaaaaaaaaaaaaaaaaaaaaaaaaaaaaaaaaaaaaaaaaaaaaaaaaaaaaaaaaaaaaaaaaaaaaaaaaaaaaaaaaaaaaaaaaaaamamamamamaFaFamamamamamamamamamaBaBaeaeaBaBamamamaBaBaBaBaeaeamamaEaEaEaDaDaEaEaFaFamamamamaaaaaaaaaaaaaaaaaaaa",
"aaaaaaaaaaaaaaaaayayayararaOaOaqaqaUaUararaTaTaTaTaTaTaTaTaTaTaTaTaTaTaTaTaTaTaTaTaTaTaTaTaTaTaTaTaTaUaUaKaKasasasararaxaxafafaaaaaaaaaaaaaaaaaaaaaaaaaaaaaaaaaaaaaaaaaaaaaaaaaaaaaaaaaaaaaaaaaaaaaaaaaaaaaaaaaaaaaaaaaaaaaaaaaaaaaaaaaaaaaaaaaaaaaaaaaaaaaaaaaaaaaaaaaaaaaaaaaaaaaaaaaaaaaaaaaaamamamaeaeaIaIaIaIaIaIaaaaaaaaaaaaaaaaaaaaaaaaaaaaaaaaaaaaaaaaaZaZaIaIaIaIaIaIaIaIaIaIaIamamaaaaaaaaaaaaaaaaaaaa",
"aaaaaaaaaaaaaaaaayayayararaOaOaqaqaUaUararaTaTaTaTaTaTaTaTaTaTaTaTaTaTaTaTaTaTaTaTaTaTaTaTaTaTaTaTaTaUaUaKaKasasasararaxaxafafaaaaaaaaaaaaaaaaaaaaaaaaaaaaaaaaaaaaaaaaaaaaaaaaaaaaaaaaaaaaaaaaaaaaaaaaaaaaaaaaaaaaaaaaaaaaaaaaaaaaaaaaaaaaaaaaaaaaaaaaaaaaaaaaaaaaaaaaaaaaaaaaaaaaaaaaaaaaaaaaaaamamamaeaeaIaIaIaIaIaIaaaaaaaaaaaaaaaaaaaaaaaaaaaaaaaaaaaaaaaaaZaZaIaIaIaIaIaIaIaIaIaIaIamamaaaaaaaaaaaaaaaaaaaa",
"aaaaaaaaaaaaaaaaayayayararaOaOaqaqaUaUararaTaTaTaTaTaTaTaTaTaTaTaTaTaTaTaTaTaTaTaTaTaTaTaTaTaTaTaTaTaUaUaKaKasasasararaxaxafafaaaaaaaaaaaaaaaaaaaaaaaaaaaaaaaaaaaaaaaaaaaaaaaaaaaaaaaaaaaaaaaaaaaaaaaaaaaaaaaaaaaaaaaaaaaaaaaaaaaaaaaaaaaaaaaaaaaaaaaaaaaaaaaaaaaaaaaaaaaaaaaaaaaaaaaaaaaaaaaaaaamamamaeaeaIaIaIaIaIaIaaaaaaaaaaaaaaaaaaaaaaaaaaaaaaaaaaaaaaaaaZaZaIaIaIaIaIaIaIaIaIaIaIamamaaaaaaaaaaaaaaaaaaaa",
"aaaaaaaaaaaaaVaVayayayararaQaQaqaqararararararararararararararararararararararaUaUarararararararararaUaUararaqaqaqararasasayayaaaaaaaaaaaaaaaaaaaaaaaaaaaaaaaaaaaaaaaaaaaaaaaaaaaaaaaaaaaaaaaaaaaaaaaaaaaaaaaaaaaaaaaaaaaaaaaaaaaaaaaaaaaaaaaaaaaaaaaaaaaaaaaaaaaaaaaaaaaaaaaaaaaaaaaaaaaaaaaaaaafafafaaaaaeaeaiaialalauauauauauauauauauauauauauauauauauauauauaeaeauauauaiaiaiaiaiaiaIaIaBaBaaaaaaaaaaaaaaaaaaaa",
"aaaaaaaaaaaaaVaVayayayararaQaQaqaqararararararararararararararararararararararaUaUarararararararararaUaUararaqaqaqararasasayayaaaaaaaaaaaaaaaaaaaaaaaaaaaaaaaaaaaaaaaaaaaaaaaaaaaaaaaaaaaaaaaaaaaaaaaaaaaaaaaaaaaaaaaaaaaaaaaaaaaaaaaaaaaaaaaaaaaaaaaaaaaaaaaaaaaaaaaaaaaaaaaaaaaaaaaaaaaaaaaaaaafafafaaaaaeaeaiaialalauauauauauauauauauauauauauauauauauauauauaeaeauauauaiaiaiaiaiaiaIaIaBaBaaaaaaaaaaaaaaaaaaaa",
"aaaaaaaaaaaaaaaaayayayararaOaOaqaqarararararararararararararararararararararararararararararararararararararaqaqaqararaxaxafafaaaaaaaaaaaaaaaaaaaaaaaaaaaaaaaaaaaaaaaaaaaaaaaaaaaaaaaaaaaaaaaaaaaaaaaaaaaaaaaaaaaaaaaaaaaaaaaaaaaaaaaaaaaaaaaaaaaaaaaaaaaaaaaaaaaaaaaaaaaaaaaaaaaaaaaaaaaaaaaaaaafafafaaaaaaaaaaaaaaaaaaaaaaaaaaaaaaaaaaaaaaaaaaaaaaaaaaaaaaaaaaaaaaaaaaaaaaaaaaaaaaaIaIaiaiaaaaaaaaaaaaaaaaaaaa",
"aaaaaaaaaaaaaaaaayayayararaOaOaqaqarararararararararararararararararararararararararararararararararararararaqaqaqararaxaxafafaaaaaaaaaaaaaaaaaaaaaaaaaaaaaaaaaaaaaaaaaaaaaaaaaaaaaaaaaaaaaaaaaaaaaaaaaaaaaaaaaaaaaaaaaaaaaaaaaaaaaaaaaaaaaaaaaaaaaaaaaaaaaaaaaaaaaaaaaaaaaaaaaaaaaaaaaaaaaaaaaaafafafaaaaaaaaaaaaaaaaaaaaaaaaaaaaaaaaaaaaaaaaaaaaaaaaaaaaaaaaaaaaaaaaaaaaaaaaaaaaaaaIaIaiaiaaaaaaaaaaaaaaaaaaaa",
"aaaaaaaaaaaaaaaaayayayararaOaOaqaqarararararararararararararararararararararararararararararararararararararapapapararaxaxafafaaaaaaaaaaaaaaaaaaaaaaaaaaaaaaaaaaaaaaaaaaaaaaaaaaaaaaaaaaaaaaaaaaaaaaaaaaaaaaaaaaaaaaaaaaaaaaaaaaaaaaaaaaaaaaaaaaaaaaaaaaaaaaaaaaaaaaaaaaaaaaaaaaaaaaaaaaaaaaaaaaaaaaaaafafadadadadadadadadadaBaBaZaZaaaaaaaaaaaaaaaaaaaaaaaZaZaBaBaeaeaeaeaeaiaiaeaeaeaeaaaaaaaaaaaZaZaaaaaaaaaa",
"aaaaaaaaaaaaaaaaayayayararaOaOaqaqarararararararararararararararararararararararararararararararararararararapapapararaxaxafafaaaaaaaaaaaaaaaaaaaaaaaaaaaaaaaaaaaaaaaaaaaaaaaaaaaaaaaaaaaaaaaaaaaaaaaaaaaaaaaaaaaaaaaaaaaaaaaaaaaaaaaaaaaaaaaaaaaaaaaaaaaaaaaaaaaaaaaaaaaaaaaaaaaaaaaaaaaaaaaaaaaaaaaaafafadadadadadadadadadaBaBaZaZaaaaaaaaaaaaaaaaaaaaaaaZaZaBaBaeaeaeaeaeaiaiaeaeaeaeaaaaaaaaaaaZaZaaaaaaaaaa",
"aaaaaaaaaaaaaaaaayayayararaQaQaqaqarararararararararararararararararararararararararararararararararararararaqaqaqararaxaxafafaaaaaaaaaaaaaaaaaaaaaaaaaaaaaaaaaaaaaaaaaaaaaaaaaaaaaaaaaaaaaaaaaaaaaaaaaaaaaaaaaaaaaaaaaaaaaaaaaaaaaaaaaaaaaaaaaaaaaaaaaaaaaaaaaaaaaaaaaaaaaaaaaaaaaaaaaaaaaaaaaaaaaaaaaZaZaBaBafafaiaiaeaeaeaBaBaiaiaiaiaeaeaBaBaBaiaiauauaiaiadadaBaBaBaeaeaBaBaeaeaZaZaaaaaaaaaaaaaaaaaaaaaaaa",
"aaaaaaaaaaaaaaaaayayayararaQaQaqaqarararararararararararararararararararararararararararararararararararararaqaqaqararaxaxafafaaaaaaaaaaaaaaaaaaaaaaaaaaaaaaaaaaaaaaaaaaaaaaaaaaaaaaaaaaaaaaaaaaaaaaaaaaaaaaaaaaaaaaaaaaaaaaaaaaaaaaaaaaaaaaaaaaaaaaaaaaaaaaaaaaaaaaaaaaaaaaaaaaaaaaaaaaaaaaaaaaaaaaaaaZaZaBaBafafaiaiaeaeaeaBaBaiaiaiaiaeaeaBaBaBaiaiauauaiaiadadaBaBaBaeaeaBaBaeaeaZaZaaaaaaaaaaaaaaaaaaaaaaaa",
"aaaaaaaaaaaaaaaaayayayararaQaQasasarararararararararararararararararararararararararararararararararaUaUararaqaqaqawawaxaxaMaMaaaaaaaaaaaaaaaaaaaaaaaaaaaaaaaaaaaaaaaaaaaaaaaaaaaaaaaaaaaaaaaaaaaaaaaaaaaaaaaaaaaaaaaaaaaaaaaaaaaaaaaaaaaaaaaaaaaaaaaaaaaaaaaaaaaaaaaaaaaaaaaaaaaaaaaaaaaaaaaZaZaaaaaaaaaaaaaaaaaaaaaaaaaaaaaaaaaaaaaaaaaaaaaaaaaaaaaaaaaaaaaaaaaaaaaaaaaaaaaaaaaaaaaaaaaaaaaZaZaZaaaaaZaZaaaaaa",
"aaaaaaaaaaaaaaaaayayayararaQaQasasarararararararararararararararararararararararararararararararararaUaUararaqaqaqawawaxaxaMaMaaaaaaaaaaaaaaaaaaaaaaaaaaaaaaaaaaaaaaaaaaaaaaaaaaaaaaaaaaaaaaaaaaaaaaaaaaaaaaaaaaaaaaaaaaaaaaaaaaaaaaaaaaaaaaaaaaaaaaaaaaaaaaaaaaaaaaaaaaaaaaaaaaaaaaaaaaaaaaaZaZaaaaaaaaaaaaaaaaaaaaaaaaaaaaaaaaaaaaaaaaaaaaaaaaaaaaaaaaaaaaaaaaaaaaaaaaaaaaaaaaaaaaaaaaaaaaaZaZaZaaaaaZaZaaaaaa",
"aaaaaaaaaaaaaaaaayayayararaQaQasasarararararararararararararararararararararararararararararararararaUaUararaqaqaqawawaxaxaMaMaaaaaaaaaaaaaaaaaaaaaaaaaaaaaaaaaaaaaaaaaaaaaaaaaaaaaaaaaaaaaaaaaaaaaaaaaaaaaaaaaaaaaaaaaaaaaaaaaaaaaaaaaaaaaaaaaaaaaaaaaaaaaaaaaaaaaaaaaaaaaaaaaaaaaaaaaaaaaaaZaZaaaaaaaaaaaaaaaaaaaaaaaaaaaaaaaaaaaaaaaaaaaaaaaaaaaaaaaaaaaaaaaaaaaaaaaaaaaaaaaaaaaaaaaaaaaaaZaZaZaaaaaZaZaaaaaa",
"aaaaaaaaaaaaaaaaaRaRaRararawawaqaqaUaUaUaUaUaUaUaUaUaUaUaUaUaUaUaUaUaUaUaUaUaUaUaUarararararararaUaUaUaUaKaKasasasararaxaxaaaaaaaaaaaaaaaaaaaaaaaaaaaaaaaaaaaaaaaaaaaaaaaaaaaaaaaaaaaaaaaaaaaaaaaaaaaaaaaaaaaaaaaaaaaaaaaaaaaaaaaaaaaaaaaaaaaaaaaaaaaaaaaaaaaaaaaaaaaaaaaaaaaaaaaaaaaaaaaaaaaaaaaaaaaaaaaaaaaaaaaaaaaaaaaaaaaaaaaaaaaaaaaaaaaaaaaaaaaaaaaaaaaaaaaaaaaaaaaaaaaaaaaaaaaZaZaaaaaaaaaaaaaaaaaaaaaaaa",
"aaaaaaaaaaaaaaaaaRaRaRararawawaqaqaUaUaUaUaUaUaUaUaUaUaUaUaUaUaUaUaUaUaUaUaUaUaUaUarararararararaUaUaUaUaKaKasasasararaxaxaaaaaaaaaaaaaaaaaaaaaaaaaaaaaaaaaaaaaaaaaaaaaaaaaaaaaaaaaaaaaaaaaaaaaaaaaaaaaaaaaaaaaaaaaaaaaaaaaaaaaaaaaaaaaaaaaaaaaaaaaaaaaaaaaaaaaaaaaaaaaaaaaaaaaaaaaaaaaaaaaaaaaaaaaaaaaaaaaaaaaaaaaaaaaaaaaaaaaaaaaaaaaaaaaaaaaaaaaaaaaaaaaaaaaaaaaaaaaaaaaaaaaaaaaaaZaZaaaaaaaaaaaaaaaaaaaaaaaa",
"aaaaaaaaaaaaaaaaaRaRaRaqaqaqaqaTaTaTaTaTaTaTaTaTaTaTaTaTaTaTaTaTaTaTaTaTaTaTaTaTaTaTaTaTaTaTaTaTaTaTaTaTaTaTaTaTaTararaxaxaaaaaaaaaaaaaaaaaaaaaaaaaaaaaaaaaaaaaaaaaaaaaaaaaaaaaaaaaaaaaaaaaaaaaaaaaaaaaaaaaaaaaaaaaaaaaaaaaaaaaaaaaaaaaaaaaaaaaaaaaaaaaaaaaaaaaaaaaaaaaaaaaaaaaaaaaaaaaaaaaaaaaaaaaaaaaaaaaaaaaaaaaaaaaaaaaaaaaaaaaaaaaaaaaaaaaaaaaaaaaaaaaaaaaaaaaaaaaaaaaaaaaaaaaaaaaaaaaaaaaaaaaaaaaaaaaaaaaa",
"aaaaaaaaaaaaaaaaaRaRaRaqaqaqaqaTaTaTaTaTaTaTaTaTaTaTaTaTaTaTaTaTaTaTaTaTaTaTaTaTaTaTaTaTaTaTaTaTaTaTaTaTaTaTaTaTaTararaxaxaaaaaaaaaaaaaaaaaaaaaaaaaaaaaaaaaaaaaaaaaaaaaaaaaaaaaaaaaaaaaaaaaaaaaaaaaaaaaaaaaaaaaaaaaaaaaaaaaaaaaaaaaaaaaaaaaaaaaaaaaaaaaaaaaaaaaaaaaaaaaaaaaaaaaaaaaaaaaaaaaaaaaaaaaaaaaaaaaaaaaaaaaaaaaaaaaaaaaaaaaaaaaaaaaaaaaaaaaaaaaaaaaaaaaaaaaaaaaaaaaaaaaaaaaaaaaaaaaaaaaaaaaaaaaaaaaaaaaa",
"aaaaaaaaaaaaaVaVaaaaaaaKaKaTaTaKaKaUaUarararararararararararararararararararararararararararararaqaqaqaqaqaqaqaqaqaKaKayayaaaaaaaaaaaaaaaaaaaaaaaaaaaaaaaaaaaaaaaaaaaaaaaaaaaaaaaaaaaaaaaaaaaaaaaaaaaaaaaaaaaaaaaaaaaaaaaaaaaaaaaaaaaaaaaaaaaaaaaaaaaaaaaaaaaaaaaaaaaaaaaaaaaaaaaaaaaaaaaaaaaaaaaaaaaaaaaaaaaaaaaaaaaaaaaaaaaaaaaaaaaaaaaaaaaaaaaaaaaaaaaaaaaaaaaaaaaaaaaaaaaaaaaaaaaaaaaaaaaaaaaaaaaaaaaaaaaaaa",
"aaaaaaaaaaaaaVaVaaaaaaaKaKaTaTaKaKaUaUarararararararararararararararararararararararararararararaqaqaqaqaqaqaqaqaqaKaKayayaaaaaaaaaaaaaaaaaaaaaaaaaaaaaaaaaaaaaaaaaaaaaaaaaaaaaaaaaaaaaaaaaaaaaaaaaaaaaaaaaaaaaaaaaaaaaaaaaaaaaaaaaaaaaaaaaaaaaaaaaaaaaaaaaaaaaaaaaaaaaaaaaaaaaaaaaaaaaaaaaaaaaaaaaaaaaaaaaaaaaaaaaaaaaaaaaaaaaaaaaaaaaaaaaaaaaaaaaaaaaaaaaaaaaaaaaaaaaaaaaaaaaaaaaaaaaaaaaaaaaaaaaaaaaaaaaaaaaa",
"aaaaaaaaaaaaaaaaaaaaaaayayaRaRacacaKaKaUaUaUaUaUararararararararararararararararararararararararaUaUaqaqaKaKaqaqaqayayayayaRaRaaaaaaaaaaaaaaaaaaaaaaaaaaaaaaaaaaaaaaaaaaaaaaaaaaaaaaaaaaaaaaaaaaaaaaaaaaaaaaaaaaaaaaaaaaaaaaaaaaaaaaaaaaaaaaaaaaaaaaaaaaaaaaaaaaaaaaaaaaaaaaaaaaaaaaaaaaaaaaaaaaaaaaaaaaaaaaaaaaaaaaaaaaaaaaaaaaaaaaaaaaaaaaaaaaaaaaaaaaaaaaaaaaaaaaaaaaaaaaaaaaaaaaaaaaaaaaaaaaaaaaaaaaaaaaaaaa",
"aaaaaaaaaaaaaaaaaaaaaaayayaRaRacacaKaKaUaUaUaUaUararararararararararararararararararararararararaUaUaqaqaKaKaqaqaqayayayayaRaRaaaaaaaaaaaaaaaaaaaaaaaaaaaaaaaaaaaaaaaaaaaaaaaaaaaaaaaaaaaaaaaaaaaaaaaaaaaaaaaaaaaaaaaaaaaaaaaaaaaaaaaaaaaaaaaaaaaaaaaaaaaaaaaaaaaaaaaaaaaaaaaaaaaaaaaaaaaaaaaaaaaaaaaaaaaaaaaaaaaaaaaaaaaaaaaaaaaaaaaaaaaaaaaaaaaaaaaaaaaaaaaaaaaaaaaaaaaaaaaaaaaaaaaaaaaaaaaaaaaaaaaaaaaaaaaaaa",
"aaaaaaaaaaaaaaaaaaaaaaaRaRaMaMayayaBaBaiaiaeaeaeaBaBaMaMaMaMaMaMaMaMaMaMaMaMaMaMaMaMaMaBaBaBakakadadaiaiaeaeaBaBaBaaaaauauaaaaaaaaaaaaaaaaaaaaaaaaaaaaaaaaaaaaaaaaaaaaaaaaaaaaaaaaaaaaaaaaaaaaaaaaaaaaaaaaaaaaaaaaaaaaaaaaaaaaaaaaaaaaaaaaaaaaaaaaaaaaaaaaaaaaaaaaaaaaaaaaaaaaaaaaaaaaaaaaaaaaaaaaaaaaaaaaaaaaaaaaaaaaaaaaaaaaaaaaaaaaaaaaaaaaaaaaaaaaaaaaaaaaaaaaaaaaaaaaaaaaaaaaaaaaaaaaaaaaaaaaaaaaaaaaaaaaaa",
"aaaaaaaaaaaaaaaaaaaaaaaRaRaMaMayayaBaBaiaiaeaeaeaBaBaMaMaMaMaMaMaMaMaMaMaMaMaMaMaMaMaMaBaBaBakakadadaiaiaeaeaBaBaBaaaaauauaaaaaaaaaaaaaaaaaaaaaaaaaaaaaaaaaaaaaaaaaaaaaaaaaaaaaaaaaaaaaaaaaaaaaaaaaaaaaaaaaaaaaaaaaaaaaaaaaaaaaaaaaaaaaaaaaaaaaaaaaaaaaaaaaaaaaaaaaaaaaaaaaaaaaaaaaaaaaaaaaaaaaaaaaaaaaaaaaaaaaaaaaaaaaaaaaaaaaaaaaaaaaaaaaaaaaaaaaaaaaaaaaaaaaaaaaaaaaaaaaaaaaaaaaaaaaaaaaaaaaaaaaaaaaaaaaaaaaa",
"aaaaaaaaaaaaaaaaaaaaaaaRaRaMaMayayaBaBaiaiaeaeaeaBaBaMaMaMaMaMaMaMaMaMaMaMaMaMaMaMaMaMaBaBaBakakadadaiaiaeaeaBaBaBaaaaauauaaaaaaaaaaaaaaaaaaaaaaaaaaaaaaaaaaaaaaaaaaaaaaaaaaaaaaaaaaaaaaaaaaaaaaaaaaaaaaaaaaaaaaaaaaaaaaaaaaaaaaaaaaaaaaaaaaaaaaaaaaaaaaaaaaaaaaaaaaaaaaaaaaaaaaaaaaaaaaaaaaaaaaaaaaaaaaaaaaaaaaaaaaaaaaaaaaaaaaaaaaaaaaaaaaaaaaaaaaaaaaaaaaaaaaaaaaaaaaaaaaaaaaaaaaaaaaaaaaaaaaaaaaaaaaaaaaaaaa",
"aaaaaaaaaaaaaaaaaVaVaVaMaMaPaPagagaHaHaHaHaHaHaHaoaoaeaeaMaMaMaMaeaeaeaMaMaMaMaMaMadadagagagahahatatagagagagaHaHaHaeaeaZaZaaaaaaaaaaaaaaaaaaaaaaaaaaaaaaaaaaaaaaaaaaaaaaaaaaaaaaaaaaaaaaaaaaaaaaaaaaaaaaaaaaaaaaaaaaaaaaaaaaaaaaaaaaaaaaaaaaaaaaaaaaaaaaaaaaaaaaaaaaaaaaaaaaaaaaaaaaaaaaaaaaaaaaaaaaaaaaaaaaaaaaaaaaaaaaaaaaaaaaaaaaaaaaaaaaaaaaaaaaaaaaaaaaaaaaaaaaaaaaaaaaaaaaaaaaaaaaaaaaaaaaaaaaaaaaaaaaaaaa",
"aaaaaaaaaaaaaaaaaVaVaVaMaMaPaPagagaHaHaHaHaHaHaHaoaoaeaeaMaMaMaMaeaeaeaMaMaMaMaMaMadadagagagahahatatagagagagaHaHaHaeaeaZaZaaaaaaaaaaaaaaaaaaaaaaaaaaaaaaaaaaaaaaaaaaaaaaaaaaaaaaaaaaaaaaaaaaaaaaaaaaaaaaaaaaaaaaaaaaaaaaaaaaaaaaaaaaaaaaaaaaaaaaaaaaaaaaaaaaaaaaaaaaaaaaaaaaaaaaaaaaaaaaaaaaaaaaaaaaaaaaaaaaaaaaaaaaaaaaaaaaaaaaaaaaaaaaaaaaaaaaaaaaaaaaaaaaaaaaaaaaaaaaaaaaaaaaaaaaaaaaaaaaaaaaaaaaaaaaaaaaaaaa",
"aaaaaaaaaaaaaZaZaaaaaaaeaeaeaeaaaaaRaRaVaVaPaPaPaMaMaMaMaMaMaMaMaMaMaMaMaMaMaMaMaMaMaMaBaBaBaaaaaZaZaaaaaaaaaZaZaZauauaaaaaaaaaaaaaaaaaaaaaaaaaaaaaaaaaaaaaaaaaaaaaaaaaaaaaaaaaaaaaaaaaaaaaaaaaaaaaaaaaaaaaaaaaaaaaaaaaaaaaaaaaaaaaaaaaaaaaaaaaaaaaaaaaaaaaaaaaaaaaaaaaaaaaaaaaaaaaaaaaaaaaaaaaaaaaaaaaaaaaaaaaaaaaaaaaaaaaaaaaaaaaaaaaaaaaaaaaaaaaaaaaaaaaaaaaaaaaaaaaaaaaaaaaaaaaaaaaaaaaaaaaaaaaaaaaaaaaaaaaa",
"aaaaaaaaaaaaaZaZaaaaaaaeaeaeaeaaaaaRaRaVaVaPaPaPaMaMaMaMaMaMaMaMaMaMaMaMaMaMaMaMaMaMaMaBaBaBaaaaaZaZaaaaaaaaaZaZaZauauaaaaaaaaaaaaaaaaaaaaaaaaaaaaaaaaaaaaaaaaaaaaaaaaaaaaaaaaaaaaaaaaaaaaaaaaaaaaaaaaaaaaaaaaaaaaaaaaaaaaaaaaaaaaaaaaaaaaaaaaaaaaaaaaaaaaaaaaaaaaaaaaaaaaaaaaaaaaaaaaaaaaaaaaaaaaaaaaaaaaaaaaaaaaaaaaaaaaaaaaaaaaaaaaaaaaaaaaaaaaaaaaaaaaaaaaaaaaaaaaaaaaaaaaaaaaaaaaaaaaaaaaaaaaaaaaaaaaaaaaaa",
"aaaaaaaaaaaaaaaaaaaaaaaaaaaaaaaaaaaaaaaaaaaaaaaaaaaaaaaaaaaaaaaaaaaaaaaaaaaaaaaaaaaaaaaaaaaaaaaaaRaRaRaRaaaaaaaaaaaaaaaaaaaaaaaaaaaaaaaaaaaaaaaaaaaaaaaaaaaaaaaaaaaaaaaaaaaaaaaaaaaaaaaaaaaaaaaaaaaaaaaaaaaaaaaaaaaaaaaaaaaaaaaaaaaaaaaaaaaaaaaaaaaaaaaaaaaaaaaaaaaaaaaaaaaaaaaaaaaaaaaaaaaaaaaaaaaaaaaaaaaaaaaaaaaaaaaaaaaaaaaaaaaaaaaaaaaaaaaaaaaaaaaaaaaaaaaaaaaaaaaaaaaaaaaaaaaaaaaaaaaaaaaaaaaaaaaaaaaaaaaa",
"aaaaaaaaaaaaaaaaaaaaaaaaaaaaaaaaaaaaaaaaaaaaaaaaaaaaaaaaaaaaaaaaaaaaaaaaaaaaaaaaaaaaaaaaaaaaaaaaaRaRaRaRaaaaaaaaaaaaaaaaaaaaaaaaaaaaaaaaaaaaaaaaaaaaaaaaaaaaaaaaaaaaaaaaaaaaaaaaaaaaaaaaaaaaaaaaaaaaaaaaaaaaaaaaaaaaaaaaaaaaaaaaaaaaaaaaaaaaaaaaaaaaaaaaaaaaaaaaaaaaaaaaaaaaaaaaaaaaaaaaaaaaaaaaaaaaaaaaaaaaaaaaaaaaaaaaaaaaaaaaaaaaaaaaaaaaaaaaaaaaaaaaaaaaaaaaaaaaaaaaaaaaaaaaaaaaaaaaaaaaaaaaaaaaaaaaaaaaaaaa",
"aaaaaaaaaaaaaaaaaaaaaaaaaaaaaaaaaaaaaaaaaaaaaaaaaaaaaaaaaaaaaaaaaaaaaaaaaaaaaaaaaaaaaaaaaaaaaaaaaaaaaaaaaaaaaaaaaaaaaaaaaaaaaaaaaaaaaaaaaaaaaaaaaaaaaaaaaaaaaaaaaaaaaaaaaaaaaaaaaaaaaaaaaaaaaaaaaaaaaaaaaaaaaaaaaaaaaaaaaaaaaaaaaaaaaaaaaaaaaaaaaaaaaaaaaaaaaaaaaaaaaaaaaaaaaaaaaaaaaaaaaaaaaaaaaaaaaaaaaaaaaaaaaaaaaaaaaaaaaaaaaaaaaaaaaaaaaaaaaaaaaaaaaaaaaaaaaaaaaaaaaaaaaaaaaaaaaaaaaaaaaaaaaaaaaaaaaaaaaaaa",
"aaaaaaaaaaaaaaaaaaaaaaaaaaaaaaaaaaaaaaaaaaaaaaaaaaaaaaaaaaaaaaaaaaaaaaaaaaaaaaaaaaaaaaaaaaaaaaaaaaaaaaaaaaaaaaaaaaaaaaaaaaaaaaaaaaaaaaaaaaaaaaaaaaaaaaaaaaaaaaaaaaaaaaaaaaaaaaaaaaaaaaaaaaaaaaaaaaaaaaaaaaaaaaaaaaaaaaaaaaaaaaaaaaaaaaaaaaaaaaaaaaaaaaaaaaaaaaaaaaaaaaaaaaaaaaaaaaaaaaaaaaaaaaaaaaaaaaaaaaaaaaaaaaaaaaaaaaaaaaaaaaaaaaaaaaaaaaaaaaaaaaaaaaaaaaaaaaaaaaaaaaaaaaaaaaaaaaaaaaaaaaaaaaaaaaaaaaaaaaaa",
"aaaaaaaaaaaaaaaaaaaaaaaaaaaaaaaaaaaaaaaaaaaaaaaaaaaaaaaaaaaaaaaaaaaaaaaaaaaaaaaaaaaaaaaaaaaaaaaaaaaaaaaaaaaaaaaaaaaaaaaaaaaaaaaaaaaaaaaaaaaaaaaaaaaaaaaaaaaaaaaaaaaaaaaaaaaaaaaaaaaaaaaaaaaaaaaaaaaaaaaaaaaaaaaaaaaaaaaaaaaaaaaaaaaaaaaaaaaaaaaaaaaaaaaaaaaaaaaaaaaaaaaaaaaaaaaaaaaaaaaaaaaaaaaaaaaaaaaaaaaaaaaaaaaaaaaaaaaaaaaaaaaaaaaaaaaaaaaaaaaaaaaaaaaaaaaaaaaaaaaaaaaaaaaaaaaaaaaaaaaaaaaaaaaaaaaaaaaaaaaa",
"aaaaaaaaaaaaaaaaaaaaaaaaaaaaaaaaaaaaaaaaaaaaaaaaaaaaaaaaaaaaaaaaaaaaaaaaaaaaaaaaaaaaaaaaaaaaaaaaaaaaaaaaaaaaaaaaaaaaaaaaaaaaaaaaaaaaaaaaaaaaaaaaaaaaaaaaaaaaaaaaaaaaaaaaaaaaaaaaaaaaaaaaaaaaaaaaaaaaaaaaaaaaaaaaaaaaaaaaaaaaaaaaaaaaaaaaaaaaaaaaaaaaaaaaaaaaaaaaaaaaaaaaaaaaaaaaaaaaaaaaaaaaaaaaaaaaaaaaaaaaaaaaaaaaaaaaaaaaaaaaaaaaaaaaaaaaaaaaaaaaaaaaaaaaaaaaaaaaaaaaaaaaaaaaaaaaaaaaaaaaaaaaaaaaaaaaaaaaaaaa",
"aaaaaaaaaaaaaaaaaaaaaaaaaaaaaaaaaaaaaaaaaaaaaaaaaaaaaaaaaaaaaaaaaaaaaaaaaaaaaaaaaaaaaaaaaaaaaaaaaaaaaaaaaaaaaaaaaaaaaaaaaaaaaaaaaaaaaaaaaaaaaaaaaaaaaaaaaaaaaaaaaaaaaaaaaaaaaaaaaaaaaaaaaaaaaaaaaaaaaaaaaaaaaaaaaaaaaaaaaaaaaaaaaaaaaaaaaaaaaaaaaaaaaaaaaaaaaaaaaaaaaaaaaaaaaaaaaaaaaaaaaaaaaaaaaaaaaaaaaaaaaaaaaaaaaaaaaaaaaaaaaaaaaaaaaaaaaaaaaaaaaaaaaaaaaaaaaaaaaaaaaaaaaaaaaaaaaaaaaaaaaaaaaaaaaaaaaaaaaaaa",
"aaaaaaaaaaaaaaaaaaaaaaaaaaaaaaaaaaaaaaaaaaaaaaaaaaaaaaaaaaaaaaaaaaaaaaaaaaaaaaaaaaaaaaaaaaaaaaaaaaaaaaaaaaaaaaaaaaaaaaaaaaaaaaaaaaaaaaaaaaaaaaaaaaaaaaaaaaaaaaaaaaaaaaaaaaaaaaaaaaaaaaaaaaaaaaaaaaaaaaaaaaaaaaaaaaaaaaaaaaaaaaaaaaaaaaaaaaaaaaaaaaaaaaaaaaaaaaaaaaaaaaaaaaaaaaaaaaaaaaaaaaaaaaaaaaaaaaaaaaaaaaaaaaaaaaaaaaaaaaaaaaaaaaaaaaaaaaaaaaaaaaaaaaaaaaaaaaaaaaaaaaaaaaaaaaaaaaaaaaaaaaaaaaaaaaaaaaaaaaaa",
"aaaaaaaaaaaaaaaaaaaaaaaaaaaaaaaaaaaaaaaaaaaaaaaaaaaaaaaaaaaaaaaaaaaaaaaaaaaaaaaaaaaaaaaaaaaaaaaaaaaaaaaaaaaaaaaaaaaaaaaaaaaaaaaaaaaaaaaaaaaaaaaaaaaaaaaaaaaaaaaaaaaaaaaaaaaaaaaaaaaaaaaaaaaaaaaaaaaaaaaaaaaaaaaaaaaaaaaaaaaaaaaaaaaaaaaaaaaaaaaaaaaaaaaaaaaaaaaaaaaaaaaaaaaaaaaaaaaaaaaaaaaaaaaaaaaaaaaaaaaaaaaaaaaaaaaaaaaaaaaaaaaaaaaaaaaaaaaaaaaaaaaaaaaaaaaaaaaaaaaaaaaaaaaaaaaaaaaaaaaaaaaaaaaaaaaaaaaaaaaa",
"aaaaaaaaaaaaaaaaaaaaaaaaaaaaaaaaaaaaaaaaaaaaaaaaaaaaaaaaaaaaaaaaaaaaaaaaaaaaaaaaaaaaaaaaaaaaaaaaaaaaaaaaaaaaaaaaaaaaaaaaaaaaaaaaaaaaaaaaaaaaaaaaaaaaaaaaaaaaaaaaaaaaaaaaaaaaaaaaaaaaaaaaaaaaaaaaaaaaaaaaaaaaaaaaaaaaaaaaaaaaaaaaaaaaaaaaaaaaaaaaaaaaaaaaaaaaaaaaaaaaaaaaaaaaaaaaaaaaaaaaaaaaaaaaaaaaaaaaaaaaaaaaaaaaaaaaaaaaaaaaaaaaaaaaaaaaaaaaaaaaaaaaaaaaaaaaaaaaaaaaaaaaaaaaaaaaaaaaaaaaaaaaaaaaaaaaaaaaaaaa",
"aaaaaaaaaaaaaaaaaaaaaaaaaaaaaaaaaaaaaaaaaaaaaaaaaaaaaaaaaaaaaaaaaaaaaaaaaaaaaaaaaaaaaaaaaaaaaaaaaaaaaaaaaaaaaaaaaaaaaaaaaaaaaaaaaaaaaaaaaaaaaaaaaaaaaaaaaaaaaaaaaaaaaaaaaaaaaaaaaaaaaaaaaaaaaaaaaaaaaaaaaaaaaaaaaaaaaaaaaaaaaaaaaaaaaaaaaaaaaaaaaaaaaaaaaaaaaaaaaaaaaaaaaaaaaaaaaaaaaaaaaaaaaaaaaaaaaaaaaaaaaaaaaaaaaaaaaaaaaaaaaaaaaaaaaaaaaaaaaaaaaaaaaaaaaaaaaaaaaaaaaaaaaaaaaaaaaaaaaaaaaaaaaaaaaaaaaaaaaaaa"
};
