/* XPM */
static char *mode_endurance_card[] = {
"200 200 256 2",
"   c #FFFFFF",
" ! c #FFFFFD",
" # c #FEFFFD",
" $ c #FEFEFC",
" % c #FBFDFB",
" & c #FAFCF9",
" ' c #FAFBF9",
" ( c #F9FBFA",
" ) c #F9FBF8",
" * c #F7FCFA",
" + c #F9FAF9",
" , c #F8FAF7",
" - c #F9F9F7",
" . c #F7F9F6",
" / c #F8F9EC",
" 0 c #F7F8F6",
" 1 c #F4F7F4",
" 2 c #F4F5F4",
" 3 c #F3F4EC",
" 4 c #EBECEA",
" 5 c #F2E8B2",
" 6 c #DCDDDB",
" 7 c #E2D8B3",
" 8 c #D0CEC5",
" 9 c #C8C5BF",
" : c #DFC687",
" ; c #DCB975",
" < c #BFBEB6",
" = c #BDB5A0",
" > c #B7B5AB",
" ? c #B0B4AF",
" @ c #C1AC88",
" A c #B3A98F",
" B c #B0A992",
" C c #B0A487",
" D c #A9ABA9",
" E c #ABA793",
" F c #ACA287",
" G c #A4A196",
" H c #EE8734",
" I c #B1907E",
" J c #A39C90",
" K c #A4928C",
" L c #9D9B9D",
" M c #9C9B95",
" N c #9B9795",
" O c #9C928B",
" P c #969A9A",
" Q c #969596",
" R c #939295",
" S c #939085",
" T c #918A7F",
" U c #898784",
" V c #8A807A",
" W c #837F7D",
" X c #6D9ED0",
" Y c #6994C6",
" Z c #7189A8",
" [ c #5889BC",
" ] c #7E7D7F",
" ^ c #717D8A",
" _ c #597EA6",
" ` c #3C7CBC",
" a c #F56F4C",
" b c #D86E64",
" c c #E75D51",
" d c #CB5D55",
" e c #E04D35",
" f c #E24222",
" g c #C94E46",
" h c #C94340",
" i c #8B756E",
" j c #7B7675",
" k c #777679",
" l c #777372",
" m c #AF5B52",
" n c #87615A",
" o c #B14440",
" p c #904442",
" q c #67758B",
" r c #727271",
" s c #4A74AA",
" t c #517397",
" u c #6A696C",
" v c #68655B",
" w c #4B6996",
" x c #526478",
" y c #605C59",
" z c #5D5553",
" { c #4A5972",
" | c #51514F",
" } c #534844",
" ~ c #494543",
"!  c #454546",
"!! c #45403E",
"!# c #3A76BE",
"!$ c #3575BF",
"!% c #3E75B0",
"!& c #3775B4",
"!' c #3175C2",
"!( c #3275BB",
"!) c #2E76BF",
"!* c #2976C1",
"!+ c #3A70B6",
"!, c #3D6FA6",
"!- c #3370B7",
"!. c #2D70B6",
"!/ c #3C69A1",
"!0 c #3C6190",
"!1 c #2F69AB",
"!2 c #2C609D",
"!3 c #355A90",
"!4 c #39577A",
"!5 c #354F7D",
"!6 c #384D65",
"!7 c #21599E",
"!8 c #275589",
"!9 c #294D7C",
"!: c #1E4D86",
"!; c #364566",
"!< c #3E4247",
"!= c #3E413C",
"!> c #3E3E3B",
"!? c #2B4470",
"!@ c #2C425D",
"!A c #25436D",
"!B c #1B4376",
"!C c #D8322F",
"!D c #D0312E",
"!E c #D82C2A",
"!F c #D22C2A",
"!G c #C83632",
"!H c #C82F2C",
"!I c #B43836",
"!J c #B7302D",
"!K c #DB2A29",
"!L c #D82A29",
"!M c #DC2829",
"!N c #DE2529",
"!O c #D42A29",
"!P c #C22A28",
"!Q c #BF2322",
"!R c #973736",
"!S c #952D2B",
"!T c #9A2323",
"!U c #892221",
"!V c #78302D",
"!W c #782624",
"!X c #7E2120",
"!Y c #722120",
"!Z c #961B1A",
"![ c #8A1B1B",
"!] c #931415",
"!^ c #821C1C",
"!_ c #751C1A",
"!` c #7B1414",
"!a c #4F3835",
"!b c #5A2A28",
"!c c #423C39",
"!d c #413635",
"!e c #3B3B3D",
"!f c #3B3A35",
"!g c #393635",
"!h c #382F2E",
"!i c #2C3B55",
"!j c #2B344A",
"!k c #30322F",
"!l c #2E2D2B",
"!m c #2B2A31",
"!n c #2B292A",
"!o c #2C2924",
"!p c #272826",
"!q c #632322",
"!r c #621C1B",
"!s c #522020",
"!t c #3F2021",
"!u c #2A2526",
"!v c #262527",
"!w c #2A1F22",
"!x c #5B1615",
"!y c #570D0D",
"!z c #421312",
"!{ c #410808",
"!| c #301413",
"!} c #300D0D",
"!~ c #340606",
"#  c #2B0606",
"#! c #1D3863",
"## c #213346",
"#$ c #1C2C48",
"#% c #212B2A",
"#& c #23262B",
"#' c #222521",
"#( c #162643",
"#) c #1B2526",
"#* c #202025",
"#+ c #20201D",
"#, c #1E1B20",
"#- c #1D1A17",
"#. c #121E38",
"#/ c #0A1C3C",
"#0 c #181C1E",
"#1 c #101B22",
"#2 c #16151B",
"#3 c #19130F",
"#4 c #0C142C",
"#5 c #0D1314",
"#6 c #1D0A0A",
"#7 c #110B0C",
"#8 c #0C0C15",
"#9 c #0C0907",
"#: c #051127",
"#; c #030B25",
"#< c #060D12",
"#= c #05090D",
"#> c #030717",
"#? c #04070A",
"#@ c #040703",
"#A c #190303",
"#B c #0A0304",
"#C c #060407",
"#D c #060201",
"#E c #030307",
"#F c #030303",
"#G c #030201",
"#H c #01030D",
"#I c #010205",
"#J c #020302",
"#K c #010102",
"#L c #010301",
"#M c #020100",
"#N c #010101",
"#O c #000315",
"#P c #000206",
"#Q c #000302",
"#R c #000102",
"#S c #000400",
"#T c #000200",
"#U c #000100",
"#V c #240000",
"#W c #0B0001",
"#X c #050002",
"#Y c #050000",
"#Z c #020003",
"#[ c #030000",
"#] c #020000",
"#^ c #010003",
"#_ c #010001",
"#` c #010000",
"#a c #00000E",
"#b c #000006",
"#c c #000004",
"#d c #000003",
"#e c #000002",
"#f c #000001",
"#g c #000000",
"#g#g#g#g#g#g#g#g#g#g#g#g#g#g#g#g#g#g#g#g#g#g#g#g#g#g#g#g#g#g#g#g#g#g#g#g#g#g#g#g#g#g#g#g#g#g#g#g#g#g#g#g#g#g#g#g#g#g#g#g#g#g#g#g#g#g#g#g#g#g#g#g#g#g#g#g#g#g#g#g#g#g#g#g#g#g#g#g#g#g#g#g#g#g#g#U#U#U#U#U#e#e#e#e#f#g#g#g#g#g#g#g#g#g#g#g#g#g#g#g#g#g#g#g#g#g#g#g#g#g#g#g#g#g#g#g#g#g#g#g#g#g#g#g#g#g#g#g#g#g#g#g#g#g#g#g#g#g#g#g#g#g#g#g#g#g#g#g#g#g#g#g#g#g#g#g#g#g#g#g#g#g#g#g#g#g#g#g#g#g#g#g#g#g#g#g#g#g#g#g",
"#g#g#g#g#g#g#g#g#g#g#g#g#g#g#g#g#g#g#g#g#g#g#g#g#g#g#g#g#g#g#g#g#g#g#g#g#g#g#g#g#g#g#g#g#g#g#g#g#g#g#g#g#g#g#g#g#g#g#g#g#g#g#g#g#g#g#g#g#g#g#g#g#g#g#g#g#g#g#g#g#g#g#g#g#g#g#g#g#g#g#g#g#g#g#g#U#U#U#U#U#f#f#f#f#f#g#g#g#g#g#g#g#g#g#g#g#g#g#g#g#g#g#g#g#g#g#g#g#g#g#g#g#g#g#g#g#g#g#g#g#g#g#g#g#g#g#g#g#g#g#g#g#g#g#g#g#g#g#g#g#g#g#g#g#g#g#g#g#g#g#g#g#g#g#g#g#g#g#g#g#g#g#g#g#g#g#g#g#g#g#g#g#g#g#g#g#g#g#g#g",
"#g#g#g#g#g#g#g#g#g#g#g#g#g#g#g#g#g#g#g#g#g#g#g#g#g#g#g#g#g#g#g#g#g#g#g#g#g#g#g#g#g#g#g#g#g#g#g#g#g#g#g#g#g#g#g#g#g#g#g#g#g#g#g#g#g#g#g#g#g#g#g#g#g#g#g#g#g#g#g#g#g#g#g#g#g#g#g#g#g#g#g#g#g#g#g#g#g#g#g#g#g#g#g#g#g#g#g#g#g#g#g#g#g#g#g#g#g#g#g#g#g#g#g#g#g#g#g#g#g#g#g#g#g#g#g#g#g#g#g#g#g#g#g#g#g#g#g#g#g#g#g#g#g#g#g#g#g#g#g#g#g#g#g#g#g#g#g#g#g#g#g#g#g#g#g#g#g#g#g#g#g#g#g#g#g#g#g#g#g#g#g#g#g#g#g#g#g#g#g#g",
"#g#g#g#g#g#g#g#g#g#g#g#g#g#g#g#g#g#g#g#g#g#g#g#g#g#g#g#g#g#g#g#g#g#g#g#g#g#g#g#g#g#g#g#g#g#g#g#g#g#g#g#g#g#g#g#g#g#g#g#g#g#g#g#g#g#g#g#g#g#g#g#g#g#g#g#g#g#g#g#g#g#g#g#g#g#g#g#g#g#g#g#g#g#g#g#g#g#g#g#g#g#g#g#g#g#g#g#g#g#g#g#g#g#g#g#g#g#g#g#g#g#g#g#g#g#g#g#g#g#g#g#g#g#g#g#g#g#g#g#g#g#g#g#g#g#g#g#g#g#g#g#g#g#g#g#g#g#g#g#g#g#g#g#g#g#g#g#g#g#g#g#g#g#g#g#g#g#g#g#g#g#g#g#g#g#g#g#g#g#g#g#g#g#g#g#g#g#g#g#g",
"#g#g#g#g#g#g#g#g#g#g#g#g#g#g#g#g#g#g#g#g#g#g#g#g#g#g#g#g#g#g#g#g#g#g#g#g#g#g#g#g#g#g#g#g#g#g#g#g#g#g#g#g#g#g#g#g#g#g#g#g#g#g#g#g#g#g#g#g#g#g#g#g#g#g#g#g#g#g#g#g#g#g#g#g#g#g#g#g#f#f#f#f#g#g#g#g#g#g#g#g#g#g#g#g#g#g#g#g#g#g#g#g#g#g#g#g#g#g#g#g#g#g#g#g#g#g#g#g#g#g#g#g#g#g#g#g#g#g#g#g#g#g#g#g#g#g#g#g#g#g#g#g#g#g#g#g#g#g#g#g#g#g#g#g#g#g#g#g#g#g#g#g#g#g#g#g#g#g#g#g#g#g#g#g#g#g#g#g#g#g#g#g#g#g#g#g#g#g#g#g",
"#g#g#g#g#g#g#g#g#g#g#g#g#g#g#g#g#g#g#g#g#g#g#g#g#g#g#g#g#g#g#g#g#g#g#g#g#g#g#g#g#g#g#g#g#g#g#g#g#g#g#g#g#g#g#g#g#g#g#g#g#g#g#g#g#g#g#g#g#g#g#g#g#g#g#g#g#g#g#g#g#g#g#g#g#g#g#g#f#e#e#e#e#g#g#`#`#`#`#`#`#`#`#`#`#`#`#g#g#g#g#g#g#g#g#g#g#g#g#g#g#g#g#g#g#g#g#g#g#g#g#g#g#g#g#g#g#g#g#g#g#g#g#g#g#g#g#g#g#g#g#g#g#g#g#g#g#g#g#g#g#g#g#g#g#g#g#g#g#g#g#g#g#g#g#g#g#g#g#g#g#g#g#g#g#g#g#g#g#g#g#g#g#g#g#g#g#g#g#g#g",
"#g#g#g#g#g#g#g#g#g#g#g#g#g#g#g#g#g#g#g#g#g#g#g#g#g#g#g#g#g#g#g#g#g#g#g#g#g#g#g#g#g#g#g#g#g#g#g#g#g#g#g#g#g#g#g#g#g#g#g#g#g#g#g#g#g#g#g#g#g#g#g#g#g#g#g#g#g#g#g#g#g#g#g#g#g#g#g#K#e#K#F#N#N#`#@#F#F#B#D#D#D#9#B#F#F#F#F#`#N#J#N#g#N#g#g#g#g#g#g#g#g#g#g#g#g#g#g#g#g#g#g#g#g#g#g#g#g#g#g#g#g#g#g#g#g#g#g#g#g#g#g#g#g#g#g#g#g#g#g#g#g#g#g#g#g#g#g#g#g#g#g#g#g#g#g#g#g#g#g#g#g#g#g#g#g#g#g#g#g#g#g#g#g#g#g#g#g#g#g#g",
"#g#g#g#g#g#g#g#g#g#g#g#g#g#g#g#g#g#g#g#g#g#g#g#g#g#g#g#g#g#g#g#g#g#g#g#g#g#g#g#g#g#g#g#g#g#g#g#g#g#g#g#g#g#g#g#g#g#g#g#g#g#g#g#g#g#g#g#g#g#g#g#g#g#g#g#g#g#g#g#g#g#g#g#g#g#g#g#R#e#J#G#C#C#M#N#@#g#g#g#g#g#g#g#g#G#g#g#C#C#N#N#N#N#g#g#g#g#g#g#g#g#g#g#g#g#g#g#g#g#g#g#g#g#g#g#g#g#g#g#g#g#g#g#g#g#g#g#g#g#g#g#g#g#g#g#g#g#g#g#g#g#g#g#g#g#g#g#g#g#g#g#g#g#g#g#g#g#g#g#g#g#g#g#g#g#g#g#g#g#g#g#g#g#g#g#g#g#g#g#g",
"#g#g#g#g#g#g#g#g#g#g#g#g#g#g#g#g#g#g#g#g#g#g#g#g#g#g#g#g#g#g#g#g#g#g#g#g#g#g#g#g#g#g#g#g#g#g#g#g#g#g#g#g#g#g#g#g#g#g#g#g#g#g#g#g#g#g#g#g#g#g#g#g#g#g#g#g#g#g#g#g#g#g#g#g#g#g#g#N#J#J#J#F#@#G#F#D!=!!!!!!!c!! ~!!#G!l#-#g#F#J#N#I#K#g#g#g#g#g#g#g#g#g#g#g#g#g#g#g#g#g#g#g#g#g#g#g#g#g#g#g#g#g#g#g#g#g#g#g#g#g#g#g#g#g#g#g#g#g#g#g#g#g#g#g#g#g#g#g#g#g#g#g#g#g#g#g#g#g#g#g#g#g#g#g#g#g#g#g#g#g#g#g#g#g#g#g#g#g#g#g",
"#g#g#g#g#g#g#g#g#g#g#g#g#g#g#g#g#g#g#g#g#g#g#g#g#g#g#g#g#g#g#g#g#g#g#g#g#g#g#g#g#g#g#g#g#g#g#g#g#g#g#g#g#g#g#g#g#g#g#g#g#g#g#g#g#g#g#g#g#g#g#g#g#g#g#g#g#g#g#g#g#g#g#g#g#g#g#g#N#@#G#J#F#C#g#g#g < 6 6 6 6 6 6 9#g!n#-#J#C#J#F#E#f#g#g#g#g#g#g#g#g#g#g#g#g#g#g#g#g#g#g#g#g#g#g#g#g#g#g#g#g#g#g#g#g#g#g#g#g#g#g#g#g#g#g#g#g#g#g#g#g#g#g#g#g#g#g#g#g#g#g#g#g#g#g#g#g#g#g#g#g#g#g#g#g#g#g#g#g#g#g#g#g#g#g#g#g#g#g#g",
"#g#g#g#g#g#g#g#g#g#g#g#g#g#g#g#g#g#g#g#g#g#g#g#g#g#g#g#g#g#g#g#g#g#g#g#g#g#g#g#g#g#g#g#g#g#g#g#g#g#g#g#g#g#g#g#g#g#g#g#g#g#g#g#g#g#g#g#g#g#g#g#g#g#g#g#g#g#g#g#g#g#g#g#g#g#g#g#N#L#L#@#@#g!f 9 > 9 U T U V W W 9 < M#+#g#N#C#K#I#e#g#g#g#g#g#g#g#g#g#g#g#g#g#g#g#g#g#g#g#g#g#g#g#g#g#g#g#g#g#g#g#g#g#g#g#g#g#g#g#g#g#g#g#g#g#g#g#g#g#g#g#g#g#g#g#g#g#g#g#g#g#g#g#g#g#g#g#g#g#g#g#g#g#g#g#g#g#g#g#g#g#g#g#g#g#g#g",
"#g#g#g#g#g#g#g#g#g#g#g#g#g#g#g#g#g#g#g#g#g#g#g#g#g#g#g#g#g#g#g#g#g#g#g#g#g#g#g#g#g#g#g#g#g#g#g#g#g#g#g#g#g#g#g#g#g#g#g#g#g#g#g#g#g#g#g#g#g#g#g#g#g#g#g#g#g#g#g#g#g#g#g#g#g#g#g#T#T#L#@#g!g 9 U W!c#g#]#[#`#[#g!c W D 8!!#F#C#J#K#K#g#g#g#g#g#g#g#g#g#g#g#g#g#g#g#g#g#g#g#g#g#g#g#g#g#g#g#g#g#g#g#g#g#g#g#g#g#g#g#g#g#g#g#g#g#g#g#g#g#g#g#g#g#g#g#g#g#g#g#g#g#g#g#g#g#g#g#g#g#g#g#g#g#g#g#g#g#g#g#g#g#g#g#g#g#g#g",
"#g#g#g#g#g#g#g#g#g#g#g#g#g#g#g#g#g#g#g#g#g#g#g#g#g#g#g#g#g#g#g#g#g#g#g#g#g#g#g#g#g#g#g#g#g#g#g#g#g#g#g#g#g#g#g#g#g#g#g#g#g#g#g#g#g#g#g#g#g#g#g#g#g#g#g#g#g#g#g#g#g#g#g#g#g#g#g#I#F#g#7!o < G!l#+!o#D#_#^#Z#F#G#'!l y ? <#g#D#]#Z#^#g#g#g#g#g#g#g#g#g#g#g#g#g#g#g#g#g#g#g#g#g#g#g#g#g#g#g#g#g#g#g#g#g#g#g#g#g#g#g#g#g#g#g#g#g#g#g#g#g#g#g#g#g#g#g#g#g#g#g#g#g#g#g#g#g#g#g#g#g#g#g#g#g#g#g#g#g#g#g#g#g#g#g#g#g#g#g",
"#g#g#g#g#g#g#g#g#g#g#g#g#g#g#g#g#g#g#g#g#g#g#g#g#g#g#g#g#g#g#g#g#g#g#g#g#g#g#g#g#g#g#g#g#g#g#g#g#g#g#g#g#g#g#g#g#g#g#g#g#g#g#g#g#g#g#g#g#g#g#g#g#g#g#g#g#g#g#g#g#g#g#g#g#g#g#f#C#8#J!! 9 8 v#2#'#+#Q#E#P#=#I#U#+#*#0 u 9 u#g#9#B#Z#g#g#g#g#g#g#g#g#g#g#g#g#g#g#g#g#g#g#g#g#g#g#g#g#g#g#g#g#g#g#g#g#g#g#g#g#g#g#g#g#g#g#g#g#g#g#g#g#g#g#g#g#g#g#g#g#g#g#g#g#g#g#g#g#g#g#g#g#g#g#g#g#g#g#g#g#g#g#g#g#g#g#g#g#g#g#g",
"#g#g#g#g#g#g#g#g#g#g#g#g#g#g#g#g#g#g#g#g#g#g#g#g#g#g#g#g#g#g#g#g#g#g#g#g#g#g#g#g#g#g#g#g#g#g#g#g#g#g#g#g#g#g#g#g#g#g#g#g#g#g#g#g#g#g#g#g#g#g#g#g#g#g#g#g#g#g#g#g#g#g#g#g#g#g#g#g#g#' 8 < j#D#g#g#g#9#e#?#I#@#@#g#g#d#Z j 8 9#-#Z#Z#g#g#g#g#g#g#g#g#g#g#g#g#g#g#g#g#g#g#g#g#g#g#g#g#g#g#g#g#g#g#g#g#g#g#g#g#g#g#g#g#g#g#g#g#g#g#g#g#g#g#g#g#g#g#g#g#g#g#g#g#g#g#g#g#g#g#g#g#g#g#g#g#g#g#g#g#g#g#g#g#g#g#g#g#g#g#g",
"#g#g#g#g#g#g#g#g#g#g#g#g#g#g#g#g#g#g#g#g#g#g#g#g#g#g#g#g#g#g#g#g#g#g#g#g#g#g#g#g#g#g#g#g#g#g#g#g#g#g#g#g#g#g#g#g#g#g#g#g#g#g#g#g#g#g#g#g#g#g#g#g#g#g#g#g#g#g#g#g#g#g#g#g#g#J#f!k!v | > r#3#g#C#B#9#F#B#F#@#@#@#@#F#E#g#3 T 8 z#Z#E#g#g#g#g#g#g#g#g#g#g#g#g#g#g#g#g#g#g#g#g#g#g#g#g#g#g#g#g#g#g#g#g#g#g#g#g#g#g#g#g#g#g#g#g#g#g#g#g#g#g#g#g#g#g#g#g#g#g#g#g#g#g#g#g#g#g#g#g#g#g#g#g#g#g#g#g#g#g#g#g#g#g#g#g#g#g#g",
"#g#g#g#g#g#g#g#g#g#g#g#g#g#g#g#g#g#g#g#g#g#g#g#g#g#g#g#g#g#g#g#g#g#g#g#g#g#g#g#g#g#g#g#g#g#g#g#g#g#g#g#g#g#g#g#g#g#g#g#g#g#g#g#g#g#g#g#g#g#g#g#g#g#g#g#g#g#g#g#g#g#g#g#g#g#C#g W | M G W#+#g#Z#g#`#g#g#g#g#g#g#g#g#C#`#- O B >#B#Z#g#g#g#g#g#g#g#g#g#g#g#g#g#g#g#g#g#g#g#g#g#g#g#g#g#g#g#g#g#g#g#g#g#g#g#g#g#g#g#g#g#g#g#g#g#g#g#g#g#g#g#g#g#g#g#g#g#g#g#g#g#g#g#g#g#g#g#g#g#g#g#g#g#g#g#g#g#g#g#g#g#g#g#g#g#g#g",
"#g#g#g#g#g#g#g#g#g#g#g#g#g#g#g#g#g#g#g#g#g#g#g#g#g#g#g#g#g#g#g#g#g#g#g#g#g#g#g#g#g#g#g#g#g#g#g#g#g#g#g#g#g#g#g#g#g#g#g#g#g#g#g#g#g#g#g#g#g#g#g#g#g#g#g#g#g#g#g#g#g#g#g#g#g#C#g u ~ S z#-#C#f#, l S O = S D > = J y#7#7#@ ~ T S#C#X#g#g#g#g#g#g#g#g#g#g#g#g#g#g#g#g#g#g#g#g#g#g#g#g#g#g#g#g#g#g#g#g#g#g#g#g#g#g#g#g#g#g#g#g#g#g#g#g#g#g#g#g#g#g#g#g#g#g#g#g#g#g#g#g#g#g#g#g#g#g#g#g#g#g#g#g#g#g#g#g#g#g#g#g#g#g#g",
"#g#g#g#g#g#g#g#g#g#g#g#g#g#g#g#g#g#g#g#g#g#g#g#g#g#g#g#g#g#g#g#g#g#g#g#g#g#g#g#g#g#g#g#g#g#g#g#g#g#g#g#g#g#g#g#g#g#g#g#g#g#g#g#g#g#g#g#g#g#g#g#g#g#g#g#g#g#g#g#g#g#g#g#g#g#F#g u ~ S }#g#9#Z#2 j B T < O E S = O j#3#3#g!l V O#B#g#`#g#g#g#g#g#g#g#g#g#g#g#g#g#g#g#g#g#g#g#g#g#g#g#g#g#g#g#g#g#g#g#g#g#g#g#g#g#g#g#g#g#g#g#g#g#g#g#g#g#g#g#g#g#g#g#g#g#g#g#g#g#g#g#g#g#g#g#g#g#g#g#g#g#g#g#g#g#g#g#g#g#g#g#g#g#g",
"#g#g#g#g#g#g#g#g#g#g#g#g#g#g#g#g#g#g#g#g#g#g#g#g#g#g#g#g#g#g#g#g#g#g#g#g#g#g#g#g#g#g#g#g#g#g#g#g#g#g#g#g#g#g#g#g#g#g#g#g#g#g#g#g#g#g#g#g#g#g#g#g#g#g#g#g#g#g#g#g#g#g#g#g#g#F#g u ~ S |#M#9#f#* r J T = V O V B T r#-#-#g!h V O#C#g#g#g#g#g#g#g#g#g#g#g#g#g#g#g#g#g#g#g#g#g#g#g#g#g#g#g#g#g#g#g#g#g#g#g#g#g#g#g#g#g#g#g#g#g#g#g#g#g#g#g#g#g#g#g#g#g#g#g#g#g#g#g#g#g#g#g#g#g#g#g#g#g#g#g#g#g#g#g#g#g#g#g#g#g#g#g#g",
"#g#g#g#g#g#g#g#g#g#g#g#g#g#g#g#g#g#g#g#g#g#g#g#g#g#g#g#g#g#g#g#g#g#g#g#g#g#g#g#g#g#g#g#g#g#g#g#g#g#g#g#g#g#g#g#g#g#g#g#g#g#g#g#g#g#g#g#g#g#g#g#g#g#g#g#g#g#g#g#g#g#g#g#g#g#F#g u!! S |#g#F#E#* u J V = V O V B T u#-#-#g!h V T#9#g#`#g#g#g#g#g#g#g#g#g#g#g#g#g#g#g#g#g#g#g#g#g#g#g#g#g#g#g#g#g#g#g#g#g#g#g#g#g#g#g#g#g#g#g#g#g#g#g#g#g#g#g#g#g#g#g#g#g#g#g#g#g#g#g#g#g#g#g#g#g#g#g#g#g#g#g#g#g#g#g#g#g#g#g#g#g#g",
"#g#g#g#g#g#g#g#g#g#g#g#g#g#g#g#g#g#g#g#g#g#g#g#g#g#g#g#g#g#g#g#g#g#g#g#g#g#g#g#g#g#g#g#g#g#g#g#g#g#g#g#g#g#g#g#g#g#g#g#g#g#g#g#g#g#g#g#g#g#g#g#g#g#g#g#g#g#g#g#g#g#g#g#g#g#F#g r ~ J |#7#9#_#* j B S < S E S = J j!w#+#G!f T E#D#_#g#g#g#g#g#g#g#g#g#g#g#g#g#g#g#g#g#g#g#g#g#g#g#g#g#g#g#g#g#g#g#g#g#g#g#g#g#g#g#g#g#g#g#g#g#g#g#g#g#g#g#g#g#g#g#g#g#g#g#g#g#g#g#g#g#g#g#g#g#g#g#g#g#g#g#g#g#g#g#g#g#g#g#g#g#g#g",
"#g#g#g#g#g#g#g#g#g#g#g#g#g#g#g#g#g#g#g#g#g#g#g#g#g#g#g#g#g#g#g#g#g#g#g#g#g#g#g#g#g#g#g#g#g#g#g#g#g#g#g#g#g#g#g#g#g#g#g#g#g#g#g#g#g#g#g#g#g#g#g#g#g#g#g#g#g#g#g#g#g#g#g#g#g#F#g ~!l r J v#-#N#, | v z i y v z r v ~!m#,#7 O > r#[#]#g#g#g#g#g#g#g#g#g#g#g#g#g#g#g#g#g#g#g#g#g#g#g#g#g#g#g#g#g#g#g#g#g#g#g#g#g#g#g#g#g#g#g#g#g#g#g#g#g#g#g#g#g#g#g#g#g#g#g#g#g#g#g#g#g#g#g#g#g#g#g#g#g#g#g#g#g#g#g#g#g#g#g#g#g#g#g",
"#g#g#g#g#g#g#g#g#g#g#g#g#g#g#g#g#g#g#g#g#g#g#g#g#g#g#g#g#g#g#g#g#g#g#g#g#g#g#g#g#g#g#g#g#g#g#g#g#g#g#g#g#g#g#g#g#g#g#g#g#g#g#g#g#g#g#g#g#g#g#g#g#g#g#g#g#g#g#g#g#g#g#g#g#g#g#g#g#g#3 O y#3#g#g#g#g#g#g#g#g#g#g#g#g!m#2#B T >#3#]#G#g#g#g#g#g#g#g#g#g#g#g#g#g#g#g#g#g#g#g#g#g#g#g#g#g#g#g#g#g#g#g#g#g#g#g#g#g#g#g#g#g#g#g#g#g#g#g#g#g#g#g#g#g#g#g#g#g#g#g#g#g#g#g#g#g#g#g#g#g#g#g#g#g#g#g#g#g#g#g#g#g#g#g#g#g#g#g",
"#g#g#g#g#g#g#g#g#g#g#g#g#g#g#g#g#g#g#g#g#g#g#g#g#g#g#g#g#g#g#g#g#g#g#g#g#g#g#g#g#g#g#g#g#g#g#g#g#g#g#g#g#g#g#g#g#g#g#g#g#g#g#g#g#g#g#g#g#g#g#g#g#g#g#g#g#g#g#g#g#g#e#g#g#g#g#g#C#G#+ D E |!g ?!o#3 v y v v y v#-#5 u!e z D =#+#g#F#e#e#f#g#g#g#g#N#g#g#g#g#g#g#g#f#R#f#f#g#g#g#g#g#g#g#g#g#g#g#g#g#g#g#g#g#g#g#g#g#g#g#g#g#g#g#g#g#g#g#g#g#g#g#g#g#g#g#g#g#g#g#g#g#g#g#g#g#g#g#g#g#g#g#g#g#g#g#g#g#g#g#g#g#g#g#g",
"#g#g#g#g#g#g#g#g#g#g#g#g#g#g#g#g#g#g#g#g#g#g#g#g#g#g#g#g#g#g#g#g#g#g#g#g#g#g#g#g#g#g#g#g#g#g#g#g#g#g#g#g#g#g#g#g#g#g#g#g#g#g#g#g#g#g#g#g#g#g#g#g#g#g#g#g#f#e#e#e#^#^#^#^#_#`#`#`#B#M!> N > v!c ?!o V T T T T V!h U#- v < z#C#B#D#c#b#b#d#f#`#N#D#D#G#G#J#g#N#E#K#I#E#c#c#e#g#`#`#]#`#g#g#g#g#g#g#g#g#g#g#g#g#g#g#g#g#g#g#g#g#g#g#g#g#g#g#g#g#g#g#g#g#g#g#g#g#g#g#g#g#g#g#g#g#g#g#g#g#g#g#g#g#g#g#g#g#g#g#g#g#g#g",
"#g#g#g#g#g#g#g#g#g#g#g#g#g#g#g#g#g#g#g#g#g#g#g#g#g#g#g#g#g#g#g#g#g#g#g#g#g#g#g#g#g#g#g#g#g#g#g#g#g#g#g#g#g#g#g#g#g#g#g#g#g#g#g#g#g#g#g#g#g#g#g#g#g#g#g#g#g#g#g#f#_#^#_#_#`#`#`#_#f#F#`#g y G v!o#9 T = B = 9 =#3!h j E z#g#[#`#c#b#b#c#e#f#g#G#@#U#G#g#F#G#N#C#I#d#c#I#c#e#g#`#`#]#g#g#g#g#g#g#g#g#g#g#g#g#g#g#g#g#g#g#g#g#g#g#g#g#g#g#g#g#g#g#g#g#g#g#g#g#g#g#g#g#g#g#g#g#g#g#g#g#g#g#g#g#g#g#g#g#g#g#g#g#g#g#g",
"#g#g#g#g#g#g#g#g#g#g#g#g#g#g#g#g#g#g#g#g#g#g#g#g#g#g#g#g#g#g#g#g#g#g#g#g#g#g#g#g#g#g#g#g#g#g#g#g#g#g#g#g#g#g#g#g#g#g#g#g#g#g#g#g#g#g#g#g#g#g#g#g#g#g#g#U#U#U#U#g#g#f#g#g#g#g#U#e#?#b#E#@#g > = T#- V A C = = E!w S D D#`#G#R#E#a#b#R#U#U#g#g#g#M#G#g#C#C#g#`#F#F#C#g#R#e#e#g#`#`#`#`#g#g#g#g#g#g#g#g#g#g#g#g#g#g#g#g#g#g#g#g#g#g#g#g#g#g#g#g#g#g#g#g#g#g#g#g#g#g#g#g#g#g#g#g#g#g#g#g#g#g#g#g#g#g#g#g#g#g#g#g#g#g",
"#g#g#g#g#g#g#g#g#g#g#g#g#g#g#g#g#g#g#g#g#g#g#g#g#g#g#g#g#g#g#g#g#g#g#g#g#g#g#g#g#g#g#g#g#g#g#g#g#g#g#g#g#g#g#g#g#g#g#g#g#g#g#g#g#g#g#g#g#g#g#g#g#g#g#g#U#U#U#U#U#g#g#g#U#U#U#g#J#J#J#@#M#9#2!! T#- S = = < 8 =!h z#-#+#@#L#J#K#I#Q#T#T#T#U#e#e#I#I#C#`#g#3#7#g#D#D#9#J#f#g#g#g#g#`#`#g#g#g#g#g#g#g#g#g#g#g#g#g#g#g#g#g#g#g#g#g#g#g#g#g#g#g#g#g#g#g#g#g#g#g#g#g#g#g#g#g#g#g#g#g#g#g#g#g#g#g#g#g#g#g#g#g#g#g#g#g#g",
"#g#g#g#g#g#g#g#g#g#g#g#g#g#g#g#g#g#g#g#g#g#g#g#g#g#g#g#g#g#g#g#g#g#g#g#g#g#g#g#g#g#g#g#g#g#g#g#g#g#g#g#g#g#g#g#g#g#g#g#g#g#g#g#g#g#g#g#g#g#g#g#g#g#g#g#U#T#U#U#U#g#g#f#U#U#U#U#T#U#9#U#@#@#g!l#-#Y u W l V S j#3#`#g#g#@#J#g#T#@#U#S#T#T#e#b#b#=#C#Z#-!g M >!n#B#D#D#F#M#g#g#g#g#`#`#g#g#g#g#g#g#g#g#g#g#g#g#g#g#g#g#g#g#g#g#g#g#g#g#g#g#g#g#g#g#g#g#g#g#g#g#g#g#g#g#g#g#g#g#g#g#g#g#g#g#g#g#g#g#g#g#g#g#g#g#g#g",
"#g#g#g#g#g#g#g#g#g#g#g#g#g#g#g#g#g#g#g#g#g#g#g#g#g#g#g#g#g#g#g#g#g#g#g#g#g#g#g#g#g#g#g#g#g#g#g#g#g#g#g#g#g#g#g#g#g#g#g#g#g#g#g#g#g#g#g#g#g#g#g#g#g#g#g#U#U#U#g#g#g#f#e#f#g#U#N#L#@#g#G#M#D#[#g#9#B#Y#Y#Y#Y#]#g#9#7#7#7#B#`#g#N#G#J#Q#U#T#c#b#b#d#C#g!c 8 G 8 T#g#D#B#`#`#g#g#g#g#g#g#g#g#g#g#g#g#g#g#g#g#g#g#g#g#g#g#g#g#g#g#g#g#g#g#g#g#g#g#g#g#g#g#g#g#g#g#g#g#g#g#g#g#g#g#g#g#g#g#g#g#g#g#g#g#g#g#g#g#g#g#g#g",
"#g#g#g#g#g#g#g#g#g#g#g#g#g#g#g#g#g#g#g#g#g#g#g#g#g#g#g#g#g#g#g#g#g#g#g#g#g#g#g#g#g#g#g#g#g#g#g#g#g#g#g#g#g#g#g#g#g#g#g#g#g#g#g#g#g#g#g#g#g#g#g#g#g#g#g#U#J#G#J#I#d#I#I#Z#C#C#g#g#[#B#9#D#7 V V T V V T T V T T V V V V#7#B#9#B#g#g#S#J#R#b#H#f!m#'#3 O E < B K T#3#g#D#g#g#g#g#g#g#g#g#g#g#g#g#g#g#g#g#g#g#g#g#g#g#g#g#g#g#g#g#g#g#g#g#g#g#g#g#g#g#g#g#g#g#g#g#g#g#g#g#g#g#g#g#g#g#g#g#g#g#g#g#g#g#g#g#g#g#g#g#g",
"#g#g#g#g#g#g#g#g#g#g#g#g#g#g#g#g#g#g#g#g#g#g#g#g#g#g#g#g#g#g#g#g#g#g#g#g#g#g#g#g#g#g#g#g#g#g#g#g#g#g#g#g#g#g#g#g#g#g#g#g#g#g#g#g#g#g#g#g#g#g#g#g#g#g#g#F#C#f#E#d#c#C#Z#B#B#g#3!w#+ S J G O = 9 9 7 7 9 < 7 < < < 9 < B O K J O#-!w#3#g#G#d#C#g! !l v 9 9 = B O S!h#M#N#g#g#g#g#g#g#g#g#g#g#g#g#g#g#g#g#g#g#g#g#g#g#g#g#g#g#g#g#g#g#g#g#g#g#g#g#g#g#g#g#g#g#g#g#g#g#g#g#g#g#g#g#g#g#g#g#g#g#g#g#g#g#g#g#g#g#g#g#g",
"#g#g#g#g#g#g#g#g#g#g#g#g#g#g#g#g#g#g#g#g#g#g#g#g#g#g#g#g#g#g#g#g#g#g#g#g#g#g#g#g#g#g#g#g#g#g#g#g#g#g#g#g#g#g#g#g#g#g#g#g#g#g#g#g#g#g#g#g#g#g#g#g#g#g#g#E#d#I#I#E#F#[#9#B#D!o S = = A A F = A T T V V V V V V T V i T A = = F C A = T!c#D#B#B#N!n#+#- i A F S v ~#7#M#L#g#g#g#g#g#`#`#g#g#g#g#g#g#g#g#g#g#g#g#g#g#g#g#g#g#g#g#g#g#g#g#g#g#g#g#g#g#g#g#g#g#g#g#g#g#g#g#g#g#g#g#g#g#g#g#g#g#g#g#g#g#g#g#g#g#g#g#g#g",
"#g#g#g#g#g#g#g#g#g#g#g#g#g#g#g#g#g#g#g#g#g#g#g#g#g#g#g#g#g#g#g#g#g#g#g#g#g#g#g#g#g#g#g#g#g#g#g#g#g#g#g#g#g#g#g#g#g#g#g#g#g#g#g#g#g#g#g#g#g#g#g#g#g#g#g#E#E#E#I#C#9#g#B#Y#` T B A @ C = 7 5 F#g#g#g#g#g#g#g#g#g#g#g#Y = 5 = C C C F = J#g#[#[#G#g#g v!o = E V ~#g#9#N#@#L#g#g#`#`#`#`#g#g#g#g#g#g#g#g#g#g#g#g#g#g#g#g#g#g#g#g#g#g#g#g#g#g#g#g#g#g#g#g#g#g#g#g#g#g#g#g#g#g#g#g#g#g#g#g#g#g#g#g#g#g#g#g#g#g#g#g#g#g",
"#g#g#g#g#g#g#g#g#g#g#g#g#g#g#g#g#g#g#g#g#g#g#g#g#g#g#g#g#g#g#g#g#g#g#g#g#g#g#g#g#g#g#g#g#g#g#g#g#g#g#g#g#g#g#g#g#g#g#g#g#g#g#g#g#g#g#g#g#g#g#g#g#g#g#g#I#E#R#C#@#g#9!o K V C = A A = i!h!o } E O G N L R O G N O J V!f!l z = C A = = F V O!o#@#' S > v!o y v#9#9#L#J#@#N#U#g#`#`#`#`#g#g#g#g#g#g#g#g#g#g#g#g#g#g#g#g#g#g#g#g#g#g#g#g#g#g#g#g#g#g#g#g#g#g#g#g#g#g#g#g#g#g#g#g#g#g#g#g#g#g#g#g#g#g#g#g#g#g#g#g#g#g",
"#g#g#g#g#g#g#g#g#g#g#g#g#g#g#g#g#g#g#g#g#g#g#g#g#g#g#g#g#g#g#g#g#g#g#g#f#g#g#g#g#g#g#g#g#g#g#g#g#g#g#g#g#g#g#g#g#g#g#g#g#g#g#g#g#g#g#g#g#g#g#g#g#g#g#U#f#F#@#R#-!g V = = = @ F n!g!k y > L D < 8 8 < 6!v!k 4 D 8 9 > > < j!k!k | E F A @ A B i } S l z!! |#9#@#U#S#L#Q#L#g#g#`#`#[#g#g#g#g#g#g#g#g#g#g#g#g#g#g#g#g#g#g#g#g#g#g#g#g#g#g#g#g#g#g#g#g#g#g#g#g#g#g#g#g#g#g#g#g#g#g#g#g#g#g#g#g#g#g#g#g#g#g#g#g#g#g#g",
"#g#g#g#g#g#g#g#g#g#g#g#g#g#g#g#g#g#g#g#g#g#g#g#g#f#c#R#U#g#f#g#M#g#G#F#Z#D#Y#]#]#]#[#Y#Y#[#[#`#E#I#J#[#Y#[#[#[#M#N#`#g#g#f#g#U#g#g#g#U#R#K#K#d#E#I#d#d#P#K#@#g!d 7 A F = 7 =#g!h ? 9 < ? < D < + 4 9  #*!l % ? + 4 D ? D 9 < 8 S#g#D = = S F A F#B#W!c#9 ]#7#J#T#T#J#N#g#U#g#`#`#g#`#g#g#g#g#g#g#g#g#g#g#g#g#g#g#g#g#g#g#g#g#g#g#g#g#g#g#g#g#g#g#g#g#g#g#g#g#g#g#g#g#g#g#g#g#g#g#g#g#g#g#g#g#g#g#g#g#g#g#g#g#g#g",
"#g#g#g#g#g#g#g#g#g#g#g#g#g#g#g#g#g#g#g#g#g#g#g#g#d#b#R#T#g#_#[#G#9#J#E#C#W#W#D#G#@#D#B#D#F#C#E#b#b#P#^#Z#Z#b#b#^#I#b#b#P#b#b#P#P#P#b#P#b#b#H#E#?#P#?#E#I#C#g#7 T F A = O!h!h S M D D D D 4 6 ? 3 2 3 #!g!g   2 ! 6 D 6 6 D D ? L S G#' y 7 = C I V#3#7#3#g#g#@#S#L#L#N#g#g#g#g#g#g#g#g#g#g#g#g#g#g#g#g#g#g#g#g#g#g#g#g#g#g#g#g#g#g#g#g#g#g#g#g#g#g#g#g#g#g#g#g#g#g#g#g#g#g#g#g#g#g#g#g#g#g#g#g#g#g#g#g#g#g#g#g#g",
"#g#g#g#g#g#g#g#g#g#g#g#g#g#g#g#g#g#g#g#g#g#g#g#g#e#b#R#T#g#]#[#@#F#g#b#H#_#I#E#b#b#b#H#b#a#a#:#>#:#;#;#;#;#;#;#;#;#;#;#;#;#;#;#;#;#;#;#:#:#>#c#b#g#`#D#`#]#- S = = B V!! J S ? 8 ? 4 6 ? 2 # 2 2 2 6 ' < ? 8 6 0 0 4 & 4 8 - 6 9 8 L M l!g T = = = T#9#g#D#J#F#T#g#N#I#I#f#g#g#g#g#g#g#g#g#g#g#g#g#g#g#g#g#g#g#g#g#g#g#g#g#g#g#g#g#g#g#g#g#g#g#g#g#g#g#g#g#g#g#g#g#g#g#g#g#g#g#g#g#g#g#g#g#g#g#g#g#g#g#g#g#g#g#g",
"#g#g#g#g#g#g#g#g#g#g#g#g#g#g#g#g#g#g#g#g#g#g#g#g#f#d#R#`#]#]#N#I#K#2#0#a#H#O#>#4#.#.#.#.#.#/!6 w w w w w w w w!0!0!4 { { { x x x w!0 w w t!;#(#.#.#4#=#7 v = B F O ~ } < < <!v < 4 8   % , . 0   8!>   r |!l#g 6   ' 0 $ 0 $ 6 4 k#5 < < > }!! E B B T!f#3#M#g#F#g#J#I#f#e#f#g#g#g#g#g#g#g#g#g#g#g#g#g#g#g#g#g#g#g#g#g#g#g#g#g#g#g#g#g#g#g#g#g#g#g#g#g#g#g#g#g#g#g#g#g#g#g#g#g#g#g#g#g#g#g#g#g#g#g#g#g#g#g#g#g#g",
"#g#g#g#g#g#g#g#g#g#g#g#g#g#g#g#g#g#g#g#g#g#g#g#g#g#f#`#[#X#M#U#H#b#0#)#O#:#:#/!A!A!?!9!9!3!0!, X X X X X X X Y Y Z _ _ _ q q Z X Y Y Y Y Y _!9!5!6!@#O#+ < F < J#g J 9 D ? 4#g#* 4   1 & & ' 0   9 |       L#g 4   2 % - - 2   ?#g#E 6 ? G 9 T#g 9 = F <#+#g#9#F#T#K#E#K#e#e#f#g#g#g#g#g#g#g#g#g#g#g#g#g#g#g#g#g#g#g#g#g#g#g#g#g#g#g#g#g#g#g#g#g#g#g#g#g#g#g#g#g#g#g#g#g#g#g#g#g#g#g#g#g#g#g#g#g#g#g#g#g#g#g#g#g",
"#g#g#g#g#g#g#g#g#g#g#g#g#g#g#g#g#g#g#g#g#g#g#g#g#g#U#]#Y#X#`#S#a#;#H#a!@!0!9!0 s [ [ [ s [ [!& `!&!#!$!'!$!#!#!# `!%!%!%!,!, s!%!#!#!#!+ s!0 w Z!6#d#8 T A = E } G M 9 6 D + R!e 6 % 2 4 2 - .   9 |   6!k U 6 2 3 $ $ ' ' 0 2 ?!v 9 4 9 3 < D y!o = A F T#3#`#D#C#C#K#I#d#e#f#g#`#`#g#g#g#g#g#g#g#g#g#g#g#g#g#g#g#g#g#g#g#g#g#g#g#g#g#g#g#g#g#g#g#g#g#g#g#g#g#g#g#g#g#g#g#g#g#g#g#g#g#g#g#g#g#g#g#g#g#g#g#g#g#g",
"#g#g#g#g#g#g#g#g#g#g#g#g#g#g#g#g#g#g#g#g#g#g#g#g#g#U#[#X#b#I#J#;!6!j#O _ [ [ [ s!%!1!1!2!#!(!$!(!)!'!*!*!*!*!*!'!'!)!(!$!$!-!(!'!'!*!'!-!% Z Z y#9!o T < F J!! E < 9 6 # 2 +   8#- 1 ?#J 6   2   9!=  #+#9 < < 4 % 0 - + 0 !!e 3 $ $ ' + ( 4 < D G ~ B = A S#3#D#D#M#K#d#c#e#f#g#`#`#g#g#g#g#g#g#g#g#g#g#g#g#g#g#g#g#g#g#g#g#g#g#g#g#g#g#g#g#g#g#g#g#g#g#g#g#g#g#g#g#g#g#g#g#g#g#g#g#g#g#g#g#g#g#g#g#g#g#g#g#g#g",
"#g#g#g#g#g#g#g#g#g#g#g#g#g#g#g#g#g#g#g#g#g#g#g#g#g#g#_#C#H#O#H#! w!6#O!0!%!%!, [!1!:!7!$!$!'!*!)!'!*!)!)!*!)!)!)!)!)!)!)!)!)!)!.!*!*!*!. s Z Z#C y 9 B = l#Y J < 8 . 8 * & - $ 8#2 3 D#g 6   0 % 6 r   v!e!k!v 6 ! . ' 2 % $!f 3 $ - - $ 1 6 4 ? > J!h F K = V#'#7#G#G#_#e#e#f#g#`#`#g#g#g#g#g#g#g#g#g#g#g#g#g#g#g#g#g#g#g#g#g#g#g#g#g#g#g#g#g#g#g#g#g#g#g#g#g#g#g#g#g#g#g#g#g#g#g#g#g#g#g#g#g#g#g#g#g#g#g#g#g#g",
"#g#g#g#g#g#g#g#g#g#g#g#g#g#g#g#g#g#g#g#g#g#g#g#g#g#@#L#E#a#4#!!B s!6#O!0 ` `!%!1!7!:!-!$!'!'!'!)!)!)!(!(!(!(!(!(!)!)!)!)!)!)!$!(!)!*!)!& s Z U!o F F = J!w l D 9 2 1 * 1 ) 1 $ 8#+ 2 D#F 6   . 0 , 4 $ 4 4 4 3 . & . . , ) #!= 3 3 - . 0 2 % * 3 < > v#D = B K J#3#G#M#N#e#e#f#g#`#`#g#g#g#g#g#g#g#g#g#g#g#g#g#g#g#g#g#g#g#g#g#g#g#g#g#g#g#g#g#g#g#g#g#g#g#g#g#g#g#g#g#g#g#g#g#g#g#g#g#g#g#g#g#g#g#g#g#g#g#g#g#g",
"#g#g#g#g#g#g#g#g#g#g#g#g#g#g#g#g#g#g#g#g#g#g#g#g#U#I#g#K#>!?!:!: s!A#:!/!(!&!%!7!7!7!-!(!'!)!'!$!(!(!$!#!#!$!$!$!$!'!'!'!'!'!$!$!'!*!$!, _ x#9 T @ C 7 V!g D < 4 < 4   1 & 1 ! 8#9 3 D#g 8   . & ) & & % %   % & 2 ) & 0 2  !n 2 % 3 %       4 6 - 9 W#5 O = F B T#g#`#g#e#e#f#g#`#`#g#g#g#g#g#g#g#g#g#g#g#g#g#g#g#g#g#g#g#g#g#g#g#g#g#g#g#g#g#g#g#g#g#g#g#g#g#g#g#g#g#g#g#g#g#g#g#g#g#g#g#g#g#g#g#g#g#g#g#g#g#g",
"#g#g#g#g#g#g#g#g#g#g#g#g#g#g#g#g#g#g#g#g#g#g#g#g#R#P#7#9#.!9!:!-!2#(!0!,!( `!1!2!-!+!-!$!$!(!$!$!(!$!(!(!(!(!(!(!(!(!)!)!)!)!)!)!*!*!.!, t! !d I @ @ T } < < > ! . 0 1 $ ' 0 $ 6 y 2 9 | 6 ' ) 1 % . . , 0 0 3 & % , , & $ 0 k 3 , % 4 D D 4 0 0 ) > D < | T C A E#'#7#9#U#e#e#e#`#`#g#g#g#g#g#g#g#g#g#g#g#g#g#g#g#g#g#g#g#g#g#g#g#g#g#g#g#g#g#g#g#g#g#g#g#g#g#g#g#g#g#g#g#g#g#g#g#g#g#g#g#g#g#g#g#g#g#g#g#g#g#g",
"#g#g#g#g#g#g#g#g#g#g#g#g#g#g#g#g#g#g#g#g#g#g#g#g#I#c#'#'!i!:!7!'!7#( s!%!(!(!2!1 `!#!(!(!(!(!#!#!&!#!#!$!#!$!#!#!#!#!#!#!#!#!+!#!$!(!- s!4#& = A @ 5#' D ? D ? . ) $ 2 % + + *     &     % 1 & % 1 # 1 & % 0 ! 1 % , , , . 2   & 2   6#g#g 9 # 2 & D D ? D!o 7 F = l!o#+#g#K#e#e#_#_#g#g#g#g#g#g#g#g#g#g#g#g#g#g#g#g#g#g#g#g#g#g#g#g#g#g#g#g#g#g#g#g#g#g#g#g#g#g#g#g#g#g#g#g#g#g#g#g#g#g#g#g#g#g#g#g#g#g#g#g#g#g",
"#g#g#g#g#g#g#g#g#g#g#g#g#g#g#g#g#g#g#g#g#g#g#g#g#I#b#0#5!@!2!'!'!2#( s!+!(!(!1 `!&!- `!# `!%!%!/!8!:!:!:!:!:!:!:!:!8!:!9!9!9!9!9!:!8!8!?!j!k J A F =!k R < 4 1 %   $         ( * - 2 , 3 ) & . % , ) & % , % , , 0 % ) ) , + 4 1   %#& y 6 !   ! 0 $ 8 Q M!c = F A v!o#+#g#K#f#g#^#_#g#g#g#g#g#g#g#g#g#g#g#g#g#g#g#g#g#g#g#g#g#g#g#g#g#g#g#g#g#g#g#g#g#g#g#g#g#g#g#g#g#g#g#g#g#g#g#g#g#g#g#g#g#g#g#g#g#g#g#g#g#g",
"#g#g#g#g#g#g#g#g#g#g#g#g#g#g#g#g#g#g#g#g#g#g#g#g#e#P#>#/#!!2!'!'!7#( s!-!)!1!,!%!, s!9!A!A#!!@#(#;#:#8#8#8#;#:#:#:#;#:#;#;#8#8#8#$ ^ q u#' A I = J#g S D#+#g ? 2 9 4 8 ? < 9 & . ) ) & ) , ) ) ) & ) ) ) , , , ) ) ) ( 1 # 0     ?#2!  4 9 < < 8 % D#5!f L W!h 5 C C i#9#F#J#U#L#K#g#g#g#g#g#g#g#g#g#g#g#g#g#g#g#g#g#g#g#g#g#g#g#g#g#g#g#g#g#g#g#g#g#g#g#g#g#g#g#g#g#g#g#g#g#g#g#g#g#g#g#g#g#g#g#g#g#g#g#g#g#g#g",
"#g#g#g#g#g#g#g#g#g#g#g#g#g#g#g#g#g#g#g#g#g#g#g#g#N#g#.!4!?!8!'!'!2#$ s!1!&!3#$#$#$#$#;#a#a#8#=#2!n!u!o!o!o!p!p!v#*#&!l!v!l!u!o!c ] k ]!! } @ @ = v!g S 6 9!= y ?#g <#-! ! #5 0 % ) ) ) ) ) ) ) ) ) ) ) ) , , , ) ) , ( + 2 - L v#g!g   <!k |!p!l 3!! ]   9 U } i @ C O!h#C#_#L#L#E#F#g#g#g#g#g#g#g#g#g#g#g#g#g#g#g#g#g#g#g#g#g#g#g#g#g#g#g#g#g#g#g#g#g#g#g#g#g#g#g#g#g#g#g#g#g#g#g#g#g#g#g#g#g#g#g#g#g#g#g#g#g#g",
"#g#g#g#g#g#g#g#g#g#g#g#g#g#g#g#g#g#g#g#g#g#g#g#g#L#^#.!?!9!8!'!'!3#$ _!/!9!@#5#c#g#c#5#0#+#+!w!o!o!o!u!u#'#'#'#'!u!o!w!w!o!w!w y ] k ]#- S A @ A!o > D <   4 $ ?#F < |   #!= 4 & & ) ) ) ) ) ) ) ) ) ) ) , , , ) ) ) ( 0    #0#g!p 6 % &     ?!p 4 % 2 0 ? < l#g = C B O#7#^#J#S#F#F#f#g#g#g#g#g#g#g#g#g#g#g#g#g#g#g#g#g#g#g#g#g#g#g#g#g#g#g#g#g#g#g#g#g#g#g#g#g#g#g#g#g#g#g#g#g#g#g#g#g#g#g#g#g#g#g#g#g#g#g#g#g",
"#g#g#g#g#g#g#g#g#g#g#g#g#g#g#g#g#g#g#g#g#g#g#g#g#K#f#.!5!B!2!'!'!8#.!6#!#:#1#)#)#*#&!p!n!p!p!l!k!f!g!e!e!>!f!c!c!f!g!d!c!h!! l l k r r#- C @ = K!l 9 D < 6 $ & ?#N < |    != 3 % ) ) ) ) ) ) ) ) ) ) ) ) ) ) ) ) ) ) 2   R#+#U | 4 2 - 4 4!> v 2 1 , 2 8 ? < y#g C @ E J#B#N#@#@#N#d#g#g#g#g#g#g#g#g#g#g#g#g#g#g#g#g#g#g#g#g#g#g#g#g#g#g#g#g#g#g#g#g#g#g#g#g#g#g#g#g#g#g#g#g#g#g#g#g#g#g#g#g#g#g#g#g#g#g#g#g#g#g",
"#g#g#g#g#g#g#g#g#g#g#g#g#g#g#g#g#g#g#g#g#g#g#g#g#f#H#$!9!8!&!'!$!:#:#O#:#)!v!l!l!k!=!e!e!=!>!e!=!<!=!e!e!e!>!>!c!f!!!!!f z l W l W |#g!c A C 7#3 z > ? 4 2 2 # ?#g 8!k ? D!n 2 , ) ) ) ) ) ) ) ) ) ) ) ) ) ) ) ) ) . # R#g#g |   $ 2   L#g#C D 8 . 0 + 0 4 9 W!f!o 7 E B!l#E#C#T#J#I#g#g#g#g#g#g#g#g#g#g#g#g#g#g#g#g#g#g#g#g#g#g#g#g#g#g#g#g#g#g#g#g#g#g#g#g#g#g#g#g#g#g#g#g#g#g#g#g#g#g#g#g#g#g#g#g#g#g#g#g#g#g",
"#g#g#g#g#g#g#g#g#g#g#g#g#g#g#g#g#g#g#g#g#g#g#g#N#g#4!4!9!:!(!'!$!8#$#O#&#+!o!c!c!c!c!c!>!>!>!>!>!e!e!<!<!=!e!e!>!f!=!e!g r ] k l ] |#g = @ C 7!d < D D 9 ! 2   D#7 6!l#@#J!p ) & , ) ) ) ) ) ) ) ) ) ) ) ) ) ) ) . ! 4#T#9#g 4   1 2   D#5!p#g | 3 % 2 ! ? D > 8!d 7 F A S#g#F#L#F#f#g#g#g#g#g#g#g#g#g#g#g#g#g#g#g#g#g#g#g#g#g#g#g#g#g#g#g#g#g#g#g#g#g#g#g#g#g#g#g#g#g#g#g#g#g#g#g#g#g#g#g#g#g#g#g#g#g#g#g#g#g#g",
"#g#g#g#g#g#g#g#g#g#g#g#g#g#g#g#g#g#g#g#g#g#g#f#G#c#4!5!:!:!'!'!-!8!@#O#8!o!d!d!d!c!d!c!c!c!!!c!c!c!>!e!e!=!f!e!e!>!e!e!< u ] k j W z#F V @ C 7!l > D 6 . 0 , , 4 8 ) 6 6 6 6 & , ) ) ) ) ) , & . ' & ) , + ( % .   4 |#7#g ] 2 2 , ) & 3 8 6 6 6 2 # 0 . 2 6 D >!h 7 F A V#J#F#T#F#N#g#g#g#g#g#g#g#g#g#g#g#g#g#g#g#g#g#g#g#g#g#g#g#g#g#g#g#g#g#g#g#g#g#g#g#g#g#g#g#g#g#g#g#g#g#g#g#g#g#g#g#g#g#g#g#g#g#g#g#g#g#g",
"#g#g#g#g#g#g#g#g#g#g#g#g#g#g#g#g#g#g#g#g#g#g#f#G#b#4!9!:!7!'!'!7!8 w!4#4#2!!!c!!!g!!!c!f!c!c!!!c!!!!!!!c!!!! ~! !>!> z r k k k l ]!f#g T @ F A ~ D D 6 % + , ,     .         ) ) ) ) ) ) ) ) 0 ) 0 ) ) % ( ( 2   P#7#@#g k   2 , & ) ) %         . , . 1 ! 6 G <!! = @ A V#g#@#g#F#F#g#g#g#g#g#g#g#g#g#g#g#g#g#g#g#g#g#g#g#g#g#g#g#g#g#g#g#g#g#g#g#g#g#g#g#g#g#g#g#g#g#g#g#g#g#g#g#g#g#g#g#g#g#g#g#g#g#g#g#g#g#g",
"#g#g#g#g#g#g#g#g#g#g#g#g#g#g#g#g#g#g#g#g#g#g#f#N#H#$!8!:!.!'!#!7!:!/ w!;#O#)!c!f!c!>!>!f!=!=!g!n!v!p!u!u!u!n#&#&!m#*!  W j l j W y#3 } T : C#9 G 9 8 8 0 2 ) 1 & 0 , - . . . ) ) ) ) ) ) , & % 2 & ) ) 2 ( 1 $ Q#g#?#@ ]   0 1 , % ) ) , . . 0 , & 2 % & 1 8 9 > K!a 5 A O!p#G#F#F#@#g#g#g#g#g#g#g#g#g#g#g#g#g#g#g#g#g#g#g#g#g#g#g#g#g#g#g#g#g#g#g#g#g#g#g#g#g#g#g#g#g#g#g#g#g#g#g#g#g#g#g#g#g#g#g#g#g#g#g#g#g#g",
"#g#g#g#g#g#g#g#g#g#g#g#g#g#g#g#g#g#g#g#g#g#g#f#`#H!?!8!:!(!$!+!2!:!8 s!A#;#2!h!c!c!!!f!>!e!<#%#b#g#a#b#a#a#O#a#a#a#c#& k j l l k y!! 7 F @ C#3 N 6     ) 1 0 - 2 $ & ) ) ) ) ) ) ) ) ) ) ) , 0 & ) 2 0 1 2 #  #5#F#T#L % % . $ ) . & ) ) ) , % 1 2 1 2 2 0   6 > O!a 5 F = v#g#C#J#@#g#g#g#g#g#g#g#g#g#g#g#g#g#g#g#g#g#g#g#g#g#g#g#g#g#g#g#g#g#g#g#g#g#g#g#g#g#g#g#g#g#g#g#g#g#g#g#g#g#g#g#g#g#g#g#g#g#g#g#g#g#g",
"#g#g#g#g#g#g#g#g#g#g#g#g#g#g#g#g#g#g#g#g#g#g#f#`#H!?!:!:!$!-!2!3!:!:!8!0#!#>#+!u!n#,#1#:#4#:#4!i!6!@!A!A#!!?!A!A!?!@ { ^ k j j ] y!d = F : C#9 M 8 2 2 #         - , ) ) ) ) ) ) ) ) ) ) , & 0 . 1         Q!p#5#g!p < 3 ) . 3 % , ) ) ) ) ) . %         % + 8 > O } 5 F A v#g#=#g#g#g#g#g#g#g#g#g#g#g#g#g#g#g#g#g#g#g#g#g#g#g#g#g#g#g#g#g#g#g#g#g#g#g#g#g#g#g#g#g#g#g#g#g#g#g#g#g#g#g#g#g#g#g#g#g#g#g#g#g#g#g#g",
"#g#g#g#g#g#g#g#g#g#g#g#g#g#g#g#g#g#g#g#g#g#g#f#`#H!?!:!:!-!1!B!B!:!:!:!8!,!?#;#4#4#/#!!5!8!8!7!1!#!&!,!7!:!-!&!&!%!/ _ ^ ^ k l ] z!d = C @ @#3 L < 9 3 4 < ? ? 8 & . ) ) ) ) ) ) ) ) ) ) & . - - 2 4 ? < R#g#e#C ]   % % . ' , ) ) ) ) ) ) ) - 6 ? ? < ? 4 2 < < R } 5 F = y#g#H#F#g#g#g#g#g#g#g#g#g#g#g#g#g#g#g#g#g#g#g#g#g#g#g#g#g#g#g#g#g#g#g#g#g#g#g#g#g#g#g#g#g#g#g#g#g#g#g#g#g#g#g#g#g#g#g#g#g#g#g#g#g#g#g",
"#g#g#g#g#g#g#g#g#g#g#g#g#`#`#g#f#d#d#d#G#G#]#N#`#>!?!8!:!&!2!A!?!5!:!:!8 `!/#!!9!8!:!:!%!#!#!$!)!'!'!#!7!:!-!(!.!(!, t ^ ^ k ] ] y!d = C @ @#3 R 8 2 3 9#g#7#@!g   1 ) ) ) ) ) ) ) ) ) ) ) , . &   Q#g#g#g#9#@#+   , ( . , & , , & ) ) ) ) 1   <#-#-#5#g < 2 8 D Q!! 5 C A v#g#?#Z#U#S#T#T#g#]#[#[#_#_#f#T#U#`#[#[#[#]#U#g#U#U#g#`#_#[#Y#[#g#U#T#T#T#T#T#T#g#g#U#U#U#g#g#U#T#T#U#f#_#[#_#g#g#g#g#g#g#g#g#g#g#g#g",
"#g#g#g#g#g#g#g#g#g#g#g#g#`#`#g#f#b#b#^#X#D#[#J#N#O!5!:!8 `!0!;#.#(!5!5!:!7!#!2!:!1!1!.!(!$!.!'!)!$!'!'!1!:!7 `!)!)!& t q k k k ] y!d = F = C#- R#,#+!g ?!k 8 ?!    2 ) ) ) ) ) ) ) ) ) ) ) , ' # 6#'#9 y z#g#g ? ) ' . & ) ) ) ) ) ) ) ) ) ) ) 2 6 6 R#C 9!g#+#- ] } 5 C @ v#g#C#C#Z#S#T#U#g#[#Y#Y#[#e#e#Q#T#f#`#[#Y#`#g#S#S#S#U#`#X#Y#Y#Y#]#U#T#T#S#T#T#U#`#`#g#U#g#`#g#g#T#T#T#f#^#X#[#g#g#g#g#g#g#g#g#g#g#g#g",
"#g#g#g#g#g#g#g#g#g#g#g#g#`#`#g#f#c#c#Z#D#[#G#E#P#:!5!9!0#/#/#>#>#4#(!@!?!7 [!+!7!# `!$!(!'!'!'!.!$!(!$!-!1!2!.!'!)!& s q ^ k j ] y!d = F = @#3 U#-#,!k 9!  v! !    2 ) ) ) ) ) ) ) ) ) ) , % 0 % 4#g#J y y#@!v 4 % . & , ) ) ) ) ) ) ) ) ) ) & %   u!f#g 9!h#-#- ] } 5 C @ v#g#C#E#D#Y#Y#[#]#`#g#U#U#U#U#U#R#P#P#P#b#b#Q#S#S#S#T#U#[#Y#[#[#`#g#g#g#g#`#`#[#Y#[#`#e#_#[#[#]#U#U#U#f#e#^#_#g#g#g#g#g#g#g#g#g#g#g#g",
"#g#g#g#g#g#g#g#g#g#g#g#g#]#]#`#e#R#f#g#M#[#F#b#H!j!5#!#O!@!6#b#*!k#1#>#$!9!% `!7!+!-!(!$!'!'!.!7!$!( `!7!:!-!#!'!'!# s t q k k W y!d = F @ @#3 N 6     4 D ? U |   2 ) ) ) ) ) ) ) ) ) ) ) ) . $ Q#J#9#g#7 D   3 $ , 0 & ) ) ) ) ) ) ) ) ) , ' 6 L ? ]#F 9   2 < Q!! 5 C @ v#g#?#I#X#Y#Y#[#`#g#U#U#U#U#`#]#_#Q#P#P#c#^#R#R#Q#Q#R#R#^#Q#S#T#U#_#X#X#X#X#X#_#_#Z#^#Z#X#X#X#X#_#R#R#f#f#f#f#g#g#g#g#g#g#g#g#g#g#g#g",
"#g#g#g#g#g#g#g#g#g#g#g#g#]#[#_#e#R#U#N#N#U#d#H#a!i!4#$#O X!6#R#+!p#%!m#:!A!3!#!7!#!$!$!.!$!(!.!7!#!#!&!1!:!(!#!-!$!$!+!, t ^ k ] y!d = F @ @#3 O 8 & & <#g#g#g!=   2 , ) ) ) ) ) ) ) ) ) ) , ,  #7#g#J#g!k   2 . 0 1 % , ) ) ) ) ) ) ) ) ) 1   D#g#g#g#g 9 $ 6 ? S } 5 C = v#g#?#K#f#R#g#U#U#U#g#g#`#`#[#Y#[#U#N#Y#Y#Y#X#^#b#b#a#a#a#P#S#S#S#^#X#D#D#X#X#e#R#R#^#X#X#X#X#X#Z#^#^#R#U#T#U#g#g#g#g#g#g#g#g#g#g#g#g",
"#g#g#g#g#g#g#g#g#g#g#g#g#_#Z#^#e#R#U#L#L#N#c#>#a!i!@#(!5 Y!4#c#+!l#0#=#>!@!8!+!7!#!$!(!$!$!$!(!- `!-!1!7!:!.!$!#!$!'!'!&!, t ^ ] y!c 9 C = @#3 G 9 9 / 2 8 6 8 6 0 - ) ) ) ) ) ) ) ) ) ) . $ 8 |#g#@#7 D 6 2 0 ' , ) ) ) ) ) ) ) ) ) ) ) ) ) 0 4 6 6 8 8 2 2 ? ? S } 5 C = v#F#?#T#f#R#c#R#R#R#R#U#U#U#`#]#`#T#T#`#Y#X#X#Z#^#d#d#^#K#F#J#J#J#J#L#L#G#K#N#N#J#J#e#e#e#d#c#^#Z#^#^#R#U#T#T#g#g#g#g#g#g#g#g#g#g#g#g",
"#g#g#g#g#g#g#g#g#g#g#g#g#Z#Z#^#e#R#U#T#U#L#e#b#O!i#!#!!2 X!5#d!w#-#H#=#a#/!8!#!7!$!(!(!(!$!-!(!-!1!7!7!&!$!7!.!+!-!'!*!'!& s q ] y!o S F = A#9 G 9 6 6 $     !   ) ) ) & , , , ) ) ) ) ) ) + 0 3!= k ' #   0 , 0 & ) ) ) ) ) ) ) & & , - ' & & # #       & 4 8 ? J!a 5 @ A ~#g#Q#U#N#I#c#d#R#R#U#U#U#T#U#S#S#S#S#U#g#D#Y#]#`#`#g#[#`#g#g#g#g#g#`#[#g#g#`#g#g#g#g#U#R#Q#I#I#I#Z#Z#_#U#T#T#g#g#g#g#g#g#g#g#g#g#g#g",
"#g#g#g#g#g#g#g#g#g#g#g#g#Z#Z#^#e#R#U#L#@#g#8!j#a!i#/!0!2 X!5#d#2#Z#0!m#2#/!3!#!7!$!-!(!(!(!$!1!7!7!1!+!#!$!(!7!&!(!'!*!*!'!, t ] r#,#g T = C } j ? ? 8 , 2 0 2 . , , & , , % ' ) ) ) ) ) ) ) & %     & , . ) ) ) ) ) ) ) ) ) ) ) ) , & 0 0 , & . 0 ) 0 2 % 9 D ? y n 5 @ i#9 y#5#g#X#C#E#C#G#]#X#G#G#@#N#L#G#G#M#Y#W#B#Y#Y#U#@#J#]#3!c!d!d!h!a!|!}!|!|#6!|!l!l#D#T#S#Q#I#?#I#^#X#X#`#g#U#g#g#g#g#g#g#g#g#g#g#g#g",
"#g#g#g#g#g#g#g#g#g#g#g#g#]#Z#^#e#R#U#T#L#U#5#&#>!j#/!0!2 Y!4#f#G#9#%!l#*#/!3!#!7!-!(!$!$!.!-!7!#!#!7!-!#!$!.!7!&!.!)!*!'!.!% w u ] z#F T A A 7!l < D 3 ! . - . %         ) 0 & ) ) ) ) ) ) ) ) ) 1 0 ) ) ) ) ) ) ) ) ) ) ) ) ) ) , ' , ! # & ) % & , ) % % 4 D D!w = C @ V#7!<#9#Y#W#W#B#D#G#U#g#Y#W#A#A#V# #V# !~#V#V!}#W#]#U#T#@#9!h!t!t!t!s!V p!V!V!V!b!|!w#W#W#T#S#Q#I#d#c#X#X#]#`#g#g#g#g#g#g#g#g#g#g#g#g#g",
"#g#g#g#g#g#g#g#g#g#g#g#g#]#]#`#e#R#g#F#9#g#7#&#H###.!0!7 Y!4#g#9#'#%!p#*#4!8!+!7!#!#!(!1!7!7!.!$!-!-!$!$!$!.!2!&!(!.!(!1 s _ P R U |#g F @ A 9!h ? ? 4 3 . - & 3 6 9 8 4 ' ) + & ) ) ) ) ) ) ) ) ) ) ) ) ) ) ) ) ) ) ) ) ) ) ) ) . % , 4 6 3 2 6 ) , , ' 3 4 D ?!h 7 I @ S#g#g#[#W#W#D#Y#Y#W#A# !~!{ p p!R!W!V!V!V!V!a }!t#6#3!|#6!}!s!b!V!V!V p!V!y!x!r!r!V!q#V#W#W#U#S#@#I#d#X#X#[#`#g#g#g#g#g#g#g#g#g#g#g#g#g",
"#g#g#g#g#g#g#g#g#g#g#g#g#]#]#`#e#R#d#g#[#Y#7!k#P#<!i#(!1 X!4#g#+!l#)!p#'#4!3!+!7!#!(!.!1!'!'!$!(!$!$!'!'!$!#!-!$!.!&!% _ Z P P P D u#F v A F 7!h > ? 8 6 ' 1   D#g |!e!  $ 0 % , ) ) ) ) ) ) ) ) ) ) ) ) ) ) ) ) ) ) ) ) ) ) ) ) + 2   L#g 6 <#+ 3 % 0 - 8 8 D D!h < I A y#K#<#9#A#W#L!|!|!z!W!R!S!I!R!R!S!y#A#3#6#3#A#6!a!a!b!V!V m!R!R p p p!r!x!_ m d b b d p!}#A#W#G#S#U#e#X#X#_#g#U#g#g#g#g#g#g#g#g#g#g#g#g",
"#g#g#g#g#g#g#g#g#g#g#g#g#`#`#g#f#b#b#Z#D#M#3!v#f#<!j#$!1 X!5#U#+!p#)!n!v#4!3!%!7!&!(!#!$!.!1!.!$!#!)!*!*!$!#!$!'!'!1 _ D P N Q P L u#g#D A A 7!o < D > ! & 3 $ <#J 6 8!= % % 2 ) , ) ) ) ) ) ) ) ) ) ) ) ) ) ) ) ) ) ) ) ) ) ) ) ' 2   D#g 3 8!n 3 & . #   D D <!o = C C#L#H#b#W#V#V!~!V p o!I!T!]!]!]!]!]!_#6!k!k!u!n#-#W#W#A#V!~ p!V!{!{!{!{ o m!S!T!T b b b b!q#A#A#Y#@#J#_#Z#Z#e#g#U#g#g#g#g#g#g#g#g#g#g#g#g",
"#g#g#g#g#g#g#g#g#g#g#g#g#`#`#g#R#b#b#Z#D#`#7!k#f#<!i#(!+ X!5#g#+!n#&!v#*#/!3!%!7!(!(!$!.!.!(!$!(!'!'!*!)!(!(!'!'!- s Z P N J N P L U U#+ C A = O } 8 > < 6     ?#F!>!n | # 2 - ) ' ) ) ) ) ) ) ) ) ) ) ) ) ) ) ) ) ) & ) , & , & . . ! D#9!=!l!e 4   + 9 ? < k#5 A @ C A#6#W#A#V!b!R!T!I!]!Z!Z!]!]!Z!J!J!P!J!r!}!w!u!p!m#)#'#-!w#A# #6!{!V!R!R!S!T!I!I h!J g o d!R!V# #W#D#K#c#^#_#`#U#U#g#g#g#g#g#g#g#g#g#g#g#g",
"#g#g#g#g#g#g#g#g#g#g#g#g#`#`#g#R#c#c#K#G#g#7!l#g#<!@#(!1 X!5#e#0!m!v!v#)#/!3!%!7!'!'!*!.!$!#!-!)!*!*!$!$!*!*!*!+ _ R L P L N P P P P D!c V A A = ~ M G 9 4 9 8 ?#g S U!g ! 2 2 % 1 & . ) ) % ) ) ) ) ) ) ) ) ) ) ) ) , & . & . & - ' ) 2 4 4 G#- 3 9 6   < D z!o = C F i!z!W!U!S!R!I!P!Z!Z!Z!T!J!J!J!G!D!F!C!Q!`!~!|!l!n#%#'#+#-!w#-#B!s o!G!D!F!Q!J h h!T!I!S h g!I!R!~#D#P#H#I#]#D#L#g#g#g#g#g#g#g#g#g#g#g#g#g",
"#g#g#g#g#g#g#g#g#g#g#g#g#`#U#g#R#P#e#g#M#g#7!n#f#:!?#!!2 X!5#g#*!p!u!p#)#.!0!,!7!$!)!.!(!#!&!&!$!'!'!#!(!*!*!'!, Z L M P L P P P Q L L S!o = F = J#g S 8 u#g y 8 | |!! S # . % 0 . 0 # ) , . ) ) ) ) ) ) ) ) ) ) ) & 0 ) 0 2 # ) . 0 $ & 2 # 8 v 1!e!l ? < k!d / C F I!}!Y!R!Z!Z!Z!Q!Q!D!G!G!J!T!Z!J!H!D!E!L!E!G!R!z!w!k!k!l!l!l#'#'!u!|!X!G!O!E!F!P!Z!I g!J!I g!P e g!W#W#E#P#b#D#D#U#T#g#g#g#g#g#g#g#g#g#g#g#g",
"#g#g#g#g#g#g#g#g#g#g#g#g#`#U#g#R#P#e#f#[#`#7!m#d#>!9!:!1 X!5#f#)!p#'!p#)#.!0!%!7!#!(!.!$!(!#!&!&!#!-!+!$!)!)!& w Z P Q L L N M P L P L U!h = F = S#g E N#g#g 6 $ + ' $ ' ) % , . . 2 3 2 . % ) ) ) ) ) ) ) ) ) ) ) ) ) 0 , ) 3 . 0 , ) . % 1 % 1 % 6#g#g N S!a 7 A E K!z!_!]!]!Z!G!D!C!F!D!H!Q!J!Z!G!G!H!O!O!D!D h!V#6!g!f!c!! ~!p#+#,!t!~!R!D!F!F!D!P!J b a a c!H!D g!X#A#W#K#E#X#Y#G#L#g#g#g#g#g#g#g#g#g#g#g#g",
"#g#g#g#g#g#g#g#g#g#g#g#g#`#U#g#R#P#e#e#X#`#7!k#b#:!9!2!1 X!5#e#)#%!o!l#?#.!0!+!7!+!#!(!.!(!(!+!%!%!%!+!$!(!1 [ Z P N P L L N N M Q L L W#7!! A = A z!o D Q 9 2 2 2 . ) , % 1 1 $         ) . ) ) ) ) ) ) ) ) ) ) ) ) ) . %         , 1 ) 1 . * * , 2 ? u D#' V : = V#3!{!J!H!H!P!O!K!O!E!O!Q!P!Z!]!]!P!D!F!C!H!O!C!Z!~#3!!!d!d!d!g!k!h!o#W!{!I!H!E!F!D!H!G!C!C!C!D!P c d!W!~#W#E#P#c#X#Y#g#g#g#g#g#g#g#g#g#g#g#g",
"#g#g#g#g#g#g#g#g#g#g#g#g#`#U#g#R#c#e#f#M#`#5!m#a!i!:!2!. X!5#g#0#%#+#0#1#.!3!+!7!+!+!-!1!'!'!(!% s s!-!'!&!, Z L Q N P P P N G N L U k ] y#7 v A = 7 z W < 9 8 2 0 % 2 ) . # % 6 D D D D 4 ' , ) ) ) ) ) ) ) ) ) ) ) & % 6 ? ? D ? 4 . 2 & * 1 . ( 8 < ? W v = C A z#A!R!G!C!F!C!C!N!K!L!C!O!Q!Q!H!H!Q!Q!C!O!O!K!M!G!X# !w!d!a!d!!!g!k!k#+#6!x!J!E!E!O!F!P!O!O!O!F!C!D c d p#A#]#H#P#X#[#g#g#g#g#g#g#g#g#g#g#g#g",
"#g#g#g#g#g#g#g#g#g#g#g#g#`#U#U#R#P#e#^#X#f#8#&#a!@!8!7!1 X!5#g#0#%#0#P###/!3!+!7!+!+!$!'!*!'!(!% s s!$!)!% w Z P O M P P L N J M N k k ] y#g#g S C F <#- < L < - $ & % 2 1 1   9#+#-#9#g 8   . ) ) , . . . . ) ) ) ) 1   R#g#5#9!k 6 & , * . # ) & 4 D G#3 < F B K#W!{!J!F!O!E!E!L!K!N!M!K!O!C!H!Q!D!P!Q!C!O!M!M!K!C!I!W#A!f!c!a!a!e!=!f!p#-#A!^!G!E!K!L!K!L!E!F!O!C!F!G b o#V#W#E#E#E#g#g#g#g#g#g#g#g#g#g#g#g#g",
"#g#g#g#g#g#g#g#g#g#g#g#g#g#U#U#R#R#e#^#X#f#8#&#a!i!8!7!. X!4#U#)#%#?#H###/!3!$!7!+!+!(!'!*!*!'!% s [!#!)!% t ^ S O N P P L N O N W k k k r ~#9 J A C 7 T z 9 > 4 9 4   1 * 1 % 1 6 4 R#g 6   ) 1 1           . & 0 ) 2   Q#g ? 8 4 ) 2 ! 1 # 4 6 ) 9 V#3 S 7 C B O!~!J!H!E!O!M!M!E!L!L!K!L!E!E!F!D!F!F!O!L!M!N!L!F!C!P![# #-!!!a!d!l!=!=!g#,!w!{!S!C!M!M!N!O!F!L!O!Q!H!C!C g!Y#W#J#E#7#]#g#g#g#g#g#g#g#g#g#g#g#g",
"#g#g#g#g#g#g#g#g#g#g#g#g#g#g#U#R#e#e#`#Y#g#8#&#a!i!:!7!. X!4#g#%#1#*!6#;#/!3!$!7!-!(!$!'!*!*!'!+ s s!$!'!+ t q j T N L P L N M U u k ] k ] r#+#3 O A = =!c S > 9 4 - 4 * % & 1 (   6#0!l 8 ! , % % 4 8 < ? 8 # 0 + & 1 $ ?!> y! != 4 0 . 1 4 & 4 < < v!n B @ T S#3!x!C!K!L!E!M!K!F!F!E!O!E!L!E!O!O!O!E!K!N!N!N!L!F!E!F!G!Y#A!d!d!c!p!=!f!=!k#*#6!W h!O!M!K!F!D!E!O!P!H!O!O c d#V#W#J#X#[#g#g#g#g#g#g#g#g#g#g#g#g",
"#g#g#g#g#g#g#g#g#g#g#g#g#g#g#U#R#e#g#`#Y#g#8#&#a!@!:!7!1 X!9#d#1#) |!j#O#/!3!$!7!(!$!'!'!*!'!'!&!%!%!(!'!+ s q l j U P P Q N L U j l ] k k l V#+!h = K = O!! l > < 8 6 % 2 * * 3 $ < |   - 0 . 2   L#g!  | U 0 ) 0 . . % 6 L D r#' 4   3   6 8 G < v j 6 F @ v#g!s h!L!M!M!M!L!O!F!F!F!O!L!L!L!L!L!L!L!M!N!N!N!K!F!O!O!D!S!{!|!!!=!!!d!d!>!e!k!u# !T!D!L!F!F!F!O!E!C!E!O!F!P d!R!z#6#_#K#g#g#g#g#g#g#g#g#g#g#g#g",
"#g#g#g#g#g#g#g#g#g#g#g#g#U#U#f#R#e#`#`#Y#g#<#&#a!i!:!7!1 X!9#P#<!j!j#>#O#/!3!+!7!(!'!'!'!'!(!(!-!+!-!(!'!$ s q k l W Q L Q N L M W l l k k k j y!f < B F F 7#+ = > D 0   % 1     ! < | % 3 0 % 0   ?#F 4     0 + , . 0   U#g#g#g!g 4 ' $ ' $ D G =!o 7 S F = v#W!R!D!O!L!M!M!L!O!F!F!F!O!L!K!K!K!L!L!L!K!M!M!L!L!E!L!L!F h!_!|!!!f!c!c!c!d!=!e!h#6!z!I!D!H!F!M!M!O!F!F!E!K!F!G d!V!}#W#_#g#g#g#g#g#g#g#g#g#g#g#g",
"#g#g#g#g#g#g#g#g#g#g#g#g#U#U#R#R#R#`#]#Y#g#=#&#a!i!8!2!1 X!9#b#1!j#>#8#.#4!3!%!7!(!'!'!$!(!- `!-!$!'!$!'!'!% t k j j U Q W U Q U r j ] S R R L U#7#3 i A C C E } G > 6 6 ?   D!  0 2 6 % 1 % . 0   D#L! !> y ) ) - 0 2 % 4 6 6 8 9 4 3 6 0 8 < v!h B A F @ i!}!{!J!C!E!E!O!M!M!M!O!F!O!L!L!M!M!K!L!L!L!L!L!L!C!O!L!K!K!E!D!S# #3!k!c!d!c!d!f!=!g!|# !_!J!G!L!N!N!L!F!F!E!N!N e d!S!}#W#X#g#g#g#g#g#g#g#g#g#g#g#g",
"#g#g#g#g#g#g#g#g#g#g#g#g#f#e#R#R#R#`#`#Y#g#=#%#a!i!3!-!1 X!5#b#####>!m#%#4!5!%!7!$!'!'!(!+!+ [!-!'!)!(!'!'!+ t ^ k j j j l k ] r ] U N N L L Q L k#'#9 i A F = E!f v U ? ? 9#7 y 6   # % % ( ) 2   D#g P U!f 2 . . + % , $     6!l#7 6 8 > U r z = A F @ i#A!r!I!G!O!K!F!F!O!N!N!L!F!E!L!K!M!M!K!L!O!O!O!O!O!D!F!M!K!M!M!C!I!r#Y!l!!!c!f!!!f!!!c!o#6#V!U!H!N!N!N!M!L!O!E!M!N!E c b p#A#X#f#g#g#g#g#g#g#g#g#g#g#g",
"#g#g#g#g#g#g#g#g#g#g#g#g#f#d#d#R#R#g#G#D#M#8#&#H!i!8!-!. X!5#b!e#H#8!m#)#4!5!+!7!+!#!&!&!-!, [!%!+!'!(!)!'!#!, q ^ j l l l k k k L N L N Q N L P L ?!l#3 E F F = 7!o#- E < R!    + 4 ( 1 % ) 2 2   ?#7#+#9 z 3 - 2 - % & 2 * 6   ?#g P D N!|!a 7 O C F F!|!y o!D!O!K!K!O!F!F!N!N!N!M!N!K!M!L!E!O!E!E!E!O!O!O!O!O!L!M!N!M!C!P!^# #W!d!c!f!=!>!f!!!d#-#A!r!G!K!M!M!K!K!L!L!E!L!O e b!V#A#[#e#B#B#Z#Z#]#[#T#S#T#R#R",
"#g#g#g#g#g#g#g#g#g#g#g#g#_#^#c#f#U#U#G#D#M#?#5#O##!:!.!. Y!5#P#2#=#)!m#*#4!3!#!7!+!,!, `!,!/ _ t!,!+!&!(!)!'!& s q k j j j k k k Q Q L N L N P L R L W#@ | = A C F = F!a > D L 8 2 9 # + . 1 1 , 1 4 8 6 6 6 3 - - $ 2 1 % # 6 4 ? O D k#- B = I F = i#3!}!J!F!E!M!M!K!O!F!F!O!M!N!N!N!L!C!C!F!C!O!K!K!L!O!O!K!L!F!M!N!K!O!D!J!Y!}!!!e!>!c!f!f!c!d!w#+!{!I!F!O!L!L!M!L!L!L!E!O e b d!b#B#?#W#B#c#I#Y#Y#L#S#T#^#c",
"#g#g#g#g#g#g#g#g#g#g#g#g#_#^#e#f#U#U#N#[#]#d#H#a!i!8!-!1 Y!5#b#@!l!m#&#*#4!0 `!7!%!,!, _ _ q q _ s!,!%!&!)!*!'!% t q k j l k r W Q Q N N L N Q L Q Q D ]#9#W i = A A = V!k!c U S < 3 6 D 1 4 9 % % 3  !g!    4 ( 4 ? $ 4 9 3 3 ? ] S!h y 7 A B A = V#A!~!S!G!E!O!M!M!K!O!O!E!E!M!N!K!E!C!Q!]!H!C!N!N!N!N!L!O!L!O!F!L!M!K!L!C!J!U!}!h!>!c!c!f!f!c!c!!!o# !T!G!O!O!L!M!L!L!L!M!N!K!G b!S!|#5#T#I#P#R#]#Y#M#T#Y#W#W",
"#g#g#g#g#g#g#g#g#g#g#g#g#_#[#^#f#U#g#g#D#M#E#H#O##!8!1!1 Y#!#F#@!n#*!m#&#4!0!&!7!&!&!% s Z ^ ^ ^ t s _!,!$!*!*!$ s t ^ k l j l R L L N Q Q L L R L L R G r!g!w l v S F = 9 = ~ } u W D D 8 8 < 6 8 9 +#0!m 4 D 6 8 ? 6 8 D E W v }!! 9 = C A S v v#A!q o!G!F!O!E!E!L!L!K!O!E!E!O!E!H!P!Q!Q!D!O!M!N!N!N!N!K!L!L!F!F!O!L!K!L!D!P!T!y#3!!!c!a!c!f!c!>!<!k!|!x!G!F!E!L!M!L!L!L!M!N!N!O h g!V#B#@#S#Q#P#d#Y#[#`#[#Y#W",
"#g#g#g#g#g#g#g#g#g#g#g#g#]#[#Z#^#e#g#`#G#G#I#O#O!i!9!%!& [#;#=#@#'!m!n#0#4!0 `!7!-!'!$!+ _ ^ ] ] ^ _ _!/!&!'!*!*!& t q k j i j U L L L N N N L Q N L L Q G D!!#g#g W = F I C 7 7#9#g < > D ? ? ? D 8  #*!m * D D D > > D = 9#g!o / 5 C F C @ V#g#A!y!G!D!E!E!E!E!E!O!L!M!M!K!O!D!H!J!]!]!F!M!N!N!M!L!O!L!K!M!L!F!F!O!L!M!L!F!D!I!V#3 ~!d!a!a!c!>!=!e!=!w!z o!D!E!L!L!E!F!F!L!N!N!M!D c!U!~#D#S#S#P#b#e#`#U#S#U#]",
"#g#g#g#g#g#g#g#g#g#g#g#g#]#[#Z#^#e#`#`#G#K#b#H#O!i!5!9#!#!!;#R#3!o!n!v#&#.!0!%!8!%!1!-!% t ^ W ] ] q _ s!%!'!*!'!& t q k j j j ] N N L N L Q R L L N Q P Q N R |#=#) Q J C C C C = E!l!f!k } E M M G D U U D S G N T!c!l!h!l F = F C C F F O#-!}!R!I!G!O!N!M!O!O!O!E!K!M!N!M!O!D!P!]!Q!H!F!M!N!N!L!O!F!F!F!E!L!L!O!O!L!N!E!F!F!G!U#3!=!c!c!a!c!>!e!e!<#+#V!r!G!E!M!K!O!D!H!D!E!O!O!C c!I!W#A#S#L#c#b#b#f#T#S#S#S",
"#g#g#g#g#g#g#g#g#g#g#g#g#]#[#[#^#e#`#`#`#f#P#H#O!i#$#!!/ X!4#g#+!o!v!m#)#.!/!%!3 [ s s _ Z ^ U ] ^ ^ Z Z!,!+!#!-!, t q k j j j l R N L N Q L L L Q L L L R N R q q#.#= ~ A C F F A A < = 9 E!f!c!d!d!d!!!c!f!f!f!d } B = = = = C F F A l#7#7#3 p b h!F!E!M!M!E!O!E!E!O!M!N!C!F!G!Q!Z!H!F!F!K!K!E!C!F!F!F!F!O!M!M!K!O!K!N!O!C!F!C!Z!}!=!f!>!c!a!c!e!<!e!>!|#V!S!C!M!K!C!D!H!H c!C!F!H c g!R#A#U#Q#X#E#^#Z#N#S#S#T",
"#g#g#g#g#g#g#g#g#g#g#g#g#]#[#]#_#e#g#`#M#^#P#H#O!j#/!3!/ X!4#f#+!o!v#&#)#/!2!#!8 t q q q q ^ U Z Z Z Z Z w s!,!/ t q ^ k k l j l k S N L L R U U N N P P U k r x _ x!< y S F C F F F C F C A 7 7 7 7 7 7 7 7 7 7 7 7 A C C F F F C C F i!!!h!d p o c!K!O!F!K!K!E!O!O!L!M!M!O!F!G!T!Q!D!F!F!O!E!F!Q!Q!P!D!E!M!N!N!M!L!L!M!F!D!F!C!T#V!k!f!=!c!d!c!=!e!g ~!l#A!R!D!M!K e!H!P!H!D e!F!P h c d!t#D#U#Z#X#Z#X#Y#U#U#[",
"#g#g#g#g#g#g#g#g#g#g#g#g#`#]#g#R#e#g#M#D#_#I#H#O!j#/!3!/ X!4#g#+!o!n!n#)#/!2!#!5!;!6!;!6 { ^ Z Z Z Z Z Z Z Z t q ^ k k ] r k k k r W L R L U r k N N Q L W k ^ q _ t x y V F F A C A F F C F F I F F F F I F I F F I A F A F C C C F T l }!d!a o h g!D!O!L!K!L!O!O!O!L!K!C!F!D!P!]!J!G!H!D!C!F!Q!]!]!P!E!N!N!N!N!E!E!C!O!D!G!P!H!I!z#3!=!f!f!c!d!c!!!c!>#0#W!Y!G!L!L!O!Q!H!G!H!F!F!C h c b p#W#D#X#E#X#X#Y#U#U#N",
"#g#g#g#g#g#g#g#g#g#g#g#g#g#g#U#R#e#g#M#D#`#^#P#O###/!5!/ X!4#f#+!o!v#&#:!A s w#/#4#2#1#:#.!6 { { {!6!6 {!6!6 ^ ^ ] k l u U P P W r k l N N Q U ] k ] ] ] ] ] ^ q t q x x j O F C A A A F F C C C C C C F C C C F C C A C C C C C C F T n z!a p o h!C!G!F!K!M!L!L!O!O!O!O!F!H!Q!Q!]!]!]!]!Q!H!Q!Q!P!Q!D!C!N!N!L!C!C!D!Q!P!Q!J!Q!Q!T!q#A!h!!!c!!!!!d!c!c!e#0#B!~!J!O!E!E!C c!D!H!F!C c c b b!V#V#W#Y#^#Z#]#U#S#S#S",
"#g#g#g#g#g#g#g#g#g#g#g#g#g#U#R#R#e#g#g#Y#[#M#E#P#:!6#$!% X!5#a#-!o!v#&#8!4!4#4#*!m!p#%#)#:#<#=#7#=#8#<#8#=!m k k l j U U R L P P W W r R L L U W l l k ] ] ] ^ q q q q q k S F C C C C A C C C C C C C C C C C C C C C C C A C C C F T n z!V o h h h h h!K!O!L!L!L!L!O!D!D!Q!]!]!G!G!G!H!Z!]!Q!D!C!K!M!L!E!D!D!P!J!P!P!J!J!I b b b!R!x!~!t!o!l!d!c!c!c!!!k#*# !T!F!C!O!F e!D!G c a b b b b p!b#Y#J#J#f#U#S#Q#Q#Q",
"#g#g#g#g#g#g#g#g#g#g#g#g#g#T#R#Q#R#U#`#D#D#g#F#?#8!;#!!, X!5#b#'!o!n#0#O!5!4#5#*!v!u#+!m#&#*!w#'#'#&#'#'#' y ] l l V N G N P Q L R U R R L R r k k k k ] ] ] ^ q q q q q k S F F C C C C C C C C C C C C C C C C C C C C C C C C F F T i n p o h h h g c!C!O!E!M!M!L!O!D!P!Z h h!H!D!H!G!G!G!D!F!O!M!C!D!H!J!J!T!`!Z b b b b b b b b b!R#A#D#g!g ~!>!>!>!g!v#6!T!C!O!O!C a!G c b b b d b b p!s#U#@#Q#`#T#T#Z#I#I",
"#g#g#g#g#g#g#g#g#g#g#g#g#U#U#U#Q#c#e#g#D#Y#D#J#I#<!6#!!& X!5#b#0!k#,#P!i!A#4#0!g | | ~!>!!!c!d#+#)#%#+#+#- z k j l S M N M L L L R W L L R j k k j k k k k ] k q q q q q ^ S F F C C C C C C C C C C C C C C C C C C C C C C C C F F T i n o g g g g g b h!F!O!O!K!K!E!H!Z!J!G!H!C!H!D!H!H!H!F!C!C!F!H!Q!]!Z!Z!J g d g!T!T!S!T!S!S!I b d!V!b!t#6#3!f!f ~!g#*#6!T!D!F!C c h c b b b b!z!z!z!{# #@#@#S#g#U#U#X#X#X",
"#g#g#g#g#g#g#g#g#g#g#g#g#`#`#U#R#c#R#U#M#Y#B#D#[#5!6!B!$ X!4#b#'!p#+#b!6!?#a#*!=! ! ! ! !  ~ ~!!! !e z r u r ] r ] N L N N Q R R ] W r R U l ] k j ] k k k k k q q q q q q ] S F F A A A A A C C C C C C C C C C C C C C A A C F F O T n m g g g g g g d h!D!C!D!F!O!O!H!]!J!H!H!F!D!P!G!H!G!P!Q!Z!Z!J!J!J g d g!T!T![![![![![![![!]!Z!] d d d!R!q#6#6!h!h!w# !T h!J c b m m n!r!z!r d m m o!x#J#9#D#P#S#S#R#Z#X",
"#g#g#g#g#g#g#g#g#g#g#g#g#[#Y#g#e#c#R#U#G#G#]#F#C#<!4!2!# X!6#e#+!p#0#O!6!4#O#*!g!k!k!>!!! ! ! ! !> v L L L L Q W N L Q P L R U k l W j r k j l k l v u r r r r r u x x x x u k W V S S S O O F F F F F F F F F C F F F F O F O T V i i n n m g g g g g g e c a a e e e g!T!Z d h e e e!Q!Q!J!T!T!J d d g g!S![!`!^!x!x!r!q!x!r!_!^![![![![!`!] d d d p!~#A#-#9!x!W!x!y!x!z!y!{!Y d b b b d!G!x#W#B#X#P#Q#S#Q#d#Z",
"#g#g#g#g#g#g#g#g#g#g#g#g#[#Y#`#R#c#Q#R#L#T#K#E#H#O!A!%!- X!?#b#+!l#0#O!? {#a#,!v!v!v!l!g |! ! ! !f S L R Q N N L R Q L Q Q L L U l j j l l j r W y!c z y v u v y x { { { { { y u u u u u r l l i i i i i i i i T i i V V i i i r u v v v n n m m g g g g c c b b b b b b!y!S b b b a c!]!]!] g d b b o!`!_!V!W!W!q#V#W#9#B#A#V#V!r!X!W!Y!^!X!_!Z!J b b p!z#Y#D#A#W#A#W!| p o g d b b b d!I!I!_# #D#@#f#]#`#U#f#Z",
"#g#g#g#g#g#g#g#g#g#g#g#g#[#Y#[#f#R#R#K#J#f#b#H#O#$!9!+!' X!9#b#'#+#)!?!0#.#0#,!u!n!v!v!v!v!l!>!!!  U L L N Q L Q N L Q N N L N N W l l j j j W u!k!! | | | z z | | |!6!6!6!6!6!;!@!i!<! !  ~ } z z z z z z z v v v v v v y z z | | | z y y v n p p m g d d b b b b b o!_!X b b o!S!T!T b b d d m!W!W!q!q!b# #V#V#6#7!w#+#'#-#B#W#A# !b!q!R!_!r!_!`!T!T d o!R!{!y p!R o d h b b c b c h!I!I!`!Y m#3#L#G#Y#Y#g#N#^",
"#g#g#g#g#g#g#g#g#g#g#g#g#[#Y#`#f#R#R#N#L#f#P#H#H!i!9!1!' X!9#a#'#+#.!5 t#:#&!n!v!v!v!n!n!u!v#, | L L Q N R L N k U L Q L L Q N M S W V j j l v!l!  y | | | | |! ! !<!<!6!6!6!6!i###$#(#(#(!m!m!h!t!t!b!b!b!a!a!a!!!!!!!!!!! ! ! !  | z y y y y z z p o o m m m m b o!U d d!R!^!S o d d!V!V!V!r!q!z# #V#A#W#9#5#<#0!m!n!n!n!m#2#C#I#9#W!z!V!W!V!V!r![!`!Z d c h o d b a c c c c!G!H!G!T!]!]!y p d!w#g#G#W#X#`#R#c",
"#g#g#g#g#g#g#g#g#g#g#g#g#`#]#g#e#R#g#`#[#M#I#H#H##!9!+!. X!9#a#+#+#.!8 s#1!p!v!v!n!u!v!v!u!n#, | L R L N Q L U u r Q Q L N Q L N P L G j j y!u!l!= v ~ ~ | |! ! !<!<!<!6!6!6!6!i#$#$#(#(#(#&!m!w!t!t!b!b!b!h!d!d!c!c!!!!! ! ! ! !  | z y v y y z z }!V!V!V!V!q!r p!X b d!]!`!` b m!R p#A#A#A# #V#V!b# #A#5#%#%#%#%#&!n!m!u!m#2#P#<#)#@#W#V!V!R!r!V!`!U!]!T e!H g b c a c!J!J!H!H!D!H!]!]![!{ o b!|#T#M#B#B#]#U#I",
"#g#g#g#g#g#g#g#g#g#g#g#g#g#f#f#e#f#g#[#W#Y#D#?#H##!9!1!- X!9#a#+#0#/!: w#1!u!v!v!v!v!v!n!n!u#, | ? Q N N L Q l r r L L N L Q L R P R N R ] k u!! |!f! !  ~! ! ! !=!e!<!6!6!6!;!j#$#$#(#(#(#&!w!w!t!s!b!b!s!h!d!d!c!c!!!!! ! ! ! !  | z u u y y z | ~!a!d!t!t!}#6 p b o![!T d m m!{!z!z!s!b!b!b!s#V!t#6!w!u#%!v#&#&#&!m!v!v#*#2#E#C!m#5#7#B!z!V!V!x!`![!]!]!Z!J c c a e!D!G!H!G!Q!Z!J!Z!]!U!{ p d!|#g#S#X#C#M#S#Q",
"#g#g#g#g#g#g#g#g#g#g#g#g#f#e#R#R#f#`#[#W#W#X#=#H!i!8!,!1 X!9#E#'#<#$!3!4#5!o!v!v!v!v!v!v!v!u!v!  U R L Q L R u r r k Q Q L R r ] R L Q L R r ] k!m!l | |! ! ! ! !e!g!<!6 { {!@#$#$#$#(#(#(#.#*!w!t!s!V!q!s!t!h!d!c!c!!!! ~! ! ! !  | y u u y y y |!!!h!h!o#+#5#@#6 p!U!S d!_!z!z!b!t!z# #6!}!~!z#V!b!|!t!n#&!p!u!v!p!v!p#'#'!p#+#7!u!n#*#*#B!}!Y!x!_![!Z!J!J g!G!G!J!G!H!J!J!T!Z!`![!Z![!^!z p!R!~#7#S#I#E#M#S#Q",
"#g#g#g#g#g#g#g#g#g#g#g#g#f#c#R#R#f#`#D#B#[#E#<#>#(#!!1!1 Y!5#a#'#4!0 _#/#%!p!v!v!v!v!u!v!l!v#*!v#, k N L Q L ] k k ] r k W j r r i K L R R k k ] u | v z! !e z! !g!k!g!6 x {!i#(#$#$#(#(#$#$!m!|!|!s!V!W!s!t!h!d!c!!!! ~ ~! ! ! ! !  y u u z z y |!e!l!n!u#+#'#%#B!b b o!_!z!s!z#-#@#7#7#+!p#B#6!z!s!s#6!v#%!p!p!p!p!p#'!p#+#+#'#7#-!v#*#)#0#T!r!U!^!T g c!H!D!H!H!I!U!^!]!T!Z!X!^![!Z!T!^!{!V!r!s!s#T#J#Z#M#S#S",
"#g#g#g#g#g#g#g#g#g#g#g#g#g#g#f#U#U#g#G#]#d#>#O#;#;#;#!!2 X!6#c#%#4!3 t#.#%#'!u!v!v!v!v!v!u#'!l!n#- U L N R L U u k k k k k k r l m i L P R r k j W l u!l!k!n u!g!v!m#&!j ^ {#4#4#!!@#;#:#:#:#>#C!} p o!x# !h!d!!!g!f!>!!!>! !g!!!e!!!  W U!g!  U j!h!v!w!m!n#'#+!} p!V!R!y!b!t#A#B#@#0!p#+#%#3!|!b#V!t#3!n#&!p!p!p#'#'#'#+#+#'!p#@#9!k#)#+#-#D!Y!Z!`!T c!G!F!C!C!J o# !~!W!_!^!^!^![!Z![!X!z!V!~!V!s#g#L#Z#^#R#T",
"#g#g#g#g#g#g#g#g#g#g#g#g#g#`#`#g#U#J#g!g#&!i x!0!0!0!B#/ [!6#f#%#4!0 _#4#&!n!v!v!v!v!v!u!n!n!v!v!v!g R L N Q L U k k r k k l r T b m M Q P U ] W j L R R y!v!g!g y!m!g#1 q!6#>#:!?#4#(!4!4!4!0 x!m!Y d!R#A!h!h!d!!!c!!!! ~! ! !g!g!g | Q U y y!g!e!u!u!u!v!p!u!|!z m!r!z!}#V#7#7!w#+#)!n!u!u#'#3!s# !t#9!l!u!u!v!v#'#'#)#'#'#'!p#-#7#+#+#A# #V!x h b g c!P!C!D!G!T!{!V!b!~!{!_!T![!`![![!^# # !x!X!s#`#Q#`#b#Z#Y",
"#g#g#g#g#g#g#g#g#g#g#g#g#]#Y#[#`#U#F#g!<!j!@ [ [ [ [!,!0#$!6#Q#>#$!0!4#1#&#&!p!v!p!v!v!v#'!n!u!n!n#+!k Q L N Q L L W ] l l ] U I d d J P P M L N G M P L L N R!!#*!e |#>#O q!@#;#$#4!4!, [ ` ` _!j!y h o!|#7!h!d!c!d v u r r l z z z U |#'!n!< u!p#'!p!p!p#'!|!z p!q!}!|#A#3#'#'!u!n#&!u!u!p#'!|!q!~!t#3!l!w!v!v#*#*#*#*#+#*#,#-#,#F#A!}!s p o!Y!R c!G!G!H!Q!J!U!y!X!_!V!q!~!Y!U![![!^![!U#V!|!V!S!V#`#Z#]#b#X#W",
"#g#g#g#g#g#g#g#g#g#g#g#g#`#[#]#N#U#F#g!<!j!i!9!3!/!8!,!/#$!@#H#:!4!5#O#)!m!m#&!n!v!v!p!p!p!p!p#'!p!n#0 ~ S S N Q L U k k l ] G I g d J S P N R M M Q M N N Q D ]#2 y!m#)#a t!i#O#O#:!A!,!8!B!B!B!j!s h!G p#6#7!c!!!c!g!c!h!g!= k ] ] W#-#'#%!= ]!!!v!p#)#)#-!| m!V!}!a#W#7#%#&!m!n!n#%!n!n!n#+!|!q!~!t#3!u!n#&#)#*#,!v#*#'#)#7#[#V!{!Y!R!R g b I!{!J!J!J!Q!]![!x!y!U!^!W!q!~!q!_!^![!^!U!`!~!q!X!T!W#Y#S#S#Z#D#D",
"#g#g#g#g#g#g#g#g#g#g#g#g#U#U#g#g#U#I#g!<##!@!?!9!8!B!3!,!B#4#>#:!4!4#>#'!w!u#&!m!v!n!n!p!p!p!p!p#'#'#%!k!h T M N L ] ] j l U N I o m J P L J J M Q M M L N P P k#, z!m#*#O q!i#O#>#:!?!9!A!A!?!@#8!x h!P!I!x#W!h!!!e!!!d!a!c!f! !e | l!w!o#'!> Q U!h!v#)#%#B!t I!s!z#7#7#0#&!n!m!m!v!p#&!u!n#+#6!q!~!t#5!n!u#*#)!p#'#+#+#+#9#Y!~!W!I!J!G d b b I!{!T!Z!Z!Z!]!U!r!y!X!X!V!r!~!x!Y!X!^!^![!U!{!Y!^!R!r#[#@#@#X#Y#N",
"#g#g#g#g#g#g#g#g#g#g#g#g#g#g#U#U#U#g#^#?#H#>#(!A!A#!#!!@!5!i#E#a!0!0#O#'!l!n!l!g!f!c!d!f!c!f!f!h!l!p!m!v!o!g j j ] ] j i i N N K i I S L J I m I M M K L O M Q M ] z!o#3#b x {#b#>!i!i!j!i#$#>#,!s o!H!E!H!`!~#+!=!c!!!d!=!>!f!!!!!k ]!>!d!l#-!  R!m!p!o#6!s!V#D!t# #A#0#%!n!v#&#&!v!p!p!v!n#+#3!q!~!t#5!v!h!o!w#-#+#W!}!{!_ o!I o b b a c h g!S!^!`![!]!]!Z![!r!{!s!s!z!~!x!_!X!_!X!U!U!Y!z!S!R!S!r#[#Q#I#W#Y#S",
"#g#g#g#g#g#g#g#g#g#g#g#g#e#d#d#e#R#`#M#J#R#H#O#;#4#/#;#O#$!i#c#.!0!A#:!o!=!>!c!c!c!c!d!c!c!c!!!!!!!<!e!!!f u k j r k l n n L L J I I K N K I m b G P L L N M N M U!h }#+#8#: w#.#<#)#O#O#O#C!t p b!J!F!K!C!J!S#6!k!f!d!c!=!f!!!c!c z v!>!c!c!e#% y! #'#6!s n!z!|!t#6!o#%#%!p#'#%#%!p!u!p!p!n#+!}!q!~!t#5#%#-#-!|!}!~!q o o g a c c g g o!Z!J!T!T!_!{!X![!Z!Z!`!X!r!{!~!{!r!Y!_!X!_!Y!x!r!x p!S!`!^!x#D#K#Z#W#Y#S",
"#g#g#g#g#g#g#g#g#g#g#g#g#d#b#b#c#R#`#M#G#T#J#=#>!i!9!?#>#:###>!0!3#;!m!g!=!f!f!f!f!d!c!!!c!c!e!e!e!e!<!  y ^ k j r r l m m K P M K n I O G I g d N P P P L Q L M U!g!!#+!e#. s!3#1#c#H#?#b!}!U!` b g!D!M!K!D o#V#9 ~!c!>!=!g!=!g ~ R!=!d!d!  u#*#) r#-#A p!V!~!b#A!p#%#'!p#'#'!o!o!u!u!v#'!u#+!}!q!~!t#7!k#9#6!~!S!I!I!I c a c!Q!J!`!`!^!S b b!I!r!}!W!T!]!]!^!^!^![!U!`!_!x!Y!Y!W!q#A#V!R p!`!^!_!q#W#X#c#X#Z#T",
"#g#g#g#g#g#g#g#g#g#g#g#g#d#b#b#c#R#N#`#D#G#L#E#P##!9!0!6#.#;#:!0!0#8!m!n!d!f!c!f!c!c!d!d!c!c!c!c!!!!!g | j k ] l j j i m m K P L G i m I J I o m L P Q ] U L L L U!k! #'!k#/!+!9#:#4#%#g!t!{!X!`!J d!H!F!M!O!G!U#V#9!k!=!e!e!g | l! !!!c!>!! u#*#%!= }!{ p!z!t#A#9!p!n!u!u#%#'!w!w!w!w#*#*#'#0#3!q!~!b#V# !y!S!R!I b c c c h!G!J!Z!]!U p o!Y!z!U!_!~!_!Z!Z!Z!J!T!]![!^!`!x!y!y!s!s!z!W!R!R!X!`!X!Y!~#W#X#b#b#^#`",
"#g#g#g#g#g#g#g#g#g#g#g#g#d#c#c#d#R#g#M#D#[#g#?#H##!B!3 w!@#>#$!/!0#8#&#*!o!o!v!l!g!g!!!c!c!!!!!!!>!e z j j r U N N I m o m K L L N I o I K K I i U j i l ] L N N r!g!<!p!k#. s!/#/#####]!b!z!r!X!`!I c!D!M!K!F!G!X#A!w!!!d ~!g y j!f!c!e!e!  u#+!p#W!b m!q!}#A#U#)!v!w!w!u!n!v#+!w!w#*#*#*#'#-#A!z# !V p o h g a c c c!G!J!T!]!Z!]!Z!`!y!y!x!V!W!_!x!T o o!J!J!G!J!U!W!W!W!Y!z!~!z!V!R![!^!`!^!_!s#W#D#_#c#b#c#e",
"#g#g#g#g#g#g#g#g#g#g#g#g#g#f#f#e#R#`#`#[#[#^#H#O#$!:!2#!#;!i s!%!5#b#>#;#1#0#1#1#0#&!m!g!g!g!k!k!k!g l j k i K N O I h!I I K L N J b f m I K K K j i i l T L G l#3#&#2#-#0#: w s!5#/###T!s!q!~!x!`!R b!C!L!O!D!O!G!X#V!t!a!d ~ u!h!c!>!=!e ~ y#'#+!z m!x!}!b#B#5#)#*!u!u!w!w#,#%#0#%#*!n!w!|#6!z!{!~ p d b c c h!P!D!H!Q!Z!]!Z!]!Z!Z![!S!U!W!Y!y!r c h!I!R!U!T!S!_!y!x!q!r!r!x!V!R!^!`!`!^![!^!Y#6#]#S#R#X#Z#c#c",
"#g#g#g#g#g#g#g#g#g#g#g#g#`#g#U#R#e#g#`#[#Z#b#O#O#$!5!A#;#/!0!/!/#/#;#;#;#;#O#>#a#5!m#*#*#'#'#+#+#+!o l j j i I N K b f h b I J K I h f h I O P Q T i n i W N L k#1#(#O#O#>#O#$ s!/#/#%#S#V!V!z!{!`!I a!C!D!G!P!C!C!I!x# !a!f!= u!d!!!e!e! !d!!#+#A p p#V!t#A#3#%#)#)#)!v!w!u#*#)#)#1!u!|# # !x o!S!{ p b c h!H!J!I!T!Z!]!Z!^!W!W!W!U!^!^!U!x!~!{ o h!I!R!q!~!~#V#A#W#W!|!s!x o!S!`!^!^!^!^!^!_!b#7#S#S#Q#K#^#c#c",
"#g#g#g#g#g#g#g#g#g#g#g#g#`#g#g#R#e#g#g#_#^#b#O#O!j#$#$!0!9!,!, w#/!/!/!/!/ w!0 w!;#4#.#4#4#4#4#1#1#1 k k j i I O K d f f d I T I d f f f d L R Q S n m V ] ^ q#.#4#/!0 w w!4#$ _!%!4#:#g#A!s!z p!^!Z!T g g!J!J!J!D!P o!{#-!= |!=!c!!!e!<!e!!!o#A!q m!x#6#+#9#+!w#'#)#)#*!n#'#'#-#-#6!}!z!R!R o g b b!x o!I!I!]!Z!U!`!U!U!Y!q!s!b p!R!X!U!x!x p p!R!R!Y# #A#B#9#@#@#=#@#D#6!y!X!`!U!^!_!`!X!Y!z#A#W#T#S#S#Q#R#c#Z",
"#g#g#g#g#g#g#g#g#g#g#g#g#`#g#f#e#e#g#g#_#^#b#H#O!j#$#$!0 t s!,!5#( X!/ `!$!)!'!$!#!(!& `!%!%!%!,!1!, q k i I I O I m f f e b o d f a H f g K O O T m o T ^ x t!,!,!,!%!+!%!A#.!4!,!,#$#1#9#A!z!s!Y!S!U!^!U!Z!]!]!P!D!G!R!}#`#'!=!f!e!<!>!g!d!} p d!V# !t#A#+#'#+#*!u!w#'#+#3#Y!|!z!W o g g b d d b p!{!U![!]![![!`!V p }!f!o } n!V!Y!q!x!z!S o!V#V#A#[#7!w!m#%!f!g!k#*#7#W#A!b!q!Y!_!Y!Y!Y!z#W#Y#D#D#N#S#S#Q#Z#X",
"#g#g#g#g#g#g#g#g#g#g#g#g#`#_#e#d#R#U#U#U#g#d#H#H!j!j#$!3 Y s!+#(#. [!&!-!(!'!'!*!*!'!(!(!$!-!-!-!.!& t ^ i I I O K m f f f c h f f H H f g K O I m g h V q!6!3!%!&!&!.!'!+#/#R#4!/!1!B!?#>#3!b#V!s!x!~!y b h!G!J!]!C!C h!V!}#A!d!!!e!e!> ~#-!z b!R!{!t#Y#W#*#*!u!u#*!p#3#Y#V!{!R o!I h a a b h!J!I p!z!^![![!_!W p n }#+#'!f n n!Y!Y!V!~!W!V!V#A#W#@#7!n!d!<!<!e!!!<!m#2#G#A!b!Y!_!_!_!Y!z#Y#@#T#B#D#]#U#S#U#N#_",
"#g#g#g#g#g#g#g#g#g#g#g#g#_#Z#^#d#R#U#U#U#g#U#I#H###.!?!1 Y [!2#.#E#! Y `!- ` `!#!(!$!(!#!-!+ ` `!%!, w ^ i I I I K b f f f e f f H H H f g I I b h!C g T ^ t t!2!&!&!.!# X#/#g#.!/!1!B!B#4#8!q!b#6#A# !V d!P!D!D!Q!K!N!C!J!W!~!|!!!e! !e!k#  m m!Y!~!|#W#6#+!w!w#-#A#6#A!s!U!T h g c c c!I!I!T!T!T!W!{!U!T!`!V p n!a!a z } z!V!Y!_!r!{!r!V!r#6#7#0#0!g!h!w#)#)!e!l!n!g#0#F#W!~!q!W!Y!x# #A#G#S#R#X#X#]#`#]#[#U#T",
"#g#g#g#g#g#g#g#g#g#g#g#g#]#]#`#U#U#U#g#M#M#D#U#?#1#/!8!2 Y Z!4#.#8#/ t _!.!'!7!.!'!)!'!'!(!& s _ _ t!, _ U V i I K I f f e f f f H H H f g I b e f!G m T ] ^ t!8!#!. ` [ _#.#F#/!, [!B!A#!#,!q!q!z!{!S!J!G c!E!F!Q!O!L!O!C h!I!y#A#'!f#0#Y!V m!z# !|#6!z!{!}#W#6!}!y!R!R h g c c g!Q!J h g g d o![!Y!{!X!U!V } z!d z } p p!V!Y!S!S!x!~!q!V!}#B#-#%!p!n#-#9#0#?#5#9#7!v#'!v#9#A!t!t#A#A#W#Y#g#g#g#`#`#`#g#`#`#g#U",
"#g#g#g#g#g#g#g#g#g#g#g#g#]#]#`#U#T#U#g#D#D#`#K#I#H!@!8!2 Y Z!4#4!i#O#a _ `!.!&!7 `!$!'!*!'!(!% s _ _!% w ^ U n m I I f f a H f f H H H f e d!G f f g i T ^ ^ ^!0!+!. `!5#a#H#C#/!/ Y!3!?!@#8!s!s!~!S!J!Q!J g!C!G h!G!C!C!C!C h!R!V!|#g#6!z o!Y#W!d#V!b m m p!~!s!R o h h c c!G!Q!T!]![!I o o![!`!U!Y!{!_!U p n!a!b!V!r!q!r!U!I!I!S!~!V!V!z#6!o!p!p#*#-#g!l P#5#* k!g#+!v#*#7#`#g#Y#Y#X#D#g#g#g#g#g#g#g#g#g#g#g#g",
"#g#g#g#g#g#g#g#g#g#g#g#g#]#]#`#U#U#U#U#G#[#g#E#E#>!A!9!3 [ Y!0#/!j#O#H ^!%!&!%!:!, X `!(!)!'!'!.!#!+!1 t ^ ] m!I b b f f H H H f H H H f f f f e f h I R ^ Z ^ Z!+!1 [ t#P#5#g#.!/ Y!3!A!@#a# !s!~![!H!Q!J h b b b b b b b b b g!R p#A!b d!T!_# !b!} p!I b o!x!{!T h h h!G h g!Z!`!^!^!^!{!{!y!U!X!q!{!X!`!_ p!q!Y!r!Y!q!_ d!I!Z!_!~!b!V#V#6!w!=!n#5#g#g!n U#7#0 L R#3#,!v#7#D#D#B#X#Y#]#g#g#g#g#g#g#g#g#g#g#g#g",
"#g#g#g#g#g#g#g#g#g#g#g#g#]#]#`#R#f#U#N#M#`#I#E#H#(!A!8!0 Y Y!0#/!j#8#_#% Y!+!#!1!2 X `!&!.!(!)!.!( `!%!0 x k m e g d f a H H H H H H H H f f f a f g m U Z ^ U Z!/ ` _#:#?#J#U#(!/ Y!3#!!@#8!q!z!x!S!J!P!J!S!q!z!|#3#3!|!|!|!s!V!W!y!{!R b!S!{!x!b#  p o!J b m!S!x g h!T!T!T!T![![!U![![!`!U!^!^!^!W!{!_!`!X!r!Y!X!X!R p!R!R!U![!X!{!V!b#A#3!!!l#5#+ U z | W!  y ] R#-#+!u#C#]#G#G#X#[#N#g#g#g#g#g#g#g#g#g#g#g#g",
"#g#g#g#g#g#g#g#g#g#g#g#g#]#]#`#R#R#U#`#M#`#I#P#a!j!9!3!0 Y Y!3#(###H#B#? _ s!#!#!1!: Y!%!&!.!. `!. [ s!0 q i d f f e f H H H H H ; H H H f f H H f!G b K u!j R _!,!% _#a#8#5#P#(!2 X!2!B!@#6!V!W!{!U!J!J!I!x#A#W#g#P#I#U#S#g#A!{!r!U!S o b!W!~!r!y!{!~!V!S!I g!S!y!S!]![![![![![![!]!]!]!Z!Z![![![!Y!{!X!`!`!R!S!S!R!W!y!_!X!_!U!r!X!q#V#A!l!<#%#@#5 ~ u j r j#-#' U#-#,!v#7#R#G#F#C#g#g#g#g#g#g#g#g#g#g#g#g#g#g",
"#g#g#g#g#g#g#g#g#g#g#g#g#`#`#g#d#c#f#g#`#g#d#H#O!j!? w t X Y!0#/###H#7#f#$ X!-!#!1!B Y!%!1!1!1 [ X!B!? Z u I o f f f f H H ; H H ; H H H H H H H f f d m V | { w!1!% _#a#a!j#O#/!/ X!7!:!;!|!U!Y!{!Y!`!I!V#A#B#B#B#C#C#9#6#V!~!^![!S b b b p!z d o o!z#V!Y!S!S!R!y!_![![!^!X!^!Z!Z!Z!]!Z!Z!]!Z!]![!Y!{!^!`!^ g!I!`!x!{!y!X!U!Y!W!{!X!q#6#A!l!=#&#g#7#g W V U U y#- U#-!v!l#5#N#U#T#U#T#K#g#g#g#g#g#g#g#g#g#g#g#g",
"#g#g#g#g#g#g#g#g#g#g#g#g#`#`#g#d#c#e#g#M#N#I#O#O!j!; w _ Y Y!0#/!j#.#>#H!j X!%!,!%!,!2 Y [ X [!B!3!5##!d m d!G f f f f H H H H H ; ; H H H H H H f f e o n ^!4 [!-!% _#>!<!<#a#(!2 X!2!:!?!|!W!W!z!z!W!S!q#W#@#@#S#L#A!~!_!^!^ h!G c a c!I!R!y m g o p!x!{!z p!V!{!_!^!U![!U!^!^!`!U![![![![![![!U!V!{!U o!I![!U!X!x!y!r!U!U!Y!V!~!_!q#A#B!u! #)#0 W j U l O!h y u U#0#2#7#J#U#U#T#U#T#T#g#g#g#g#g#g#g#g#g#g#g#g",
"#g#g#g#g#g#g#g#g#g#g#g#g#`#`#f#b#b#e#g#D#L#c#>#4#$!; q q Y Y!3#.!j!i!i##!j X!% [ [ Y!2!%!:!B!9#!!j#$#$!t m!I e f f e H H H ; H H ; ; ; H H H H H H f f f m {!:!7!1!% _#; { {#I#.!/ [!7!8!?#8!q!Y!x!}!q!x#V#9#S#W#A#V!q!S!I g g c c c!G!H!P h!S!z o!T![!U!Y!~!}!}!q!X!U![![![!X!y!^![!U!^!`!^!U!S o p!{!X!T!U!U!^!_!x!r!X!U!U!W!s!{!Y!z#B#9!k! #0!n R u!u U Q!g ] |#7#2#F#g#U#U#U#U#U#T#U#g#g#g#g#g#g#g#g#g#g#g#g",
"#g#g#g#g#g#g#g#g#g#g#g#g#`#`#g#b#b#c#g#N#L#d#4!;!?!6 x q Z Y!0#4!i!;!6##!j X `!1!#!1!1!7 s!8!?#4#b!e#)!t m f f f f H H H H : ; ; ; ; H H H ; ; H H f f f o u s!.!7!, _#b#. {#S#4!0!,!1!:!?#.# !Y!r!r!z#9#D#A!}!y!S!S!J g c c c!H!P!H!G!Q!P!P!U# !Y![!]!]![!U!U!^!U!`!Z![![!^!y!_!U![![!T!S!S!I!I![!Y!{!X![!U!^!X!_!_!X!X!V!r!z!{!r!Y# #N#9!v!e#0!n!>!p!l S R r ~#3!v#-#M#F#N#U#U#U#U#U#U#g#g#g#g#g#g#g#g#g#g#g#g",
"#g#g#g#g#g#g#g#g#g#g#g#g#N#`#g#b#b#b#N#G#L#d#4!?!? w x q Y Y!0#4!i x x##!j X!.!-!- `!1!2 X!3!0!@#b Z#>!h m f f f H H ; H ; : ; ; : ; ; H H : ; H H H f f o u w!/!%!% _#a#4 {#@#.!/!, _!B!3!i# !V!V!x#W#L#W# !W![!J!G g c g!P!P!G!G!G!Z!]!`!Z!`!}!X!Z![!]!Z![![![!y!_!U!^!U!Y!y!_![!]!] g g g!Z!]!]!W!{!X!X!X!U!X!X!Y!Y!q!q#V!{!r!V!r#A#G#g#8!n!v#2#- R S S Q#2#g!v!k#9#M#N#g#g#g#g#U#g#g#g#g#g#g#g#g#g#g#g#g#g#g",
"#g#g#g#g#g#g#g#g#g#g#g#g#N#`#g#b#a#b#g#M#L#P#.!?!9!/ t q Z Y!0#/!i { x#### X!)!$!&!%!/!2 X!3!8!3!5 w!5#8!z!H f H H H ; ; : 5 ; ; : ; ; ; : : ; H H H H f d I ^ t!0!,!3#. x {#K#(!2!8 t!4!9#!!|!b!~# # #A!s!_!T!I c c c!G!G!G!G!G!J!Z!T d b!T!r!}!X!]!^!U![![![!`!R!W!x!_!Y!x!y!X!T h!I!T!Z!Z!Z!]!Z!W!{!Y!X!X!X!Y!Y!q!~# !}!b!s!b!b#V#W#L#J#5!v!v!v#-#2#0#+#*!v#*#-#9#F#N#F#J#g#g#g#g#g#g#g#g#g#g#g#g#g#g#g#g#g#g",
"#g#g#g#g#g#g#g#g#g#g#g#g#N#`#g#b#b#b#g#N#L#b#.!?!B!2!0 q Z Y!/#/!< { x!j#$ [!.!.!&!%!/!0 X!2!8!2!2!2!,!i#W h f H H H ; 5 : 5 5 : : : : : : 5 : ; H H H f g m l q t!,!9#( t {#a#(!1!9 ^ Z!4#!#4#8#W!z!q!_!R g c c c!H!D!D!P!H!Z!]!`!` o o g!T!`!{!X![!^![!Z!]![![!^!_!W!Y!r!V!q p!R!Z![![!`![![![![!Y!{!W!W!Y!r!{!}!{!q!q!z!|#A#W#W#W#D#T#F#X#C#7#3#7#5#g#g#=#8#C#`#g#G#C#M#_#`#`#`#`#`#`#g#g#g#g#g#g#g#g#g#g#g#g",
"#g#g#g#g#g#g#g#g#g#g#g#g#`#`#f#e#d#c#^#F#J#b#.!?!:!+!% t X Y!0#/!i x x!j#( [!.!.!&!&!1!2 [!8!2!2!2!+!&!B#:!R e H H H ; : 5 5 5 : 5 5 : : 5 : ; ; H H H f!T#W#b## ? _!A#$ w!4#>#/!1!A x R!4!9!i#;#9!b!S!I d g c!J!Q!D!D!G!]!]!T!`!y!y!`!`!`!T!`!{!_!`!^![!]!]!]!]!U!U!S p!y!Y p!x!_!^![![![![![![!^!Y!}!s!~#V!~!b!b!b!b!s!t!l#-#[#D#F#g#F#J#_#X#*!k!k!e!g!g!e!g#K#g#_#`#g#K#g#`#`#`#`#`#`#g#g#g#g#g#g#g#g#g#g#g#g",
"#g#g#g#g#g#g#g#g#g#g#g#g#^#^#g#U#g#^#b#c#I#b#4!?!B!1!&!% X Y!0#/!i!6!6!i#. s!&!(!.!.!1!:!8!8!8!2!/#!!/!0!;!} o a H H H ; : 5 5 5 : 5 5 5 5 n!} ; H H f f!S#7!6 x q t#:!m t!4#O#/!/!5 Z Z q!5!?#>#B!s m g!_!U o!]!Q!G!J!T!J h!I!U!_!r!y!`!U!]!`!~!r!^!^!^![!Z!]!Z![ o o!`!_!_!x!Y!r!X![![![![![!U!Y!q# #A#A!t!s!b!b!t#6!a!h#+#-#g#J#C#g#C#J#N#N#2#+#,#'#'#+#+#'#N#g#g#g#g#g#g#g#g#g#g#g#g#g#g#g#g#g#g#g#g#g#g#g#g",
"#g#g#g#g#g#g#g#g#g#g#g#g#d#d#g#U#g#^#E#Z#I#P#4!?!9!+!&!1 ` Y!0#/!i#.#>#>#. _!2!1!1!7!1!7!8 Y!8!3!3!3#;#&!h!|!z m H H ; H : 5 5 ; : 5 5 : ; }#g ; H f f f!W#W!|!w#1!;#:!m#(!6#<#(!2!9 Z x ^ {!i#8!b!s# !V p!x!Y![!T!J!G h!G!I!I!S!`!U![!x!{!^!r!}!Y!_!U!R!Z!T o o!R!U!X!_!_!X!W!Y!Y!_!U!U!X!r!r!z!}!~!b!V!s!b!}#A#A#A#W#9#Y#g#g#Z#^#Z#_#J#N#C#J#g#g#g#g#g#g#g#g#g#g#g#g#g#g#g#g#g#g#g#g#g#g#g#g#g#g#g#g#g#g#g#g#g",
"#g#g#g#g#g#g#g#g#g#g#g#g#d#c#g#U#g#Z#E#E#Z#f#4!;!B!+!-!&!% Y!4#.###8#)#1#.!4!2!2!1!2!%!/!8 Y!8!9!3!A!; P P R!o#A!V H H ; ; : : 5 : : : H m#A } ; a f f h!z#W m I!k#1#=#2#-#5!j#/!/!4 _ x ^ Z!A#7!b!q!}!t }!b!W!I h!I!J!J!]!]![!`![![!Z!_!y!q!s!~!r!U!S!R!I!R!`!^!^!_!_!X!X!X!X!X!X!W!r!x!x!z!~!z!b!s!s!z#V#A#W#W#W#Y#Y#]#F#G#G#K#K#X#X#J#K#g#g#F#F#J#N#J#J#F#J#g#g#g#g#g#g#g#g#g#g#g#g#g#g#g#g#g#g#g#g#g#g#g#g#g",
"#g#g#g#g#g#g#g#g#g#g#g#g#d#c#g#U#g#Z#Z#X#G#g#1!;!?!+!-!&!% Y!0#.###* y#1#1#: Y Y!B!:!,!2!: X!9!8!:#/ X [!3 t ^#g#V g H H ; ; : 5 : 5 5 H m!} ; H f f!G d n#Y b b } |#9!> y#-###/!/!9 _ x R q#!#=!q!W!V# !a!b!U h!I!`!_!`![!^!^![!U!U!^!^!U# !t!~!x o!R!`!`!`!X!_!X!X!_!X!X!X!X!U!U!y!{#W!}!V!q!W!q!z#W#Y#9#D#D#@#@#g#T#S#g#J#F#F#D#Y#]#N#N#F#F#N#g#g#g#g#g#N#g#g#g#g#g#g#g#g#g#g#g#g#g#g#g#g#g#g#g#g#g#g#g#g#g#g",
"#g#g#g#g#g#g#g#g#g#g#g#g#c#b#U#U#g#Z#Z#D#D#g#<#4#!!7!&!&!% Y w#(#&#, |#,!g#;!4 Y s!8!,!/!:!8 [!B!8 s!&!& `!% t U!t!y m d H ; : 7 =!o!t I!s#  d f f h!_!q n#A d p }! #7!e }#-!j#/!/ [!0#! ^ Z###W!Y!R!W!{!{!S h h!X!q!b# # # !~# !~!x!W!^!^!r!q!x!{!Y!U!^!`!`!_!X!X!_!y!X!W!Y!Y!q!{!~!z!b!b!b!z# #A#B#B#J#@#@#Q#J#L#Q#S#@#J#L#L#M#]#X#C#N#g#N#N#N#g#N#N#g#g#g#g#g#g#g#g#g#g#g#g#g#g#g#g#g#g#g#g#g#g#g#g#g#g#g#g#g",
"#g#g#g#g#g#g#g#g#g#g#g#g#c#b#g#U#g#Z#Z#Y#[#L#P#O#!!:!#!1!% X _#.!m#, |#,!e#1!j { _!5!3!/!B!B Y!,!,!&!.!.!#!# s t ^ j!|#V n p!t!h!o#g#Y n n!b m g o p!z!t n#A m m z |#7!< z#,!j#/!, X!9#! q ^#)#A!W!U!W!q!x!x!S!r# # #6#-#)#,#,#=#D#A!s!X![![!W!r#V!s!X!`!`!`!X!_!W!Y!y!x!y!{!~!{!b!s!z!}#W#A#W#[#g#J#G#T#Q#Q#Q#I#f#Q#Q#R#Q#U#L#F#`#`#g#g#F#N#g#g#J#g#N#g#g#g#N#g#g#g#g#g#g#g#g#g#g#g#g#g#g#g#g#g#g#g#g#g#g#g#g#g",
"#g#g#g#g#g#g#g#g#g#g#g#g#^#b#g#g#g#Z#Z#Y#[#T#P#O#!!:!+!&!% X _#.###, |#- |! #1#:!6 Z X!,!8!: [!+!&!.!.!)!.!+!,!,!/!5!j#O#c!! = A R#7!t!|!b n!z i i j!k!a n#W!z!a!!!g#2 | |#2#.#!!% Y!8!A!5 x#g#A!b!V!W!{!_!y!t#9!h!d!h!n#)#)!g#)#=#@#A!x![!`!X!r#V!b!_!X!X!Y!_!r!r!q!s# # !s!b!q!r!} ~ y!d#Y#@#M#U#g#g#g#R#R#^#^#c#e#e#e#U#U#U#U#g#g#g#g#g#g#g#g#g#g#g#g#g#g#g#g#g#g#g#g#g#g#g#g#g#g#g#g#g#g#g#g#g#g#g#g#g#g#g#g",
"#g#g#g#g#g#g#g#g#g#g#g#g#^#^#g#g#g#^#Z#[#M#T#I#O#!!8!+!,!% X _#.!j#0 z#3 ~ |! #H#$ t Z s!/!B!:!+!-!(!.!.!&!+!% s s#:#;#O#2 R x t w x R R u#W#W } T W!d z!a#Y#D#B#D#@#5 | z#8#4 t!, X!2#!!3!5#S#@#3!b!{!r!R!z#g#@!k!h!h!d!<!e!<#%#%#@#@!~!S!`!W!q# !r!X!X!Y!q!b!s!~# !{!s!b!b!b!}#A } y!!!p#@#@#M#]#U#U#U#[#X#X#X#Z#Z#_#f#g#U#U#U#U#U#U#g#g#g#g#g#g#g#g#g#g#g#g#g#g#g#g#g#g#g#g#g#g#g#g#g#g#g#g#g#g#g#g#g#g#g#g#g",
"#g#g#g#g#g#g#g#g#g#g#g#g#Z#Z#`#g#U#c#Z#]#N#S#I#O#$!:!%!2!% X X x#>#* |#2#-!!!e#2#;#; _ _!0!B!: Y!-!(!(!-!&!/!9#/#(!4 q P#& t!,!.!1 s q q ^ U N#2!h i!a } I = > > > G#5#5#=#8#( w!, Y!2!9!3!?#@#@#7!}!s!V!b#A#@#&!g!h!w#,#*!l!f!p!!!m#S#6!Y!r!x!r!~!x!Y!r!s# # # !b!b!s!s# #A#A#W#G#7#g#g#T#J#E#[#]#U#U#U#]#Y#Y#X#X#X#[#]#`#g#g#U#U#U#U#g#g#g#g#g#g#g#g#g#g#g#g#g#g#g#g#g#g#g#g#g#g#g#g#g#g#g#g#g#g#g#g#g#g#g#g#g",
"#g#g#g#g#g#g#g#g#g#g#g#g#Z#Z#`#g#f#b#c#`#U#S#I#O#$!8!2!B!/ Y X x#;#1!m! !k#5#9!e#1#O!@ Z w!9!8 X!1!-!#!'!.#!#!!3!8!, s!,#!!9 `!.!+!, w!4!@ x D q#5!f#3#' F S T j l z#0!i#4!i#(!0 Y!,!8!:!2!5#Y#V n!|!}!t#Y#T#5!k#,#2#<#5#L#g#+!w!u!g#5#@#W!r!_!Y!s# !z!{!{!z!V!q!s!|#B#G#T#S#U#J#@#g#?#F#C#B#C#K#g#]#[#`#S#S#g#[#]#]#]#]#`#g#g#U#U#U#U#g#g#g#g#g#g#g#g#g#g#g#g#g#g#g#g#g#g#g#g#g#g#g#g#g#g#g#g#g#g#g#g#g#g#g#g#g",
"#g#g#g#g#g#g#g#g#g#g#g#g#Z#Z#`#U#f#b#b#f#T#S#I#O#$!9!:!B!2 _ X Z#>#a#f!g!< |#3#g#H#>#O x Z!9!9 [!%!%!1!1!&!& `!&!#!(!.!(!1#(!,!-!,!%!1#:#;#$ { q#O#0#D#9 u G T } ~ }#2!5 {!@#( w _ s!:!:!2!A#G#V m p!~#V# #V#W!w#-#g#E!<#@#@#g!w!w#*#)#S#W!r!_!Y!q#V# !q!q!t!t!t#A#W#9#L#L#F#F#Q#I#C#F#C#B#_#9#^#g#N#N#U#U#T#U#U#U#U#U#`#`#`#`#`#g#`#g#g#g#g#g#g#g#g#g#g#g#g#g#g#g#g#g#g#g#g#g#g#g#g#g#g#g#g#g#g#g#g#g#g#g#g#g#g",
"#g#g#g#g#g#g#g#g#g#g#g#g#Z#Z#`#g#U#c#d#g#T#S#E#O!i!B!:!/!0 t X Z#.!<!j#1#5#5#C!m!m!j###. { _!A!3 Y [ Y Y X!#!.!.!.!.!*!.!8#! _!/ Z [ [ q#:#;#;!?#.#g#C#1#)!m!t#-#+#0!<!5!;#(!4 w#(#/!9!:!3!A#@#A!W o!R!R p!V!b#A#9#g!! r#g#@ v#-!w!m#0#G#A!s!q!Y!V!t!t!t!|#B#@#9#9#D#W#W#W#X#X#C#E#C#X#X#I#E#E#E#g#T#T#U#[#[#U#T#U#U#U#g#`#`#`#`#`#`#`#g#g#g#g#g#g#g#g#g#g#g#g#g#g#g#g#g#g#g#g#g#g#g#g#g#g#g#g#g#g#g#g#g#g#g#g#g",
"#g#g#g#g#g#g#g#g#g#g#g#g#^#^#e#g#g#g#g#T#J#Q#H#a#$!A!3 s!?!? _ x#;#(#.!j!j#$#4#4#4#1#>#b#4!6!4!3 s!% _ X Y Y X ` `!% [ [ _ _ ^ q#1#1#)#5 x x#$#4#(#.#.#(#(!j!<!<!@!6!6#O#O#8!<#H#H#c#(!4!3!@#?#A!r!X!^!Y!V!|#A!h v#0 v r!e S U y#7!m#'#W#A!b!b!t!t!t#B#W#Y#g#g#g#`#g#`#[#`#`#`#_#_#g#`#`#g#_#g#g#g#U#U#g#`#`#g#U#g#g#g#g#g#g#g#g#g#g#g#g#g#g#g#g#g#g#g#g#g#g#g#g#g#g#g#g#g#g#g#g#g#g#g#g#g#g#g#g#g#g#g#g#g#g#g#g",
"#g#g#g#g#g#g#g#g#g#g#g#g#e#c#e#g#g#U#U#J#Q#d#H#H#O#!!3!3#:!|!}!{!|#<#.#:#1##!i##!i!j#*#1#:#a#;!@!?!9!6!?!A!B [ Y [ Y _ x x#>#<#>#*!l!=#5#: { t!4 w { {!j#O#;#>#;#;#O#1#E#2#?#E#C#E#5#4!i!5!;#?#A!q!X!^!_!|#W#Y u U U W l r!!#- u#g#+!n#W#W!|!|# #6#Y#B#f#J#R#g#g#g#g#g#g#g#g#g#g#g#g#g#g#g#g#g#g#g#g#g#g#g#g#g#g#g#g#g#g#g#g#g#g#g#g#g#g#g#g#g#g#g#g#g#g#g#g#g#g#g#g#g#g#g#g#g#g#g#g#g#g#g#g#g#g#g#g#g#g#g#g#g#g",
"#g#g#g#g#g#g#g#g#g#g#g#g#e#c#e#g#g#U#U#L#Q#?#P#H#;#!!:!0!w b H H m#`#a#a#g#?#b#H!m##!j!i#)#>#H#R#T#<#8#>#;#:!0!0!4 w!@#d#g!v!n#&!v#*!v!m#8#: x t {#$###b#1##!j!j#%#<#U#5!p#@#Q#?#?###O#O!5!j#S#A!q!^!`!r#A#W#Y u U ] ] L ~#g#- r#g#*#'#Y#W#A#g v }#`#D#J#J#U#g#g#g#g#g#g#g#g#g#g#g#g#g#g#g#g#g#g#g#g#g#g#g#g#g#g#g#g#g#g#g#g#g#g#g#g#g#g#g#g#g#g#g#g#g#g#g#g#g#g#g#g#g#g#g#g#g#g#g#g#g#g#g#g#g#g#g#g#g#g#g#g#g#g",
"#g#g#g#g#g#g#g#g#g#g#g#g#e#c#e#g#g#g#g#N#Q#I#P#H!<#/!A!0#+ ; H H b T 9 D E v#+#+#'#+#5#<#)#P#8#2!>!n!<! !<#1#)#&#*#*#8#E#*#5#5#-#3#-#-#0#0#P#%!j#(#:#;#0#&#=#8#<#8#F#9#'#5#@#@#=#<!m#O#;!i#.!k# !r!^!X!x#W#B#B#-!> R U R r ]!k |#J#*#0#D#D#D#B#3#7#M#@#@#E#L#g#g#g#g#g#g#g#g#g#g#g#g#g#g#g#g#g#g#g#g#g#g#g#g#g#g#g#g#g#g#g#g#g#g#g#g#g#g#g#g#g#g#g#g#g#g#g#g#g#g#g#g#g#g#g#g#g#g#g#g#g#g#g#g#g#g#g#g#g#g#g#g#g#g",
"#g#g#g#g#g#g#g#g#g#g#g#g#f#e#e#g#g#g#M#G#f#I#?#P!j!4#(!@#+ b H H H E 6 P 8 6 4 8 9 4 9!k#J#=!k#2 ~#,#2#<#c!e!!!> ~!h#J#F!<!e#' z!f |!  |!e#0#=#c#) x#4#*#=#8#*!n!n#9!p u!>#7#5!j!j#1#O#>#O##!k#A!r!X!r# #3#-#g r W z j j#5 | r#@#2!m#?#G#F#U#L#g#U#L#@#R#I#e#g#g#g#g#g#g#g#g#g#g#g#g#g#g#g#g#g#g#g#g#g#g#g#g#g#g#g#g#g#g#g#g#g#g#g#g#g#g#g#g#g#g#g#g#g#g#g#g#g#g#g#g#g#g#g#g#g#g#g#g#g#g#g#g#g#g#g#g#g#g#g#g#g#g",
"#g#g#g#g#g#g#g#g#g#g#g#g#f#e#f#g#g#`#g#N#K#I#E#?#O!0!B#;#3 I H H H I 6 U R < ? U ? 6 4 D#g#9#E#5! !  |!l#9#5#E#g#f#g#E#E#g#g#g#g#g#g#b#g#1 y#1#8#* q#4#f#8!m!v!m!n!u#g#- P#5#>!j###=#H#H#a#%!k#A!q!Y!r#A!o#2#g k |#g v W#2#2! #?#*!n#=#U#L#S#@#T#Q#K#g#I#E#f#g#g#g#g#g#g#g#g#g#g#g#g#g#g#g#g#g#g#g#g#g#g#g#g#g#g#g#g#g#g#g#g#g#g#g#g#g#g#g#g#g#g#g#g#g#g#g#g#g#g#g#g#g#g#g#g#g#g#g#g#g#g#g#g#g#g#g#g#g#g#g#g#g#g",
"#g#g#g#g#g#g#g#g#g#g#g#g#f#e#g#g#g#`#_#N#F#`#I#?#a!5 s#!#>!b ; H H I G < Q < 8 < ? 4 ? D! #8 y!<#8!k#5#'!=!=! !g!<!g#?#C!<!e!e!f!g!k!k!g!m#= v |#2 u#1#E#9#*!w#,!w#-!k#7#5 u#>#<#5#=#2#B!u!l!k#A!b!q# !w!p#2#@ v#+#9 y D j U#0#0!p#5#F#R#U#U#g#T#T#U#e#^#^#g#g#g#g#g#g#g#g#g#g#g#g#g#g#g#g#g#g#g#g#g#g#g#g#g#g#g#g#g#g#g#g#g#g#g#g#g#g#g#g#g#g#g#g#g#g#g#g#g#g#g#g#g#g#g#g#g#g#g#g#g#g#g#g#g#g#g#g#g#g#g#g#g#g#g",
"#g#g#g#g#g#g#g#g#g#g#g#g#f#e#g#g#g#`#`#`#G#g#E#?#H { _!,!5!m!| m m i j 9 D 6 8 8 L D 9 < L#8!6 {#4#:#%#8#0#2#-#,#2!v y!e#1#)#1#0#2!m!m#&#0#5#=#0#) q#>!k M!g! !e!g U!g!u ] y#H#2!g!n!l!c!d!k!g#A!b!t#W#0#%#0#0#' y y u y#7#5!v!n#2#X#_#^#U#U#T#U#U#g#^#_#Z#`#g#g#g#g#g#g#g#g#g#g#g#g#g#g#g#g#g#g#g#g#g#g#g#g#g#g#g#g#g#g#g#g#g#g#g#g#g#g#g#g#g#g#g#g#g#g#g#g#g#g#g#g#g#g#g#g#g#g#g#g#g#g#g#g#g#g#g#g#g#g#g#g#g#g",
"#g#g#g#g#g#g#g#g#g#g#g#g#U#U#U#U#g#`#_#M#N#g#J#T#E#$!5 X [!3!9#(#:#4#* | y y y y v y z u y#;#$!4 Y#$#;##!m#&!k!u!u#*#e#<#&#(#(#(!; { {!6!j!6#(!j##!@#4#' y y z y u#5#U#L#g#g#, ~!>!k!g!!!d!l!g#9!|#A#C#?#0!m#*#0#5#C#C#_#2!n#*#5#F#M#G#F#`#g#N#g#g#`#]#Y#[#`#g#g#g#g#g#g#g#g#g#g#g#g#g#g#g#g#g#g#g#g#g#g#g#g#g#g#g#g#g#g#g#g#g#g#g#g#g#g#g#g#g#g#g#g#g#g#g#g#g#g#g#g#g#g#g#g#g#g#g#g#g#g#g#g#g#g#g#g#g#g#g#g#g#g",
"#g#g#g#g#g#g#g#g#g#g#g#g#U#U#U#U#g#`#`#`#M#`#M#@#5#;!4 X X!1!1!:!9#$#O#g#c#b#b#d#g#g#g#g#e#>#!!9 _ _#;#O#a#>#O#O#>#O#4!i q q t t x#a#a#b#b#: x#.!6#f!i {#g#d#a#d#c#b#?#?#@#D!h!d! !e!k!!!d!o!e#?#D#Y#F#P#?#*!v#,!k#,#,#2!n!k#E#?#E#N#[#G#`#`#`#`#`#`#`#]#]#g#g#g#g#g#g#g#g#g#g#g#g#g#g#g#g#g#g#g#g#g#g#g#g#g#g#g#g#g#g#g#g#g#g#g#g#g#g#g#g#g#g#g#g#g#g#g#g#g#g#g#g#g#g#g#g#g#g#g#g#g#g#g#g#g#g#g#g#g#g#g#g#g#g#g",
"#g#g#g#g#g#g#g#g#g#g#g#g#U#U#U#U#g#`#`#`#M#`#N#J#0#4!?!? Z Y!+!%!0#!!?!@!6!;!;!;!@!@!@!@!@#!#!!9!B!9!? {!4!4!3!3!3!5!?!A#/#/#/#/#/!6!6!6!6#4#4!@!i#4#4#(!6!;!A#!#4#4#8#?#@#9!l!d!m!m#)!<!g!!!e#8#g#@#G#c#C#7#C#,#*#,!v#,#C#C#?#E#N#g#U#g#_#`#`#`#`#g#g#U#U#g#g#g#g#g#g#g#g#g#g#g#g#g#g#g#g#g#g#g#g#g#g#g#g#g#g#g#g#g#g#g#g#g#g#g#g#g#g#g#g#g#g#g#g#g#g#g#g#g#g#g#g#g#g#g#g#g#g#g#g#g#g#g#g#g#g#g#g#g#g#g#g#g#g#g",
"#g#g#g#g#g#g#g#g#g#g#g#g#U#U#U#U#g#^#^#[#]#`#J#g#0#4!@#!!@ x [ Z Z s s t _ Z q _ t w!,!/!,!%!,!,!,!:!:!8!:!8!:!8!8!8!8!2!/!8!3!8!5!6## { {!@!0#$#!!6!6!5!3!3!0!8 w w {#a#<#C#+!h#,##!@#g!g!l!g#<#T#@#M#]#X#X#Z#C#I#E#e#I#I#I#E#F#U#T#S#g#N#_#`#`#g#g#U#T#T#U#g#g#g#g#g#g#g#g#g#g#g#g#g#g#g#g#g#g#g#g#g#g#g#g#g#g#g#g#g#g#g#g#g#g#g#g#g#g#g#g#g#g#g#g#g#g#g#g#g#g#g#g#g#g#g#g#g#g#g#g#g#g#g#g#g#g#g#g#g#g#g#g#g#g",
"#g#g#g#g#g#g#g#g#g#g#g#g#U#U#U#U#g#_#_#N#G#M#C#F#,#4!;!?!i!i#!#!!? Y Y Y Z t t t t t w s s!, s!/!/!/!3!/!,!%!,!%!%!% ` `!% [!8!A!4###b#O#O#;!@ t!4#:#!!A!5 s [!:!B!/!4#O#O#7!w#1#. {###?!l!h!e#=#f#T#U#G#[#Z#C#f#J#f#f#f#K#f#K#f#U#T#S#U#g#g#`#`#g#g#U#T#T#U#g#g#g#g#g#g#g#g#g#g#g#g#g#g#g#g#g#g#g#g#g#g#g#g#g#g#g#g#g#g#g#g#g#g#g#g#g#g#g#g#g#g#g#g#g#g#g#g#g#g#g#g#g#g#g#g#g#g#g#g#g#g#g#g#g#g#g#g#g#g#g#g#g#g",
"#g#g#g#g#g#g#g#g#g#g#g#g#g#g#g#g#g#g#g#K#J#g#J#F#*#4!@!j {!4!A!?!A!5!5!?!0 Z Z Z Z Z Z Z Z Y Y Y Y Y!A!?!5!B!:!/!,!,!/!0!,!5#:#5#<#%!6!;#;#b#H#4!0!0#/#4!?!?!8!/!2 w {#O#O#E#B#4!0!4#;#P!k!l!h#=#b#c#T#T#g#g#g#g#g#g#g#g#g#g#g#g#g#g#g#g#g#g#g#g#g#g#g#g#g#g#g#g#g#g#g#g#g#g#g#g#g#g#g#g#g#g#g#g#g#g#g#g#g#g#g#g#g#g#g#g#g#g#g#g#g#g#g#g#g#g#g#g#g#g#g#g#g#g#g#g#g#g#g#g#g#g#g#g#g#g#g#g#g#g#g#g#g#g#g#g#g#g#g#g",
"#g#g#g#g#g#g#g#g#g#g#g#g#g#g#g#g#g#g#g#J#J#N#F#C!v#1#&!@!i { {!6!i!@!;!@#!!5!5!5!?!?!?!5!?!9!9!9!9!?!?#(#O#.#&!m#)#%#%!j###;#8#T#@#?#8!6!<#1#)#H#( x!4!4#.#/#;#;#>#=#?#<#4#.!0 t w!i#:#5!k!u#,#C#b#c#R#U#g#g#g#g#g#g#g#g#g#g#g#g#g#g#g#g#g#g#g#g#g#g#g#g#g#g#g#g#g#g#g#g#g#g#g#g#g#g#g#g#g#g#g#g#g#g#g#g#g#g#g#g#g#g#g#g#g#g#g#g#g#g#g#g#g#g#g#g#g#g#g#g#g#g#g#g#g#g#g#g#g#g#g#g#g#g#g#g#g#g#g#g#g#g#g#g#g#g#g#g",
"#g#g#g#g#g#g#g#g#g#g#g#g#g#g#g#g#g#g#g#g#N#N#F#F#2#1#1!@!i!@!4 {!i#(#(#$!;#!!A!A!?!A!?!A!B!B#!!A!A#!!@#$#a D ? L W D ? ^ x!j q!i#.#:#;#b#2! ! #5#>#O#;!@ { t#$#.#.#.#.#!!0 s ` s!A#$#1#%#-#+#9#I#E#c#R#U#g#g#g#g#g#g#g#g#g#g#g#g#g#g#g#g#g#g#g#g#g#g#g#g#g#g#g#g#g#g#g#g#g#g#g#g#g#g#g#g#g#g#g#g#g#g#g#g#g#g#g#g#g#g#g#g#g#g#g#g#g#g#g#g#g#g#g#g#g#g#g#g#g#g#g#g#g#g#g#g#g#g#g#g#g#g#g#g#g#g#g#g#g#g#g#g#g#g#g#g",
"#g#g#g#g#g#g#g#g#g#g#g#g#g#g#g#g#g#g#g#g#g#g#f#g#=#)#.!;!A!?#!!@###a#O#O!i!;!;!?!?!A!?!A!?!?!?!A!@!@!;#(#O P L y v ? L#&#O {!4 Y s#!!?#:#g#g#g#<!m#O#O#a#. w w s!,!/!,!/!, s [#!!?!i#:#&#'#-#[#d#E#d#K#T#g#g#g#g#g#g#g#g#g#g#g#g#g#g#g#g#g#g#g#g#g#g#g#g#g#g#g#g#g#g#g#g#g#g#g#g#g#g#g#g#g#g#g#g#g#g#g#g#g#g#g#g#g#g#g#g#g#g#g#g#g#g#g#g#g#g#g#g#g#g#g#g#g#g#g#g#g#g#g#g#g#g#g#g#g#g#g#g#g#g#g#g#g#g#g#g#g#g#g#g",
"#g#g#g#g#g#g#g#g#g#g#g#g#g#g#g#g#g#g#N#J#J#J#N#J#K#9#=#4#!!5!5!?!i#H#=#=#5#8#;#:#:#;!i!i#;#4#4#:#>#5#5#<#Q O J = B S D ?!m!@!?!9!/ X Y t!0!A#/#>#<#H!;#4#;#/!3!,!1!+!1 s Y Y!9#!!@#:#H#=#9#C#M#f#I#e#K#N#g#g#g#g#g#g#g#g#g#g#g#g#g#g#g#g#g#g#g#g#g#g#g#g#g#g#g#g#g#g#g#g#g#g#g#g#g#g#g#g#g#g#g#g#g#g#g#g#g#g#g#g#g#g#g#g#g#g#g#g#g#g#g#g#g#g#g#g#g#g#g#g#g#g#g#g#g#g#g#g#g#g#g#g#g#g#g#g#g#g#g#g#g#g#g#g#g#g#g#g",
"#g#g#g#g#g#g#g#g#g#g#g#g#g#g#g#g#g#g#N#J#N#g#N#N#L#g!p#1##!?!A!3#!#4#O#e#S#e#b#a#a#a#(!;###a#a#H#[#Y#T#@#G l z z V y r U D#&#;#!!:!/!3 _ [ [ _ w#4#a w _ _ s [ s!% s [!/!A!?!@!@!@#;#a#I#`#Y#G#R#J#e#K#N#g#g#g#g#g#g#g#g#g#g#g#g#g#g#g#g#g#g#g#g#g#g#g#g#g#g#g#g#g#g#g#g#g#g#g#g#g#g#g#g#g#g#g#g#g#g#g#g#g#g#g#g#g#g#g#g#g#g#g#g#g#g#g#g#g#g#g#g#g#g#g#g#g#g#g#g#g#g#g#g#g#g#g#g#g#g#g#g#g#g#g#g#g#g#g#g#g#g#g#g",
"#g#g#g#g#g#g#g#g#g#g#g#g#g#g#g#g#g#g#g#g#g#g#g#g#M#D#3! ##!@!A!A!5!5#/#.#.#1#)#1#>#>#O!6 x###>#?#E#@#C#C#Z#g#g#g#g#g#g#g ] u#>!A!B!B!B#!!A Y [ Y!9#. t Y [ [ [ [ Z Z#!#!!A!@!i!;#(#>#E#I#D#M#g#U#U#e#e#^#g#g#g#g#g#g#g#g#g#g#g#g#g#g#g#g#g#g#g#g#g#g#g#g#g#g#g#g#g#g#g#g#g#g#g#g#g#g#g#g#g#g#g#g#g#g#g#g#g#g#g#g#g#g#g#g#g#g#g#g#g#g#g#g#g#g#g#g#g#g#g#g#g#g#g#g#g#g#g#g#g#g#g#g#g#g#g#g#g#g#g#g#g#g#g#g#g#g#g#g",
"#g#g#g#g#g#g#g#g#g#g#g#g#g#g#g#g#g#g#g#g#g#g#g#g#_#B#e#&#5!i!@#!!5 w!0 w!4 x x!4#;#;#:!? w t#4#>#>#H#O#O#O#>#>#O#>#O#H#=#5#7#O!i!;!A!?!A!9!8!9#!#.!6!@!A!B!?!?!?!?!?#!!?#!!A!?###>#b#P#I#X#N#g#U#T#R#^#^#g#g#g#g#g#g#g#g#g#g#g#g#g#g#g#g#g#g#g#g#g#g#g#g#g#g#g#g#g#g#g#g#g#g#g#g#g#g#g#g#g#g#g#g#g#g#g#g#g#g#g#g#g#g#g#g#g#g#g#g#g#g#g#g#g#g#g#g#g#g#g#g#g#g#g#g#g#g#g#g#g#g#g#g#g#g#g#g#g#g#g#g#g#g#g#g#g#g#g#g",
"#g#g#g#g#g#g#g#g#g#g#g#g#g#g#g#g#g#g#g#g#g#g#g#g#^#H#>#b#H#1#>##!i!@!@!@#!!?!9 w!4!0!4!0 w w!4 { x x { { x x!6!i#4#4#>#a#b#g#H#>#<#4!i!@#!#!!5!i#4!j!i!?!?!;!;!;!?!?!A!A!A!A!A#$#<#E#E#X#[#M#U#T#T#U#^#^#e#g#g#g#g#g#g#g#g#g#g#g#g#g#g#g#g#g#g#g#g#g#g#g#g#g#g#g#g#g#g#g#g#g#g#g#g#g#g#g#g#g#g#g#g#g#g#g#g#g#g#g#g#g#g#g#g#g#g#g#g#g#g#g#g#g#g#g#g#g#g#g#g#g#g#g#g#g#g#g#g#g#g#g#g#g#g#g#g#g#g#g#g#g#g#g#g#g#g#g",
"#g#g#g#g#g#g#g#g#g#g#g#g#g#g#g#g#g#g#g#g#g#g#g#g#^#E#E#?#I#I#?#S#Q#?#P#P#:#$#$#$#$#$#$#(#$#$#$#$#$#$#$#(#(#(#!!4!6!4!i#4!m#.#?#I#F#?#P#H#>#O#.!5!?#/#$#$#$##!m!m#$#$!@!A#!!A#(!j#*#g#C#[#D#`#U#T#T#U#^#^#e#g#g#g#g#g#g#g#g#g#g#g#g#g#g#g#g#g#g#g#g#g#g#g#g#g#g#g#g#g#g#g#g#g#g#g#g#g#g#g#g#g#g#g#g#g#g#g#g#g#g#g#g#g#g#g#g#g#g#g#g#g#g#g#g#g#g#g#g#g#g#g#g#g#g#g#g#g#g#g#g#g#g#g#g#g#g#g#g#g#g#g#g#g#g#g#g#g#g#g",
"#g#g#g#g#g#g#g#g#g#g#g#g#g#g#g#g#g#g#g#g#g#g#g#g#N#@#J#@#E#c#Z#D#D#D#N#P#>#:#4#4#;#:#:#4#4#;#:#4#:#1#0#1#1#O#:##!i#$!@!@ t {#a#O#J#J#?#E#?#=#O!@!5!4#4#a#P#b#b#b#a#O!i!?!@!;#$!m#+#g#C#C#G#`#T#T#T#g#Z#Z#^#g#g#g#g#g#g#g#g#g#g#g#g#g#g#g#g#g#g#g#g#g#g#g#g#g#g#g#g#g#g#g#g#g#g#g#g#g#g#g#g#g#g#g#g#g#g#g#g#g#g#g#g#g#g#g#g#g#g#g#g#g#g#g#g#g#g#g#g#g#g#g#g#g#g#g#g#g#g#g#g#g#g#g#g#g#g#g#g#g#g#g#g#g#g#g#g#g#g#g",
"#g#g#g#g#g#g#g#g#g#g#g#g#g#g#g#g#g#g#g#g#g#g#g#g#U#@#@#L#P#b#Z#X#D#W#D#E#O#>#<#5#<#<#=#8#<#<#<#8#=#<#7#7#7#E#=#8#>#>#4!@!;!@!i!6!<#?#<#>#;#>!j!4#$#:#>#P#@#@#?#H#O#:!@!A!@!;#.!<!n#g#B#X#B#N#U#U#U#g#^#^#e#g#g#g#g#g#g#g#g#g#g#g#g#g#g#g#g#g#g#g#g#g#g#g#g#g#g#g#g#g#g#g#g#g#g#g#g#g#g#g#g#g#g#g#g#g#g#g#g#g#g#g#g#g#g#g#g#g#g#g#g#g#g#g#g#g#g#g#g#g#g#g#g#g#g#g#g#g#g#g#g#g#g#g#g#g#g#g#g#g#g#g#g#g#g#g#g#g#g#g",
"#g#g#g#g#g#g#g#g#g#g#g#g#g#g#g#g#g#g#g#g#g#g#g#g#g#U#U#g#e#e#_#`#`#]#`#e#d#e#f#f#g#g#g#g#g#g#g#g#g#g#g#g#g#f#e#e#d#b#P#?#b#1!j!j!j!; w!0!4!5!5!A#(#/#.#)#1#=#<#:#4#!!?!?!;!j#a#?#J#g#`#`#`#g#g#g#g#g#f#e#g#g#g#g#g#g#g#g#g#g#g#g#g#g#g#g#g#g#g#g#g#g#g#g#g#g#g#g#g#g#g#g#g#g#g#g#g#g#g#g#g#g#g#g#g#g#g#g#g#g#g#g#g#g#g#g#g#g#g#g#g#g#g#g#g#g#g#g#g#g#g#g#g#g#g#g#g#g#g#g#g#g#g#g#g#g#g#g#g#g#g#g#g#g#g#g#g#g#g#g",
"#g#g#g#g#g#g#g#g#g#g#g#g#g#g#g#g#g#g#g#g#g#g#g#g#g#g#g#g#g#g#g#g#g#g#g#g#g#g#g#g#g#g#g#g#g#g#g#g#g#g#f#g#g#g#g#g#G#g#g#g#N#`#e#d#a#:#(#(#!!A!A!5!3!0!0!0!6#$#$#!!?!?!5!A#$#H#Q#T#g#g#g#g#g#g#g#g#g#g#g#g#g#g#g#g#g#g#g#g#g#g#g#g#g#g#g#g#g#g#g#g#g#g#g#g#g#g#g#g#g#g#g#g#g#g#g#g#g#g#g#g#g#g#g#g#g#g#g#g#g#g#g#g#g#g#g#g#g#g#g#g#g#g#g#g#g#g#g#g#g#g#g#g#g#g#g#g#g#g#g#g#g#g#g#g#g#g#g#g#g#g#g#g#g#g#g#g#g#g#g#g",
"#g#g#g#g#g#g#g#g#g#g#g#g#g#g#g#g#g#g#g#g#g#g#g#g#g#g#g#g#g#g#g#g#g#g#g#g#g#g#g#g#g#g#g#g#g#g#g#g#g#g#g#g#g#g#g#g#g#J#J#f#C#J#U#S#S#@#H#a#4!6!?!A!?!?!?!?!?!?!5!?!?!?!?#$#O#I#S#S#g#g#g#g#g#g#g#g#g#g#g#g#g#g#g#g#g#g#g#g#g#g#g#g#g#g#g#g#g#g#g#g#g#g#g#g#g#g#g#g#g#g#g#g#g#g#g#g#g#g#g#g#g#g#g#g#g#g#g#g#g#g#g#g#g#g#g#g#g#g#g#g#g#g#g#g#g#g#g#g#g#g#g#g#g#g#g#g#g#g#g#g#g#g#g#g#g#g#g#g#g#g#g#g#g#g#g#g#g#g#g#g",
"#g#g#g#g#g#g#g#g#g#g#g#g#g#g#g#g#g#g#g#g#g#g#g#g#g#g#g#g#g#g#g#g#g#g#g#g#g#g#g#g#g#g#g#g#g#g#g#g#g#g#g#g#g#g#g#g#N#J#N#g#g#N#I#E#E#P#H#H#O#8#>#>#8#8!j!?!?#!!@!i!i!i#:#;#a#J#S#S#g#g#g#g#g#g#g#g#g#g#g#g#g#g#g#g#g#g#g#g#g#g#g#g#g#g#g#g#g#g#g#g#g#g#g#g#g#g#g#g#g#g#g#g#g#g#g#g#g#g#g#g#g#g#g#g#g#g#g#g#g#g#g#g#g#g#g#g#g#g#g#g#g#g#g#g#g#g#g#g#g#g#g#g#g#g#g#g#g#g#g#g#g#g#g#g#g#g#g#g#g#g#g#g#g#g#g#g#g#g#g#g",
"#g#g#g#g#g#g#g#g#g#g#g#g#g#g#g#g#g#g#g#g#g#g#g#g#g#g#g#g#g#g#g#g#g#g#g#g#g#g#g#g#g#g#g#g#g#g#g#g#g#g#g#g#g#g#g#g#J#g#g#J#N#g#I#P#P#c#c#I#R#g#L#T#S#U#Q#O#O#a#H#H#O#O#a#H#P#U#@#T#g#g#g#g#g#g#g#g#g#g#g#g#g#g#g#g#g#g#g#g#g#g#g#g#g#g#g#g#g#g#g#g#g#g#g#g#g#g#g#g#g#g#g#g#g#g#g#g#g#g#g#g#g#g#g#g#g#g#g#g#g#g#g#g#g#g#g#g#g#g#g#g#g#g#g#g#g#g#g#g#g#g#g#g#g#g#g#g#g#g#g#g#g#g#g#g#g#g#g#g#g#g#g#g#g#g#g#g#g#g#g#g",
"#g#g#g#g#g#g#g#g#g#g#g#g#g#g#g#g#g#g#g#g#g#g#g#g#g#g#g#g#g#g#g#g#g#g#g#g#g#g#g#g#g#g#g#g#g#g#g#g#g#g#g#g#g#g#g#g#g#J#J#J#J#G#J#K#G#G#]#[#[#D#B#`#N#T#Q#S#S#S#S#S#S#S#J#E#_#C#9#G#g#g#g#g#g#g#g#g#g#g#g#g#g#g#g#g#g#g#g#g#g#g#g#g#g#g#g#g#g#g#g#g#g#g#g#g#g#g#g#g#g#g#g#g#g#g#g#g#g#g#g#g#g#g#g#g#g#g#g#g#g#g#g#g#g#g#g#g#g#g#g#g#g#g#g#g#g#g#g#g#g#g#g#g#g#g#g#g#g#g#g#g#g#g#g#g#g#g#g#g#g#g#g#g#g#g#g#g#g#g#g#g",
"#g#g#g#g#g#g#g#g#g#g#g#g#g#g#g#g#g#g#g#g#g#g#g#g#g#g#g#g#g#g#g#g#g#g#g#g#g#g#g#g#g#g#g#g#g#g#g#g#g#g#g#g#g#g#g#g#g#N#N#g#g#N#T#S#T#T#M#Y#Y#Y#]#^#P#a#a#P#R#U#T#T#S#T#g#N#^#D#Y#G#g#g#g#g#g#g#g#g#g#g#g#g#g#g#g#g#g#g#g#g#g#g#g#g#g#g#g#g#g#g#g#g#g#g#g#g#g#g#g#g#g#g#g#g#g#g#g#g#g#g#g#g#g#g#g#g#g#g#g#g#g#g#g#g#g#g#g#g#g#g#g#g#g#g#g#g#g#g#g#g#g#g#g#g#g#g#g#g#g#g#g#g#g#g#g#g#g#g#g#g#g#g#g#g#g#g#g#g#g#g#g#g",
"#g#g#g#g#g#g#g#g#g#g#g#g#g#g#g#g#g#g#g#g#g#g#g#g#g#g#g#g#g#g#g#g#g#g#g#g#g#g#g#g#g#g#g#g#g#g#g#g#g#g#g#g#g#g#g#g#g#g#g#g#g#g#R#S#Q#T#U#]#[#Y#[#^#b#a#a#a#b#b#d#f#f#g#g#^#Z#Z#[#`#g#g#g#g#g#g#g#g#g#g#g#g#g#g#g#g#g#g#g#g#g#g#g#g#g#g#g#g#g#g#g#g#g#g#g#g#g#g#g#g#g#g#g#g#g#g#g#g#g#g#g#g#g#g#g#g#g#g#g#g#g#g#g#g#g#g#g#g#g#g#g#g#g#g#g#g#g#g#g#g#g#g#g#g#g#g#g#g#g#g#g#g#g#g#g#g#g#g#g#g#g#g#g#g#g#g#g#g#g#g#g#g",
"#g#g#g#g#g#g#g#g#g#g#g#g#g#g#g#g#g#g#g#g#g#g#g#g#g#g#g#g#g#g#g#g#g#g#g#g#g#g#g#g#g#g#g#g#g#g#g#g#g#g#g#g#g#g#g#g#g#g#g#g#g#g#b#b#b#b#b#e#_#`#g#g#g#U#R#b#a#b#b#b#c#^#^#^#^#^#^#_#g#g#g#g#g#g#g#g#g#g#g#g#g#g#g#g#g#g#g#g#g#g#g#g#g#g#g#g#g#g#g#g#g#g#g#g#g#g#g#g#g#g#g#g#g#g#g#g#g#g#g#g#g#g#g#g#g#g#g#g#g#g#g#g#g#g#g#g#g#g#g#g#g#g#g#g#g#g#g#g#g#g#g#g#g#g#g#g#g#g#g#g#g#g#g#g#g#g#g#g#g#g#g#g#g#g#g#g#g#g#g#g",
"#g#g#g#g#g#g#g#g#g#g#g#g#g#g#g#g#g#g#g#g#g#g#g#g#g#g#g#g#g#g#g#g#g#g#g#g#g#g#g#g#g#g#g#g#g#g#g#g#g#g#g#g#g#g#g#g#g#g#g#g#g#g#e#b#b#b#b#c#d#f#f#U#U#U#g#R#R#e#^#^#^#e#f#f#f#d#d#e#f#g#g#g#g#g#g#g#g#g#g#g#g#g#g#g#g#g#g#g#g#g#g#g#g#g#g#g#g#g#g#g#g#g#g#g#g#g#g#g#g#g#g#g#g#g#g#g#g#g#g#g#g#g#g#g#g#g#g#g#g#g#g#g#g#g#g#g#g#g#g#g#g#g#g#g#g#g#g#g#g#g#g#g#g#g#g#g#g#g#g#g#g#g#g#g#g#g#g#g#g#g#g#g#g#g#g#g#g#g#g#g",
"#g#g#g#g#g#g#g#g#g#g#g#g#g#g#g#g#g#g#g#g#g#g#g#g#g#g#g#g#g#g#g#g#g#g#g#g#g#g#g#g#g#g#g#g#g#g#g#g#g#g#g#g#g#g#g#g#g#g#g#g#g#g#g#`#`#g#f#R#c#c#d#e#U#g#U#U#T#U#`#^#e#g#g#g#U#U#e#f#g#g#g#g#g#g#g#g#g#g#g#g#g#g#g#g#g#g#g#g#g#g#g#g#g#g#g#g#g#g#g#g#g#g#g#g#g#g#g#g#g#g#g#g#g#g#g#g#g#g#g#g#g#g#g#g#g#g#g#g#g#g#g#g#g#g#g#g#g#g#g#g#g#g#g#g#g#g#g#g#g#g#g#g#g#g#g#g#g#g#g#g#g#g#g#g#g#g#g#g#g#g#g#g#g#g#g#g#g#g#g#g",
"#g#g#g#g#g#g#g#g#g#g#g#g#g#g#g#g#g#g#g#g#g#g#g#g#g#g#g#g#g#g#g#g#g#g#g#g#g#g#g#g#g#g#g#g#g#g#g#g#g#g#g#g#g#g#g#g#g#g#g#g#g#g#]#[#[#`#U#R#Q#c#R#e#U#`#`#U#U#e#b#b#b#d#U#U#T#T#T#T#g#g#g#g#g#g#g#g#g#g#g#g#g#g#g#g#g#g#g#g#g#g#g#g#g#g#g#g#g#g#g#g#g#g#g#g#g#g#g#g#g#g#g#g#g#g#g#g#g#g#g#g#g#g#g#g#g#g#g#g#g#g#g#g#g#g#g#g#g#g#g#g#g#g#g#g#g#g#g#g#g#g#g#g#g#g#g#g#g#g#g#g#g#g#g#g#g#g#g#g#g#g#g#g#g#g#g#g#g#g#g#g",
"#g#g#g#g#g#g#g#g#g#g#g#g#g#g#g#g#g#g#g#g#g#g#g#g#g#g#g#g#g#g#g#g#g#g#g#g#g#g#g#g#g#g#g#g#g#g#g#g#g#g#g#g#g#g#g#g#g#g#g#g#g#g#`#]#]#`#U#U#R#R#R#U#g#`#`#U#f#e#c#b#c#d#U#T#g#T#T#U#g#g#g#g#g#g#g#g#g#g#g#g#g#g#g#g#g#g#g#g#g#g#g#g#g#g#g#g#g#g#g#g#g#g#g#g#g#g#g#g#g#g#g#g#g#g#g#g#g#g#g#g#g#g#g#g#g#g#g#g#g#g#g#g#g#g#g#g#g#g#g#g#g#g#g#g#g#g#g#g#g#g#g#g#g#g#g#g#g#g#g#g#g#g#g#g#g#g#g#g#g#g#g#g#g#g#g#g#g#g#g#g",
"#g#g#g#g#g#g#g#g#g#g#g#g#g#g#g#g#g#g#g#g#g#g#g#g#g#g#g#g#g#g#g#g#g#g#g#g#g#g#g#g#g#g#g#g#g#g#g#g#g#g#g#g#g#g#g#g#g#g#g#g#g#g#g#g#g#g#g#g#g#g#g#g#g#g#g#g#g#g#g#g#g#g#g#g#g#g#g#g#g#g#g#g#g#g#g#g#g#g#g#g#g#g#g#g#g#g#g#g#g#g#g#g#g#g#g#g#g#g#g#g#g#g#g#g#g#g#g#g#g#g#g#g#g#g#g#g#g#g#g#g#g#g#g#g#g#g#g#g#g#g#g#g#g#g#g#g#g#g#g#g#g#g#g#g#g#g#g#g#g#g#g#g#g#g#g#g#g#g#g#g#g#g#g#g#g#g#g#g#g#g#g#g#g#g#g#g#g#g#g#g",
"#g#g#g#g#g#g#g#g#g#g#g#g#g#g#g#g#g#g#g#g#g#g#g#g#g#g#g#g#g#g#g#g#g#g#g#g#g#g#g#g#g#g#g#g#g#g#g#g#g#g#g#g#g#g#g#g#g#g#g#g#g#g#g#g#g#g#g#g#g#g#g#g#g#g#g#g#g#g#g#g#g#g#g#g#g#g#g#g#g#g#g#g#g#g#g#g#g#g#g#g#g#g#g#g#g#g#g#g#g#g#g#g#g#g#g#g#g#g#g#g#g#g#g#g#g#g#g#g#g#g#g#g#g#g#g#g#g#g#g#g#g#g#g#g#g#g#g#g#g#g#g#g#g#g#g#g#g#g#g#g#g#g#g#g#g#g#g#g#g#g#g#g#g#g#g#g#g#g#g#g#g#g#g#g#g#g#g#g#g#g#g#g#g#g#g#g#g#g#g#g",
"#g#g#g#g#g#g#g#g#g#g#g#g#g#g#g#g#g#g#g#g#g#g#g#g#g#g#g#g#g#g#g#g#g#g#g#g#g#g#g#g#g#g#g#g#g#g#g#g#g#g#g#g#g#g#g#g#g#g#g#g#g#g#g#g#g#g#g#g#g#g#g#g#g#g#g#g#g#g#g#g#g#g#g#g#g#g#g#g#g#g#g#g#g#g#g#g#g#g#g#g#g#g#g#g#g#g#g#g#g#g#g#g#g#g#g#g#g#g#g#g#g#g#g#g#g#g#g#g#g#g#g#g#g#g#g#g#g#g#g#g#g#g#g#g#g#g#g#g#g#g#g#g#g#g#g#g#g#g#g#g#g#g#g#g#g#g#g#g#g#g#g#g#g#g#g#g#g#g#g#g#g#g#g#g#g#g#g#g#g#g#g#g#g#g#g#g#g#g#g#g",
"#g#g#g#g#g#g#g#g#g#g#g#g#g#g#g#g#g#g#g#g#g#g#g#g#g#g#g#g#g#g#g#g#g#g#g#g#g#g#g#g#g#g#g#g#g#g#g#g#g#g#g#g#g#g#g#g#g#g#g#g#g#g#g#g#g#g#g#g#g#g#g#g#g#g#g#g#g#g#g#g#g#g#g#g#g#g#g#g#g#g#g#g#g#g#g#g#g#g#g#g#g#g#g#g#g#g#g#g#g#g#g#g#g#g#g#g#g#g#g#g#g#g#g#g#g#g#g#g#g#g#g#g#g#g#g#g#g#g#g#g#g#g#g#g#g#g#g#g#g#g#g#g#g#g#g#g#g#g#g#g#g#g#g#g#g#g#g#g#g#g#g#g#g#g#g#g#g#g#g#g#g#g#g#g#g#g#g#g#g#g#g#g#g#g#g#g#g#g#g#g",
"#g#g#g#g#g#g#g#g#g#g#g#g#g#g#g#g#g#g#g#g#g#g#g#g#g#g#g#g#g#g#g#g#g#g#g#g#g#g#g#g#g#g#g#g#g#g#g#g#g#g#g#g#g#g#g#g#g#g#g#g#g#g#g#g#g#g#g#g#g#g#g#g#g#g#g#g#g#g#g#g#g#g#g#g#g#g#g#g#g#g#g#g#g#g#g#g#g#g#g#g#g#g#g#g#g#g#g#g#g#g#g#g#g#g#g#g#g#g#g#g#g#g#g#g#g#g#g#g#g#g#g#g#g#g#g#g#g#g#g#g#g#g#g#g#g#g#g#g#g#g#g#g#g#g#g#g#g#g#g#g#g#g#g#g#g#g#g#g#g#g#g#g#g#g#g#g#g#g#g#g#g#g#g#g#g#g#g#g#g#g#g#g#g#g#g#g#g#g#g#g",
"#g#g#g#g#g#g#g#g#g#g#g#g#g#g#g#g#g#g#g#g#g#g#g#g#g#g#g#g#g#g#g#g#g#g#g#g#g#g#g#g#g#g#g#g#g#g#g#g#g#g#g#g#g#g#g#g#g#g#g#g#g#g#g#g#g#g#g#g#g#g#g#g#g#g#g#g#g#g#g#g#g#g#g#g#g#g#g#g#g#g#g#g#g#g#g#g#g#g#g#g#g#g#g#g#g#g#g#g#g#g#g#g#g#g#g#g#g#g#g#g#g#g#g#g#g#g#g#g#g#g#g#g#g#g#g#g#g#g#g#g#g#g#g#g#g#g#g#g#g#g#g#g#g#g#g#g#g#g#g#g#g#g#g#g#g#g#g#g#g#g#g#g#g#g#g#g#g#g#g#g#g#g#g#g#g#g#g#g#g#g#g#g#g#g#g#g#g#g#g#g",
"#g#g#g#g#g#g#g#g#g#g#g#g#g#g#g#g#g#g#g#g#g#g#g#g#g#g#g#g#g#g#g#g#g#g#g#g#g#g#g#g#g#g#g#g#g#g#g#g#g#g#g#g#g#g#g#g#g#g#g#g#g#g#g#g#g#g#g#g#g#g#g#g#g#g#g#g#g#g#g#g#g#g#g#g#g#g#g#g#g#g#g#g#g#g#g#g#g#g#g#g#g#g#g#g#g#g#g#g#g#g#g#g#g#g#g#g#g#g#g#g#g#g#g#g#g#g#g#g#g#g#g#g#g#g#g#g#g#g#g#g#g#g#g#g#g#g#g#g#g#g#g#g#g#g#g#g#g#g#g#g#g#g#g#g#g#g#g#g#g#g#g#g#g#g#g#g#g#g#g#g#g#g#g#g#g#g#g#g#g#g#g#g#g#g#g#g#g#g#g#g",
"#g#g#g#g#g#g#g#g#g#g#g#g#g#g#g#g#g#g#g#g#g#g#g#g#g#g#g#g#g#g#g#g#g#g#g#g#g#g#g#g#g#g#g#g#g#g#g#g#g#g#g#g#g#g#g#g#g#g#g#g#g#g#g#g#g#g#g#g#g#g#g#g#g#g#g#g#g#g#g#g#g#g#g#g#g#g#g#g#g#g#g#g#g#g#g#g#g#g#g#g#g#g#g#g#g#g#g#g#g#g#g#g#g#g#g#g#g#g#g#g#g#g#g#g#g#g#g#g#g#g#g#g#g#g#g#g#g#g#g#g#g#g#g#g#g#g#g#g#g#g#g#g#g#g#g#g#g#g#g#g#g#g#g#g#g#g#g#g#g#g#g#g#g#g#g#g#g#g#g#g#g#g#g#g#g#g#g#g#g#g#g#g#g#g#g#g#g#g#g#g",
"#g#g#g#g#g#g#g#g#g#g#g#g#g#g#g#g#g#g#g#g#g#g#g#g#g#g#g#g#g#g#g#g#g#g#g#g#g#g#g#g#g#g#g#g#g#g#g#g#g#g#g#g#g#g#g#g#g#g#g#g#g#g#g#g#g#g#g#g#g#g#g#g#g#g#g#g#g#g#g#g#g#g#g#g#g#g#g#g#g#g#g#g#g#g#g#g#g#g#g#g#g#g#g#g#g#g#g#g#g#g#g#g#g#g#g#g#g#g#g#g#g#g#g#g#g#g#g#g#g#g#g#g#g#g#g#g#g#g#g#g#g#g#g#g#g#g#g#g#g#g#g#g#g#g#g#g#g#g#g#g#g#g#g#g#g#g#g#g#g#g#g#g#g#g#g#g#g#g#g#g#g#g#g#g#g#g#g#g#g#g#g#g#g#g#g#g#g#g#g#g",
"#g#g#g#g#g#g#g#g#g#g#g#g#g#g#g#g#g#g#g#g#g#g#g#g#g#g#g#g#g#g#g#g#g#g#g#g#g#g#g#g#g#g#g#g#g#g#g#g#g#g#g#g#g#g#g#g#g#g#g#g#g#g#g#g#g#g#g#g#g#g#g#g#g#g#g#g#g#g#g#g#g#g#g#g#g#g#g#g#g#g#g#g#g#g#g#g#g#g#g#g#g#g#g#g#g#g#g#g#g#g#g#g#g#g#g#g#g#g#g#g#g#g#g#g#g#g#g#g#g#g#g#g#g#g#g#g#g#g#g#g#g#g#g#g#g#g#g#g#g#g#g#g#g#g#g#g#g#g#g#g#g#g#g#g#g#g#g#g#g#g#g#g#g#g#g#g#g#g#g#g#g#g#g#g#g#g#g#g#g#g#g#g#g#g#g#g#g#g#g#g",
"#g#g#g#g#g#g#g#g#g#g#g#g#g#g#g#g#g#g#g#g#g#g#g#g#g#g#g#g#g#g#g#g#g#g#g#g#g#g#g#g#g#g#g#g#g#g#g#g#g#g#g#g#g#g#g#g#g#g#g#g#g#g#g#g#g#g#g#g#g#g#g#g#g#g#g#g#g#g#g#g#g#g#g#g#g#g#g#g#g#g#g#g#g#g#g#g#g#g#g#g#g#g#g#g#g#g#g#g#g#g#g#g#g#g#g#g#g#g#g#g#g#g#g#g#g#g#g#g#g#g#g#g#g#g#g#g#g#g#g#g#g#g#g#g#g#g#g#g#g#g#g#g#g#g#g#g#g#g#g#g#g#g#g#g#g#g#g#g#g#g#g#g#g#g#g#g#g#g#g#g#g#g#g#g#g#g#g#g#g#g#g#g#g#g#g#g#g#g#g#g",
"#g#g#g#g#g#g#g#g#g#g#g#g#g#g#g#g#g#g#g#g#g#g#g#g#g#g#g#g#g#g#g#g#g#g#g#g#g#g#g#g#g#g#g#g#g#g#g#g#g#g#g#g#g#g#g#g#g#g#g#g#g#g#g#g#g#g#g#g#g#g#g#g#g#g#g#g#g#g#g#g#g#g#g#g#g#g#g#g#g#g#g#g#g#g#g#g#g#g#g#g#g#g#g#g#g#g#g#g#g#g#g#g#g#g#g#g#g#g#g#g#g#g#g#g#g#g#g#g#g#g#g#g#g#g#g#g#g#g#g#g#g#g#g#g#g#g#g#g#g#g#g#g#g#g#g#g#g#g#g#g#g#g#g#g#g#g#g#g#g#g#g#g#g#g#g#g#g#g#g#g#g#g#g#g#g#g#g#g#g#g#g#g#g#g#g#g#g#g#g#g"
};

