/* XPM */
static char *title_race[] = {
"104 40 3 2",
"aa c #F4F4F4",
"ab c #000000",
"ac c #FF00FF",
/* pixels */
"acacacacacacacacacacacacacacacacacacacacacacacacacacacacacacacacacacacacacacacacacacacacacacacacacacacacacacacacacacacacacacacacacacacacacacacacacacacacacacacacacacacacacacacacacacacacacacacacacacacacacacacac",
"acacacacacacacacacacacacacacacacacacacacacacacacacacacacacacacacacacacacacacacacacacacacacacacacacacacacacacacacacacacacacacacacacacacacacacacacacacacacacacacacacacacacacacacacacacacacacacacacacacacacacacacac",
"acacacacacacacacacacacacacacacacacacacacacacacacacacacacacacacacacacacacacacacacacacacacacacacacacacacacacacacacacacacacacacacacacacacacacacacacacacacacacacacacacacacacacacacacacacacacacacacacacacacacacacacac",
"acacacacacacacacacacacacacacacacacacacacacacacacacacacacacacacacacacacacacacacacacacacacacacacacacacacacacacacacacacacacacacacacacacacacacacacacacacacacacacacacacacacacacacacacacacacacacacacacacacacacacacacac",
"acacacacacacacacacacacacacacacacacacacacacacacacacacacacacacacacacacacacacacacacacacacacacacacacacacacacacacacacacacacacacacacacacacacacacacacacacacacacacacacacacacacacacacacacacacacacacacacacacacacacacacacac",
"acacacacacababababababababababababababababababacacacacacacacacacacacacacacababababababacacacacacacacacacacacacacacababababababababababababababacacacacacacababababababababababababababababababababababacacacacac",
"acacacacacabaaaaaaaaaaaaaaaaaaaaaaaaaaaaaaaaabacacacacacacacacacacacacacacabaaaaaaaaabacacacacacacacacacacacacacacabaaaaaaaaaaaaaaaaaaaaaaaaabacacacacacacabaaaaaaaaaaaaaaaaaaaaaaaaaaaaaaaaaaaaaaaaabacacacacac",
"acacacacacabaaaaaaaaaaaaaaaaaaaaaaaaaaaaaaaaabacacacacacacacacacacacacacacabaaaaaaaaabacacacacacacacacacacacacacacabaaaaaaaaaaaaaaaaaaaaaaaaabacacacacacacabaaaaaaaaaaaaaaaaaaaaaaaaaaaaaaaaaaaaaaaaabacacacacac",
"acacacacacabaaaaaaaaaaaaaaaaaaaaaaaaaaaaaaaaabacacacacacacacacacacacacacacabaaaaaaaaabacacacacacacacacacacacacacacabaaaaaaaaaaaaaaaaaaaaaaaaabacacacacacacabaaaaaaaaaaaaaaaaaaaaaaaaaaaaaaaaaaaaaaaaabacacacacac",
"acacacacacabaaaaaaaaaaaaaaaaaaaaaaaaaaaaaaaaabababababacacacacacacabababababaaaaaaaaabababababacacacacacacabababababaaaaaaaaaaaaaaaaaaaaaaaaabababababacacabaaaaaaaaaaaaaaaaaaaaaaaaaaaaaaaaaaaaaaaaabacacacacac",
"acacacacacabaaaaaaaaababababababababababababaaaaaaaaabacacacacacacabaaaaaaaaababababaaaaaaaaabacacacacacacabaaaaaaaaababababababababababababaaaaaaaaabacacabaaaaaaaaabababababababababababababababababacacacacac",
"acacacacacabaaaaaaaaabacacacacacacacacacacabaaaaaaaaabacacacacacacabaaaaaaaaabacacabaaaaaaaaabacacacacacacabaaaaaaaaabacacacacacacacacacacabaaaaaaaaabacacabaaaaaaaaabacacacacacacacacacacacacacacacacacacacacac",
"acacacacacabaaaaaaaaabacacacacacacacacacacabaaaaaaaaabacacacacacacabaaaaaaaaabacacabaaaaaaaaabacacacacacacabaaaaaaaaabacacacacacacacacacacabaaaaaaaaabacacabaaaaaaaaabacacacacacacacacacacacacacacacacacacacacac",
"acacacacacabaaaaaaaaabacacacacacacacacacacabaaaaaaaaabacacabababababaaaaaaaaabacacabaaaaaaaaabababababacacabaaaaaaaaabacacacacacacacacacacabaaaaaaaaabacacabaaaaaaaaabacacacacacacacacacacacacacacacacacacacacac",
"acacacacacabaaaaaaaaabacacacacacacacacacacabaaaaaaaaabacacabaaaaaaaaabababababacacabababababaaaaaaaaabacacabaaaaaaaaabacacacacacacacacacacababababababacacabaaaaaaaaabacacacacacacacacacacacacacacacacacacacacac",
"acacacacacabaaaaaaaaabacacacacacacacacacacabaaaaaaaaabacacabaaaaaaaaabacacacacacacacacacacabaaaaaaaaabacacabaaaaaaaaabacacacacacacacacacacacacacacacacacacabaaaaaaaaabacacacacacacacacacacacacacacacacacacacacac",
"acacacacacabaaaaaaaaabacacacacacacacacacacabaaaaaaaaabacacabaaaaaaaaabacacacacacacacacacacabaaaaaaaaabacacabaaaaaaaaabacacacacacacacacacacacacacacacacacacabaaaaaaaaabacacacacacacacacacacacacacacacacacacacacac",
"acacacacacabaaaaaaaaababababababababababababaaaaaaaaabacacabaaaaaaaaabacacacacacacacacacacabaaaaaaaaabacacabaaaaaaaaabacacacacacacacacacacacacacacacacacacabaaaaaaaaabababababababababababababacacacacacacacacac",
"acacacacacabaaaaaaaaaaaaaaaaaaaaaaaaaaaaaaaaabababababacacabaaaaaaaaabacacacacacacacacacacabaaaaaaaaabacacabaaaaaaaaabacacacacacacacacacacacacacacacacacacabaaaaaaaaaaaaaaaaaaaaaaaaaaaaaaaaabacacacacacacacacac",
"acacacacacabaaaaaaaaaaaaaaaaaaaaaaaaaaaaaaaaabacacacacacacabaaaaaaaaabacacacacacacacacacacabaaaaaaaaabacacabaaaaaaaaabacacacacacacacacacacacacacacacacacacabaaaaaaaaaaaaaaaaaaaaaaaaaaaaaaaaabacacacacacacacacac",
"acacacacacabaaaaaaaaaaaaaaaaaaaaaaaaaaaaaaaaabacacacacacacabaaaaaaaaabacacacacacacacacacacabaaaaaaaaabacacabaaaaaaaaabacacacacacacacacacacacacacacacacacacabaaaaaaaaaaaaaaaaaaaaaaaaaaaaaaaaabacacacacacacacacac",
"acacacacacabaaaaaaaaaaaaaaaaaaaaaaaaaaaaaaaaabacacacacacacabaaaaaaaaababababababababababababaaaaaaaaabacacabaaaaaaaaabacacacacacacacacacacacacacacacacacacabaaaaaaaaaaaaaaaaaaaaaaaaaaaaaaaaabacacacacacacacacac",
"acacacacacabaaaaaaaaababababababababaaaaaaaaabacacacacacacabaaaaaaaaaaaaaaaaaaaaaaaaaaaaaaaaaaaaaaaaabacacabaaaaaaaaabacacacacacacacacacacacacacacacacacacabaaaaaaaaabababababababababababababacacacacacacacacac",
"acacacacacabaaaaaaaaabacacacacacacabaaaaaaaaabacacacacacacabaaaaaaaaaaaaaaaaaaaaaaaaaaaaaaaaaaaaaaaaabacacabaaaaaaaaabacacacacacacacacacacacacacacacacacacabaaaaaaaaabacacacacacacacacacacacacacacacacacacacacac",
"acacacacacabaaaaaaaaabacacacacacacabaaaaaaaaabacacacacacacabaaaaaaaaaaaaaaaaaaaaaaaaaaaaaaaaaaaaaaaaabacacabaaaaaaaaabacacacacacacacacacacacacacacacacacacabaaaaaaaaabacacacacacacacacacacacacacacacacacacacacac",
"acacacacacabaaaaaaaaabacacacacacacabaaaaaaaaabababababacacabaaaaaaaaaaaaaaaaaaaaaaaaaaaaaaaaaaaaaaaaabacacabaaaaaaaaabacacacacacacacacacacababababababacacabaaaaaaaaabacacacacacacacacacacacacacacacacacacacacac",
"acacacacacabaaaaaaaaabacacacacacacabababababaaaaaaaaabacacabaaaaaaaaababababababababababababaaaaaaaaabacacabaaaaaaaaabacacacacacacacacacacabaaaaaaaaabacacabaaaaaaaaabacacacacacacacacacacacacacacacacacacacacac",
"acacacacacabaaaaaaaaabacacacacacacacacacacabaaaaaaaaabacacabaaaaaaaaabacacacacacacacacacacabaaaaaaaaabacacabaaaaaaaaabacacacacacacacacacacabaaaaaaaaabacacabaaaaaaaaabacacacacacacacacacacacacacacacacacacacacac",
"acacacacacabaaaaaaaaabacacacacacacacacacacabaaaaaaaaabacacabaaaaaaaaabacacacacacacacacacacabaaaaaaaaabacacabaaaaaaaaabacacacacacacacacacacabaaaaaaaaabacacabaaaaaaaaabacacacacacacacacacacacacacacacacacacacacac",
"acacacacacabaaaaaaaaabacacacacacacacacacacabaaaaaaaaabacacabaaaaaaaaabacacacacacacacacacacabaaaaaaaaabacacabaaaaaaaaababababababababababababaaaaaaaaabacacabaaaaaaaaabababababababababababababababababacacacacac",
"acacacacacabaaaaaaaaabacacacacacacacacacacabaaaaaaaaabacacabaaaaaaaaabacacacacacacacacacacabaaaaaaaaabacacabababababaaaaaaaaaaaaaaaaaaaaaaaaabababababacacabaaaaaaaaaaaaaaaaaaaaaaaaaaaaaaaaaaaaaaaaabacacacacac",
"acacacacacabaaaaaaaaabacacacacacacacacacacabaaaaaaaaabacacabaaaaaaaaabacacacacacacacacacacabaaaaaaaaabacacacacacacabaaaaaaaaaaaaaaaaaaaaaaaaabacacacacacacabaaaaaaaaaaaaaaaaaaaaaaaaaaaaaaaaaaaaaaaaabacacacacac",
"acacacacacabaaaaaaaaabacacacacacacacacacacabaaaaaaaaabacacabaaaaaaaaabacacacacacacacacacacabaaaaaaaaabacacacacacacabaaaaaaaaaaaaaaaaaaaaaaaaabacacacacacacabaaaaaaaaaaaaaaaaaaaaaaaaaaaaaaaaaaaaaaaaabacacacacac",
"acacacacacabaaaaaaaaabacacacacacacacacacacabaaaaaaaaabacacabaaaaaaaaabacacacacacacacacacacabaaaaaaaaabacacacacacacabaaaaaaaaaaaaaaaaaaaaaaaaabacacacacacacabaaaaaaaaaaaaaaaaaaaaaaaaaaaaaaaaaaaaaaaaabacacacacac",
"acacacacacababababababacacacacacacacacacacababababababacacababababababacacacacacacacacacacababababababacacacacacacababababababababababababababacacacacacacababababababababababababababababababababababacacacacac",
"acacacacacacacacacacacacacacacacacacacacacacacacacacacacacacacacacacacacacacacacacacacacacacacacacacacacacacacacacacacacacacacacacacacacacacacacacacacacacacacacacacacacacacacacacacacacacacacacacacacacacacacac",
"acacacacacacacacacacacacacacacacacacacacacacacacacacacacacacacacacacacacacacacacacacacacacacacacacacacacacacacacacacacacacacacacacacacacacacacacacacacacacacacacacacacacacacacacacacacacacacacacacacacacacacacac",
"acacacacacacacacacacacacacacacacacacacacacacacacacacacacacacacacacacacacacacacacacacacacacacacacacacacacacacacacacacacacacacacacacacacacacacacacacacacacacacacacacacacacacacacacacacacacacacacacacacacacacacacac",
"acacacacacacacacacacacacacacacacacacacacacacacacacacacacacacacacacacacacacacacacacacacacacacacacacacacacacacacacacacacacacacacacacacacacacacacacacacacacacacacacacacacacacacacacacacacacacacacacacacacacacacacac",
"acacacacacacacacacacacacacacacacacacacacacacacacacacacacacacacacacacacacacacacacacacacacacacacacacacacacacacacacacacacacacacacacacacacacacacacacacacacacacacacacacacacacacacacacacacacacacacacacacacacacacacacac"
};
