/* XPM */
static char *title_endurance[] = {
"224 40 3 2",
"aa c #F4F4F4",
"ab c #000000",
"ac c #FF00FF",
/* pixels */
"acacacacacacacacacacacacacacacacacacacacacacacacacacacacacacacacacacacacacacacacacacacacacacacacacacacacacacacacacacacacacacacacacacacacacacacacacacacacacacacacacacacacacacacacacacacacacacacacacacacacacacacacacacacacacacacacacacacacacacacacacacacacacacacacacacacacacacacacacacacacacacacacacacacacacacacacacacacacacacacacacacacacacacacacacacacacacacacacacacacacacacacacacacacacacacacacacacacacacacacacacacacacacacacacacacacacacacacacacacacacacacacac",
"acacacacacacacacacacacacacacacacacacacacacacacacacacacacacacacacacacacacacacacacacacacacacacacacacacacacacacacacacacacacacacacacacacacacacacacacacacacacacacacacacacacacacacacacacacacacacacacacacacacacacacacacacacacacacacacacacacacacacacacacacacacacacacacacacacacacacacacacacacacacacacacacacacacacacacacacacacacacacacacacacacacacacacacacacacacacacacacacacacacacacacacacacacacacacacacacacacacacacacacacacacacacacacacacacacacacacacacacacacacacacacacac",
"acacacacacacacacacacacacacacacacacacacacacacacacacacacacacacacacacacacacacacacacacacacacacacacacacacacacacacacacacacacacacacacacacacacacacacacacacacacacacacacacacacacacacacacacacacacacacacacacacacacacacacacacacacacacacacacacacacacacacacacacacacacacacacacacacacacacacacacacacacacacacacacacacacacacacacacacacacacacacacacacacacacacacacacacacacacacacacacacacacacacacacacacacacacacacacacacacacacacacacacacacacacacacacacacacacacacacacacacacacacacacacacac",
"acacacacacacacacacacacacacacacacacacacacacacacacacacacacacacacacacacacacacacacacacacacacacacacacacacacacacacacacacacacacacacacacacacacacacacacacacacacacacacacacacacacacacacacacacacacacacacacacacacacacacacacacacacacacacacacacacacacacacacacacacacacacacacacacacacacacacacacacacacacacacacacacacacacacacacacacacacacacacacacacacacacacacacacacacacacacacacacacacacacacacacacacacacacacacacacacacacacacacacacacacacacacacacacacacacacacacacacacacacacacacacacac",
"acacacacacacacacacacacacacacacacacacacacacacacacacacacacacacacacacacacacacacacacacacacacacacacacacacacacacacacacacacacacacacacacacacacacacacacacacacacacacacacacacacacacacacacacacacacacacacacacacacacacacacacacacacacacacacacacacacacacacacacacacacacacacacacacacacacacacacacacacacacacacacacacacacacacacacacacacacacacacacacacacacacacacacacacacacacacacacacacacacacacacacacacacacacacacacacacacacacacacacacacacacacacacacacacacacacacacacacacacacacacacacacac",
"acacacacacababababababababababababababababababababababacacababababababacacacacacacacacacacababababababacacababababababababababababababacacacacacacacacacacababababababacacacacacacacacacacababababababacacababababababababababababababababababacacacacacacacacacacacacacacababababababacacacacacacacacacacababababababacacacacacacacacacacababababababacacacacacacababababababababababababababacacacacacacababababababababababababababababababababababacacacacac",
"acacacacacabaaaaaaaaaaaaaaaaaaaaaaaaaaaaaaaaaaaaaaaaabacacabaaaaaaaaabacacacacacacacacacacabaaaaaaaaabacacabaaaaaaaaaaaaaaaaaaaaaaaaabacacacacacacacacacacabaaaaaaaaabacacacacacacacacacacabaaaaaaaaabacacabaaaaaaaaaaaaaaaaaaaaaaaaaaaaaaaaabacacacacacacacacacacacacacacabaaaaaaaaabacacacacacacacacacacabaaaaaaaaabacacacacacacacacacacabaaaaaaaaabacacacacacacabaaaaaaaaaaaaaaaaaaaaaaaaabacacacacacacabaaaaaaaaaaaaaaaaaaaaaaaaaaaaaaaaaaaaaaaaabacacacacac",
"acacacacacabaaaaaaaaaaaaaaaaaaaaaaaaaaaaaaaaaaaaaaaaabacacabaaaaaaaaabacacacacacacacacacacabaaaaaaaaabacacabaaaaaaaaaaaaaaaaaaaaaaaaabacacacacacacacacacacabaaaaaaaaabacacacacacacacacacacabaaaaaaaaabacacabaaaaaaaaaaaaaaaaaaaaaaaaaaaaaaaaabacacacacacacacacacacacacacacabaaaaaaaaabacacacacacacacacacacabaaaaaaaaabacacacacacacacacacacabaaaaaaaaabacacacacacacabaaaaaaaaaaaaaaaaaaaaaaaaabacacacacacacabaaaaaaaaaaaaaaaaaaaaaaaaaaaaaaaaaaaaaaaaabacacacacac",
"acacacacacabaaaaaaaaaaaaaaaaaaaaaaaaaaaaaaaaaaaaaaaaabacacabaaaaaaaaabacacacacacacacacacacabaaaaaaaaabacacabaaaaaaaaaaaaaaaaaaaaaaaaabacacacacacacacacacacabaaaaaaaaabacacacacacacacacacacabaaaaaaaaabacacabaaaaaaaaaaaaaaaaaaaaaaaaaaaaaaaaabacacacacacacacacacacacacacacabaaaaaaaaabacacacacacacacacacacabaaaaaaaaabacacacacacacacacacacabaaaaaaaaabacacacacacacabaaaaaaaaaaaaaaaaaaaaaaaaabacacacacacacabaaaaaaaaaaaaaaaaaaaaaaaaaaaaaaaaaaaaaaaaabacacacacac",
"acacacacacabaaaaaaaaaaaaaaaaaaaaaaaaaaaaaaaaaaaaaaaaabacacabaaaaaaaaabababababacacacacacacabaaaaaaaaabacacabaaaaaaaaaaaaaaaaaaaaaaaaabababababacacacacacacabaaaaaaaaabacacacacacacacacacacabaaaaaaaaabacacabaaaaaaaaaaaaaaaaaaaaaaaaaaaaaaaaabababababacacacacacacabababababaaaaaaaaabababababacacacacacacabaaaaaaaaabababababacacacacacacabaaaaaaaaabacacabababababaaaaaaaaaaaaaaaaaaaaaaaaabababababacacabaaaaaaaaaaaaaaaaaaaaaaaaaaaaaaaaaaaaaaaaabacacacacac",
"acacacacacabaaaaaaaaabababababababababababababababababacacabaaaaaaaaaaaaaaaaabacacacacacacabaaaaaaaaabacacabaaaaaaaaababababababababaaaaaaaaabacacacacacacabaaaaaaaaabacacacacacacacacacacabaaaaaaaaabacacabaaaaaaaaababababababababababababaaaaaaaaabacacacacacacabaaaaaaaaababababaaaaaaaaabacacacacacacabaaaaaaaaaaaaaaaaabacacacacacacabaaaaaaaaabacacabaaaaaaaaababababababababababababaaaaaaaaabacacabaaaaaaaaabababababababababababababababababacacacacac",
"acacacacacabaaaaaaaaabacacacacacacacacacacacacacacacacacacabaaaaaaaaaaaaaaaaabacacacacacacabaaaaaaaaabacacabaaaaaaaaabacacacacacacabaaaaaaaaabacacacacacacabaaaaaaaaabacacacacacacacacacacabaaaaaaaaabacacabaaaaaaaaabacacacacacacacacacacabaaaaaaaaabacacacacacacabaaaaaaaaabacacabaaaaaaaaabacacacacacacabaaaaaaaaaaaaaaaaabacacacacacacabaaaaaaaaabacacabaaaaaaaaabacacacacacacacacacacabaaaaaaaaabacacabaaaaaaaaabacacacacacacacacacacacacacacacacacacacacac",
"acacacacacabaaaaaaaaabacacacacacacacacacacacacacacacacacacabaaaaaaaaaaaaaaaaabacacacacacacabaaaaaaaaabacacabaaaaaaaaabacacacacacacabaaaaaaaaabacacacacacacabaaaaaaaaabacacacacacacacacacacabaaaaaaaaabacacabaaaaaaaaabacacacacacacacacacacabaaaaaaaaabacacacacacacabaaaaaaaaabacacabaaaaaaaaabacacacacacacabaaaaaaaaaaaaaaaaabacacacacacacabaaaaaaaaabacacabaaaaaaaaabacacacacacacacacacacabaaaaaaaaabacacabaaaaaaaaabacacacacacacacacacacacacacacacacacacacacac",
"acacacacacabaaaaaaaaabacacacacacacacacacacacacacacacacacacabaaaaaaaaaaaaaaaaabababababacacabaaaaaaaaabacacabaaaaaaaaabacacacacacacabaaaaaaaaabababababacacabaaaaaaaaabacacacacacacacacacacabaaaaaaaaabacacabaaaaaaaaabacacacacacacacacacacabaaaaaaaaabacacabababababaaaaaaaaabacacabaaaaaaaaabababababacacabaaaaaaaaaaaaaaaaabababababacacabaaaaaaaaabacacabaaaaaaaaabacacacacacacacacacacabaaaaaaaaabacacabaaaaaaaaabacacacacacacacacacacacacacacacacacacacacac",
"acacacacacabaaaaaaaaabacacacacacacacacacacacacacacacacacacabaaaaaaaaababababaaaaaaaaabacacabaaaaaaaaabacacabaaaaaaaaabacacacacacacabababababaaaaaaaaabacacabaaaaaaaaabacacacacacacacacacacabaaaaaaaaabacacabaaaaaaaaabacacacacacacacacacacabaaaaaaaaabacacabaaaaaaaaabababababacacabababababaaaaaaaaabacacabaaaaaaaaababababaaaaaaaaabacacabaaaaaaaaabacacabaaaaaaaaabacacacacacacacacacacababababababacacabaaaaaaaaabacacacacacacacacacacacacacacacacacacacacac",
"acacacacacabaaaaaaaaabacacacacacacacacacacacacacacacacacacabaaaaaaaaabacacabaaaaaaaaabacacabaaaaaaaaabacacabaaaaaaaaabacacacacacacacacacacabaaaaaaaaabacacabaaaaaaaaabacacacacacacacacacacabaaaaaaaaabacacabaaaaaaaaabacacacacacacacacacacabaaaaaaaaabacacabaaaaaaaaabacacacacacacacacacacabaaaaaaaaabacacabaaaaaaaaabacacabaaaaaaaaabacacabaaaaaaaaabacacabaaaaaaaaabacacacacacacacacacacacacacacacacacacabaaaaaaaaabacacacacacacacacacacacacacacacacacacacacac",
"acacacacacabaaaaaaaaabacacacacacacacacacacacacacacacacacacabaaaaaaaaabacacabaaaaaaaaabacacabaaaaaaaaabacacabaaaaaaaaabacacacacacacacacacacabaaaaaaaaabacacabaaaaaaaaabacacacacacacacacacacabaaaaaaaaabacacabaaaaaaaaabacacacacacacacacacacabaaaaaaaaabacacabaaaaaaaaabacacacacacacacacacacabaaaaaaaaabacacabaaaaaaaaabacacabaaaaaaaaabacacabaaaaaaaaabacacabaaaaaaaaabacacacacacacacacacacacacacacacacacacabaaaaaaaaabacacacacacacacacacacacacacacacacacacacacac",
"acacacacacabaaaaaaaaabababababababababababababacacacacacacabaaaaaaaaabacacabaaaaaaaaababababaaaaaaaaabacacabaaaaaaaaabacacacacacacacacacacabaaaaaaaaabacacabaaaaaaaaabacacacacacacacacacacabaaaaaaaaabacacabaaaaaaaaababababababababababababaaaaaaaaabacacabaaaaaaaaabacacacacacacacacacacabaaaaaaaaabacacabaaaaaaaaabacacabaaaaaaaaababababaaaaaaaaabacacabaaaaaaaaabacacacacacacacacacacacacacacacacacacabaaaaaaaaabababababababababababababacacacacacacacacac",
"acacacacacabaaaaaaaaaaaaaaaaaaaaaaaaaaaaaaaaabacacacacacacabaaaaaaaaabacacabababababaaaaaaaaaaaaaaaaabacacabaaaaaaaaabacacacacacacacacacacabaaaaaaaaabacacabaaaaaaaaabacacacacacacacacacacabaaaaaaaaabacacabaaaaaaaaaaaaaaaaaaaaaaaaaaaaaaaaabababababacacabaaaaaaaaabacacacacacacacacacacabaaaaaaaaabacacabaaaaaaaaabacacabababababaaaaaaaaaaaaaaaaabacacabaaaaaaaaabacacacacacacacacacacacacacacacacacacabaaaaaaaaaaaaaaaaaaaaaaaaaaaaaaaaabacacacacacacacacac",
"acacacacacabaaaaaaaaaaaaaaaaaaaaaaaaaaaaaaaaabacacacacacacabaaaaaaaaabacacacacacacabaaaaaaaaaaaaaaaaabacacabaaaaaaaaabacacacacacacacacacacabaaaaaaaaabacacabaaaaaaaaabacacacacacacacacacacabaaaaaaaaabacacabaaaaaaaaaaaaaaaaaaaaaaaaaaaaaaaaabacacacacacacabaaaaaaaaabacacacacacacacacacacabaaaaaaaaabacacabaaaaaaaaabacacacacacacabaaaaaaaaaaaaaaaaabacacabaaaaaaaaabacacacacacacacacacacacacacacacacacacabaaaaaaaaaaaaaaaaaaaaaaaaaaaaaaaaabacacacacacacacacac",
"acacacacacabaaaaaaaaaaaaaaaaaaaaaaaaaaaaaaaaabacacacacacacabaaaaaaaaabacacacacacacabaaaaaaaaaaaaaaaaabacacabaaaaaaaaabacacacacacacacacacacabaaaaaaaaabacacabaaaaaaaaabacacacacacacacacacacabaaaaaaaaabacacabaaaaaaaaaaaaaaaaaaaaaaaaaaaaaaaaabacacacacacacabaaaaaaaaabacacacacacacacacacacabaaaaaaaaabacacabaaaaaaaaabacacacacacacabaaaaaaaaaaaaaaaaabacacabaaaaaaaaabacacacacacacacacacacacacacacacacacacabaaaaaaaaaaaaaaaaaaaaaaaaaaaaaaaaabacacacacacacacacac",
"acacacacacabaaaaaaaaaaaaaaaaaaaaaaaaaaaaaaaaabacacacacacacabaaaaaaaaabacacacacacacabaaaaaaaaaaaaaaaaabacacabaaaaaaaaabacacacacacacacacacacabaaaaaaaaabacacabaaaaaaaaabacacacacacacacacacacabaaaaaaaaabacacabaaaaaaaaaaaaaaaaaaaaaaaaaaaaaaaaabacacacacacacabaaaaaaaaababababababababababababaaaaaaaaabacacabaaaaaaaaabacacacacacacabaaaaaaaaaaaaaaaaabacacabaaaaaaaaabacacacacacacacacacacacacacacacacacacabaaaaaaaaaaaaaaaaaaaaaaaaaaaaaaaaabacacacacacacacacac",
"acacacacacabaaaaaaaaabababababababababababababacacacacacacabaaaaaaaaabacacacacacacabababababaaaaaaaaabacacabaaaaaaaaabacacacacacacacacacacabaaaaaaaaabacacabaaaaaaaaabacacacacacacacacacacabaaaaaaaaabacacabaaaaaaaaababababababababaaaaaaaaabacacacacacacabaaaaaaaaaaaaaaaaaaaaaaaaaaaaaaaaaaaaaaaaabacacabaaaaaaaaabacacacacacacabababababaaaaaaaaabacacabaaaaaaaaabacacacacacacacacacacacacacacacacacacabaaaaaaaaabababababababababababababacacacacacacacacac",
"acacacacacabaaaaaaaaabacacacacacacacacacacacacacacacacacacabaaaaaaaaabacacacacacacacacacacabaaaaaaaaabacacabaaaaaaaaabacacacacacacacacacacabaaaaaaaaabacacabaaaaaaaaabacacacacacacacacacacabaaaaaaaaabacacabaaaaaaaaabacacacacacacabaaaaaaaaabacacacacacacabaaaaaaaaaaaaaaaaaaaaaaaaaaaaaaaaaaaaaaaaabacacabaaaaaaaaabacacacacacacacacacacabaaaaaaaaabacacabaaaaaaaaabacacacacacacacacacacacacacacacacacacabaaaaaaaaabacacacacacacacacacacacacacacacacacacacacac",
"acacacacacabaaaaaaaaabacacacacacacacacacacacacacacacacacacabaaaaaaaaabacacacacacacacacacacabaaaaaaaaabacacabaaaaaaaaabacacacacacacacacacacabaaaaaaaaabacacabaaaaaaaaabacacacacacacacacacacabaaaaaaaaabacacabaaaaaaaaabacacacacacacabaaaaaaaaabacacacacacacabaaaaaaaaaaaaaaaaaaaaaaaaaaaaaaaaaaaaaaaaabacacabaaaaaaaaabacacacacacacacacacacabaaaaaaaaabacacabaaaaaaaaabacacacacacacacacacacacacacacacacacacabaaaaaaaaabacacacacacacacacacacacacacacacacacacacacac",
"acacacacacabaaaaaaaaabacacacacacacacacacacacacacacacacacacabaaaaaaaaabacacacacacacacacacacabaaaaaaaaabacacabaaaaaaaaabacacacacacacabababababaaaaaaaaabacacabaaaaaaaaabacacacacacacacacacacabaaaaaaaaabacacabaaaaaaaaabacacacacacacabaaaaaaaaabababababacacabaaaaaaaaaaaaaaaaaaaaaaaaaaaaaaaaaaaaaaaaabacacabaaaaaaaaabacacacacacacacacacacabaaaaaaaaabacacabaaaaaaaaabacacacacacacacacacacababababababacacabaaaaaaaaabacacacacacacacacacacacacacacacacacacacacac",
"acacacacacabaaaaaaaaabacacacacacacacacacacacacacacacacacacabaaaaaaaaabacacacacacacacacacacabaaaaaaaaabacacabaaaaaaaaabacacacacacacabaaaaaaaaabababababacacabaaaaaaaaabacacacacacacacacacacabaaaaaaaaabacacabaaaaaaaaabacacacacacacabababababaaaaaaaaabacacabaaaaaaaaababababababababababababaaaaaaaaabacacabaaaaaaaaabacacacacacacacacacacabaaaaaaaaabacacabaaaaaaaaabacacacacacacacacacacabaaaaaaaaabacacabaaaaaaaaabacacacacacacacacacacacacacacacacacacacacac",
"acacacacacabaaaaaaaaabacacacacacacacacacacacacacacacacacacabaaaaaaaaabacacacacacacacacacacabaaaaaaaaabacacabaaaaaaaaabacacacacacacabaaaaaaaaabacacacacacacabaaaaaaaaabacacacacacacacacacacabaaaaaaaaabacacabaaaaaaaaabacacacacacacacacacacabaaaaaaaaabacacabaaaaaaaaabacacacacacacacacacacabaaaaaaaaabacacabaaaaaaaaabacacacacacacacacacacabaaaaaaaaabacacabaaaaaaaaabacacacacacacacacacacabaaaaaaaaabacacabaaaaaaaaabacacacacacacacacacacacacacacacacacacacacac",
"acacacacacabaaaaaaaaabacacacacacacacacacacacacacacacacacacabaaaaaaaaabacacacacacacacacacacabaaaaaaaaabacacabaaaaaaaaabacacacacacacabaaaaaaaaabacacacacacacabaaaaaaaaabacacacacacacacacacacabaaaaaaaaabacacabaaaaaaaaabacacacacacacacacacacabaaaaaaaaabacacabaaaaaaaaabacacacacacacacacacacabaaaaaaaaabacacabaaaaaaaaabacacacacacacacacacacabaaaaaaaaabacacabaaaaaaaaabacacacacacacacacacacabaaaaaaaaabacacabaaaaaaaaabacacacacacacacacacacacacacacacacacacacacac",
"acacacacacabaaaaaaaaabababababababababababababababababacacabaaaaaaaaabacacacacacacacacacacabaaaaaaaaabacacabaaaaaaaaababababababababaaaaaaaaabacacacacacacabaaaaaaaaababababababababababababaaaaaaaaabacacabaaaaaaaaabacacacacacacacacacacabaaaaaaaaabacacabaaaaaaaaabacacacacacacacacacacabaaaaaaaaabacacabaaaaaaaaabacacacacacacacacacacabaaaaaaaaabacacabaaaaaaaaababababababababababababaaaaaaaaabacacabaaaaaaaaabababababababababababababababababacacacacac",
"acacacacacabaaaaaaaaaaaaaaaaaaaaaaaaaaaaaaaaaaaaaaaaabacacabaaaaaaaaabacacacacacacacacacacabaaaaaaaaabacacabaaaaaaaaaaaaaaaaaaaaaaaaabababababacacacacacacabababababaaaaaaaaaaaaaaaaaaaaaaaaabababababacacabaaaaaaaaabacacacacacacacacacacabaaaaaaaaabacacabaaaaaaaaabacacacacacacacacacacabaaaaaaaaabacacabaaaaaaaaabacacacacacacacacacacabaaaaaaaaabacacabababababaaaaaaaaaaaaaaaaaaaaaaaaabababababacacabaaaaaaaaaaaaaaaaaaaaaaaaaaaaaaaaaaaaaaaaabacacacacac",
"acacacacacabaaaaaaaaaaaaaaaaaaaaaaaaaaaaaaaaaaaaaaaaabacacabaaaaaaaaabacacacacacacacacacacabaaaaaaaaabacacabaaaaaaaaaaaaaaaaaaaaaaaaabacacacacacacacacacacacacacacabaaaaaaaaaaaaaaaaaaaaaaaaabacacacacacacabaaaaaaaaabacacacacacacacacacacabaaaaaaaaabacacabaaaaaaaaabacacacacacacacacacacabaaaaaaaaabacacabaaaaaaaaabacacacacacacacacacacabaaaaaaaaabacacacacacacabaaaaaaaaaaaaaaaaaaaaaaaaabacacacacacacabaaaaaaaaaaaaaaaaaaaaaaaaaaaaaaaaaaaaaaaaabacacacacac",
"acacacacacabaaaaaaaaaaaaaaaaaaaaaaaaaaaaaaaaaaaaaaaaabacacabaaaaaaaaabacacacacacacacacacacabaaaaaaaaabacacabaaaaaaaaaaaaaaaaaaaaaaaaabacacacacacacacacacacacacacacabaaaaaaaaaaaaaaaaaaaaaaaaabacacacacacacabaaaaaaaaabacacacacacacacacacacabaaaaaaaaabacacabaaaaaaaaabacacacacacacacacacacabaaaaaaaaabacacabaaaaaaaaabacacacacacacacacacacabaaaaaaaaabacacacacacacabaaaaaaaaaaaaaaaaaaaaaaaaabacacacacacacabaaaaaaaaaaaaaaaaaaaaaaaaaaaaaaaaaaaaaaaaabacacacacac",
"acacacacacabaaaaaaaaaaaaaaaaaaaaaaaaaaaaaaaaaaaaaaaaabacacabaaaaaaaaabacacacacacacacacacacabaaaaaaaaabacacabaaaaaaaaaaaaaaaaaaaaaaaaabacacacacacacacacacacacacacacabaaaaaaaaaaaaaaaaaaaaaaaaabacacacacacacabaaaaaaaaabacacacacacacacacacacabaaaaaaaaabacacabaaaaaaaaabacacacacacacacacacacabaaaaaaaaabacacabaaaaaaaaabacacacacacacacacacacabaaaaaaaaabacacacacacacabaaaaaaaaaaaaaaaaaaaaaaaaabacacacacacacabaaaaaaaaaaaaaaaaaaaaaaaaaaaaaaaaaaaaaaaaabacacacacac",
"acacacacacababababababababababababababababababababababacacababababababacacacacacacacacacacababababababacacababababababababababababababacacacacacacacacacacacacacacababababababababababababababacacacacacacababababababacacacacacacacacacacababababababacacababababababacacacacacacacacacacababababababacacababababababacacacacacacacacacacababababababacacacacacacababababababababababababababacacacacacacababababababababababababababababababababababacacacacac",
"acacacacacacacacacacacacacacacacacacacacacacacacacacacacacacacacacacacacacacacacacacacacacacacacacacacacacacacacacacacacacacacacacacacacacacacacacacacacacacacacacacacacacacacacacacacacacacacacacacacacacacacacacacacacacacacacacacacacacacacacacacacacacacacacacacacacacacacacacacacacacacacacacacacacacacacacacacacacacacacacacacacacacacacacacacacacacacacacacacacacacacacacacacacacacacacacacacacacacacacacacacacacacacacacacacacacacacacacacacacacacacacac",
"acacacacacacacacacacacacacacacacacacacacacacacacacacacacacacacacacacacacacacacacacacacacacacacacacacacacacacacacacacacacacacacacacacacacacacacacacacacacacacacacacacacacacacacacacacacacacacacacacacacacacacacacacacacacacacacacacacacacacacacacacacacacacacacacacacacacacacacacacacacacacacacacacacacacacacacacacacacacacacacacacacacacacacacacacacacacacacacacacacacacacacacacacacacacacacacacacacacacacacacacacacacacacacacacacacacacacacacacacacacacacacacac",
"acacacacacacacacacacacacacacacacacacacacacacacacacacacacacacacacacacacacacacacacacacacacacacacacacacacacacacacacacacacacacacacacacacacacacacacacacacacacacacacacacacacacacacacacacacacacacacacacacacacacacacacacacacacacacacacacacacacacacacacacacacacacacacacacacacacacacacacacacacacacacacacacacacacacacacacacacacacacacacacacacacacacacacacacacacacacacacacacacacacacacacacacacacacacacacacacacacacacacacacacacacacacacacacacacacacacacacacacacacacacacacacac",
"acacacacacacacacacacacacacacacacacacacacacacacacacacacacacacacacacacacacacacacacacacacacacacacacacacacacacacacacacacacacacacacacacacacacacacacacacacacacacacacacacacacacacacacacacacacacacacacacacacacacacacacacacacacacacacacacacacacacacacacacacacacacacacacacacacacacacacacacacacacacacacacacacacacacacacacacacacacacacacacacacacacacacacacacacacacacacacacacacacacacacacacacacacacacacacacacacacacacacacacacacacacacacacacacacacacacacacacacacacacacacacacac",
"acacacacacacacacacacacacacacacacacacacacacacacacacacacacacacacacacacacacacacacacacacacacacacacacacacacacacacacacacacacacacacacacacacacacacacacacacacacacacacacacacacacacacacacacacacacacacacacacacacacacacacacacacacacacacacacacacacacacacacacacacacacacacacacacacacacacacacacacacacacacacacacacacacacacacacacacacacacacacacacacacacacacacacacacacacacacacacacacacacacacacacacacacacacacacacacacacacacacacacacacacacacacacacacacacacacacacacacacacacacacacacacac"
};
