/* XPM */
static char *car1_p2_s2[] = {
"64 64 117 2",
"aa	c #ff00ff",
"ab	c #000100",
"ac	c #702f13",
"ad	c #383330",
"ae	c #474340",
"af	c #9b2228",
"ag	c #8b1e23",
"ah	c #a32129",
"ai	c #c7622c",
"aj	c #842b2c",
"ak	c #824042",
"al	c #915052",
"am	c #895151",
"an	c #7a4140",
"ao	c #9b908b",
"ap	c #d4cbcc",
"aq	c #faf2f1",
"ar	c #ea5033",
"as	c #9b2a39",
"at	c #ca2339",
"au	c #ee653c",
"av	c #bb2c3b",
"aw	c #a94252",
"ax	c #b85262",
"ay	c #bdb5b6",
"az	c #b2adaf",
"aA	c #81645c",
"aB	c #bbada9",
"aC	c #e2dade",
"aD	c #f4eaec",
"aE	c #631c1d",
"aF	c #c22438",
"aG	c #ab2d3c",
"aH	c #e13f35",
"aI	c #f07139",
"aJ	c #e43a2d",
"aK	c #6a3d3f",
"aL	c #945959",
"aM	c #74403f",
"aN	c #e8e2e6",
"aO	c #3c0e0f",
"aP	c #a62630",
"aQ	c #5a2a2c",
"aR	c #711022",
"aS	c #902d3f",
"aT	c #8a2636",
"aU	c #b04a5c",
"aV	c #794d50",
"aW	c #312b27",
"aX	c #662727",
"aY	c #932327",
"aZ	c #7f2b31",
"a0	c #d5312d",
"a1	c #f08c7b",
"a2	c #c63040",
"a3	c #d82d3b",
"a4	c #831f21",
"a5	c #ae2531",
"a6	c #8f2f34",
"a7	c #f08356",
"a8	c #c62a31",
"a9	c #983546",
"a!	c #de1e42",
"a#	c #7f1f22",
"a$	c #a33b49",
"a%	c #942a2b",
"a&	c #bc272e",
"a(	c #535b66",
"a)	c #566777",
"a*	c #4c4f55",
"a+	c #5d788c",
"a,	c #6a8698",
"a-	c #93b5c3",
"a.	c #c2272e",
"a/	c #685e5b",
"a:	c #772121",
"a;	c #71504f",
"a<	c #9f2e33",
"a=	c #873433",
"a>	c #b33c39",
"a?	c #9f3733",
"a@	c #a53333",
"a[	c #9f483f",
"a]	c #7d3130",
"a^	c #534d4c",
"a_	c #973332",
"a{	c #a9413b",
"a|	c #6e6774",
"a}	c #675f6a",
"a~	c #b71b32",
"ba	c #5d5e70",
"bb	c #615861",
"bc	c #51393c",
"bd	c #c21f3a",
"be	c #552d2b",
"bf	c #8d302f",
"bg	c #606971",
"bh	c #280a0c",
"bi	c #1b1414",
"bj	c #4f191a",
"bk	c #d62137",
"bl	c #aa3138",
"bm	c #627584",
"bn	c #671d20",
"bo	c #5d1c1d",
"bp	c #ad2b30",
"bq	c #b13637",
"br	c #cd4344",
"bs	c #c03136",
"bt	c #ce3b38",
"bu	c #af3031",
"bv	c #b4282d",
"bw	c #bc3e3d",
"bx	c #591a1d",
"by	c #e6c6c5",
"bz	c #dbb9b1",
"bA	c #caaa9a",
"aaaaaaaaaaaaaaaaaaaaaaaaaaaaaaaaaaaaaaaaaaaaaaaaaaaaaaaaaaaaaaaaaaaaaaaaaaaaaaaaaaaaaaaaaaaaaaaaaaaaaaaaaaaaaaaaaaaaaaaaaaaaaaaa",
"aaaaaaaaaaaaaaaaaaaaaaaaaaaaaaaaaaaaaaaaaaaaaaaaaaaaaaaaaaaaaaaaaaaaaaaaaaaaaaaaaaaaaaaaaaaaaaaaaaaaaaaaaaaaaaaaaaaaaaaaaaaaaaaa",
"aaaaaaaaaaaaaaaaaaaaaaaaaaaaaaaaaaaaaaaaaaaaaaaaaaaaaaaaaaaaaaaaaaaaaaaaaaaaaaaaaaaaaaaaaaaaaaaaaaaaaaaaaaaaaaaaaaaaaaaaaaaaaaaa",
"aaaaaaaaaaaaaaaaaaaaaaaaaaaaaaaaaaaaaaaaaaaaaaaaaaaaaaaaaaaaaaaaaaaaaaaaaaaaaaaaaaaaaaaaaaaaaaaaaaaaaaaaaaaaaaaaaaaaaaaaaaaaaaaa",
"aaaaaaaaaaaaaaaaaaaaaaaaaaaaaaaaaaaaaaaaaaaaaaaaaaaaaaaaaaaaaaaaaaaaaaaaaaaaaaaaaaaaaaaaaaaaaaaaaaaaaaaaaaaaaaaaaaaaaaaaaaaaaaaa",
"aaaaaaaaaaaaaaaaaaaaaaaaaaaaaaaaaaaaaaaaaaaaaaaaaaabababababacabababadadadaeadaaaaaaaaaaaaaaaaaaaaaaaaaaaaaaaaaaaaaaaaaaaaaaaaaa",
"aaaaaaaaaaaaaaaaaaaaaaaaaaaaaaaaaaaaaaaaaaababababafafagafafahaiagajakalamananadadadadaaaaaaaaaaaaaaaaaaaaaaaaaaaaaaaaaaaaaaaaaa",
"aaaaaaaaaaaaaaaaaaaaaaaaaaaaaaaaaaaaaaaaabaoaoapaqafafarasasatauauavawaxaxawanayazaAaAadaaaaaaaaaaaaaaaaaaaaaaaaaaaaaaaaaaaaaaaa",
"aaaaaaaaaaaaaaaaaaaaaaaaaaaaaaaaaaaaaaabagaBaCaDaEaFatarasasaGaHaIaJawaxaxaxawaKazazaLaMadaaaaaaaaaaaaaaaaaaaaaaaaaaaaaaaaaaaaaa",
"aaaaaaaaaaaaaaaaaaaaaaaaaaaaaaaaaaaaaaabafaNaDaOaFataFaraJaGaHaIaIaJawaxaxaxawawaMazazaMadaaaaaaaaaaaaaaaaaaaaaaaaaaaaaaaaaaaaaa",
"aaaaaaaaaaaaaaaaaaaaaaaaaaaaaaaaaaaaabafaPaNaQaRaSaSaTararaHaHaIaIaHaHawaxaxaUawawaVazananaWaaaaaaaaaaaaaaaaaaaaaaaaaaaaaaaaaaaa",
"aaaaaaaaaaaaaaaaaaaaaaaaaaaaaaaaaaaaabafaPaXaSaRaSaSararaIaHaIaIaIaHaHawaxaUaUaUawawakaYaPabaaaaaaaaaaaaaaaaaaaaaaaaaaaaaaaaaaaa",
"aaaaaaaaaaaaaaaaaaaaaaaaaaaaaaaaaaaaabaPataZaRaSaSa0araIaIaIaIa1aIaIaHa2axaUaUaUawawaka3aPabaaaaaaaaaaaaaaaaaaaaaaaaaaaaaaaaaaaa",
"aaaaaaaaaaaaaaaaaaaaaaaaaaaaaaaaaaaba4a5ata6aSaSaSa0araIaIa7a7a1a1aIaHa8aUaUaUa9awawaja!aPagabaaaaaaaaaaaaaaaaaaaaaaaaaaaaaaaaaa",
"aaaaaaaaaaaaaaaaaaaaaaaaaaaaaaaaaaabaga5ata6aRaSaSaSa0aIaIa1a1a1a1aIa8asaUaUa9awawaTa#a3aPagabaaaaaaaaaaaaaaaaaaaaaaaaaaaaaaaaaa",
"aaaaaaaaaaaaaaaaaaaaaaaaaaaaaaaaaaabaga5ata6aRaRaSaSababababababababababababa$a$aRaSa%a3aPagabaaaaaaaaaaaaaaaaaaaaaaaaaaaaaaaaaa",
"aaaaaaaaaaaaaaaaaaaaaaaaaaaaaaaaaaabaga&ata6aRaSababa(a)a)a)a)a(a(a(a(a(a)a)ababaTaSafa3aPa#abaaaaaaaaaaaaaaaaaaaaaaaaaaaaaaaaaa",
"aaaaaaaaaaaaaaaaaaaaaaaaaaaaaaaaaaabaga&ata6ababa*a*a*a+a,a,a,a,a,a,a,a-a-a-a)a)ababafa3aPa#abaaaaaaaaaaaaaaaaaaaaaaaaaaaaaaaaaa",
"aaaaaaaaaaaaaaaaaaaaaaaaaaaaaaaaaaabaga&a.aba*a,a,a,a,a,a,a,a,a,a,a,a-a-a-a-a-a-a-a/abaPaPa:abaaaaaaaaaaaaaaaaaaaaaaaaaaaaaaaaaa",
"aaaaaaaaaaaaaaaaaaaaaaaaaaaaaaaaaaabababa.aba*a,a,a,a,a,a,a,a,a,a,a-a-a-a-a-a-a-a-a;aba<abababaaaaaaaaaaaaaaaaaaaaaaaaaaaaaaaaaa",
"aaaaaaaaaaaaaaaaaaaaaaaaaaaaaaaaaba=a=ababa>aba,a,a,a,a,a,a,a,a,a-a-a-a-a-a-a-a-a-aba?ababa@a@abaaaaaaaaaaaaaaaaaaaaaaaaaaaaaaaa",
"aaaaaaaaaaaaaaaaaaaaaaaaaaaaaaaba=a=a=ababa>aba,a,a,a,a,a,a,a,a-a-a-a-a-a-a-a-a-a-aba[ababa@a@a@abaaaaaaaaaaaaaaaaaaaaaaaaaaaaaa",
"aaaaaaaaaaaaaaaaaaaaaaaaaaaaaaababababa]ababa?aba,a,a,a,a,a,a-a-a-a-a-a-a-a-a-a-aba[ababaPababababaaaaaaaaaaaaaaaaaaaaaaaaaaaaaa",
"aaaaaaaaaaaaaaaaaaaaaaaaaaaaaaaaaaaaaba]aba^a_aba,ababababababababababababababa-aba{a|aba_abaaaaaaaaaaaaaaaaaaaaaaaaaaaaaaaaaaaa",
"aaaaaaaaaaaaaaaaaaaaaaaaaaaaaaaaaaaaaba_aba}a_ababa~a!a!a!a!a!a!a!a!a!a!a!ata#ababa{baaba<abaaaaaaaaaaaaaaaaaaaaaaaaaaaaaaaaaaaa",
"aaaaaaaaaaaaaaaaaaaaaaaaaaaaaaaaaaaaaba_aba}aba5a!a!a!a!a!a!a!a!a!a!a!a!a!a!atata5aba|aba%abaaaaaaaaaaaaaaaaaaaaaaaaaaaaaaaaaaaa",
"aaaaaaaaaaaaaaaaaaaaaaaaaaaaaaaaaaaaaba=aba}aba5a!a!a!a!a!a!a!a!a!a!a!a!a!a!a!a!a5aba|aba%abaaaaaaaaaaaaaaaaaaaaaaaaaaaaaaaaaaaa",
"aaaaaaaaaaaaaaaaaaaaaaaaaaaaaaaaaaaaaba=aba}aba5a!a!a!a!a!a!a!a!a!a!a!a!a!a!a!a!a5aba|aba%abaaaaaaaaaaaaaaaaaaaaaaaaaaaaaaaaaaaa",
"aaaaaaaaaaaaaaaaaaaaaaaaaaaaaaaaaaaaaba=aba}aba5a!a!a!a!a!a!a!a!a!a!a!a!a!a!a!a!a5abbbaba%abaaaaaaaaaaaaaaaaaaaaaaaaaaaaaaaaaaaa",
"aaaaaaaaaaaaaaaaaaaaaaaaaaaaaaaaaaaaaba]aba}aba5a!a!a!a!a!a!a!a!a!a!a!a!a!a!a!a!aPabbaaba%abaaaaaaaaaaaaaaaaaaaaaaaaaaaaaaaaaaaa",
"aaaaaaaaaaaaaaaaaaaaaaaaaaaaaaaaaaaaaba]aba}aba5a!a!a!a!a!a!a!a!a!a!a!a!a!a!a!a!aPabbaaba_abaaaaaaaaaaaaaaaaaaaaaaaaaaaaaaaaaaaa",
"aaaaaaaaaaaaaaaaaaaaaaaaaaaaaaaaaaaaaba]aba}aba5a!a!a!a!a!a!a!a!a!a!a!a!a!a!a!a!aPabbaaba_abaaaaaaaaaaaaaaaaaaaaaaaaaaaaaaaaaaaa",
"aaaaaaaaaaaaaaaaaaaaaaaaaaaaaaaaaaaaaba]aba}aba5a!a!a!a!a!a!a!a!a!a!a!a!a!a!a!a!aPabbaaba=abaaaaaaaaaaaaaaaaaaaaaaaaaaaaaaaaaaaa",
"aaaaaaaaaaaaaaaaaaaaaaaaaaaaaaaaaaaaaba]abbcabbda!a!a!a!a!a!a!a!a!a!a!a!a!a!a!a!aPabbeaba]abaaaaaaaaaaaaaaaaaaaaaaaaaaaaaaaaaaaa",
"aaaaaaaaaaaaaaaaaaaaaaaaaaaaaaaaaaaaaba]a]a]abbda!a!a!a!a!a!a!a!a!a!a!a!a!a!a!a!aPabbeaba]abaaaaaaaaaaaaaaaaaaaaaaaaaaaaaaaaaaaa",
"aaaaaaaaaaaaaaaaaaaaaaaaaaaaaaaaaaaaaba]a]ababbda!a!a!a!a!a!a!a!a!a!a!a!a!a!a!a!aPababa]a]abaaaaaaaaaaaaaaaaaaaaaaaaaaaaaaaaaaaa",
"aaaaaaaaaaaaaaaaaaaaaaaaaaaaaaaaaaaaaba]aba}abbda!a!a!a!a!a!a!a!a!a!a!a!a!a!a!a!aPaba}abbfabaaaaaaaaaaaaaaaaaaaaaaaaaaaaaaaaaaaa",
"aaaaaaaaaaaaaaaaaaaaaaaaaaaaaaaaaaaaaba]aba}abbda!a!a!a!a!a!a!a!a!a!a!a!a!a!a!a!aPaba}abbfabaaaaaaaaaaaaaaaaaaaaaaaaaaaaaaaaaaaa",
"aaaaaaaaaaaaaaaaaaaaaaaaaaaaaaaaaaaaaba]aba}abbda!a!a!a!a!a!a!a!a!a!a!a!a!a!a!a!aPaba}aba_abaaaaaaaaaaaaaaaaaaaaaaaaaaaaaaaaaaaa",
"aaaaaaaaaaaaaaaaaaaaaaaaaaaaaaaaaaaaaba]aba}aba5a!a!a!a!a!a!a!a!a!a!a!a!a!a!a!a!aPaba}aba_abaaaaaaaaaaaaaaaaaaaaaaaaaaaaaaaaaaaa",
"aaaaaaaaaaaaaaaaaaaaaaaaaaaaaaaaaaaaabbfaba}aba5a!a!a!a!a!a!a!a!a!a!a!a!a!a!a!a!aPabbgaba_abaaaaaaaaaaaaaaaaaaaaaaaaaaaaaaaaaaaa",
"aaaaaaaaaaaaaaaaaaaaaaaaaaaaaaaaaaaaaba_abbhafa.a!a!a!a!a!a!a!a!a!a!a!a!a!a!a!a!aPaPbiaba_abaaaaaaaaaaaaaaaaaaaaaaaaaaaaaaaaaaaa",
"aaaaaaaaaaaaaaaaaaaaaaaaaaaaaaaaaaaaaba_abbjaga.a5a!a!a!a!a!a!a!a!a!a!a!a!a!a!aPaPaPbiaba_abaaaaaaaaaaaaaaaaaaaaaaaaaaaaaaaaaaaa",
"aaaaaaaaaaaaaaaaaaaaaaaaaaaaaaaaaaaaaba_abagaga.a.a5a5a5a5a5a5a5a5a5a5a5a5a5a5a!aPaPaPaba<abaaaaaaaaaaaaaaaaaaaaaaaaaaaaaaaaaaaa",
"aaaaaaaaaaaaaaaaaaaaaaaaaaaaaaaaaaabafaPabaga&a&a.a.bka!a!a!a!a!a!a!a!a!a!a!a!a!aPaPaPabaPblabaaaaaaaaaaaaaaaaaaaaaaaaaaaaaaaaaa",
"aaaaaaaaaaaaaaaaaaaaaaaaaaaaaaaaaaabafaPafaPa&abababbkbka!a!a!a!a!a!a!a!a!a!abababaPaPaPaPaPabaaaaaaaaaaaaaaaaaaaaaaaaaaaaaaaaaa",
"aaaaaaaaaaaaaaaaaaaaaaaaaaaaaaaaaaabaPaPaPaPaba)a)a)ababababababababababababa(a(a(a4aPaPaPblabaaaaaaaaaaaaaaaaaaaaaaaaaaaaaaaaaa",
"aaaaaaaaaaaaaaaaaaaaaaaaaaaaaaaaaaabaPaPaPaPaba)a)a)a)a)a)a)a)a)a)a)a)a)a)a)a,a,a(abaPaPaPblabaaaaaaaaaaaaaaaaaaaaaaaaaaaaaaaaaa",
"aaaaaaaaaaaaaaaaaaaaaaaaaaaaaaaaaaabaPaPaPa5aba)bma,a,a,a,a,a,a,a,a,a,a,a,a,a,a,a,abaPaPaPblabaaaaaaaaaaaaaaaaaaaaaaaaaaaaaaaaaa",
"aaaaaaaaaaaaaaaaaaaaaaaaaaaaaaaaaaabafaPbna5aba)a,a,a,a,a,a,a,a,a,a,a,a,a,a,a,a,a,abaPbnblblabaaaaaaaaaaaaaaaaaaaaaaaaaaaaaaaaaa",
"aaaaaaaaaaaaaaaaaaaaaaaaaaaaaaaaaaabafboboa:bpababa,a,a,a,a,a,a,a,a,a,a,a,a,a,ababa<bnbnbnblabaaaaaaaaaaaaaaaaaaaaaaaaaaaaaaaaaa",
"aaaaaaaaaaaaaaaaaaaaaaaaaaaaaaaaaaabagbnaPboa:bqbqababababababababababababababagbrbnbnaPbnagabaaaaaaaaaaaaaaaaaaaaaaaaaaaaaaaaaa",
"aaaaaaaaaaaaaaaaaaaaaaaaaaaaaaaaaaabagbnbsbtboa:afa>bububpbpa&a&bva&bwbwbwbwbwagbnbnbrbrbnagabaaaaaaaaaaaaaaaaaaaaaaaaaaaaaaaaaa",
"aaaaaaaaaaaaaaaaaaaaaaaaaaaaaaaaaaabagagbxbwbwbjagagagagagagagbybyagagagagagagagbnbrbrbnagagabaaaaaaaaaaaaaaaaaaaaaaaaaaaaaaaaaa",
"aaaaaaaaaaaaaaaaaaaaaaaaaaaaaaaaaaaaabagagbjbxbjbxagagagagagagagagagagagagagagbxbobnbnagagabaaaaaaaaaaaaaaaaaaaaaaaaaaaaaaaaaaaa",
"aaaaaaaaaaaaaaaaaaaaaaaaaaaaaaaaaaaaabagagagagagagbxbxbxbxbxbxbxbxbxbxbxbxbnbxagagagagagagabaaaaaaaaaaaaaaaaaaaaaaaaaaaaaaaaaaaa",
"aaaaaaaaaaaaaaaaaaaaaaaaaaaaaaaaaaaaaaabagagagagagagagagagagagagagagagagagagagagagagagagabaaaaaaaaaaaaaaaaaaaaaaaaaaaaaaaaaaaaaa",
"aaaaaaaaaaaaaaaaaaaaaaaaaaaaaaaaaaaaaaaaababagagagagagagagbzbzbzbzbzbAa_a_a_a_a_a_a_ababaaaaaaaaaaaaaaaaaaaaaaaaaaaaaaaaaaaaaaaa",
"aaaaaaaaaaaaaaaaaaaaaaaaaaaaaaaaaaaaaaaaaaaaababababababababababababababababababababaaaaaaaaaaaaaaaaaaaaaaaaaaaaaaaaaaaaaaaaaaaa",
"aaaaaaaaaaaaaaaaaaaaaaaaaaaaaaaaaaaaaaaaaaaaaaaaaaaaaaaaaaaaaaaaaaaaaaaaaaaaaaaaaaaaaaaaaaaaaaaaaaaaaaaaaaaaaaaaaaaaaaaaaaaaaaaa",
"aaaaaaaaaaaaaaaaaaaaaaaaaaaaaaaaaaaaaaaaaaaaaaaaaaaaaaaaaaaaaaaaaaaaaaaaaaaaaaaaaaaaaaaaaaaaaaaaaaaaaaaaaaaaaaaaaaaaaaaaaaaaaaaa",
"aaaaaaaaaaaaaaaaaaaaaaaaaaaaaaaaaaaaaaaaaaaaaaaaaaaaaaaaaaaaaaaaaaaaaaaaaaaaaaaaaaaaaaaaaaaaaaaaaaaaaaaaaaaaaaaaaaaaaaaaaaaaaaaa",
"aaaaaaaaaaaaaaaaaaaaaaaaaaaaaaaaaaaaaaaaaaaaaaaaaaaaaaaaaaaaaaaaaaaaaaaaaaaaaaaaaaaaaaaaaaaaaaaaaaaaaaaaaaaaaaaaaaaaaaaaaaaaaaaa",
"aaaaaaaaaaaaaaaaaaaaaaaaaaaaaaaaaaaaaaaaaaaaaaaaaaaaaaaaaaaaaaaaaaaaaaaaaaaaaaaaaaaaaaaaaaaaaaaaaaaaaaaaaaaaaaaaaaaaaaaaaaaaaaaa"
};
