/* XPM */
static char *car1_p2_s3[] = {
"64 64 39 2",
"aa	c #ff00ff",
"ab	c #706560",
"ac	c #8e8581",
"ad	c #7e7575",
"ae	c #ce3b32",
"af	c #e05e27",
"ag	c #9f9690",
"ah	c #000100",
"ai	c #a2292d",
"aj	c #822122",
"ak	c #b2272e",
"al	c #f9aa34",
"am	c #743b35",
"an	c #ded0cb",
"ao	c #fbefee",
"ap	c #f28022",
"aq	c #54342f",
"ar	c #933933",
"as	c #4e1e1c",
"at	c #fdc22e",
"au	c #e65517",
"av	c #3d3a3a",
"aw	c #322c29",
"ax	c #63564e",
"ay	c #c74317",
"az	c #fef8b3",
"aA	c #aa403c",
"aB	c #fee668",
"aC	c #a9341f",
"aD	c #4d4a49",
"aE	c #da1c40",
"aF	c #6a2421",
"aG	c #5b626c",
"aH	c #6a8495",
"aI	c #93b0be",
"aJ	c #964a41",
"aK	c #cb4a49",
"aL	c #debdad",
"aM	c #cba48d",
"aaaaaaaaaaaaaaaaaaaaaaaaaaaaaaaaaaaaaaaaaaaaaaaaaaaaaaaaaaaaaaaaaaaaaaabacacacacacacacacacacacacacacacadaaaaaaaaaaaaaaaaaaaaaaaa",
"aaaaaaaaaaaaaaaaaaaaaaaaaaaaaaaaaaaaaaaaaaaaaaaaaaaaaaaaaaaaaaaaaaaaaaabacacacacacacacacacacacacacacacadaaaaaaaaaaaaaaaaaaaaaaaa",
"aaaaaaaaaaaaaaaaaaaaaaaaaaaaaaaaaaaaaaaaaaaaaaaaaaaaaaaaaaaaaaaeaaaaabacacacacabacacacacacacacacacacacadaaaaaaaaaaaaaaaaaaaaaaaa",
"aaaaaaaaaaaaaaaaaaaaaaaaaaaaaaaaaaaaaaaaaaaaaaaaaaaaaaaaaaaaaeaaaaabacacacacababacadadadadacacacacacadaaaaaaaaaaaaaaaaaaaaaaaaaa",
"aaaaaaaaaaaaaaaaaaaaaaaaaaaaaaaaaaaaaaaaaaaaaaaaaaaaaaaaaaaaafaaaaaaabacacacababacacagacacadacacacadaaaaaaaaaaaaaaaaaaaaaaaaaaaa",
"aaaaaaaaaaaaaaaaaaaaaaaaaaaaaaaaaaaaaaaaaaaaaaaaaaahahahahahafahahahabababacabababacagacagababacacaaaaaaaaaaaaaaaaaaaaaaaaaaaaaa",
"aaaaaaaaaaaaaaaaaaaaaaaaaaaaaaaaaaaaaaaaaaahahahahaiaiajaiaiakalajamabacacababababababacababacacaaaaaaaaaaaaaaaaaaaaaaaaaaaaaaaa",
"aaaaaaaaaaaaaaaaaaaaaaaaaaaaaaaaaaaaaaaaahagaganaoaiaiapaqaqakalalarabacacababacacacacababacacaaaaaaaaaaaaaaaaaaaaaaaaaaaaaaaaaa",
"aaaaaaaaaaaaaaaaaaaaaaaaaaaaaaaaaaaaaaahajanaoaoasaiakapaqaqamafatauabacacacababacacacababacacacaaaaaaaaaaaaaaaaaaaaaaaaaaaaaaaa",
"aaaaaaaaaaaaaaaaaaaaaaaaaaaaaaaaaaaaaaahaiaoaoahaiakaiapauamafatatauabacacacabababacacababadadaaaaaaaaaaaaaaaaaaaaaaaaaaaaaaaaaa",
"aaaaaaaaaaaaaaaaaaaaaaaaaaaaaaaaaaaaahaiaiaoavahavavawapapafafatatafafabacacadababacacababaxaaaaaaaaaaaaaaaaaaaaaaaaaaaaaaaaaaaa",
"aaaaaaaaaaaaaaaaaaaaaaaaaaaaaaaaaaaaahaiaiaqavahavavapapatafatatatafafabacadadadabababaiaiahaaaaaaaaaaaaaaaaaaaaaaaaaaaaaaaaaaaa",
"aaaaaaaaaaaaaaaaaaaaaaaaaaaaaaaaaaaaahaiakaqahavavayapatatatatazatatafaAacadadadabababaeaiahaaaaaaaaaaaaaaaaaaaaaaaaaaaaaaaaaaaa",
"aaaaaaaaaaaaaaaaaaaaaaaaaaaaaaaaaaahajakakamavavavayapatataBaBazazatafaCadadadaDababamaEaiajahaaaaaaaaaaaaaaaaaaaaaaaaaaaaaaaaaa",
"aaaaaaaaaaaaaaaaaaaaaaaaaaaaaaaaaaahajakakamahavavavayatatazazazazataCaqadadaDababawaFaeaiajahaaaaaaaaaaaaaaaaaaaaaaaaaaaaaaaaaa",
"aaaaaaaaaaaaaaaaaaaaaaaaaaaaaaaaaaahajakakamahahavavahahahahahahahahahahahahaxaxahavaraeaiajahaaaaaaaaaaaaaaaaaaaaaaaaaaaaaaaaaa",
"aaaaaaaaaaaaaaaaaaaaaaaaaaaaaaaaaaahajakakamahavahahaGaGaGaGaGaGaGaGaGaGaGaGahahawavaiaeaiaFahaaaaaaaaaaaaaaaaaaaaaaaaaaaaaaaaaa",
"aaaaaaaaaaaaaaaaaaaaaaaaaaaaaaaaaaahajakakamahahaDaDaDaHaHaHaHaHaHaHaHaIaIaIaGaGahahaiaeaiaFahaaaaaaaaaaaaaaaaaaaaaaaaaaaaaaaaaa",
"aaaaaaaaaaaaaaaaaaaaaaaaaaaaaaaaaaahajakakahaDaHaHaHaHaHaHaHaHaHaHaHaIaIaIaIaIaIaIaxahaiaiaFahaaaaaaaaaaaaaaaaaaaaaaaaaaaaaaaaaa",
"aaaaaaaaaaaaaaaaaaaaaaaaaaaaaaaaaaahahahakahaDaHaHaHaHaHaHaHaHaHaHaIaIaIaIaIaIaIaIamaharahahahaaaaaaaaaaaaaaaaaaaaaaaaaaaaaaaaaa",
"aaaaaaaaaaaaaaaaaaaaaaaaaaaaaaaaahamamahahaAahaHaHaHaHaHaHaHaHaHaIaIaIaIaIaIaIaIaIaharahahararahaaaaaaaaaaaaaaaaaaaaaaaaaaaaaaaa",
"aaaaaaaaaaaaaaaaaaaaaaaaaaaaaaahamamamahahaAahaHaHaHaHaHaHaHaHaIaIaIaIaIaIaIaIaIaIahaJahaharararahaaaaaaaaaaaaaaaaaaaaaaaaaaaaaa",
"aaaaaaaaaaaaaaaaaaaaaaaaaaaaaaahahahahamahaharahaHaHaHaHaHaHaIaIaIaIaIaIaIaIaIaIahaJahahaiahahahahaaaaaaaaaaaaaaaaaaaaaaaaaaaaaa",
"aaaaaaaaaaaaaaaaaaaaaaaaaaaaaaaaaaaaahamahaxarahaHahahahahahahahahahahahahahahaIahaJadaharahaaaaaaaaaaaaaaaaaaaaaaaaaaaaaaaaaaaa",
"aaaaaaaaaaaaaaaaaaaaaaaaaaaaaaaaaaaaaharahabarahahaEaEaEaEaEaEaEaEaEaEaEaEakaFahahaJaGaharahaaaaaaaaaaaaaaaaaaaaaaaaaaaaaaaaaaaa",
"aaaaaaaaaaaaaaaaaaaaaaaaaaaaaaaaaaaaaharahabahakaEaEaEaEaEaEaEaEaEaEaEaEaEaEakakakahadaharahaaaaaaaaaaaaaaaaaaaaaaaaaaaaaaaaaaaa",
"aaaaaaaaaaaaaaaaaaaaaaaaaaaaaaaaaaaaahamahabahakaEaEaEaEaEaEaEaEaEaEaEaEaEaEaEaEakahadaharahaaaaaaaaaaaaaaaaaaaaaaaaaaaaaaaaaaaa",
"aaaaaaaaaaaaaaaaaaaaaaaaaaaaaaaaaaaaahamahabahakaEaEaEaEaEaEaEaEaEaEaEaEaEaEaEaEakahadaharahaaaaaaaaaaaaaaaaaaaaaaaaaaaaaaaaaaaa",
"aaaaaaaaaaaaaaaaaaaaaaaaaaaaaaaaaaaaahamahabahakaEaEaEaEaEaEaEaEaEaEaEaEaEaEaEaEakahaxaharahaaaaaaaaaaaaaaaaaaaaaaaaaaaaaaaaaaaa",
"aaaaaaaaaaaaaaaaaaaaaaaaaaaaaaaaaaaaahamahabahakaEaEaEaEaEaEaEaEaEaEaEaEaEaEaEaEaiahaGaharahaaaaaaaaaaaaaaaaaaaaaaaaaaaaaaaaaaaa",
"aaaaaaaaaaaaaaaaaaaaaaaaaaaaaaaaaaaaahamahabahakaEaEaEaEaEaEaEaEaEaEaEaEaEaEaEaEaiahaGaharahaaaaaaaaaaaaaaaaaaaaaaaaaaaaaaaaaaaa",
"aaaaaaaaaaaaaaaaaaaaaaaaaaaaaaaaaaaaahamahabahakaEaEaEaEaEaEaEaEaEaEaEaEaEaEaEaEaiahaGaharahaaaaaaaaaaaaaaaaaaaaaaaaaaaaaaaaaaaa",
"aaaaaaaaaaaaaaaaaaaaaaaaaaaaaaaaaaaaahamahabahakaEaEaEaEaEaEaEaEaEaEaEaEaEaEaEaEaiahaGahamahaaaaaaaaaaaaaaaaaaaaaaaaaaaaaaaaaaaa",
"aaaaaaaaaaaaaaaaaaaaaaaaaaaaaaaaaaaaahamahamahaEaEaEaEaEaEaEaEaEaEaEaEaEaEaEaEaEaiahaqahamahaaaaaaaaaaaaaaaaaaaaaaaaaaaaaaaaaaaa",
"aaaaaaaaaaaaaaaaaaaaaaaaaaaaaaaaaaaaahamamamahaEaEaEaEaEaEaEaEaEaEaEaEaEaEaEaEaEaiahaqahamahaaaaaaaaaaaaaaaaaaaaaaaaaaaaaaaaaaaa",
"aaaaaaaaaaaaaaaaaaaaaaaaaaaaaaaaaaaaahamamahahaEaEaEaEaEaEaEaEaEaEaEaEaEaEaEaEaEaiahahamamahaaaaaaaaaaaaaaaaaaaaaaaaaaaaaaaaaaaa",
"aaaaaaaaaaaaaaaaaaaaaaaaaaaaaaaaaaaaahamahabahaEaEaEaEaEaEaEaEaEaEaEaEaEaEaEaEaEaiahabaharahaaaaaaaaaaaaaaaaaaaaaaaaaaaaaaaaaaaa",
"aaaaaaaaaaaaaaaaaaaaaaaaaaaaaaaaaaaaahamahabahaEaEaEaEaEaEaEaEaEaEaEaEaEaEaEaEaEaiahabaharahaaaaaaaaaaaaaaaaaaaaaaaaaaaaaaaaaaaa",
"aaaaaaaaaaaaaaaaaaaaaaaaaaaaaaaaaaaaahamahabahaEaEaEaEaEaEaEaEaEaEaEaEaEaEaEaEaEaiahabaharahaaaaaaaaaaaaaaaaaaaaaaaaaaaaaaaaaaaa",
"aaaaaaaaaaaaaaaaaaaaaaaaaaaaaaaaaaaaahamahabahakaEaEaEaEaEaEaEaEaEaEaEaEaEaEaEaEaiahabaharahaaaaaaaaaaaaaaaaaaaaaaaaaaaaaaaaaaaa",
"aaaaaaaaaaaaaaaaaaaaaaaaaaaaaaaaaaaaaharahabahakaEaEaEaEaEaEaEaEaEaEaEaEaEaEaEaEaiahabaharahaaaaaaaaaaaaaaaaaaaaaaaaaaaaaaaaaaaa",
"aaaaaaaaaaaaaaaaaaaaaaaaaaaaaaaaaaaaaharahahaiakaEaEaEaEaEaEaEaEaEaEaEaEaEaEaEaEaiaiahaharahaaaaaaaaaaaaaaaaaaaaaaaaaaaaaaaaaaaa",
"aaaaaaaaaaaaaaaaaaaaaaaaaaaaaaaaaaaaaharahasajakakaEaEaEaEaEaEaEaEaEaEaEaEaEaEaiaiaiahaharahaaaaaaaaaaaaaaaaaaaaaaaaaaaaaaaaaaaa",
"aaaaaaaaaaaaaaaaaaaaaaaaaaaaaaaaaaaaaharahajajakakakakakakakakakakakakakakakakaEaiaiaiaharahaaaaaaaaaaaaaaaaaaaaaaaaaaaaaaaaaaaa",
"aaaaaaaaaaaaaaaaaaaaaaaaaaaaaaaaaaahaiaiahajakakakakaEaEaEaEaEaEaEaEaEaEaEaEaEaEaiaiaiahaiaAahaaaaaaaaaaaaaaaaaaaaaaaaaaaaaaaaaa",
"aaaaaaaaaaaaaaaaaaaaaaaaaaaaaaaaaaahaiaiaiaiakahahahaEaEaEaEaEaEaEaEaEaEaEaEahahahaiaiaiaiaiahaaaaaaaaaaaaaaaaaaaaaaaaaaaaaaaaaa",
"aaaaaaaaaaaaaaaaaaaaaaaaaaaaaaaaaaahaiaiaiaiahaGaGaGahahahahahahahahahahahahaGaGaGajaiaiaiaAahaaaaaaaaaaaaaaaaaaaaaaaaaaaaaaaaaa",
"aaaaaaaaaaaaaaaaaaaaaaaaaaaaaaaaaaahaiaiaiaiahaGaGaGaGaGaGaGaGaGaGaGaGaGaGaGaHaHaGahaiaiaiaAahaaaaaaaaaaaaaaaaaaaaaaaaaaaaaaaaaa",
"aaaaaaaaaaaaaaaaaaaaaaaaaaaaaaaaaaahaiaiaiakahaGaGaHaHaHaHaHaHaHaHaHaHaHaHaHaHaHaHahaiaiaiaAahaaaaaaaaaaaaaaaaaaaaaaaaaaaaaaaaaa",
"aaaaaaaaaaaaaaaaaaaaaaaaaaaaaaaaaaahaiaiaFakahaGaHaHaHaHaHaHaHaHaHaHaHaHaHaHaHaHaHahaiaFaAaAahaaaaaaaaaaaaaaaaaaaaaaaaaaaaaaaaaa",
"aaaaaaaaaaaaaaaaaaaaaaaaaaaaaaaaaaahaiaFaFaFaiahahaHaHaHaHaHaHaHaHaHaHaHaHaHaHahaharaFaFaFaAahaaaaaaaaaaaaaaaaaaaaaaaaaaaaaaaaaa",
"aaaaaaaaaaaaaaaaaaaaaaaaaaaaaaaaaaahajaFaiaFaFaAaAahahahahahahahahahahahahahahajaKaFaFaiaFajahaaaaaaaaaaaaaaaaaaaaaaaaaaaaaaaaaa",
"aaaaaaaaaaaaaaaaaaaaaaaaaaaaaaaaaaahajaFakaeaFaFaiaAaiaiaiaiakakaiakaAaAaAaAaAajaFaFaKaKaFajahaaaaaaaaaaaaaaaaaaaaaaaaaaaaaaaaaa",
"aaaaaaaaaaaaaaaaaaaaaaaaaaaaaaaaaaahajajasaAaAasajajajajajajajananajajajajajajajaFaKaKaFajajahaaaaaaaaaaaaaaaaaaaaaaaaaaaaaaaaaa",
"aaaaaaaaaaaaaaaaaaaaaaaaaaaaaaaaaaaaahajajasasasasajajajajajajajajajajajajajajasaFaFaFajajahaaaaaaaaaaaaaaaaaaaaaaaaaaaaaaaaaaaa",
"aaaaaaaaaaaaaaaaaaaaaaaaaaaaaaaaaaaaahajajajajajajasasasasasasasasasasasasaFasajajajajajajahaaaaaaaaaaaaaaaaaaaaaaaaaaaaaaaaaaaa",
"aaaaaaaaaaaaaaaaaaaaaaaaaaaaaaaaaaaaaaahajajajajajajajajajajajajajajajajajajajajajajajajahaaaaaaaaaaaaaaaaaaaaaaaaaaaaaaaaaaaaaa",
"aaaaaaaaaaaaaaaaaaaaaaaaaaaaaaaaaaaaaaaaahahajajajajajajajaLaLaLaLaLaMarararararararahahaaaaaaaaaaaaaaaaaaaaaaaaaaaaaaaaaaaaaaaa",
"aaaaaaaaaaaaaaaaaaaaaaaaaaaaaaaaaaaaaaaaaaaaahahahahahahahahahahahahahahahahahahahahaaaaaaaaaaaaaaaaaaaaaaaaaaaaaaaaaaaaaaaaaaaa",
"aaaaaaaaaaaaaaaaaaaaaaaaaaaaaaaaaaaaaaaaaaaaaaaaaaaaaaaaaaaaaaaaaaaaaaaaaaaaaaaaaaaaaaaaaaaaaaaaaaaaaaaaaaaaaaaaaaaaaaaaaaaaaaaa",
"aaaaaaaaaaaaaaaaaaaaaaaaaaaaaaaaaaaaaaaaaaaaaaaaaaaaaaaaaaaaaaaaaaaaaaaaaaaaaaaaaaaaaaaaaaaaaaaaaaaaaaaaaaaaaaaaaaaaaaaaaaaaaaaa",
"aaaaaaaaaaaaaaaaaaaaaaaaaaaaaaaaaaaaaaaaaaaaaaaaaaaaaaaaaaaaaaaaaaaaaaaaaaaaaaaaaaaaaaaaaaaaaaaaaaaaaaaaaaaaaaaaaaaaaaaaaaaaaaaa",
"aaaaaaaaaaaaaaaaaaaaaaaaaaaaaaaaaaaaaaaaaaaaaaaaaaaaaaaaaaaaaaaaaaaaaaaaaaaaaaaaaaaaaaaaaaaaaaaaaaaaaaaaaaaaaaaaaaaaaaaaaaaaaaaa",
"aaaaaaaaaaaaaaaaaaaaaaaaaaaaaaaaaaaaaaaaaaaaaaaaaaaaaaaaaaaaaaaaaaaaaaaaaaaaaaaaaaaaaaaaaaaaaaaaaaaaaaaaaaaaaaaaaaaaaaaaaaaaaaaa"
};
