/* XPM */
static char *car1_p2_s4[] = {
"64 64 39 2",
"aa	c #ff00ff",
"ab	c #1c1918",
"ac	c #232120",
"ad	c #1f1d1d",
"ae	c #330e0c",
"af	c #381709",
"ag	c #272524",
"ah	c #000000",
"ai	c #280a0b",
"aj	c #200808",
"ak	c #2c090b",
"al	c #3e2a0d",
"am	c #1d0e0d",
"an	c #373432",
"ao	c #3e3b3b",
"ap	c #3c2008",
"aq	c #150d0b",
"ar	c #240e0c",
"as	c #130707",
"at	c #3f300b",
"au	c #391505",
"av	c #0f0e0e",
"aw	c #0c0b0a",
"ax	c #181513",
"ay	c #311005",
"az	c #3f3e2c",
"aA	c #2a100f",
"aB	c #3f391a",
"aC	c #2a0d07",
"aD	c #131212",
"aE	c #360710",
"aF	c #1a0908",
"aG	c #16181b",
"aH	c #1a2125",
"aI	c #242c2f",
"aJ	c #251210",
"aK	c #321212",
"aL	c #372f2b",
"aM	c #322923",
"aaaaaaaaaaaaaaaaaaaaaaaaaaaaaaaaaaaaaaaaaaaaaaaaaaaaaaaaaaaaaaaaaaaaaaabacacacacacacacacacacacacacacacadaaaaaaaaaaaaaaaaaaaaaaaa",
"aaaaaaaaaaaaaaaaaaaaaaaaaaaaaaaaaaaaaaaaaaaaaaaaaaaaaaaaaaaaaaaaaaaaaaabacacacacacacacacacacacacacacacadaaaaaaaaaaaaaaaaaaaaaaaa",
"aaaaaaaaaaaaaaaaaaaaaaaaaaaaaaaaaaaaaaaaaaaaaaaaaaaaaaaaaaaaaaaeaaaaabacacacacabacacacacacacacacacacacadaaaaaaaaaaaaaaaaaaaaaaaa",
"aaaaaaaaaaaaaaaaaaaaaaaaaaaaaaaaaaaaaaaaaaaaaaaaaaaaaaaaaaaaaeaaaaabacacacacababacadadadadacacacacacadaaaaaaaaaaaaaaaaaaaaaaaaaa",
"aaaaaaaaaaaaaaaaaaaaaaaaaaaaaaaaaaaaaaaaaaaaaaaaaaaaaaaaaaaaafaaaaaaabacacacababacacagacacadacacacadaaaaaaaaaaaaaaaaaaaaaaaaaaaa",
"aaaaaaaaaaaaaaaaaaaaaaaaaaaaaaaaaaaaaaaaaaaaaaaaaaahahahahahafahahahabababacabababacagacagababacacaaaaaaaaaaaaaaaaaaaaaaaaaaaaaa",
"aaaaaaaaaaaaaaaaaaaaaaaaaaaaaaaaaaaaaaaaaaahahahahaiaiajaiaiakalajamabacacababababababacababacacaaaaaaaaaaaaaaaaaaaaaaaaaaaaaaaa",
"aaaaaaaaaaaaaaaaaaaaaaaaaaaaaaaaaaaaaaaaahagaganaoaiaiapaqaqakalalarabacacababacacacacababacacaaaaaaaaaaaaaaaaaaaaaaaaaaaaaaaaaa",
"aaaaaaaaaaaaaaaaaaaaaaaaaaaaaaaaaaaaaaahajanaoaoasaiakapaqaqamafatauabacacacababacacacababacacacaaaaaaaaaaaaaaaaaaaaaaaaaaaaaaaa",
"aaaaaaaaaaaaaaaaaaaaaaaaaaaaaaaaaaaaaaahaiaoaoahaiakaiapauamafatatauabacacacabababacacababadadaaaaaaaaaaaaaaaaaaaaaaaaaaaaaaaaaa",
"aaaaaaaaaaaaaaaaaaaaaaaaaaaaaaaaaaaaahaiaiaoavahavavawapapafafatatafafabacacadababacacababaxaaaaaaaaaaaaaaaaaaaaaaaaaaaaaaaaaaaa",
"aaaaaaaaaaaaaaaaaaaaaaaaaaaaaaaaaaaaahaiaiaqavahavavapapatafatatatafafabacadadadabababaiaiahaaaaaaaaaaaaaaaaaaaaaaaaaaaaaaaaaaaa",
"aaaaaaaaaaaaaaaaaaaaaaaaaaaaaaaaaaaaahaiakaqahavavayapatatatatazatatafaAacadadadabababaeaiahaaaaaaaaaaaaaaaaaaaaaaaaaaaaaaaaaaaa",
"aaaaaaaaaaaaaaaaaaaaaaaaaaaaaaaaaaahajakakamavavavayapatataBaBazazatafaCadadadaDababamaEaiajahaaaaaaaaaaaaaaaaaaaaaaaaaaaaaaaaaa",
"aaaaaaaaaaaaaaaaaaaaaaaaaaaaaaaaaaahajakakamahavavavayatatazazazazataCaqadadaDababawaFaeaiajahaaaaaaaaaaaaaaaaaaaaaaaaaaaaaaaaaa",
"aaaaaaaaaaaaaaaaaaaaaaaaaaaaaaaaaaahajakakamahahavavahahahahahahahahahahahahaxaxahavaraeaiajahaaaaaaaaaaaaaaaaaaaaaaaaaaaaaaaaaa",
"aaaaaaaaaaaaaaaaaaaaaaaaaaaaaaaaaaahajakakamahavahahaGaGaGaGaGaGaGaGaGaGaGaGahahawavaiaeaiaFahaaaaaaaaaaaaaaaaaaaaaaaaaaaaaaaaaa",
"aaaaaaaaaaaaaaaaaaaaaaaaaaaaaaaaaaahajakakamahahaDaDaDaHaHaHaHaHaHaHaHaIaIaIaGaGahahaiaeaiaFahaaaaaaaaaaaaaaaaaaaaaaaaaaaaaaaaaa",
"aaaaaaaaaaaaaaaaaaaaaaaaaaaaaaaaaaahajakakahaDaHaHaHaHaHaHaHaHaHaHaHaIaIaIaIaIaIaIaxahaiaiaFahaaaaaaaaaaaaaaaaaaaaaaaaaaaaaaaaaa",
"aaaaaaaaaaaaaaaaaaaaaaaaaaaaaaaaaaahahahakahaDaHaHaHaHaHaHaHaHaHaHaIaIaIaIaIaIaIaIamaharahahahaaaaaaaaaaaaaaaaaaaaaaaaaaaaaaaaaa",
"aaaaaaaaaaaaaaaaaaaaaaaaaaaaaaaaahamamahahaAahaHaHaHaHaHaHaHaHaHaIaIaIaIaIaIaIaIaIaharahahararahaaaaaaaaaaaaaaaaaaaaaaaaaaaaaaaa",
"aaaaaaaaaaaaaaaaaaaaaaaaaaaaaaahamamamahahaAahaHaHaHaHaHaHaHaHaIaIaIaIaIaIaIaIaIaIahaJahaharararahaaaaaaaaaaaaaaaaaaaaaaaaaaaaaa",
"aaaaaaaaaaaaaaaaaaaaaaaaaaaaaaahahahahamahaharahaHaHaHaHaHaHaIaIaIaIaIaIaIaIaIaIahaJahahaiahahahahaaaaaaaaaaaaaaaaaaaaaaaaaaaaaa",
"aaaaaaaaaaaaaaaaaaaaaaaaaaaaaaaaaaaaahamahaxarahaHahahahahahahahahahahahahahahaIahaJadaharahaaaaaaaaaaaaaaaaaaaaaaaaaaaaaaaaaaaa",
"aaaaaaaaaaaaaaaaaaaaaaaaaaaaaaaaaaaaaharahabarahahaEaEaEaEaEaEaEaEaEaEaEaEakaFahahaJaGaharahaaaaaaaaaaaaaaaaaaaaaaaaaaaaaaaaaaaa",
"aaaaaaaaaaaaaaaaaaaaaaaaaaaaaaaaaaaaaharahabahakaEaEaEaEaEaEaEaEaEaEaEaEaEaEakakakahadaharahaaaaaaaaaaaaaaaaaaaaaaaaaaaaaaaaaaaa",
"aaaaaaaaaaaaaaaaaaaaaaaaaaaaaaaaaaaaahamahabahakaEaEaEaEaEaEaEaEaEaEaEaEaEaEaEaEakahadaharahaaaaaaaaaaaaaaaaaaaaaaaaaaaaaaaaaaaa",
"aaaaaaaaaaaaaaaaaaaaaaaaaaaaaaaaaaaaahamahabahakaEaEaEaEaEaEaEaEaEaEaEaEaEaEaEaEakahadaharahaaaaaaaaaaaaaaaaaaaaaaaaaaaaaaaaaaaa",
"aaaaaaaaaaaaaaaaaaaaaaaaaaaaaaaaaaaaahamahabahakaEaEaEaEaEaEaEaEaEaEaEaEaEaEaEaEakahaxaharahaaaaaaaaaaaaaaaaaaaaaaaaaaaaaaaaaaaa",
"aaaaaaaaaaaaaaaaaaaaaaaaaaaaaaaaaaaaahamahabahakaEaEaEaEaEaEaEaEaEaEaEaEaEaEaEaEaiahaGaharahaaaaaaaaaaaaaaaaaaaaaaaaaaaaaaaaaaaa",
"aaaaaaaaaaaaaaaaaaaaaaaaaaaaaaaaaaaaahamahabahakaEaEaEaEaEaEaEaEaEaEaEaEaEaEaEaEaiahaGaharahaaaaaaaaaaaaaaaaaaaaaaaaaaaaaaaaaaaa",
"aaaaaaaaaaaaaaaaaaaaaaaaaaaaaaaaaaaaahamahabahakaEaEaEaEaEaEaEaEaEaEaEaEaEaEaEaEaiahaGaharahaaaaaaaaaaaaaaaaaaaaaaaaaaaaaaaaaaaa",
"aaaaaaaaaaaaaaaaaaaaaaaaaaaaaaaaaaaaahamahabahakaEaEaEaEaEaEaEaEaEaEaEaEaEaEaEaEaiahaGahamahaaaaaaaaaaaaaaaaaaaaaaaaaaaaaaaaaaaa",
"aaaaaaaaaaaaaaaaaaaaaaaaaaaaaaaaaaaaahamahamahaEaEaEaEaEaEaEaEaEaEaEaEaEaEaEaEaEaiahaqahamahaaaaaaaaaaaaaaaaaaaaaaaaaaaaaaaaaaaa",
"aaaaaaaaaaaaaaaaaaaaaaaaaaaaaaaaaaaaahamamamahaEaEaEaEaEaEaEaEaEaEaEaEaEaEaEaEaEaiahaqahamahaaaaaaaaaaaaaaaaaaaaaaaaaaaaaaaaaaaa",
"aaaaaaaaaaaaaaaaaaaaaaaaaaaaaaaaaaaaahamamahahaEaEaEaEaEaEaEaEaEaEaEaEaEaEaEaEaEaiahahamamahaaaaaaaaaaaaaaaaaaaaaaaaaaaaaaaaaaaa",
"aaaaaaaaaaaaaaaaaaaaaaaaaaaaaaaaaaaaahamahabahaEaEaEaEaEaEaEaEaEaEaEaEaEaEaEaEaEaiahabaharahaaaaaaaaaaaaaaaaaaaaaaaaaaaaaaaaaaaa",
"aaaaaaaaaaaaaaaaaaaaaaaaaaaaaaaaaaaaahamahabahaEaEaEaEaEaEaEaEaEaEaEaEaEaEaEaEaEaiahabaharahaaaaaaaaaaaaaaaaaaaaaaaaaaaaaaaaaaaa",
"aaaaaaaaaaaaaaaaaaaaaaaaaaaaaaaaaaaaahamahabahaEaEaEaEaEaEaEaEaEaEaEaEaEaEaEaEaEaiahabaharahaaaaaaaaaaaaaaaaaaaaaaaaaaaaaaaaaaaa",
"aaaaaaaaaaaaaaaaaaaaaaaaaaaaaaaaaaaaahamahabahakaEaEaEaEaEaEaEaEaEaEaEaEaEaEaEaEaiahabaharahaaaaaaaaaaaaaaaaaaaaaaaaaaaaaaaaaaaa",
"aaaaaaaaaaaaaaaaaaaaaaaaaaaaaaaaaaaaaharahabahakaEaEaEaEaEaEaEaEaEaEaEaEaEaEaEaEaiahabaharahaaaaaaaaaaaaaaaaaaaaaaaaaaaaaaaaaaaa",
"aaaaaaaaaaaaaaaaaaaaaaaaaaaaaaaaaaaaaharahahaiakaEaEaEaEaEaEaEaEaEaEaEaEaEaEaEaEaiaiahaharahaaaaaaaaaaaaaaaaaaaaaaaaaaaaaaaaaaaa",
"aaaaaaaaaaaaaaaaaaaaaaaaaaaaaaaaaaaaaharahasajakakaEaEaEaEaEaEaEaEaEaEaEaEaEaEaiaiaiahaharahaaaaaaaaaaaaaaaaaaaaaaaaaaaaaaaaaaaa",
"aaaaaaaaaaaaaaaaaaaaaaaaaaaaaaaaaaaaaharahajajakakakakakakakakakakakakakakakakaEaiaiaiaharahaaaaaaaaaaaaaaaaaaaaaaaaaaaaaaaaaaaa",
"aaaaaaaaaaaaaaaaaaaaaaaaaaaaaaaaaaahaiaiahajakakakakaEaEaEaEaEaEaEaEaEaEaEaEaEaEaiaiaiahaiaAahaaaaaaaaaaaaaaaaaaaaaaaaaaaaaaaaaa",
"aaaaaaaaaaaaaaaaaaaaaaaaaaaaaaaaaaahaiaiaiaiakahahahaEaEaEaEaEaEaEaEaEaEaEaEahahahaiaiaiaiaiahaaaaaaaaaaaaaaaaaaaaaaaaaaaaaaaaaa",
"aaaaaaaaaaaaaaaaaaaaaaaaaaaaaaaaaaahaiaiaiaiahaGaGaGahahahahahahahahahahahahaGaGaGajaiaiaiaAahaaaaaaaaaaaaaaaaaaaaaaaaaaaaaaaaaa",
"aaaaaaaaaaaaaaaaaaaaaaaaaaaaaaaaaaahaiaiaiaiahaGaGaGaGaGaGaGaGaGaGaGaGaGaGaGaHaHaGahaiaiaiaAahaaaaaaaaaaaaaaaaaaaaaaaaaaaaaaaaaa",
"aaaaaaaaaaaaaaaaaaaaaaaaaaaaaaaaaaahaiaiaiakahaGaGaHaHaHaHaHaHaHaHaHaHaHaHaHaHaHaHahaiaiaiaAahaaaaaaaaaaaaaaaaaaaaaaaaaaaaaaaaaa",
"aaaaaaaaaaaaaaaaaaaaaaaaaaaaaaaaaaahaiaiaFakahaGaHaHaHaHaHaHaHaHaHaHaHaHaHaHaHaHaHahaiaFaAaAahaaaaaaaaaaaaaaaaaaaaaaaaaaaaaaaaaa",
"aaaaaaaaaaaaaaaaaaaaaaaaaaaaaaaaaaahaiaFaFaFaiahahaHaHaHaHaHaHaHaHaHaHaHaHaHaHahaharaFaFaFaAahaaaaaaaaaaaaaaaaaaaaaaaaaaaaaaaaaa",
"aaaaaaaaaaaaaaaaaaaaaaaaaaaaaaaaaaahajaFaiaFaFaAaAahahahahahahahahahahahahahahajaKaFaFaiaFajahaaaaaaaaaaaaaaaaaaaaaaaaaaaaaaaaaa",
"aaaaaaaaaaaaaaaaaaaaaaaaaaaaaaaaaaahajaFakaeaFaFaiaAaiaiaiaiakakaiakaAaAaAaAaAajaFaFaKaKaFajahaaaaaaaaaaaaaaaaaaaaaaaaaaaaaaaaaa",
"aaaaaaaaaaaaaaaaaaaaaaaaaaaaaaaaaaahajajasaAaAasajajajajajajajananajajajajajajajaFaKaKaFajajahaaaaaaaaaaaaaaaaaaaaaaaaaaaaaaaaaa",
"aaaaaaaaaaaaaaaaaaaaaaaaaaaaaaaaaaaaahajajasasasasajajajajajajajajajajajajajajasaFaFaFajajahaaaaaaaaaaaaaaaaaaaaaaaaaaaaaaaaaaaa",
"aaaaaaaaaaaaaaaaaaaaaaaaaaaaaaaaaaaaahajajajajajajasasasasasasasasasasasasaFasajajajajajajahaaaaaaaaaaaaaaaaaaaaaaaaaaaaaaaaaaaa",
"aaaaaaaaaaaaaaaaaaaaaaaaaaaaaaaaaaaaaaahajajajajajajajajajajajajajajajajajajajajajajajajahaaaaaaaaaaaaaaaaaaaaaaaaaaaaaaaaaaaaaa",
"aaaaaaaaaaaaaaaaaaaaaaaaaaaaaaaaaaaaaaaaahahajajajajajajajaLaLaLaLaLaMarararararararahahaaaaaaaaaaaaaaaaaaaaaaaaaaaaaaaaaaaaaaaa",
"aaaaaaaaaaaaaaaaaaaaaaaaaaaaaaaaaaaaaaaaaaaaahahahahahahahahahahahahahahahahahahahahaaaaaaaaaaaaaaaaaaaaaaaaaaaaaaaaaaaaaaaaaaaa",
"aaaaaaaaaaaaaaaaaaaaaaaaaaaaaaaaaaaaaaaaaaaaaaaaaaaaaaaaaaaaaaaaaaaaaaaaaaaaaaaaaaaaaaaaaaaaaaaaaaaaaaaaaaaaaaaaaaaaaaaaaaaaaaaa",
"aaaaaaaaaaaaaaaaaaaaaaaaaaaaaaaaaaaaaaaaaaaaaaaaaaaaaaaaaaaaaaaaaaaaaaaaaaaaaaaaaaaaaaaaaaaaaaaaaaaaaaaaaaaaaaaaaaaaaaaaaaaaaaaa",
"aaaaaaaaaaaaaaaaaaaaaaaaaaaaaaaaaaaaaaaaaaaaaaaaaaaaaaaaaaaaaaaaaaaaaaaaaaaaaaaaaaaaaaaaaaaaaaaaaaaaaaaaaaaaaaaaaaaaaaaaaaaaaaaa",
"aaaaaaaaaaaaaaaaaaaaaaaaaaaaaaaaaaaaaaaaaaaaaaaaaaaaaaaaaaaaaaaaaaaaaaaaaaaaaaaaaaaaaaaaaaaaaaaaaaaaaaaaaaaaaaaaaaaaaaaaaaaaaaaa",
"aaaaaaaaaaaaaaaaaaaaaaaaaaaaaaaaaaaaaaaaaaaaaaaaaaaaaaaaaaaaaaaaaaaaaaaaaaaaaaaaaaaaaaaaaaaaaaaaaaaaaaaaaaaaaaaaaaaaaaaaaaaaaaaa"
};
