/* XPM */
static char *car_blue_14_s1[] = {
/* columns rows colors chars-per-pixel */
"64 64 41 1 ",
"  c #FF00FF",
". c #010000",
"X c #252923",
"o c #2D342B",
"O c #282936",
"+ c #37442E",
"@ c #3A4338",
"# c #141A50",
"$ c #262856",
"% c #162065",
"& c #1B2078",
"* c #22286F",
"= c #423875",
"- c #444B43",
"; c #5CAA34",
": c #70C941",
"> c #8FD95E",
", c #1E2285",
"< c #1B2595",
"1 c #272D87",
"2 c #2D339B",
"3 c #2335AB",
"4 c #3433AB",
"5 c #2D34B8",
"6 c #3736BD",
"7 c #7B5CB7",
"8 c #2830C7",
"9 c #2730D2",
"0 c #3C40CF",
"q c #5352D4",
"w c #685ACC",
"e c #4A49E1",
"r c #808185",
"t c #989BA0",
"y c #B8BBBC",
"u c #9F98C5",
"i c #B5B6D8",
"p c #B497E0",
"a c #BDBFEE",
"s c #D3D8E7",
"d c #ECD1F6",
/* pixels */
"                                                                ",
"                                                                ",
"                         ..............                         ",
"                      ...==============...                      ",
"                    ..d7=..............=ui..                    ",
"                   ..up..,888888888888&..uu..                   ",
"                  .&p=.&8888888888888888,.Xa*.                  ",
"                  .&..,&8998988888888999,8.**.                  ",
"                 .&&.88&898..........899,88.**.                 ",
"                 .&9,88&88#wwwwwqqqqq#88,8818*.                 ",
"                 .&8,8<888#8888888888%889<8181.                 ",
"                 .&8,8<888888888888888888<8,81.                 ",
"                .&&8<8<888888888888888888<8<81,.                ",
"                .&&8<8<888888888888888888<9<81&.                ",
"                .&&8<8<888888888888888888<9<8,,.                ",
"                .&&8<8<8&&&..........%%%889<8,,.                ",
"                .&&8<8%....XXXXXXXXX.....&9<8,&.                ",
"                .&&8,...XXX@@@@@++++Xoo+...,8,&.                ",
"                .&&8..XXX@@@@@++++++++++++..5,*.                ",
"                ..&&4.@@@@@@@+++++++++++++.3&%..                ",
"                ..&&4.@@@@@@@+++++++++++++.3&%..                ",
"               .55&&5.@@@@@@@@++++++++++++.3%%<<.               ",
"              .355..%4.@@@@..........++++.<&..244.              ",
"              .3..$..4.....8888888888.....1.....2.              ",
"              ....$..,<88888888888888888811..*....              ",
"                 .$.O.<9998888888888888881.o.*.                 ",
"                 .$.O.<9888888888888888881.X.*.                 ",
"                 .$.O.<8................81.X.*.                 ",
"                 .$.O.<.eeeee.yyyy.>>>>;.1.X.*.                 ",
"                 .$.O.,.4e444.tttt.:::>;.1.o.*.                 ",
"                 .$.o.,.34444.rrrr.;;;;;.<.o.*.                 ",
"                 .$.o.,,................,4.o.*.                 ",
"                 .$.o.5,&&&,&&,&&&&&&&&,,5.o.*.                 ",
"                 .$.o.5,9999999999999999<5.o.*.                 ",
"                 .*...5,9999999999999999<5...*.                 ",
"                 .*..O5,9999999999999999<5O..*.                 ",
"                 .*.OO5,9999999999999999<5OO.*.                 ",
"                 .*OO.5,9999999999999999<8.O#*.                 ",
"                 .*.O.5,9999999999999999<8.O.*.                 ",
"                 .*.O.5,9999999999999999<8.O.*.                 ",
"                 .*.o.5,9999999999999999<8.O.*.                 ",
"                 .*.o.5,9999999999999999<8.O.*.                 ",
"                 .*.o.5,9999999999999999<8.O.*.                 ",
"                 .*.+.5,<<<<<<<<<<<<<<<<<8.o.*.                 ",
"                ..*..,1888888888888888888,,..*..                ",
"                .**..,,888888888888888888,,..**.                ",
"                .**.,,,.8888888888888888.,,,.%*.                ",
"                .**.,,..................o.,,.%*.                ",
"                .*&,,1.XXXXXXXXXXXXoooooo.,,1%*.                ",
"                .&&,1.X+++++++++++++++o++X.,1%%.                ",
"                .&,11.X++++++++++++++++++X.,1%%.                ",
"                .*,11.o++++++++++++++++++X.,1%%.                ",
"                .*1<<2...++++++++++++++...0,1%%.                ",
"                .*###3344..............6660..%%.                ",
"                .*#6&#%&3555555555554555&%.10.%.                ",
"                 .#600..#%%%%%%%%%%%%%%%..00q..                 ",
"                 .%..00.%%%%%%%%%%%%%%%%.60..&.                 ",
"                 .%%%...%%%%%ssssss##*&%#..&&&.                 ",
"                  .%&&&&,,,%%%%%%%%%%&&&&&&&&.                  ",
"                   .##%%%%%%%%%%%%***&&%%%%%.                   ",
"                    ..--................--..                    ",
"                      ...              ...                      ",
"                                                                ",
"                                                                "
};
