/* XPM */
static char *car4_p1_s2[] = {
"64 64 231 2",
"aa	c #ff00ff",
"ab	c #010000",
"ac	c #000000",
"ad	c #4e4665",
"ae	c #5d5ca9",
"af	c #141a43",
"ag	c #0d133c",
"ah	c #0e133c",
"ai	c #616597",
"aj	c #5756a1",
"ak	c #161e4d",
"al	c #171e4d",
"am	c #594f9a",
"an	c #1d2767",
"ao	c #122055",
"ap	c #20317c",
"aq	c #23348a",
"ar	c #1e297d",
"as	c #4b3e65",
"at	c #101135",
"au	c #564fa6",
"av	c #1f3083",
"aw	c #1e308b",
"ax	c #263ca6",
"ay	c #1f2871",
"az	c #253eae",
"aA	c #223696",
"aB	c #7078c4",
"aC	c #5755be",
"aD	c #111541",
"aE	c #0b1232",
"aF	c #364bbb",
"aG	c #2b3dad",
"aH	c #213195",
"aI	c #6362c9",
"aJ	c #323fa1",
"aK	c #2a3ca6",
"aL	c #2a3db5",
"aM	c #1b2873",
"aN	c #2a3396",
"aO	c #2f41bc",
"aP	c #141d59",
"aQ	c #1d2d81",
"aR	c #27348e",
"aS	c #151c51",
"aT	c #191b67",
"aU	c #111637",
"aV	c #242965",
"aW	c #272f56",
"aX	c #2a376e",
"aY	c #2b3566",
"aZ	c #33397c",
"a0	c #2f3f70",
"a1	c #323a62",
"a2	c #35427a",
"a3	c #364272",
"a4	c #3e4488",
"a5	c #2c3758",
"a6	c #13162b",
"a7	c #131a43",
"a8	c #243084",
"a9	c #242960",
"a!	c #27389c",
"a#	c #111314",
"a$	c #243490",
"a%	c #2b3a9e",
"a&	c #3239bc",
"a(	c #2f3ba6",
"a)	c #14141b",
"a*	c #6b71a8",
"a+	c #6673b0",
"a,	c #4039c3",
"a-	c #26316a",
"a.	c #9f9795",
"a/	c #61679d",
"a:	c #5c69a5",
"a;	c #1f2290",
"a<	c #5753a0",
"a=	c #5b5552",
"a>	c #7975c3",
"a?	c #323766",
"a@	c #4f4b48",
"a[	c #191614",
"a]	c #11100e",
"a^	c #18172a",
"a_	c #1a1a3a",
"a{	c #251370",
"a|	c #351179",
"a}	c #6f6865",
"a~	c #4c4543",
"ba	c #504c4d",
"bb	c #887e7d",
"bc	c #7a6665",
"bd	c #686a8a",
"be	c #6d54c9",
"bf	c #62647c",
"bg	c #745acf",
"bh	c #8865ce",
"bi	c #555354",
"bj	c #6b5fb9",
"bk	c #0a0f28",
"bl	c #1c1d21",
"bm	c #210679",
"bn	c #190b63",
"bo	c #191949",
"bp	c #2d3274",
"bq	c #373334",
"br	c #282944",
"bs	c #2d23a2",
"bt	c #363c5e",
"bu	c #252c5c",
"bv	c #28306c",
"bw	c #271ba5",
"bx	c #4118b0",
"by	c #3d20ab",
"bz	c #5e26b1",
"bA	c #9a5aca",
"bB	c #2916ac",
"bC	c #2e3471",
"bD	c #352dcc",
"bE	c #171f5c",
"bF	c #303986",
"bG	c #303e98",
"bH	c #492ace",
"bI	c #753dd3",
"bJ	c #7343b1",
"bK	c #56177e",
"bL	c #362cbd",
"bM	c #2b3687",
"bN	c #36279b",
"bO	c #293185",
"bP	c #462ac6",
"bQ	c #7d5bb1",
"bR	c #af77cb",
"bS	c #1e2155",
"bT	c #1a2469",
"bU	c #442ad5",
"bV	c #3e20b5",
"bW	c #272d66",
"bX	c #ba8fcb",
"bY	c #6b347f",
"bZ	c #321fc7",
"b0	c #4625a4",
"b1	c #845adb",
"b2	c #703dda",
"b3	c #282ca2",
"b4	c #835fb6",
"b5	c #552d7b",
"b6	c #262d71",
"b7	c #5b2ea7",
"b8	c #4e1db9",
"b9	c #2c3266",
"b!	c #2933aa",
"b#	c #6140b3",
"b$	c #9870c7",
"b%	c #130f54",
"b&	c #5e5e86",
"b(	c #22243c",
"b)	c #262f6d",
"b*	c #1d224d",
"b+	c #2a3076",
"b,	c #2b397f",
"b-	c #2f3d8f",
"b.	c #20275e",
"b/	c #515173",
"b:	c #0e0f27",
"b;	c #333a87",
"b<	c #847773",
"b=	c #2b2d55",
"b>	c #27356e",
"b?	c #232955",
"b@	c #2b3061",
"b[	c #5c5b76",
"b]	c #232952",
"b^	c #495094",
"b_	c #303777",
"b{	c #252850",
"b|	c #232c6c",
"b}	c #1c235d",
"b~	c #3b3b5c",
"ca	c #40468d",
"cb	c #36396d",
"cc	c #3f4374",
"cd	c #44518d",
"ce	c #3d436a",
"cf	c #3c4887",
"cg	c #363a64",
"ch	c #817774",
"ci	c #2a2731",
"cj	c #212c78",
"ck	c #242a5c",
"cl	c #505683",
"cm	c #5861a5",
"cn	c #273274",
"co	c #323880",
"cp	c #465290",
"cq	c #263484",
"cr	c #2e3cae",
"cs	c #3540ad",
"ct	c #2f3fb7",
"cu	c #28316c",
"cv	c #283282",
"cw	c #252e78",
"cx	c #242846",
"cy	c #212438",
"cz	c #283694",
"cA	c #80716b",
"cB	c #191e55",
"cC	c #191d55",
"cD	c #191f4f",
"cE	c #232b6c",
"cF	c #33305a",
"cG	c #3c3e82",
"cH	c #283491",
"cI	c #1a2359",
"cJ	c #272d7c",
"cK	c #2a318a",
"cL	c #1c2463",
"cM	c #727597",
"cN	c #5c5c97",
"cO	c #646499",
"cP	c #5e6183",
"cQ	c #545677",
"cR	c #5f658d",
"cS	c #666886",
"cT	c #5c5d7a",
"cU	c #303349",
"cV	c #283051",
"cW	c #565b82",
"cX	c #828ab0",
"cY	c #5c566f",
"aaaaaaaaaaaaaaaaaaaaaaaaaaaaaaaaaaaaaaaaaaaaaaaaaaaaaaaaaaaaaaaaaaaaaaaaaaaaaaaaaaaaaaaaaaaaaaaaaaaaaaaaaaaaaaaaaaaaaaaaaaaaaaaa",
"aaaaaaaaaaaaaaaaaaaaaaaaaaaaaaaaaaaaaaaaaaaaaaaaaaaaaaaaaaaaaaaaaaaaaaaaaaaaaaaaaaaaaaaaaaaaaaaaaaaaaaaaaaaaaaaaaaaaaaaaaaaaaaaa",
"aaaaaaaaaaaaaaaaaaaaaaaaaaaaaaaaaaaaaaaaaaaaaaababacacacacababababababababacacacacaaaaaaaaaaaaaaaaaaaaaaaaaaaaaaaaaaaaaaaaaaaaaa",
"aaaaaaaaaaaaaaaaaaaaaaaaaaaaaaaaaaaaaaaaaaabadaeaeafagagahaiajajajajajajajahakakaladadaaaaaaaaaaaaaaaaaaaaaaaaaaaaaaaaaaaaaaaaaa",
"aaaaaaaaaaaaaaaaaaaaaaaaaaaaaaaaaaaaaaacabamamamanahagaoapaqaqaqaqaqaqaqaqarahagasamamatataaaaaaaaaaaaaaaaaaaaaaaaaaaaaaaaaaaaaa",
"aaaaaaaaaaaaaaaaaaaaaaaaaaaaaaaaaaaaacacasauavawaxayaoaqazazazaAaBaBaxaxazazaraoayayaCaCaDabaaaaaaaaaaaaaaaaaaaaaaaaaaaaaaaaaaaa",
"aaaaaaaaaaaaaaaaaaaaaaaaaaaaaaaaaaaaacaEauaraFazaGayaqaqazazaAaAaAaAaAaAazaAaraAaAaAaHaIaraDaaaaaaaaaaaaaaaaaaaaaaaaaaaaaaaaaaaa",
"aaaaaaaaaaaaaaaaaaaaaaaaaaaaaaaaaaaaacaEarazaFazazayaqazazaAazazazazazazaAaAaHaAaAazaFawaHaDaaaaaaaaaaaaaaaaaaaaaaaaaaaaaaaaaaaa",
"aaaaaaaaaaaaaaaaaaaaaaaaaaaaaaaaaaacaEaoarazaFazazaraAazazaAazazazazazazazaAaHaAaAazazaJaKarabaaaaaaaaaaaaaaaaaaaaaaaaaaaaaaaaaa",
"aaaaaaaaaaaaaaaaaaaaaaaaaaaaaaaaaaacahaAarazaFaLaHaAazaAazazazazazazazazazazaAaHaAazazaJaKaMaDaaaaaaaaaaaaaaaaaaaaaaaaaaaaaaaaaa",
"aaaaaaaaaaaaaaaaaaaaaaaaaaaaaaaaaaacahaNarazaFaLaHaAazaAazazazazazazazazazazaAaHaAazazaJaKaMaDaaaaaaaaaaaaaaaaaaaaaaaaaaaaaaaaaa",
"aaaaaaaaaaaaaaaaaaaaaaaaaaaaaaaaaaacahaNaraFaFazaraAazaAazazazaAaAaAaAazazazaAaHaAaAazaJaKaMaDaaaaaaaaaaaaaaaaaaaaaaaaaaaaaaaaaa",
"aaaaaaaaaaaaaaaaaaaaaaaaaaaaaaaaaaacahaNarazaFazarazaAazazazaxaOazazazaAazazazarazaAazaJaKaMaDaaaaaaaaaaaaaaaaaaaaaaaaaaaaaaaaaa",
"aaaaaaaaaaaaaaaaaaaaaaaaaaaaaaaaaaacahaNarazaFazarazaAazazazaxaOazazazaAazazazarazaAazaJaKaMaDaaaaaaaaaaaaaaaaaaaaaaaaaaaaaaaaaa",
"aaaaaaaaaaaaaaaaaaaaaaaaaaaaaaaaaaacahaNarazaFazarazaAaPazazaxaOazazazaAaQazazarazaAazaJaKaMaDaaaaaaaaaaaaaaaaaaaaaaaaaaaaaaaaaa",
"aaaaaaaaaaaaaaaaaaaaaaaaaaaaaaaaaaacahaNarazaFaHaAazaAazazazaxaOazazazaAazazazaAaHaAazaJaKaMaDaaaaaaaaaaaaaaaaaaaaaaaaaaaaaaaaaa",
"aaaaaaaaaaaaaaaaaaaaaaaaaaaaaaaaaaacahaRarazaFaHaAazaDaPaPaPaSaTaPaPaPaDaPaPazaAaHaAazaJaKaMaDaaaaaaaaaaaaaaaaaaaaaaaaaaaaaaaaaa",
"aaaaaaaaaaaaaaaaaaaaaaaaaaaaaaaaaaacaUaRarazaVaPaDaPaWaXaXaXaYaZaXaXaXaWa0a0aPaDaPaDazaJaKaMataaaaaaaaaaaaaaaaaaaaaaaaaaaaaaaaaa",
"aaaaaaaaaaaaaaaaaaaaaaaaaaaaaaaaaaacaUalaraPaPaWaXaXa1a2a2a2a3a4a2a2a2a1aXaXa0a0a5aPaDawaKaMabaaaaaaaaaaaaaaaaaaaaaaaaaaaaaaaaaa",
"aaaaaaaaaaaaaaaaaaaaaaaaaaaaaaaaaaacacalaRaDaXa1a2a2a2a2a2a2a2a2a2a2a2a1a2a2a2a2a1a2aDaKaRaDabaaaaaaaaaaaaaaaaaaaaaaaaaaaaaaaaaa",
"aaaaaaaaaaaaaaaaaaaaaaaaaaaaaaaaacacacabaRaDaXaYaXaXaXaXaXaXa2a2a2a2a2a1a2a2a2a2a1a2aDaKaDaDabacaaaaaaaaaaaaaaaaaaaaaaaaaaaaaaaa",
"aaaaaaaaaaaaaaaaaaaaaaaaaaaaaaaca6a7a7abaDa8aPaYaXaXaXaXaWaWaWa1a1a1a1a1a1a3a4a2a2aPa8aPaDa9a6a6acaaaaaaaaaaaaaaaaaaaaaaaaaaaaaa",
"aaaaaaaaaaaaaaaaaaaaaaaaaaaaaaacacacacacaba8aPaYaYaPaPaPaPaPaPaPaPaPaDaDaDaSaTa2a2aPa!aPaDabacacacaaaaaaaaaaaaaaaaaaaaaaaaaaaaaa",
"aaaaaaaaaaaaaaaaaaaaaaaaaaaaaaaaaaaca6aca#aDa$aSaSa%aKaKalalalalalalalaoaoa&a(aPaPa!aPaPaDa6acaaaaaaaaaaaaaaaaaaaaaaaaaaaaaaaaaa",
"aaaaaaaaaaaaaaaaaaaaaaaaaaaaaaaaaaaca6aca)aDa$a%a%aoalala*a*a*a*a*a+a+a+a+a,axalala!aPa-aDa6acaaaaaaaaaaaaaaaaaaaaaaaaaaaaaaaaaa",
"aaaaaaaaaaaaaaaaaaaaaaaaaaaaaaaaaaaca6aca)aDa$a(aba.a/a:alahahaoalaEaEaoaoa;a<a=a>aUaPa?aDa6acaaaaaaaaaaaaaaaaaaaaaaaaaaaaaaaaaa",
"aaaaaaaaaaaaaaaaaaaaaaaaaaaaaaaaaaaca6aca)aDaSaba@ababa[a[a]a^a^a^a_a_a_a^a{a|ababa}aba?aDa6acaaaaaaaaaaaaaaaaaaaaaaaaaaaaaaaaaa",
"aaaaaaaaaaaaaaaaaaaaaaaaaaaaaaaaaaaca6aca)aDaSa~babbbababababcbcbcbdbdbebfbgbhbibjababa?aDbkacaaaaaaaaaaaaaaaaaaaaaaaaaaaaaaaaaa",
"aaaaaaaaaaaaaaaaaaaaaaaaaaaaaaaaaaaca6aca)aDaSaba[bla[a[a_a^ababababa_bma|a|a|bnbmababa?boa6acaaaaaaaaaaaaaaaaaaaaaaaaaaaaaaaaaa",
"aaaaaaaaaaaaaaaaaaaaaaaaaaaaaaaaaaaca6aca)aDbpa6a[bqbraEbsaEbtaUbubvbwbxbybzbAbmbBbCaba?bobkacaaaaaaaaaaaaaaaaaaaaaaaaaaaaaaaaaa",
"aaaaaaaaaaaaaaaaaaaaaaaaaaaaaaaaaaaca6aca)aDbpala[a~a6bDbDahaUbEbFbGbwbHbIbJbAbKbLbCaba?boa6acaaaaaaaaaaaaaaaaaaaaaaaaaaaaaaaaaa",
"aaaaaaaaaaaaaaaaaaaaaaaaaaaaaaaaaaaca6acabaDbMala_a~bNbDbDahbObEbFbubsbPbIbQbRbKbLbCabbSboa6acaaaaaaaaaaaaaaaaaaaaaaaaaaaaaaaaaa",
"aaaaaaaaaaaaaaaaaaaaaaaaaaaaaaaaaaaca6acbkbTbMala_a<bNbUbUbVbObEbFbWaEbPbIbQbXbYbZbCaEbMboa6acaaaaaaaaaaaaaaaaaaaaaaaaaaaaaaaaaa",
"aaaaaaaaaaaaaaaaaaaaaaaaaaaaaaaaaaaca6a)abaDbMala_a<b0b1b2bVbObEbFbWahb3bHb4bXb5albCabbSb6a6acaaaaaaaaaaaaaaaaaaaaaaaaaaaaaaaaaa",
"aaaaaaaaaaaaaaaaaaaaaaaaaaaaaaaaaaaca6aca)aDbMala_a~b7b1b2b8ahbEbFbWahb9b!b#b$b%albCaba?aDa6acaaaaaaaaaaaaaaaaaaaaaaaaaaaaaaaaaa",
"aaaaaaaaaaaaaaaaaaaaaaaaaaaaaaaaaaaca6aca)atbMala_b&b(b)b)b*b+bEb,bWahb-apb.b/b:b;bCaba?aDa6acaaaaaaaaaaaaaaaaaaaaaaaaaaaaaaaaaa",
"aaaaaaaaaaaaaaaaaaaaaaaaaaaaaaaaaaaca6aca)atbMalabb<b=bFbFb+b+aob>b?ahb-b,b@b[a_b;aUabb]aDa6acaaaaaaaaaaaaaaaaaaaaaaaaaaaaaaaaaa",
"aaaaaaaaaaaaaaaaaaaaaaaaaaaaaaaaaaaca6aca)atanala^a~b=b^bFb+ahb>b>b?b?aob-bCb&a_alb@abb]aDa6acaaaaaaaaaaaaaaaaaaaaaaaaaaaaaaaaaa",
"aaaaaaaaaaaaaaaaaaaaaaaaaaaaaaaaaaaca6aca)atanala^b[a6bEbEahb?b>b>b?b?b>aoaUa~abb_b@abb]aDa6acaaaaaaaaaaaaaaaaaaaaaaaaaaaaaaaaaa",
"aaaaaaaaaaaaaaaaaaaaaaaaaaaaaaaaaaaca6abb{atanaRabb[brbFbFbWbWb,b,bWbWb,b,b@b[a^b_aUaDb]aDb|abaaaaaaaaaaaaaaaaaaaaaaaaaaaaaaaaaa",
"aaaaaaaaaaaaaaaaaaaaaaaaaaaaaaaaaaaca6abatb}aMa%aSa~b~cacacbcccdcdcecccdcfcgchcialcjaPaDaDb|abaaaaaaaaaaaaaaaaaaaaaaaaaaaaaaaaaa",
"aaaaaaaaaaaaaaaaaaaaaaaaaaaaaaaaaaaca6abb}bTaDaDaSaPababababababababababababababaPaPckb|aDb|abaaaaaaaaaaaaaaaaaaaaaaaaaaaaaaaaaa",
"aaaaaaaaaaaaaaaaaaaaaaaaaaaaaaaaaaacaUb}ataPaDclcmcmcmcmcmcmcmcmcmcmcmcmcmcmcmcmcmaPaDaDb|b|aDaaaaaaaaaaaaaaaaaaaaaaaaaaaaaaaaaa",
"aaaaaaaaaaaaaaaaaaaaaaaaaaaaaaaaacbkaUataPaPaDaDaPcnaPaPaPaPaPaPaPaPaPaPaPaPaPaPaPaPaDaDaDcocjabaaaaaaaaaaaaaaaaaaaaaaaaaaaaaaaa",
"aaaaaaaaaaaaaaaaaaaaaaaaaaaaaaaaacbkaUatcnaPawcjaPcpcqcqa$aQaQa$a$awawa$aHcncpaPa$a$aDaWaSbMaMabaaaaaaaaaaaaaaaaaaaaaaaaaaaaaaaa",
"aaaaaaaaaaaaaaaaaaaaaaaaaaaaaaaaacbkaUatcnaPawaAaPcqcqazaFa$a$azazawawcrazaHckaPcsa$aDaWaPavaMabaaaaaaaaaaaaaaaaaaaaaaaaaaaaaaaa",
"aaaaaaaaaaaaaaaaaaaaaaaaaaaaaaaaacbkaUatcnaPawaAaPazazaAaAcjcjaAaAaMaMaAaAaraNaPcsaHaDaXaTavanabaaaaaaaaaaaaaaaaaaaaaaaaaaaaaaaa",
"aaaaaaaaaaaaaaaaaaaaaaaaaaaaaaaaacbkaEatcnaPawaAazazaAaAazazazazazazazazazcrcraNctaHaDaXaTavanabaaaaaaaaaaaaaaaaaaaaaaaaaaaaaaaa",
"aaaaaaaaaaaaaaaaaaaaaaaaaaaaaaaaacbkaEatcuaPawaAazazaAazazazazazazazazazazazazaAcraraDaZaTavanabaaaaaaaaaaaaaaaaaaaaaaaaaaaaaaaa",
"aaaaaaaaaaaaaaaaaaaaaaaaaaaaaaaaacbkaEatcuaPaKaHaraHaraHaHaHaHaHaHaHaHaHaHaHaHaraHaRaSaYaSavanabaaaaaaaaaaaaaaaaaaaaaaaaaaaaaaaa",
"aaaaaaaaaaaaaaaaaaaaaaaaaaaaaaaaacaEaEatcuaPaKaHaRaKcvaKaKaKaKaKaKaKaKaKaKaKaKaRaHaRaSaYaSavanabaaaaaaaaaaaaaaaaaaaaaaaaaaaaaaaa",
"aaaaaaaaaaaaaaaaaaaaaaaaaaaaaaaaacaEaEataDa!aKaPaDaPataPaPaPaPaPaPaPaPaPaPaPaDaDaPaRa%aSaSananabaaaaaaaaaaaaaaaaaaaaaaaaaaaaaaaa",
"aaaaaaaaaaaaaaaaaaaaaaaaaaaaaaaaacaEaEabatcwatcxcxcxcxcxa-a-a-a-a-a-a-a-a-a-b]b]b]aDa%aSatanaEacaaaaaaaaaaaaaaaaaaaaaaaaaaaaaaaa",
"aaaaaaaaaaaaaaaaaaaaaaaaaaaaaaaaacaEaEaEana8atcxcxcxcxcxcxa-a-a-a-a-a-a-a-b]b]b]cyaSczavananaEacaaaaaaaaaaaaaaaaaaaaaaaaaaaaaaaa",
"aaaaaaaaaaaaaaaaaaaaaaaaaaaaaaaaacaEaEaEanbTatcxcxcxcxcxcxcxcxcxcAcAa-cxb]b]b]b]cyatatb}b}anaEacaaaaaaaaaaaaaaaaaaaaaaaaaaaaaaaa",
"aaaaaaaaaaaaaaaaaaaaaaaaaaaaaaaaaaacbkcBcCcDcEcFatatatatatatatatatatatatataDaDb:atb}cGcHcHbkacaaaaaaaaaaaaaaaaaaaaaaaaaaaaaaaaaa",
"aaaaaaaaaaaaaaaaaaaaaaaaaaaaaaaaaaacbkcBcCb}cIalalcvcvcvcvcvcvcvcvcvcvcvcvaNaNcJcKarbkcHcHaEacaaaaaaaaaaaaaaaaaaaaaaaaaaaaaaaaaa",
"aaaaaaaaaaaaaaaaaaaaaaaaaaaaaaaaaaacbkbkcCbkb.b.cEcEanb}b}b}b}b}b}b}b}b}b}ayarahcLcLb}cHbkbkacaaaaaaaaaaaaaaaaaaaaaaaaaaaaaaaaaa",
"aaaaaaaaaaaaaaaaaaaaaaaaaaaaaaaaaaaaacbkbkcMaUaEaEaEaEaEancNcOcOcOcOcOb}anaMaEaEaEaEbkbkcPabaaaaaaaaaaaaaaaaaaaaaaaaaaaaaaaaaaaa",
"aaaaaaaaaaaaaaaaaaaaaaaaaaaaaaaaaaaaacbkbkbkcPcPcPbkcQbkbkbkbkbkbkbkbkbkbkbkbkcQbkcPcRcRbkacaaaaaaaaaaaaaaaaaaaaaaaaaaaaaaaaaaaa",
"aaaaaaaaaaaaaaaaaaaaaaaaaaaaaaaaaaaaaaacacbka6a6a6cSa6cTcUcRcRcRcRcRcRcRcRcVcWaEcXaEaEabacaaaaaaaaaaaaaaaaaaaaaaaaaaaaaaaaaaaaaa",
"aaaaaaaaaaaaaaaaaaaaaaaaaaaaaaaaaaaaaaaaaaacacacacabcYababababababababababababadabacacaaaaaaaaaaaaaaaaaaaaaaaaaaaaaaaaaaaaaaaaaa",
"aaaaaaaaaaaaaaaaaaaaaaaaaaaaaaaaaaaaaaaaaaaaaaaaaaaaaaaaaaaaaaaaaaaaaaaaaaaaaaaaaaaaaaaaaaaaaaaaaaaaaaaaaaaaaaaaaaaaaaaaaaaaaaaa",
"aaaaaaaaaaaaaaaaaaaaaaaaaaaaaaaaaaaaaaaaaaaaaaaaaaaaaaaaaaaaaaaaaaaaaaaaaaaaaaaaaaaaaaaaaaaaaaaaaaaaaaaaaaaaaaaaaaaaaaaaaaaaaaaa"
};
