/* XPM */
static char *car4_p1_s3[] = {
"64 64 42 2",
"aa	c #ff00ff",
"ab	c #010000",
"ac	c #9d8dcb",
"ad	c #b6a9a4",
"ae	c #21256a",
"af	c #1c1f4e",
"ag	c #212b82",
"ah	c #2939a2",
"ai	c #273bb2",
"aj	c #b8adde",
"ak	c #4955cb",
"al	c #3238ce",
"am	c #693fdc",
"an	c #9f9690",
"ao	c #261fa9",
"ap	c #3c43aa",
"aq	c #322c29",
"ar	c #221f1d",
"as	c #302f54",
"at	c #353574",
"au	c #4b27e0",
"av	c #6b22f2",
"aw	c #ded0cb",
"ax	c #706560",
"ay	c #430df3",
"az	c #3117c7",
"aA	c #333693",
"aB	c #4d4a49",
"aC	c #4017e6",
"aD	c #7412fb",
"aE	c #ad2efd",
"aF	c #c047fc",
"aG	c #d768fe",
"aH	c #eb97fe",
"aI	c #e882fe",
"aJ	c #a95af7",
"aK	c #9634f9",
"aL	c #8a1bfb",
"aM	c #534e63",
"aN	c #6660b5",
"aO	c #3d3a3a",
"aP	c #fbefee",
"aaaaaaaaaaaaaaaaaaaaaaaaaaaaaaaaaaaaaaaaaaaaaaaaaaaaaaaaaaaaaaaaaaaaaaaaaaaaaaaaaaaaaaaaaaaaaaaaaaaaaaaaaaaaaaaaaaaaaaaaaaaaaaaa",
"aaaaaaaaaaaaaaaaaaaaaaaaaaaaaaaaaaaaaaaaaaaaaaaaaaaaaaaaaaaaaaaaaaaaaaaaaaaaaaaaaaaaaaaaaaaaaaaaaaaaaaaaaaaaaaaaaaaaaaaaaaaaaaaa",
"aaaaaaaaaaaaaaaaaaaaaaaaaaaaaaaaaaaaaaaaaaaaabababaaaaaaaaababababababababaaaaaaaaabababaaaaaaaaaaaaaaaaaaaaaaaaaaaaaaaaaaaaaaaa",
"aaaaaaaaaaaaaaaaaaaaaaaaaaaaaaaaaaaaaaaaaaabacacacabaaaaabadacacacacacacacabaaaaabacacacabaaaaaaaaaaaaaaaaaaaaaaaaaaaaaaaaaaaaaa",
"aaaaaaaaaaaaaaaaaaaaaaaaaaaaaaaaaaaaaaaaabaeaeaeaeabaaabafaeaeaeaeaeaeaeaeagabaaabaeaeaeaeabaaaaaaaaaaaaaaaaaaaaaaaaaaaaaaaaaaaa",
"aaaaaaaaaaaaaaaaaaaaaaaaaaaaaaaaaaaaaaaaabagahaiahaeabaeaiaiaiagajajahahaiaiagabaeaeaiaiagabaaaaaaaaaaaaaaaaaaaaaaaaaaaaaaaaaaaa",
"aaaaaaaaaaaaaaaaaaaaaaaaaaaaaaaaaaaaaaabagagakaiahaeaeaeaiaiagagagagagagaiagagagagagaiaiagagabaaaaaaaaaaaaaaaaaaaaaaaaaaaaaaaaaa",
"aaaaaaaaaaaaaaaaaaaaaaaaaaaaaaaaaaaaaaabagaiakaiaiaeaeaiaiagaiaiaiaiaiaiagagaiagagaiakaiaiagabaaaaaaaaaaaaaaaaaaaaaaaaaaaaaaaaaa",
"aaaaaaaaaaaaaaaaaaaaaaaaaaaaaaaaaaaaaaabagaiakaiaiagagaiaiagaiaiaiaiaiaiaiagaiagagaiaiakaiagabaaaaaaaaaaaaaaaaaaaaaaaaaaaaaaaaaa",
"aaaaaaaaaaaaaaaaaaaaaaaaaaaaaaaaaaaaabagagaiakaiaiagaiagaiaiaiaiaiaiaiaiaiaiagaiagaiaiakaiagagabaaaaaaaaaaaaaaaaaaaaaaaaaaaaaaaa",
"aaaaaaaaaaaaaaaaaaaaaaaaaaaaaaaaaaaaabagagaiakaiaiagaiagaiaiaiaiaiaiaiaiaiaiagaiagaiaiakaiagagabaaaaaaaaaaaaaaaaaaaaaaaaaaaaaaaa",
"aaaaaaaaaaaaaaaaaaaaaaaaaaaaaaaaaaaaabagagakakaiagagaiagaiaiaiagagagagaiaiaiagaiagagaiakaiagagabaaaaaaaaaaaaaaaaaaaaaaaaaaaaaaaa",
"aaaaaaaaaaaaaaaaaaaaaaaaaaaaaaaaaaaaabagagaiakaiagaiagaiaiaiahalaiaiaiagaiaiaiagaiagaiakaiagagabaaaaaaaaaaaaaaaaaaaaaaaaaaaaaaaa",
"aaaaaaaaaaaaaaaaaaaaaaaaaaaaaaaaaaaaabagagaiakaiagaiagaiaiaiahalaiaiaiagaiaiaiagaiagaiakaiagagabaaaaaaaaaaaaaaaaaaaaaaaaaaaaaaaa",
"aaaaaaaaaaaaaaaaaaaaaaaaaaaaaaaaaaaaabagagaiakaiagaiagaiaiaiahalaiaiaiagaiaiaiagaiagaiakaiagagabaaaaaaaaaaaaaaaaaaaaaaaaaaaaaaaa",
"aaaaaaaaaaaaaaaaaaaaaaaaaaaaaaaaaaaaabagagaiakaiagaiagaiaiaiahalaiaiaiagaiaiaiagaiagaiakaiagagabaaaaaaaaaaaaaaaaaaaaaaaaaaaaaaaa",
"aaaaaaaaaaaaaaaaaaaaaaaaaaaaaaaaaaaaabagagaiakaiagaiagaiaiaiahalaiaiaiagaiaiaiagaiagaiakaiagagabaaaaaaaaaaaaaaaaaaaaaaaaaaaaaaaa",
"aaaaaaaaaaaaaaaaaaaaaaaaaaaaaaaaaaaaabagagaiakaiagaiagaiaiaiahalaiaiaiagaiaiaiagaiagaiakaiagaeabaaaaaaaaaaaaaaaaaaaaaaaaaaaaaaaa",
"aaaaaaaaaaaaaaaaaaaaaaaaaaaaaaaaaaaaaaabagaiaiagaiaiagaiaiaiahalaiaiaiagaiaiaiaiagaiagaiaiagabaaaaaaaaaaaaaaaaaaaaaaaaaaaaaaaaaa",
"aaaaaaaaaaaaaaaaaaaaaaaaaaaaaaaaaaaaaaabagagaiagaiaiaiaiaiaiaiaiaiaiaiagaiaiaiaiagaiagaiagagabaaaaaaaaaaaaaaaaaaaaaaaaaaaaaaaaaa",
"aaaaaaaaaaaaaaaaaaaaaaaaaaaaaaaaaaaaaaabagagaiahaiaiaiaiaiaiaiaiaiaiaiagaiaiaiaiagaiagaiagagabaaaaaaaaaaaaaaaaaaaaaaaaaaaaaaaaaa",
"aaaaaaaaaaaaaaaaaaaaaaaaaaaaaaaaaaaaaaabagagaiahaiaiaiaiagagagagagagagagagahalaiaiaiagaiagaeabaaaaaaaaaaaaaaaaaaaaaaaaaaaaaaaaaa",
"aaaaaaaaaaaaaaaaaaaaaaaaaaaaaaaaaaaaaaaaabagaiahahaiaiaiaiaiaiaiaiaiagagagahalaiaiaiaiaiagabaaaaaaaaaaaaaaaaaaaaaaaaaaaaaaaaaaaa",
"aaaaaaaaaaaaaaaaaaaaaaaaaaaaaaaaaaaaaaaaabagaiahahahaiaiabababababababababalahaiaiaiaiaiagabaaaaaaaaaaaaaaaaaaaaaaaaaaaaaaaaaaaa",
"aaaaaaaaaaaaaaaaaaaaaaaaaaaaaaaaaaaaaaaaabagaiahahabababadadadadadadadadadamahababaiaiaiagabaaaaaaaaaaaaaaaaaaaaaaaaaaaaaaaaaaaa",
"aaaaaaaaaaaaaaaaaaaaaaaaaaaaaaaaaaaaaaaaabagaiahabanananabababababababababaoaoadajabaiapagabaaaaaaaaaaaaaaaaaaaaaaaaaaaaaaaaaaaa",
"aaaaaaaaaaaaaaaaaaaaaaaaaaaaaaaaaaaaaaaaabagahabanababaqaqarasasasatatatasauavababawabapagabaaaaaaaaaaaaaaaaaaaaaaaaaaaaaaaaaaaa",
"aaaaaaaaaaaaaaaaaaaaaaaaaaaaaaaaaaaaaaaaabagahababaxababababasasasatatayafayavabazababapagabaaaaaaaaaaaaaaaaaaaaaaaaaaaaaaaaaaaa",
"aaaaaaaaaaaaaaaaaaaaaaaaaaaaaaaaaaaaaaaaabagahabaqabaqaqatasababababatayavavavazayababapaAabaaaaaaaaaaaaaaaaaaaaaaaaaaaaaaaaaaaa",
"aaaaaaaaaaaaaaaaaaaaaaaaaaaaaaaaaaaaaaaaabagaAabaqabaqabauabaBabasataCaDavaEaEayayatabapaAabaaaaaaaaaaaaaaaaaaaaaaaaaaaaaaaaaaaa",
"aaaaaaaaaaaaaaaaaaaaaaaaaaaaaaaaaaaaaaaaabagaAabaqababauauabababasakaCavaFaGaEaEauatabapaAabaaaaaaaaaaaaaaaaaaaaaaaaaaaaaaaaaaaa",
"aaaaaaaaaaaaaaaaaaaaaaaaaaaaaaaaaaaaaaaaabagapabatabauauauabaAabasasauavaFaHaGaEauatabapaAabaaaaaaaaaaaaaaaaaaaaaaaaaaaaaaaaaaaa",
"aaaaaaaaaaaaaaaaaaaaaaaaaaaaaaaaaaaaaaaaabagapabataoauavavavaAabasasabavaFaHaHaGayatabapaAabaaaaaaaaaaaaaaaaaaaaaaaaaaaaaaaaaaaa",
"aaaaaaaaaaaaaaaaaaaaaaaaaaaaaaaaaaaaaaaaabagapabataoavaIaFavaAabasasabaoavaHaHaJabatabapaAabaaaaaaaaaaaaaaaaaaaaaaaaaaaaaaaaaaaa",
"aaaaaaaaaaaaaaaaaaaaaaaaaaaaaaaaaaaaaaaaabagapabatabaKaIaFaLababasasabaqaoaJaJaoabatabapagabaaaaaaaaaaaaaaaaaaaaaaaaaaaaaaaaaaaa",
"aaaaaaaaaaaaaaaaaaaaaaaaaaaaaaaaaaaaaaaaabaeapabatatararararatabasasabatafafafafatatabapagabaaaaaaaaaaaaaaaaaaaaaaaaaaaaaaaaaaaa",
"aaaaaaaaaaaaaaaaaaaaaaaaaaaaaaaaaaaaaaaaabaeapababaxasasasatatabaqaqabatasasasatatababagagabaaaaaaaaaaaaaaaaaaaaaaaaaaaaaaaaaaaa",
"aaaaaaaaaaaaaaaaaaaaaaaaaaaaaaaaaaaaaaaaabaeaeabasabasaxasatabaqaqaqaqabatatatatabasabagagabaaaaaaaaaaaaaaaaaaaaaaaaaaaaaaaaaaaa",
"aaaaaaaaaaaaaaaaaaaaaaaaaaaaaaaaaaaaaaaaabaeaeabasasababababaqaqaqaqaqaqababababasasabagagabaaaaaaaaaaaaaaaaaaaaaaaaaaaaaaaaaaaa",
"aaaaaaaaaaaaaaaaaaaaaaaaaaaaaaaaaaaaaaabaeaeaeagabasaqasasasasasasasasasasasasasasabagagagagabaaaaaaaaaaaaaaaaaaaaaaaaaaaaaaaaaa",
"aaaaaaaaaaaaaaaaaaaaaaaaaaaaaaaaaaaaaaabaeaeagahahabaMaMaMaMaxaxaxaxaxaxaMaMaMaMabagaiagagagabaaaaaaaaaaaaaaaaaaaaaaaaaaaaaaaaaa",
"aaaaaaaaaaaaaaaaaaaaaaaaaaaaaaaaaaaaaaabaeagagagahaiababababababababababababababaiaiagagagagabaaaaaaaaaaaaaaaaaaaaaaaaaaaaaaaaaa",
"aaaaaaaaaaaaaaaaaaaaaaaaaaaaaaaaaaaaabaeaeaiagagaiaiaiaiaiaiaiaiaiaiaiaiaiaiaiaiaiaiagagagagagabaaaaaaaaaaaaaaaaaaaaaaaaaaaaaaaa",
"aaaaaaaaaaaaaaaaaaaaaaaaaaaaaaaaaaaaabaeaiaiagagaiaiaiaiaiaiaiaiaiaiaiaiaiaiaiaiaiaiagagagapagabaaaaaaaaaaaaaaaaaaaaaaaaaaaaaaaa",
"aaaaaaaaaaaaaaaaaaaaaaaaaaaaaaaaaaaaabaeaiaiaiagaiaiaiaiaiaiaiaiaiaiaiaiaiaiaiaiaiaiagagahapagabaaaaaaaaaaaaaaaaaaaaaaaaaaaaaaaa",
"aaaaaaaaaaaaaaaaaaaaaaaaaaaaaaaaaaaaabaeaiaiaiagaiaiaiaiakaiaiaiaiaiaiaiaiaiagaiaiaiagagaiahagabaaaaaaaaaaaaaaaaaaaaaaaaaaaaaaaa",
"aaaaaaaaaaaaaaaaaaaaaaaaaaaaaaaaaaaaabaeaiaiaiagaiaiaiagagagagagagagagagagagagaiaiaiagaialahaeabaaaaaaaaaaaaaaaaaaaaaaaaaaaaaaaa",
"aaaaaaaaaaaaaaaaaaaaaaaaaaaaaaaaaaaaabaeaiaiaiagaiaiagagaiaiaiaiaiaiaiaiaiaiaiagaiaiagaialahaeabaaaaaaaaaaaaaaaaaaaaaaaaaaaaaaaa",
"aaaaaaaaaaaaaaaaaaaaaaaaaaaaaaaaaaaaabaeahaiaiagaiaiagaiaiaiaiaiaiaiaiaiaiaiaiagaiagagalalahaeabaaaaaaaaaaaaaaaaaaaaaaaaaaaaaaaa",
"aaaaaaaaaaaaaaaaaaaaaaaaaaaaaaaaaaaaabaeahaiaiaiagaiagaiaiaiaiaiaiaiaiaiaiaiaiagaiagahahahahaeabaaaaaaaaaaaaaaaaaaaaaaaaaaaaaaaa",
"aaaaaaaaaaaaaaaaaaaaaaaaaaaaaaaaaaaaabaeahaiaiaiagaiaeaiaiaiaiaiaiaiaiaiaiaiaiagaiagahahahahaeabaaaaaaaaaaaaaaaaaaaaaaaaaaaaaaaa",
"aaaaaaaaaaaaaaaaaaaaaaaaaaaaaaaaaaaaabaeagaiaiaiagaiaeaiaiaiaiaiaiaiaiaiaiaiagagaiagahahahaeaeabaaaaaaaaaaaaaaaaaaaaaaaaaaaaaaaa",
"aaaaaaaaaaaaaaaaaaaaaaaaaaaaaaaaaaaaaaabaeaeaeaeaeaeaeaeaiaiaiaiaiaiaiaiaiaiagagagagahahaeaeabaaaaaaaaaaaaaaaaaaaaaaaaaaaaaaaaaa",
"aaaaaaaaaaaaaaaaaaaaaaaaaaaaaaaaaaaaaaabaeagaeaeaeaeaeaeaeaiaiaiaiaiaiaiaiagagagafahahahaeaeabaaaaaaaaaaaaaaaaaaaaaaaaaaaaaaaaaa",
"aaaaaaaaaaaaaaaaaaaaaaaaaaaaaaaaaaaaaaabaeagaeaeaeaeaeaeaeaeaeaeajajaiaeagagagagafaeaeaeaeaeabaaaaaaaaaaaaaaaaaaaaaaaaaaaaaaaaaa",
"aaaaaaaaaaaaaaaaaaaaaaaaaaaaaaaaaaaaaaaaabafaeaNaeaeaeaeaeaeaeaeaeaeaeaeaeagagafaeaeaNaeaeabaaaaaaaaaaaaaaaaaaaaaaaaaaaaaaaaaaaa",
"aaaaaaaaaaaaaaaaaaaaaaaaaaaaaaaaaaaaaaaaabaeafababaeaeaeaeaeaeaeaeaeaeaeaeagagafaeagabaeaeabaaaaaaaaaaaaaaaaaaaaaaaaaaaaaaaaaaaa",
"aaaaaaaaaaaaaaaaaaaaaaaaaaaaaaaaaaaaaaaaababafafaeaeaeaeaeaeaeaeaeaeaeaeaeaeagabafafaeaeababaaaaaaaaaaaaaaaaaaaaaaaaaaaaaaaaaaaa",
"aaaaaaaaaaaaaaaaaaaaaaaaaaaaaaaaaaaaaaaaabawababababababaeaeaeaeaeaeaeaeaeagababababababadabaaaaaaaaaaaaaaaaaaaaaaaaaaaaaaaaaaaa",
"aaaaaaaaaaaaaaaaaaaaaaaaaaaaaaaaaaaaaaaaaaabadadadabanababababababababababababanabadadadabaaaaaaaaaaaaaaaaaaaaaaaaaaaaaaaaaaaaaa",
"aaaaaaaaaaaaaaaaaaaaaaaaaaaaaaaaaaaaaaaaaaaaabababadabanaOadadadadadadadadaOanabaPabababaaaaaaaaaaaaaaaaaaaaaaaaaaaaaaaaaaaaaaaa",
"aaaaaaaaaaaaaaaaaaaaaaaaaaaaaaaaaaaaaaaaaaaaaaaaaaabajababababababababababababacabaaaaaaaaaaaaaaaaaaaaaaaaaaaaaaaaaaaaaaaaaaaaaa",
"aaaaaaaaaaaaaaaaaaaaaaaaaaaaaaaaaaaaaaaaaaaaaaaaaaaaaaaaaaaaaaaaaaaaaaaaaaaaaaaaaaaaaaaaaaaaaaaaaaaaaaaaaaaaaaaaaaaaaaaaaaaaaaaa",
"aaaaaaaaaaaaaaaaaaaaaaaaaaaaaaaaaaaaaaaaaaaaaaaaaaaaaaaaaaaaaaaaaaaaaaaaaaaaaaaaaaaaaaaaaaaaaaaaaaaaaaaaaaaaaaaaaaaaaaaaaaaaaaaa"
};
