/* XPM */
static char *car4_p1_s4[] = {
"64 64 42 2",
"aa	c #ff00ff",
"ab	c #000000",
"ac	c #272332",
"ad	c #2d2a29",
"ae	c #08081a",
"af	c #070813",
"ag	c #080a20",
"ah	c #0a0e28",
"ai	c #090e2c",
"aj	c #2d2b37",
"ak	c #121532",
"al	c #0c0d33",
"am	c #1a0f37",
"an	c #272524",
"ao	c #09072a",
"ap	c #0f102a",
"aq	c #0c0b0a",
"ar	c #080707",
"as	c #0c0b15",
"at	c #0d0d1d",
"au	c #120938",
"av	c #1a083c",
"aw	c #373432",
"ax	c #1c1918",
"ay	c #10033c",
"az	c #0b0531",
"aA	c #0c0c24",
"aB	c #131212",
"aC	c #0f0539",
"aD	c #1d043e",
"aE	c #2a0b3f",
"aF	c #2f113f",
"aG	c #351a3f",
"aH	c #3a253f",
"aI	c #39203f",
"aJ	c #2a163d",
"aK	c #250d3e",
"aL	c #22063e",
"aM	c #141318",
"aN	c #18182d",
"aO	c #0f0e0e",
"aP	c #3e3b3b",
"aaaaaaaaaaaaaaaaaaaaaaaaaaaaaaaaaaaaaaaaaaaaaaaaaaaaaaaaaaaaaaaaaaaaaaaaaaaaaaaaaaaaaaaaaaaaaaaaaaaaaaaaaaaaaaaaaaaaaaaaaaaaaaaa",
"aaaaaaaaaaaaaaaaaaaaaaaaaaaaaaaaaaaaaaaaaaaaaaaaaaaaaaaaaaaaaaaaaaaaaaaaaaaaaaaaaaaaaaaaaaaaaaaaaaaaaaaaaaaaaaaaaaaaaaaaaaaaaaaa",
"aaaaaaaaaaaaaaaaaaaaaaaaaaaaaaaaaaaaaaaaaaaaabababaaaaaaaaababababababababaaaaaaaaabababaaaaaaaaaaaaaaaaaaaaaaaaaaaaaaaaaaaaaaaa",
"aaaaaaaaaaaaaaaaaaaaaaaaaaaaaaaaaaaaaaaaaaabacacacabaaaaabadacacacacacacacabaaaaabacacacabaaaaaaaaaaaaaaaaaaaaaaaaaaaaaaaaaaaaaa",
"aaaaaaaaaaaaaaaaaaaaaaaaaaaaaaaaaaaaaaaaabaeaeaeaeabaaabafaeaeaeaeaeaeaeaeagabaaabaeaeaeaeabaaaaaaaaaaaaaaaaaaaaaaaaaaaaaaaaaaaa",
"aaaaaaaaaaaaaaaaaaaaaaaaaaaaaaaaaaaaaaaaabagahaiahaeabaeaiaiaiagajajahahaiaiagabaeaeaiaiagabaaaaaaaaaaaaaaaaaaaaaaaaaaaaaaaaaaaa",
"aaaaaaaaaaaaaaaaaaaaaaaaaaaaaaaaaaaaaaabagagakaiahaeaeaeaiaiagagagagagagaiagagagagagaiaiagagabaaaaaaaaaaaaaaaaaaaaaaaaaaaaaaaaaa",
"aaaaaaaaaaaaaaaaaaaaaaaaaaaaaaaaaaaaaaabagaiakaiaiaeaeaiaiagaiaiaiaiaiaiagagaiagagaiakaiaiagabaaaaaaaaaaaaaaaaaaaaaaaaaaaaaaaaaa",
"aaaaaaaaaaaaaaaaaaaaaaaaaaaaaaaaaaaaaaabagaiakaiaiagagaiaiagaiaiaiaiaiaiaiagaiagagaiaiakaiagabaaaaaaaaaaaaaaaaaaaaaaaaaaaaaaaaaa",
"aaaaaaaaaaaaaaaaaaaaaaaaaaaaaaaaaaaaabagagaiakaiaiagaiagaiaiaiaiaiaiaiaiaiaiagaiagaiaiakaiagagabaaaaaaaaaaaaaaaaaaaaaaaaaaaaaaaa",
"aaaaaaaaaaaaaaaaaaaaaaaaaaaaaaaaaaaaabagagaiakaiaiagaiagaiaiaiaiaiaiaiaiaiaiagaiagaiaiakaiagagabaaaaaaaaaaaaaaaaaaaaaaaaaaaaaaaa",
"aaaaaaaaaaaaaaaaaaaaaaaaaaaaaaaaaaaaabagagakakaiagagaiagaiaiaiagagagagaiaiaiagaiagagaiakaiagagabaaaaaaaaaaaaaaaaaaaaaaaaaaaaaaaa",
"aaaaaaaaaaaaaaaaaaaaaaaaaaaaaaaaaaaaabagagaiakaiagaiagaiaiaiahalaiaiaiagaiaiaiagaiagaiakaiagagabaaaaaaaaaaaaaaaaaaaaaaaaaaaaaaaa",
"aaaaaaaaaaaaaaaaaaaaaaaaaaaaaaaaaaaaabagagaiakaiagaiagaiaiaiahalaiaiaiagaiaiaiagaiagaiakaiagagabaaaaaaaaaaaaaaaaaaaaaaaaaaaaaaaa",
"aaaaaaaaaaaaaaaaaaaaaaaaaaaaaaaaaaaaabagagaiakaiagaiagaiaiaiahalaiaiaiagaiaiaiagaiagaiakaiagagabaaaaaaaaaaaaaaaaaaaaaaaaaaaaaaaa",
"aaaaaaaaaaaaaaaaaaaaaaaaaaaaaaaaaaaaabagagaiakaiagaiagaiaiaiahalaiaiaiagaiaiaiagaiagaiakaiagagabaaaaaaaaaaaaaaaaaaaaaaaaaaaaaaaa",
"aaaaaaaaaaaaaaaaaaaaaaaaaaaaaaaaaaaaabagagaiakaiagaiagaiaiaiahalaiaiaiagaiaiaiagaiagaiakaiagagabaaaaaaaaaaaaaaaaaaaaaaaaaaaaaaaa",
"aaaaaaaaaaaaaaaaaaaaaaaaaaaaaaaaaaaaabagagaiakaiagaiagaiaiaiahalaiaiaiagaiaiaiagaiagaiakaiagaeabaaaaaaaaaaaaaaaaaaaaaaaaaaaaaaaa",
"aaaaaaaaaaaaaaaaaaaaaaaaaaaaaaaaaaaaaaabagaiaiagaiaiagaiaiaiahalaiaiaiagaiaiaiaiagaiagaiaiagabaaaaaaaaaaaaaaaaaaaaaaaaaaaaaaaaaa",
"aaaaaaaaaaaaaaaaaaaaaaaaaaaaaaaaaaaaaaabagagaiagaiaiaiaiaiaiaiaiaiaiaiagaiaiaiaiagaiagaiagagabaaaaaaaaaaaaaaaaaaaaaaaaaaaaaaaaaa",
"aaaaaaaaaaaaaaaaaaaaaaaaaaaaaaaaaaaaaaabagagaiahaiaiaiaiaiaiaiaiaiaiaiagaiaiaiaiagaiagaiagagabaaaaaaaaaaaaaaaaaaaaaaaaaaaaaaaaaa",
"aaaaaaaaaaaaaaaaaaaaaaaaaaaaaaaaaaaaaaabagagaiahaiaiaiaiagagagagagagagagagahalaiaiaiagaiagaeabaaaaaaaaaaaaaaaaaaaaaaaaaaaaaaaaaa",
"aaaaaaaaaaaaaaaaaaaaaaaaaaaaaaaaaaaaaaaaabagaiahahaiaiaiaiaiaiaiaiaiagagagahalaiaiaiaiaiagabaaaaaaaaaaaaaaaaaaaaaaaaaaaaaaaaaaaa",
"aaaaaaaaaaaaaaaaaaaaaaaaaaaaaaaaaaaaaaaaabagaiahahahaiaiabababababababababalahaiaiaiaiaiagabaaaaaaaaaaaaaaaaaaaaaaaaaaaaaaaaaaaa",
"aaaaaaaaaaaaaaaaaaaaaaaaaaaaaaaaaaaaaaaaabagaiahahabababadadadadadadadadadamahababaiaiaiagabaaaaaaaaaaaaaaaaaaaaaaaaaaaaaaaaaaaa",
"aaaaaaaaaaaaaaaaaaaaaaaaaaaaaaaaaaaaaaaaabagaiahabanananabababababababababaoaoadajabaiapagabaaaaaaaaaaaaaaaaaaaaaaaaaaaaaaaaaaaa",
"aaaaaaaaaaaaaaaaaaaaaaaaaaaaaaaaaaaaaaaaabagahabanababaqaqarasasasatatatasauavababawabapagabaaaaaaaaaaaaaaaaaaaaaaaaaaaaaaaaaaaa",
"aaaaaaaaaaaaaaaaaaaaaaaaaaaaaaaaaaaaaaaaabagahababaxababababasasasatatayafayavabazababapagabaaaaaaaaaaaaaaaaaaaaaaaaaaaaaaaaaaaa",
"aaaaaaaaaaaaaaaaaaaaaaaaaaaaaaaaaaaaaaaaabagahabaqabaqaqatasababababatayavavavazayababapaAabaaaaaaaaaaaaaaaaaaaaaaaaaaaaaaaaaaaa",
"aaaaaaaaaaaaaaaaaaaaaaaaaaaaaaaaaaaaaaaaabagaAabaqabaqabauabaBabasataCaDavaEaEayayatabapaAabaaaaaaaaaaaaaaaaaaaaaaaaaaaaaaaaaaaa",
"aaaaaaaaaaaaaaaaaaaaaaaaaaaaaaaaaaaaaaaaabagaAabaqababauauabababasakaCavaFaGaEaEauatabapaAabaaaaaaaaaaaaaaaaaaaaaaaaaaaaaaaaaaaa",
"aaaaaaaaaaaaaaaaaaaaaaaaaaaaaaaaaaaaaaaaabagapabatabauauauabaAabasasauavaFaHaGaEauatabapaAabaaaaaaaaaaaaaaaaaaaaaaaaaaaaaaaaaaaa",
"aaaaaaaaaaaaaaaaaaaaaaaaaaaaaaaaaaaaaaaaabagapabataoauavavavaAabasasabavaFaHaHaGayatabapaAabaaaaaaaaaaaaaaaaaaaaaaaaaaaaaaaaaaaa",
"aaaaaaaaaaaaaaaaaaaaaaaaaaaaaaaaaaaaaaaaabagapabataoavaIaFavaAabasasabaoavaHaHaJabatabapaAabaaaaaaaaaaaaaaaaaaaaaaaaaaaaaaaaaaaa",
"aaaaaaaaaaaaaaaaaaaaaaaaaaaaaaaaaaaaaaaaabagapabatabaKaIaFaLababasasabaqaoaJaJaoabatabapagabaaaaaaaaaaaaaaaaaaaaaaaaaaaaaaaaaaaa",
"aaaaaaaaaaaaaaaaaaaaaaaaaaaaaaaaaaaaaaaaabaeapabatatararararatabasasabatafafafafatatabapagabaaaaaaaaaaaaaaaaaaaaaaaaaaaaaaaaaaaa",
"aaaaaaaaaaaaaaaaaaaaaaaaaaaaaaaaaaaaaaaaabaeapababaxasasasatatabaqaqabatasasasatatababagagabaaaaaaaaaaaaaaaaaaaaaaaaaaaaaaaaaaaa",
"aaaaaaaaaaaaaaaaaaaaaaaaaaaaaaaaaaaaaaaaabaeaeabasabasaxasatabaqaqaqaqabatatatatabasabagagabaaaaaaaaaaaaaaaaaaaaaaaaaaaaaaaaaaaa",
"aaaaaaaaaaaaaaaaaaaaaaaaaaaaaaaaaaaaaaaaabaeaeabasasababababaqaqaqaqaqaqababababasasabagagabaaaaaaaaaaaaaaaaaaaaaaaaaaaaaaaaaaaa",
"aaaaaaaaaaaaaaaaaaaaaaaaaaaaaaaaaaaaaaabaeaeaeagabasaqasasasasasasasasasasasasasasabagagagagabaaaaaaaaaaaaaaaaaaaaaaaaaaaaaaaaaa",
"aaaaaaaaaaaaaaaaaaaaaaaaaaaaaaaaaaaaaaabaeaeagahahabaMaMaMaMaxaxaxaxaxaxaMaMaMaMabagaiagagagabaaaaaaaaaaaaaaaaaaaaaaaaaaaaaaaaaa",
"aaaaaaaaaaaaaaaaaaaaaaaaaaaaaaaaaaaaaaabaeagagagahaiababababababababababababababaiaiagagagagabaaaaaaaaaaaaaaaaaaaaaaaaaaaaaaaaaa",
"aaaaaaaaaaaaaaaaaaaaaaaaaaaaaaaaaaaaabaeaeaiagagaiaiaiaiaiaiaiaiaiaiaiaiaiaiaiaiaiaiagagagagagabaaaaaaaaaaaaaaaaaaaaaaaaaaaaaaaa",
"aaaaaaaaaaaaaaaaaaaaaaaaaaaaaaaaaaaaabaeaiaiagagaiaiaiaiaiaiaiaiaiaiaiaiaiaiaiaiaiaiagagagapagabaaaaaaaaaaaaaaaaaaaaaaaaaaaaaaaa",
"aaaaaaaaaaaaaaaaaaaaaaaaaaaaaaaaaaaaabaeaiaiaiagaiaiaiaiaiaiaiaiaiaiaiaiaiaiaiaiaiaiagagahapagabaaaaaaaaaaaaaaaaaaaaaaaaaaaaaaaa",
"aaaaaaaaaaaaaaaaaaaaaaaaaaaaaaaaaaaaabaeaiaiaiagaiaiaiaiakaiaiaiaiaiaiaiaiaiagaiaiaiagagaiahagabaaaaaaaaaaaaaaaaaaaaaaaaaaaaaaaa",
"aaaaaaaaaaaaaaaaaaaaaaaaaaaaaaaaaaaaabaeaiaiaiagaiaiaiagagagagagagagagagagagagaiaiaiagaialahaeabaaaaaaaaaaaaaaaaaaaaaaaaaaaaaaaa",
"aaaaaaaaaaaaaaaaaaaaaaaaaaaaaaaaaaaaabaeaiaiaiagaiaiagagaiaiaiaiaiaiaiaiaiaiaiagaiaiagaialahaeabaaaaaaaaaaaaaaaaaaaaaaaaaaaaaaaa",
"aaaaaaaaaaaaaaaaaaaaaaaaaaaaaaaaaaaaabaeahaiaiagaiaiagaiaiaiaiaiaiaiaiaiaiaiaiagaiagagalalahaeabaaaaaaaaaaaaaaaaaaaaaaaaaaaaaaaa",
"aaaaaaaaaaaaaaaaaaaaaaaaaaaaaaaaaaaaabaeahaiaiaiagaiagaiaiaiaiaiaiaiaiaiaiaiaiagaiagahahahahaeabaaaaaaaaaaaaaaaaaaaaaaaaaaaaaaaa",
"aaaaaaaaaaaaaaaaaaaaaaaaaaaaaaaaaaaaabaeahaiaiaiagaiaeaiaiaiaiaiaiaiaiaiaiaiaiagaiagahahahahaeabaaaaaaaaaaaaaaaaaaaaaaaaaaaaaaaa",
"aaaaaaaaaaaaaaaaaaaaaaaaaaaaaaaaaaaaabaeagaiaiaiagaiaeaiaiaiaiaiaiaiaiaiaiaiagagaiagahahahaeaeabaaaaaaaaaaaaaaaaaaaaaaaaaaaaaaaa",
"aaaaaaaaaaaaaaaaaaaaaaaaaaaaaaaaaaaaaaabaeaeaeaeaeaeaeaeaiaiaiaiaiaiaiaiaiaiagagagagahahaeaeabaaaaaaaaaaaaaaaaaaaaaaaaaaaaaaaaaa",
"aaaaaaaaaaaaaaaaaaaaaaaaaaaaaaaaaaaaaaabaeagaeaeaeaeaeaeaeaiaiaiaiaiaiaiaiagagagafahahahaeaeabaaaaaaaaaaaaaaaaaaaaaaaaaaaaaaaaaa",
"aaaaaaaaaaaaaaaaaaaaaaaaaaaaaaaaaaaaaaabaeagaeaeaeaeaeaeaeaeaeaeajajaiaeagagagagafaeaeaeaeaeabaaaaaaaaaaaaaaaaaaaaaaaaaaaaaaaaaa",
"aaaaaaaaaaaaaaaaaaaaaaaaaaaaaaaaaaaaaaaaabafaeaNaeaeaeaeaeaeaeaeaeaeaeaeaeagagafaeaeaNaeaeabaaaaaaaaaaaaaaaaaaaaaaaaaaaaaaaaaaaa",
"aaaaaaaaaaaaaaaaaaaaaaaaaaaaaaaaaaaaaaaaabaeafababaeaeaeaeaeaeaeaeaeaeaeaeagagafaeagabaeaeabaaaaaaaaaaaaaaaaaaaaaaaaaaaaaaaaaaaa",
"aaaaaaaaaaaaaaaaaaaaaaaaaaaaaaaaaaaaaaaaababafafaeaeaeaeaeaeaeaeaeaeaeaeaeaeagabafafaeaeababaaaaaaaaaaaaaaaaaaaaaaaaaaaaaaaaaaaa",
"aaaaaaaaaaaaaaaaaaaaaaaaaaaaaaaaaaaaaaaaabawababababababaeaeaeaeaeaeaeaeaeagababababababadabaaaaaaaaaaaaaaaaaaaaaaaaaaaaaaaaaaaa",
"aaaaaaaaaaaaaaaaaaaaaaaaaaaaaaaaaaaaaaaaaaabadadadabanababababababababababababanabadadadabaaaaaaaaaaaaaaaaaaaaaaaaaaaaaaaaaaaaaa",
"aaaaaaaaaaaaaaaaaaaaaaaaaaaaaaaaaaaaaaaaaaaaabababadabanaOadadadadadadadadaOanabaPabababaaaaaaaaaaaaaaaaaaaaaaaaaaaaaaaaaaaaaaaa",
"aaaaaaaaaaaaaaaaaaaaaaaaaaaaaaaaaaaaaaaaaaaaaaaaaaabajababababababababababababacabaaaaaaaaaaaaaaaaaaaaaaaaaaaaaaaaaaaaaaaaaaaaaa",
"aaaaaaaaaaaaaaaaaaaaaaaaaaaaaaaaaaaaaaaaaaaaaaaaaaaaaaaaaaaaaaaaaaaaaaaaaaaaaaaaaaaaaaaaaaaaaaaaaaaaaaaaaaaaaaaaaaaaaaaaaaaaaaaa",
"aaaaaaaaaaaaaaaaaaaaaaaaaaaaaaaaaaaaaaaaaaaaaaaaaaaaaaaaaaaaaaaaaaaaaaaaaaaaaaaaaaaaaaaaaaaaaaaaaaaaaaaaaaaaaaaaaaaaaaaaaaaaaaaa"
};
