/* XPM */
static char *cactus_group_xpm[] = {
"64 64 11 2",
"aa c #000000",
"aj c #383838",
"al c #555555",
"ay c #3A7D44",
"cg c #A93226",
"ck c #6E2018",
"et c #885522",
"ge c #669933",
"hm c #999966",
"io c #CC9966",
"jv c #FF00FF",
/* pixels */
"jvjvjvjvjvjvjvjvjvjvjvjvjvjvjvjvjvjvjvjvjvjvjvjvjvjvjvjvjvjvjvjvjvjvjvjvjvjvjvjvjvjvjvjvjvjvjvjvjvjvjvjvjvjvjvjvjvjvjvjvjvjvjvjv",
"jvjvjvjvjvjvjvjvjvjvjvjvjvjvjvjvjvjvjvjvjvjvjvjvjvjvjvjvjvjvjvjvjvjvjvjvjvjvjvjvjvjvjvjvjvjvjvjvjvjvjvjvjvjvjvjvjvjvjvjvjvjvjvjv",
"jvjvjvjvjvjvjvjvjvjvjvjvjvjvjvjvjvjvjvjvjvjvjvjvjvjvjvjvjvjvjvjvjvjvjvjvjvjvjvjvjvjvjvjvjvjvjvjvjvjvjvjvjvjvjvjvjvjvjvjvjvjvjvjv",
"jvjvjvjvjvjvjvjvjvjvjvjvjvjvjvjvjvjvjvjvjvjvjvjvjvjvjvjvjvjvjvjvjvjvjvjvjvjvjvjvjvjvjvjvjvjvjvjvjvjvjvjvjvjvjvjvjvjvjvjvjvjvjvjv",
"jvjvjvjvjvjvjvjvjvjvjvjvjvjvjvjvjvjvjvjvjvjvjvjvjvjvjvjvjvjvjvaaaaaaaajvjvjvjvjvjvjvjvjvjvjvjvjvjvjvjvjvjvjvjvjvjvjvjvjvjvjvjvjv",
"jvjvjvjvjvjvjvjvjvjvjvjvjvjvjvjvjvjvjvjvjvjvjvjvjvjvjvjvjvjvaahmhmaygeaajvjvjvjvjvjvjvjvjvjvjvjvjvjvjvjvjvjvjvjvjvjvjvjvjvjvjvjv",
"jvjvjvjvjvjvjvjvjvjvjvjvjvjvjvjvjvjvjvjvjvjvjvjvjvjvjvjvjvaahmayhmayhmhmaajvjvjvjvjvjvjvjvjvjvjvjvjvjvjvjvjvjvjvjvjvjvjvjvjvjvjv",
"jvjvjvjvjvjvjvjvjvjvjvjvjvjvjvjvjvjvjvjvjvjvjvjvjvjvjvjvaagegeaygeayhmhmayaajvjvjvjvjvjvjvjvjvjvjvjvjvjvjvjvjvjvjvjvjvjvjvjvjvjv",
"jvjvjvjvjvjvjvjvjvjvjvjvjvjvjvjvjvjvjvjvjvjvjvjvjvjvjvjvaagegeaygeayhmhmayaajvjvjvjvjvjvjvjvjvjvjvjvjvjvjvjvjvjvjvjvjvjvjvjvjvjv",
"jvjvjvjvjvjvjvjvjvjvjvjvjvjvjvjvjvjvjvjvjvjvjvjvjvjvjvaaaygegeaygegeayhmayayaajvjvjvjvjvjvjvjvjvjvjvjvjvjvjvjvjvjvjvjvjvjvjvjvjv",
"jvjvjvjvjvjvjvjvjvjvjvjvjvjvjvjvjvjvjvjvjvjvjvjvjvjvjvaaaygeaygegegeayhmayayaajvjvjvjvjvjvjvjvjvjvjvjvjvjvjvjvjvjvjvjvjvjvjvjvjv",
"jvjvjvjvjvjvjvjvjvjvjvjvjvjvjvjvjvjvjvjvjvjvjvjvjvjvjvaaaygeaygegegeayhmhmayaajvjvjvjvaaaajvjvjvjvjvjvjvjvjvjvjvjvjvjvjvjvjvjvjv",
"jvjvjvjvjvjvjvjvjvjvjvjvjvjvjvjvjvjvjvjvjvjvjvjvjvjvjvaaaygeaygegegeayhmhmayaajvjvjvaagegeaajvjvjvjvjvjvjvjvjvjvjvjvjvjvjvjvjvjv",
"jvjvjvjvjvjvjvjvjvjvjvjvjvjvjvjvjvjvjvjvjvaaaajvjvjvjvaaaygeaygegegeayayhmayaajvjvaaaygegehmaajvjvjvjvjvjvjvjvjvjvjvjvjvjvjvjvjv",
"jvjvjvjvjvjvjvjvjvjvjvjvjvjvjvjvjvjvjvjvaahmhmaajvjvjvaaaygeaygegegegeayhmayaajvjvaaaygeayhmaajvjvjvjvjvjvjvjvjvjvjvjvjvjvjvjvjv",
"jvjvjvjvjvjvjvjvjvjvjvjvjvjvjvjvjvjvjvaagehmhmaajvjvjvaaaygeaygegegegeayhmayaajvjvaaaygeayhmaajvjvjvjvjvjvjvjvjvjvjvjvjvjvjvjvjv",
"jvjvjvjvjvjvjvjvjvjvjvjvjvjvjvjvjvjvaaaygeayhmayaajvjvaaaygeaygegegegeayhmayaajvjvaaaygeayhmaajvjvjvjvjvjvjvjvjvjvjvjvjvjvjvjvjv",
"jvjvjvjvjvjvjvjvjvjvjvjvjvjvjvjvjvjvaaaygeayhmayaajvjvaaaygeaygegegegeayhmayaajvjvaaaygeayhmaajvjvjvjvjvjvjvjvjvjvjvjvjvjvjvjvjv",
"jvjvjvjvjvjvjvjvjvjvjvjvjvjvjvjvjvjvaaaygeayhmayaajvjvaaaygeaygegegegeayhmayaajvjvaaaygeayhmaajvjvjvjvjvjvjvjvjvjvjvjvjvjvjvjvjv",
"jvjvjvjvjvjvjvjvjvjvjvjvjvjvjvjvjvjvaaaygeayhmayaajvjvaaaygeaygegegegeayhmayaajvjvaaayhmayhmaajvjvjvjvjvjvjvjvjvjvjvjvjvjvjvjvjv",
"jvjvjvjvjvjvjvjvjvjvjvjvjvjvjvjvjvjvaaaygeayhmayaajvjvaaaygeaygegegegeayhmayaajvjvaaayhmayhmaajvjvjvjvjvjvjvjvjvjvjvjvjvjvjvjvjv",
"jvjvjvjvjvjvjvjvjvjvjvjvjvjvjvjvjvjvaaaygeayhmayaajvjvaaaygeaygegegegeayhmayaajvjvaaayhmayhmaajvjvjvjvjvjvjvjvjvjvjvjvjvjvjvjvjv",
"jvjvjvjvjvjvjvjvjvjvjvjvjvjvjvjvjvjvaaaygeayhmayaajvjvaaaygeaygegegegeayhmayaajvaaayhmhmayayaajvjvjvjvjvjvjvjvjvjvjvjvjvjvjvjvjv",
"jvjvjvjvjvjvjvjvjvjvjvjvjvjvjvjvjvjvaaaygeayhmayaajvjvaaaygeaygegegeaygehmayaaaaayayhmgeayaajvjvjvjvjvjvjvjvjvjvjvjvjvjvjvjvjvjv",
"jvjvjvjvjvjvjvjvjvjvjvjvjvjvjvjvjvjvaaaygeayhmayaajvjvaaaygeaygegegeaygeayaygeayhmhmgegeayaajvjvjvjvjvjvjvjvjvjvjvjvjvjvjvjvjvjv",
"jvjvjvjvjvjvjvjvjvjvjvjvjvjvjvjvjvjvaaaygeayhmayayaajvaaaygegeaygegeaygeayaygeayayaygeayayaajvjvjvjvjvjvjvjvjvjvjvjvjvjvjvjvjvjv",
"jvjvjvjvjvjvjvjvjvjvjvjvjvjvjvjvjvjvjvaaayayaygeayayaaaaayaygeaygegeaygeayaygegegegeayayayaajvjvjvjvjvjvjvjvjvjvjvjvjvjvjvjvjvjv",
"jvjvjvjvjvjvjvjvjvjvjvjvjvjvjvjvjvjvjvaaayayaygegeayayayayajgeaygegeaygeayayayayayayayayaajvjvjvjvjvjvjvjvjvjvjvjvjvjvjvjvjvjvjv",
"jvjvjvjvjvjvjvjvjvjvjvjvjvjvjvjvjvjvjvaaayayayaygegegegeayaygeaygegeaygeayayayayayayaaaajvjvjvjvjvjvjvjvjvjvjvjvjvjvjvjvjvjvjvjv",
"jvjvjvjvjvjvjvjvjvjvjvjvjvjvjvjvjvjvjvjvaaayayayayaygegeayaygeaygegeaygeayayaaaaaaaajvjvjvjvjvjvjvjvjvjvjvjvjvjvjvjvjvjvjvjvjvjv",
"jvjvjvjvjvjvjvjvjvjvjvjvjvjvjvjvjvjvjvjvjvaaayayayayayayayaygeaygegeaygeayaajvjvjvjvjvjvjvjvjvjvjvjvjvjvjvjvjvjvjvjvjvjvjvjvjvjv",
"jvjvjvjvjvjvjvjvjvjvjvjvjvjvjvjvjvjvjvjvjvjvaaayayayayayayaygeaygegeaygeayaajvjvjvjvjvjvjvjvjvjvjvjvjvjvjvjvjvjvjvjvjvjvjvjvjvjv",
"jvjvjvjvjvjvjvjvjvjvjvjvjvjvjvjvjvjvjvjvjvjvjvaaaaaaaaaaayaygeaygegeaygeayaajvjvjvjvjvjvjvjvjvjvjvjvjvjvjvjvjvjvjvjvjvjvjvjvjvjv",
"jvjvjvjvjvjvjvjvjvjvjvjvjvjvjvjvjvjvjvjvjvjvjvjvjvjvjvjvaaaygeaygegeaygeayaajvjvjvjvjvjvjvjvjvjvjvjvjvjvjvjvjvjvjvjvjvjvjvjvjvjv",
"jvjvjvjvjvjvjvjvjvjvjvjvjvjvaajvaajvjvjvjvjvjvjvjvjvjvjvaaaygeaygegeaygeayaajvjvjvjvjvjvjvjvjvaaaaaaaaaaaaaajvjvjvjvjvjvjvjvjvjv",
"jvjvjvjvjvjvjvjvjvjvjvjvjvaaetaaetaaaajvjvjvjvjvjvjvjvjvaaaygeaygegeaygeayaajvjvjvjvjvjvjvjvaahmayhmayhmayayaajvjvjvjvjvjvjvjvjv",
"jvjvjvjvjvjvjvjvjvjvjvaaaaetioetiockhmaaaajvjvjvjvjvjvjvaaaygeaygegeayayayaajvjvjvjvjvjvjvaahmhmayaygeajhmayayaajvjvjvjvjvjvjvjv",
"jvjvjvjvjvjvjvjvjvjvaaayhmajethmhmcgckayayaajvjvjvjvjvjvaaaygeaygegeayayayaajvjvjvjvjvjvjvaahmayhmaygegeayhmayaajvjvjvjvjvjvjvjv",
"jvjvjvjvjvjvjvjvjvaaayayhmayajcgcgcgckhmayayaajvjvjvjvjvaaayayaygegeayayayaajvjvjvjvjvjvaahmhmayhmayayhmayhmayayaajvjvjvjvjvjvjv",
"jvjvjvjvjvjvjvjvaaayayhmayayayalalayayayhmayayaajvjvjvjvaaayayaygegeayayayaajvjvjvjvjvjvaagehmayhmayayhmayayhmayaajvjvjvjvjvjvjv",
"jvjvjvjvjvjvjvjvaaayayhmayayhmayayhmayayhmhmayaajvjvjvjvaaayayaygegeayayayaajvjvjvjvjvjvaageayhmayayayayayayhmayaajvjvjvjvjvjvjv",
"jvjvjvjvjvjvjvaaayayhmayayayhmayayayayayayhmayayaajvjvjvaaayayaygegeayayayaajvjvjvjvjvjvaageayhmayayayhmayayhmayaajvjvjvjvjvjvjv",
"jvjvjvjvjvjvjvaaayayhmayayayhmayayayhmayayayhmayaajvjvjvaaayayaygegeayayayaajvjvjvjvjvjvaageaygeajhmayayayayhmayaajvjvjvjvjvjvjv",
"jvjvjvjvjvjvjvaaayhmhmayayhmayayayayhmajaygeayayaajvjvjvaaayayaygegeayayayaajvjvjvjvjvjvaageaygeajayayhmayayhmayaajvjvjvjvjvjvjv",
"jvjvjvjvjvjvjvaaayhmayayajhmayayayayhmajaygeayayaajvjvjvaaayayayayayayayaaaaaaaaaajvjvjvaageaygeajayayhmayayhmayaajvjvjvjvjvjvjv",
"jvjvjvjvjvjvjvaaayhmayayajhmayayayayajajaygeayayaajvjvjvaaayayayayayaaaahmgehmhmhmaaaajvaageaygeajayayhmayayhmayaajvjvjvjvjvjvjv",
"jvjvjvjvjvjvjvaaayhmayayajajayayayayhmajaygeayayaajvjvjvaaayayayayaaayhmaygegegegehmgeaaaageaygeajayayhmayayayayaajvjvjvjvjvjvjv",
"jvjvjvjvjvjvjvaaayhmayayajhmayayayayhmajayayayayaajvjvjvjvaaayayaaayhmayayhmayaygeayhmgeajgeaygeajayayayayayayaajvjvjvjvjvjvjvjv",
"jvjvjvjvjvjvjvaaayayhmayayhmayayayayayajayayayayaajvjvjvjvjvaaaaaaayhmayayhmayayhmayayhmayaaajajgeayaygeayayayaajvjvjvjvjvjvjvjv",
"jvjvjvjvjvjvjvjvaaayhmayayhmayayayayhmajayayayaajvjvjvjvjvjvjvaaayhmayayhmayayayayhmayhmayayaaajgeayayayayayaajvjvjvjvjvjvjvjvjv",
"jvjvjvjvjvjvjvjvaaayayhmayajayayayhmayayayayayaajvjvjvjvjvjvjvaaayhmayayhmayayayayhmayayhmayaaaaaaaaaaaaaaaajvjvjvjvjvjvjvjvjvjv",
"jvjvjvjvjvjvjvjvjvaaayhmayajhmayayhmayayayayaajvjvjvjvjvjvjvjvaaayhmayayhmayayayayhmayayhmayaajvjvjvjvjvjvjvjvjvjvjvjvjvjvjvjvjv",
"jvjvjvjvjvjvjvjvjvjvaaayayajhmayayhmayayayaajvjvjvjvjvjvjvjvjvaaayhmayayhmayayayayhmayayhmayaajvjvjvjvjvjvjvjvjvjvjvjvjvjvjvjvjv",
"jvjvjvjvjvjvjvjvjvjvjvaaaaaaaaaaaaaaaaaaaajvjvjvjvjvjvjvjvjvjvaaayhmayayayayayayayhmayayhmayaajvjvjvjvjvjvjvjvjvjvjvjvjvjvjvjvjv",
"jvjvjvjvjvjvjvjvjvjvjvjvjvjvjvjvjvjvjvjvjvjvjvjvjvjvjvjvjvjvjvaaayayayayhmayayayayhmajayayayaajvjvjvjvjvjvjvjvjvjvjvjvjvjvjvjvjv",
"jvjvjvjvjvjvjvjvjvjvjvjvjvjvjvjvjvjvjvjvjvjvjvjvjvjvjvjvjvjvjvjvaaaygeayhmayayayayajajayayaajvjvjvjvjvjvjvjvjvjvjvjvjvjvjvjvjvjv",
"jvjvjvjvjvjvjvjvjvjvjvjvjvjvjvjvjvjvjvjvjvjvjvjvjvjvjvjvjvjvjvjvaaayayayaygeayaygeajayayayaajvjvjvjvjvjvjvjvjvjvjvjvjvjvjvjvjvjv",
"jvjvjvjvjvjvjvjvjvjvjvjvjvjvjvjvjvjvjvjvjvjvjvjvjvjvjvjvjvjvjvjvjvaaaaayayhmayayayajayaaaajvjvjvjvjvjvjvjvjvjvjvjvjvjvjvjvjvjvjv",
"jvjvjvjvjvjvjvjvjvjvjvjvjvjvjvjvjvjvjvjvjvjvjvjvjvjvjvjvjvjvjvjvjvjvjvaaaaaaaaaaaaaaaajvjvjvjvjvjvjvjvjvjvjvjvjvjvjvjvjvjvjvjvjv",
"jvjvjvjvjvjvjvjvjvjvjvjvjvjvjvjvjvjvjvjvjvjvjvjvjvjvjvjvjvjvjvjvjvjvjvjvjvjvjvjvjvjvjvjvjvjvjvjvjvjvjvjvjvjvjvjvjvjvjvjvjvjvjvjv",
"jvjvjvjvjvjvjvjvjvjvjvjvjvjvjvjvjvjvjvjvjvjvjvjvjvjvjvjvjvjvjvjvjvjvjvjvjvjvjvjvjvjvjvjvjvjvjvjvjvjvjvjvjvjvjvjvjvjvjvjvjvjvjvjv",
"jvjvjvjvjvjvjvjvjvjvjvjvjvjvjvjvjvjvjvjvjvjvjvjvjvjvjvjvjvjvjvjvjvjvjvjvjvjvjvjvjvjvjvjvjvjvjvjvjvjvjvjvjvjvjvjvjvjvjvjvjvjvjvjv",
"jvjvjvjvjvjvjvjvjvjvjvjvjvjvjvjvjvjvjvjvjvjvjvjvjvjvjvjvjvjvjvjvjvjvjvjvjvjvjvjvjvjvjvjvjvjvjvjvjvjvjvjvjvjvjvjvjvjvjvjvjvjvjvjv",
"jvjvjvjvjvjvjvjvjvjvjvjvjvjvjvjvjvjvjvjvjvjvjvjvjvjvjvjvjvjvjvjvjvjvjvjvjvjvjvjvjvjvjvjvjvjvjvjvjvjvjvjvjvjvjvjvjvjvjvjvjvjvjvjv"
};
