/* XPM */
static char *fence_angled_xpm[] = {
"64 64 21 2",
"ac c #CCCCCC",
"af c #333333",
"ai c #2A2A2A",
"al c #555555",
"aq c #282828",
"as c #191919",
"at c #1B1B1B",
"bb c #8B7355",
"bf c #5D4037",
"bi c #7A7A7A",
"bu c #222222",
"cd c #303030",
"et c #885522",
"eu c #442200",
"gc c #AAAAAA",
"hg c #996633",
"hm c #999966",
"io c #CC9966",
"ip c #CC9999",
"iu c #CCCC99",
"jv c #FF00FF",
/* pixels */
"jvjvjvjvjvjvjvjvjvjvjvjvjvjvjvjvjvjvjvjvjvjvjvjvjvjvjvjvjvjvjvjvjvjvjvjvjvjvjvjvjvjvjvjvjvjvjvjvjvjvjvjvjvjvjvjvjvjvjvjvjvjvjvjv",
"jvjvjvjvjvjvjvjvjvjvjvjvjvjvjvjvjvjvjvjvjvjvjvjvjvjvjvjvjvjvjvjvjvjvjvjvjvjvjvjvjvjvjvjvjvjvjvjvjvjvjvjvjvjvjvjvjvjvjvjvjvjvjvjv",
"jvjvjvjvjvjvjvjvjvjvjvjvjvjvjvjvjvjvjvjvjvjvjvjvjvjvjvjvjvjvjvjvjvjvjvjvjvjvjvjvjvjvjvjvjvjvjvjvjvjvjvjvjvjvjvjvjvjvjvjvjvjvjvjv",
"jvjvjvjvjvjvjvjvjvjvjvjvjvjvjvjvjvjvjvjvjvjvjvjvjvjvjvjvjvjvjvjvjvjvjvjvjvjvjvjvjvjvjvjvjvjvjvjvjvjvjvjvjvjvjvjvjvjvjvjvjvjvjvjv",
"jvjvjvjvjvjvjvjvjvjvjvjvjvjvjvjvjvjvjvjvjvjvjvjvjvjvjvjvjvjvjvjvjvjvjvjvjvjvjvjvjvjvjvjvjvjvjvjvjvjvjvjvjvjvjvjvjvjvjvjvjvjvjvjv",
"jvjvjvjvjvjvjvjvjvjvjvjvjvjvjvjvjvjvjvjvjvjvjvjvjvjvjvjvjvjvjvjvjvjvjvjvjvjvjvjvjvjvjvjvjvjvjvjvjvjvjvjvjvjvjvjvjvjvjvjvjvjvjvjv",
"jvjvjvjvjvjvjvjvjvjvjvjvjvjvjvjvjvjvjvjvjvjvjvjvjvjvjvjvjvjvjvjvjvjvjvjvjvjvjvjvjvjvjvjvjvjvjvjvjvjvjvjvjvjvjvjvjvjvjvjvjvjvjvjv",
"jvjvjvjvjvjvjvjvjvjvjvjvjvjvjvjvjvjvjvjvjvjvjvjvjvjvjvjvjvjvjvjvjvjvjvjvjvjvjvjvjvjvjvjvjvjvjvjvjvjvjvjvjvjvjvjvjvjvjvjvjvjvjvjv",
"jvjvjvjvjvjvjvjvjvjvjvjvjvjvjvjvjvjvjvjvjvjvjvjvjvjvjvjvjvjvjvjvjvjvjvjvjvjvjvjvjvjvjvjvjvjvjvjvjvjvjvjvjvjvjvjvjvjvjvjvjvjvjvjv",
"jvjvjvjvjvjvjvjvjvjvjvjvjvjvjvjvjvjvjvjvjvjvjvjvjvjvjvjvjvjvjvjvjvjvjvjvjvjvjvjvjvjvjvjvjvjvjvjvjvjvjvjvjvjvjvjvjvjvjvjvjvjvjvjv",
"jvjvjvjvjvjvjvjvjvjvjvjvjvjvjvjvjvjvjvjvjvjvjvjvjvjvjvjvjvjvjvjvjvjvjvjvjvjvjvjvjvjvjvjvjvjvjvjvjvjvjvjvjvjvjvjvjvjvjvjvjvjvjvjv",
"jvjvjvjvasasasasasjvjvjvjvjvjvjvjvjvjvjvjvjvjvjvjvjvjvjvjvjvjvjvjvjvjvjvjvjvjvjvjvjvjvjvjvjvjvjvjvjvjvjvjvjvjvasasasasasjvjvjvjv",
"jvjvjvasioioioioioasjvjvjvjvjvjvjvjvjvjvjvjvjvjvjvjvjvjvjvjvjvjvjvjvjvjvjvjvjvjvjvjvjvjvjvjvjvjvjvjvjvjvjvjvashgioioioioasjvjvjv",
"jvjvjvasioioioioioatjvjvjvjvjvjvjvjvjvjvjvjvjvjvjvjvjvjvjvjvjvjvjvjvjvjvjvjvjvjvjvjvjvjvjvjvjvjvjvjvjvjvjvjvatioioioioioasjvjvjv",
"jvjvjvatiohgioioioatjvjvjvjvjvjvjvjvjvjvjvjvjvjvjvjvjvjvjvjvjvjvjvjvjvjvjvjvjvjvjvjvjvjvjvjvjvjvjvjvjvjvjvjvatiohgioioioasjvjvjv",
"jvjvjvathgbfetetetatjvjvjvjvjvjvjvjvjvjvjvjvjvjvjvjvjvjvjvjvjvjvjvjvjvjvjvjvjvjvjvjvjvjvjvjvjvjvjvjvjvjvjvjvatetbfhghghgatjvjvjv",
"jvacacathgbfetetetatgcgcgcgcgcgcgcgcgcgcgcgcgcgcgcipipipipipipipipipipipipipipipipipipipipipipipiuiuiuiuiuiuatetbfethghgatipjvjv",
"jvipipathgbfetetetbuhmhmhmhmhmhmhmhmhmhmhmhmhmhmhmhmhmhmhmhmhmhmhmhmhmhmhmhmhmioioioioioioioioioioioioioioiobuetbfethghgatipbfjv",
"jvhghgathgbfetetetbuetetetetetetetetetetetetetetetetetetetetetetetetetetetetetetetetetetetetetetetetetetetetbuetbfethghgatetbfjv",
"jvhghgbuhgbfetetetbubfetetetetetetetetetetetetetetbfbfhghghghghghghgetetetetetetetetetetetetetetetetetetetetbuetetethghgatetbfjv",
"jvhghgbuhgbfbfbbetbubfbbbbetetetetetetetetetetethghghghghgetetetetetetethghghghghghgetetetetetetetetetetbfbfatetetethghgatetbfjv",
"jvethgathgbbbfbbetbubfbfbfbfbbbbbbbbbbbbbbbbbbbbhghghgbbbbbbbbbbbbbbbbbbbbbbbbbbbbbbbbbbbbbbbbbbbbetetetbfbfatetetetetetatetbfjv",
"jvetetathghgbfbbetatbfbfbfbfbfbfbfbfbfbfbfbfbfbfbfbfetetetetetbfbfbfbfbfbfbfbfbfbfbfbfbfbfbfbfbfbfbfbfbfbfbfatethgetetetatbfbfjv",
"jvjvjvathghgetbbetatjvjvjvjvjvjvjvjvjvjvjvjvjvjvjvjvjvjvjvjvjvjvjvjvjvjvjvjvjvjvjvjvjvjvjvjvjvjvjvjvjvjvjvjvatethgetetetatjvjvjv",
"jvjvjvathghgbfbbetatjvjvjvjvjvjvjvjvjvjvjvjvjvjvjvjvjvjvjvjvjvjvjvjvjvjvjvjvjvjvjvjvjvjvjvjvjvjvjvjvjvjvjvjvatethgetetetbujvjvjv",
"jvjvjvathghgbfetetatjvjvjvjvjvjvjvjvjvjvjvjvjvjvjvjvjvjvjvjvjvjvjvjvjvjvjvjvjvjvjvjvjvjvjvjvjvjvjvjvjvjvjvjvatethgetetetaqjvjvjv",
"jvjvjvbuhghgetetetatjvjvjvjvjvjvjvjvjvjvjvjvjvjvjvjvjvjvjvjvjvjvjvjvjvjvjvjvjvjvjvjvjvjvjvjvjvjvjvjvjvjvjvjvatetbbetetetaqjvjvjv",
"jvhmhmbuhghgetetetatatatatbbbbbbbbbbhmhmbbbbbbbbbbbbbbbbbbbbbbbbbbbbbbbbbbbbbbbbbbbbbbbbbbbbbbbbbbbbbbbbbbbbbuetbbetetetaqbfeujv",
"jvbbhmbuhghgetetetatbbbbbbasasasbfbfaqhghgbbbbbbbbbbbbbbbbbbbbbbbbbbbbbbbbbbbbbbhghghgbbbbhmhmhmhmhmhmhmbbbbbuetbbetetetaqbfeujv",
"jvbbbbbuhgbbetetetatbfbbbbbbbbhmhmhmbfasasasbfetetetetbfetetetbfbfbfbfbfbfbfetetbbbbbbetetetetetetetetetbfbfbuetbbetetetaqbfafjv",
"jvbbbbbuhgetetetetatatbfetetetethmhmhmhmhmbfasasbfbfbfhgbfhgbbbfbfbfbfetetetbbbbbbbfbfbfbfbfbfbfbfbfbfbfbfbfbuetbbetetetbualafjv",
"jvbbbbbuetetbbetetatbfetetetbfbfbfbfhghghghghmhmhmhmbfatatbfbfbbbbbbbbbbbbbbbfbfbfhghghghghghghghghghghgbfbfbuetbbetetetbualbfjv",
"jvbbbbbuetethgetetatbfhghghghghgbfbfbfbfbfhghghghghghmhmhmasasbfbfbfbfbfbfbfbfbfbfbfbfbfbfbfbfbfbfbfbfbfbfbfbuetbbhgetetatalbfjv",
"jvbbbbatethgbbetetatatbfbfbfbfhghghghghghgbfbfhghghghghghmioioioioioatatatbibibibihmhmhmhmhmhmhmhmhmhmhmhmhmatetbbhgetetatbbbbjv",
"jvjvjvatethgetbfetatjvjvjvatatatbfhghghghghghghghghghgetetetetetbbbbbbhmioatasbfbfjvjvjvjvjvjvjvjvjvjvjvjvjvatetbbhgetetatjvjvjv",
"jvjvjvatethgbfhghgatjvjvjvjvjvjvbfbfcdcdcdetethghghghghghghghgetetetethghghmhmhmioatasasjvjvjvjvjvjvjvjvjvjvatetbfhgetetatjvjvjv",
"jvjvjvatetbbbfhghgatjvjvjvjvjvjvjvjvjvjvjvaibubfbfbfbfhghghghghghgetetetetetetetethmhmhmioiobbasasbfjvjvjvjvatetbbetetetatjvjvjv",
"jvjvjvatetbbbfhghgbujvjvjvjvjvjvjvjvjvjvjvjvjvjvjvjvatatatetethghghghgetetetetetetetetethmioioioiobbbfbfbbjvatetbbetetetbujvjvjv",
"jvjvjvatetbbbfhghgaicdjvjvjvjvjvjvjvjvjvjvjvjvjvjvjvjvjvatatasasatbfbfethghghgbfhgetetetetetetetbbbbioioioiobuetbbetetetbujvjvjv",
"jvjvjvbuetbbbfhghgaihgbbjvjvjvjvjvjvjvjvjvjvjvjvjvjvjvjvjvjvjvjvjvatasasbfbfhgetethghgetetetetetetetethghghgbuetbbethgetaqjvjvjv",
"jvjvjvatetbbbfhghgaihgbbatjvjvjvjvjvjvjvjvjvjvjvjvjvjvjvjvjvjvjvjvjvjvjvjvjvatasatbfbfbfetetetetetbfbfbfbfetbuetbbethghgaqjvjvjv",
"jvjvjvatetbbbfhghgaibfetbbhmjvjvjvjvjvjvjvjvjvjvjvjvjvjvjvjvjvjvjvjvjvjvjvjvjvjvjvatasasbfbfetetetetetetetetbubfbbethghgaqjvjvjv",
"jvjvjvatetbbbfhghgaqbfetbbbbbbjvjvjvjvjvjvjvjvjvjvjvjvjvjvjvjvjvjvjvjvjvjvjvjvjvjvjvjvjvjvjvatatbfbfbfbbhgetbubfbbbfhgetaqjvjvjv",
"jvjvjvatetbbbfaieuaqbfetetbbbbatjvjvjvjvjvjvjvjvjvjvjvjvjvjvjvjvjvjvjvjvjvjvjvjvjvjvjvjvjvjvjvjvatasasataibfatbfbbbfbbetbujvjvjv",
"jvjvjvbubbbfaibfbfaqbfetetetbbbbbfjvjvjvjvjvjvjvjvjvjvjvjvjvjvjvjvjvjvjvjvjvjvjvjvjvjvjvjvjvjvjvjvjvjvjvjvjvatbfbbbfbbetbujvjvjv",
"jvjvjvbubbcdiobfbfaqjvbfetetetbbbbbfjvjvjvjvjvjvjvjvjvjvjvjvjvjvjvjvjvjvjvjvjvjvjvjvjvjvjvjvjvjvjvjvjvjvjvjvatbfbbbfbbetatjvjvjv",
"jvjvjvbubbcdbbbfbfaijvjvbfetetetbbbbatjvjvjvjvjvjvjvjvjvjvjvjvjvjvjvjvjvjvjvjvjvjvjvjvjvjvjvjvjvjvjvjvjvjvjvbuetbbbfetbfatjvjvjv",
"jvjvjvbubuhmbfbfjvjvjvjvjvbfetetetetetasjvjvjvjvjvjvjvjvjvjvjvjvjvjvjvjvjvjvjvjvjvjvjvjvjvjvjvjvjvjvjvjvjvjvbubfbbbfhgbfatjvjvjv",
"jvjvjvjvhmhmjvjvjvjvjvjvjvjvetetetetbfbfjvjvjvjvjvjvjvjvjvjvjvjvjvjvjvjvjvjvjvjvjvjvjvjvjvjvjvjvjvjvjvjvjvjvjvbfbfbfbfbfjvjvjvjv",
"jvjvjvjvjvjvjvjvjvjvjvjvjvjvjvjvjvjvjvjvjvjvjvjvjvjvjvjvjvjvjvjvjvjvjvjvjvjvjvjvjvjvjvjvjvjvjvjvjvjvjvjvjvjvjvjvjvjvjvjvjvjvjvjv",
"jvjvjvjvjvjvjvjvjvjvjvjvjvjvjvjvjvjvjvjvjvjvjvjvjvjvjvjvjvjvjvjvjvjvjvjvjvjvjvjvjvjvjvjvjvjvjvjvjvjvjvjvjvjvjvjvjvjvjvjvjvjvjvjv",
"jvjvjvjvjvjvjvjvjvjvjvjvjvjvjvjvjvjvjvjvjvjvjvjvjvjvjvjvjvjvjvjvjvjvjvjvjvjvjvjvjvjvjvjvjvjvjvjvjvjvjvjvjvjvjvjvjvjvjvjvjvjvjvjv",
"jvjvjvjvjvjvjvjvjvjvjvjvjvjvjvjvjvjvjvjvjvjvjvjvjvjvjvjvjvjvjvjvjvjvjvjvjvjvjvjvjvjvjvjvjvjvjvjvjvjvjvjvjvjvjvjvjvjvjvjvjvjvjvjv",
"jvjvjvjvjvjvjvjvjvjvjvjvjvjvjvjvjvjvjvjvjvjvjvjvjvjvjvjvjvjvjvjvjvjvjvjvjvjvjvjvjvjvjvjvjvjvjvjvjvjvjvjvjvjvjvjvjvjvjvjvjvjvjvjv",
"jvjvjvjvjvjvjvjvjvjvjvjvjvjvjvjvjvjvjvjvjvjvjvjvjvjvjvjvjvjvjvjvjvjvjvjvjvjvjvjvjvjvjvjvjvjvjvjvjvjvjvjvjvjvjvjvjvjvjvjvjvjvjvjv",
"jvjvjvjvjvjvjvjvjvjvjvjvjvjvjvjvjvjvjvjvjvjvjvjvjvjvjvjvjvjvjvjvjvjvjvjvjvjvjvjvjvjvjvjvjvjvjvjvjvjvjvjvjvjvjvjvjvjvjvjvjvjvjvjv",
"jvjvjvjvjvjvjvjvjvjvjvjvjvjvjvjvjvjvjvjvjvjvjvjvjvjvjvjvjvjvjvjvjvjvjvjvjvjvjvjvjvjvjvjvjvjvjvjvjvjvjvjvjvjvjvjvjvjvjvjvjvjvjvjv",
"jvjvjvjvjvjvjvjvjvjvjvjvjvjvjvjvjvjvjvjvjvjvjvjvjvjvjvjvjvjvjvjvjvjvjvjvjvjvjvjvjvjvjvjvjvjvjvjvjvjvjvjvjvjvjvjvjvjvjvjvjvjvjvjv",
"jvjvjvjvjvjvjvjvjvjvjvjvjvjvjvjvjvjvjvjvjvjvjvjvjvjvjvjvjvjvjvjvjvjvjvjvjvjvjvjvjvjvjvjvjvjvjvjvjvjvjvjvjvjvjvjvjvjvjvjvjvjvjvjv",
"jvjvjvjvjvjvjvjvjvjvjvjvjvjvjvjvjvjvjvjvjvjvjvjvjvjvjvjvjvjvjvjvjvjvjvjvjvjvjvjvjvjvjvjvjvjvjvjvjvjvjvjvjvjvjvjvjvjvjvjvjvjvjvjv",
"jvjvjvjvjvjvjvjvjvjvjvjvjvjvjvjvjvjvjvjvjvjvjvjvjvjvjvjvjvjvjvjvjvjvjvjvjvjvjvjvjvjvjvjvjvjvjvjvjvjvjvjvjvjvjvjvjvjvjvjvjvjvjvjv",
"jvjvjvjvjvjvjvjvjvjvjvjvjvjvjvjvjvjvjvjvjvjvjvjvjvjvjvjvjvjvjvjvjvjvjvjvjvjvjvjvjvjvjvjvjvjvjvjvjvjvjvjvjvjvjvjvjvjvjvjvjvjvjvjv",
"jvjvjvjvjvjvjvjvjvjvjvjvjvjvjvjvjvjvjvjvjvjvjvjvjvjvjvjvjvjvjvjvjvjvjvjvjvjvjvjvjvjvjvjvjvjvjvjvjvjvjvjvjvjvjvjvjvjvjvjvjvjvjvjv",
"jvjvjvjvjvjvjvjvjvjvjvjvjvjvjvjvjvjvjvjvjvjvjvjvjvjvjvjvjvjvjvjvjvjvjvjvjvjvjvjvjvjvjvjvjvjvjvjvjvjvjvjvjvjvjvjvjvjvjvjvjvjvjvjv"
};
