/* XPM */
static char *fence_post_xpm[] = {
"64 64 23 2",
"ac c #CCCCCC",
"ad c #999999",
"af c #333333",
"ai c #2A2A2A",
"aj c #383838",
"al c #555555",
"aq c #282828",
"as c #191919",
"at c #1B1B1B",
"bb c #8B7355",
"bf c #5D4037",
"bi c #7A7A7A",
"bu c #222222",
"cd c #303030",
"et c #885522",
"eu c #442200",
"gc c #AAAAAA",
"hg c #996633",
"hm c #999966",
"io c #CC9966",
"ip c #CC9999",
"iu c #CCCC99",
"jv c #FF00FF",
/* pixels */
"jvjvjvjvjvjvjvjvjvjvjvjvjvjvjvjvjvjvjvjvjvjvjvjvjvjvjvjvjvjvjvjvjvjvjvjvjvjvjvjvjvjvjvjvjvjvjvjvjvjvjvjvjvjvjvjvjvjvjvjvjvjvjvjv",
"jvjvjvjvjvjvjvjvjvjvjvjvjvjvjvjvjvjvjvjvjvjvjvjvjvjvjvjvjvjvjvjvjvjvjvjvjvjvjvjvjvjvjvjvjvjvjvjvjvjvjvjvjvjvjvjvjvjvjvjvjvjvjvjv",
"jvjvjvjvjvjvjvjvjvjvjvjvjvjvjvjvjvjvjvjvjvjvjvjvjvjvjvjvjvjvjvjvjvjvjvjvjvjvjvjvjvjvjvjvjvjvjvjvjvjvjvjvjvjvjvjvjvjvjvjvjvjvjvjv",
"jvjvjvjvjvjvjvjvjvjvjvjvjvjvjvjvjvjvjvjvjvjvjvjvjvjvjvjvjvjvjvjvjvjvjvjvjvjvjvjvjvjvjvjvjvjvjvjvjvjvjvjvjvjvjvjvjvjvjvjvjvjvjvjv",
"jvjvjvjvjvjvjvjvjvjvjvjvjvjvjvjvjvjvjvjvjvjvjvjvjvjvjvjvjvjvjvjvjvjvjvjvjvjvjvjvjvjvjvjvjvjvjvjvjvjvjvjvjvjvjvjvjvjvjvjvjvjvjvjv",
"jvjvjvjvjvjvjvjvjvjvjvjvjvjvjvjvjvjvjvjvjvjvjvjvjvjvjvjvjvjvjvjvjvjvjvjvjvjvjvjvjvjvjvjvjvjvjvjvjvjvjvjvjvjvjvjvjvjvjvjvjvjvjvjv",
"jvjvjvjvjvjvjvjvjvjvjvjvjvjvjvjvjvjvjvjvjvjvjvjvjvjvjvjvjvjvjvjvjvjvjvjvjvjvjvjvjvjvjvjvjvjvjvjvjvjvjvjvjvjvjvjvjvjvjvjvjvjvjvjv",
"jvjvjvjvjvjvjvjvjvjvjvjvjvjvjvjvjvjvjvjvjvjvjvjvjvjvjvjvjvjvjvjvjvjvjvjvjvjvjvjvjvjvjvjvjvjvjvjvjvjvjvjvjvjvjvjvjvjvjvjvjvjvjvjv",
"jvjvjvjvjvjvjvjvjvjvjvjvjvjvjvjvjvjvjvjvjvjvjvjvjvjvjvjvjvjvjvjvjvjvjvjvjvjvjvjvjvjvjvjvjvjvjvjvjvjvjvjvjvjvjvjvjvjvjvjvjvjvjvjv",
"jvjvjvjvjvjvjvjvjvjvjvjvjvjvjvjvjvjvjvjvjvjvjvjvjvjvjvjvjvjvjvjvjvjvjvjvjvjvjvjvjvjvjvjvjvjvjvjvjvjvjvjvjvjvjvjvjvjvjvjvjvjvjvjv",
"jvjvjvjvjvjvjvjvjvjvjvjvjvjvjvjvjvjvjvjvjvjvjvjvjvjvjvjvjvjvjvjvjvjvjvjvjvjvjvjvjvjvjvjvjvjvjvjvjvjvjvjvjvjvjvjvjvjvjvjvjvjvjvjv",
"jvjvjvjvaiaiaiaqbujvjvjvjvjvjvjvjvjvjvjvjvjvjvjvjvjvjvjvjvjvjvjvjvjvjvjvjvjvjvjvjvjvjvjvjvjvjvjvjvjvjvjvjvjvjvbubububuaqjvjvjvjv",
"jvjvjvbfipipipipipbujvjvjvjvjvjvjvjvjvjvjvjvjvjvjvjvjvjvjvjvjvjvjvjvjvjvjvjvjvjvjvjvjvjvjvjvjvjvjvjvjvjvjvjvbuipipipipipaijvjvjv",
"jvjvjvbfipipipipipaijvjvjvjvjvjvjvjvjvjvjvjvjvjvjvjvjvjvjvjvjvjvjvjvjvjvjvjvjvjvjvjvjvjvjvjvjvjvjvjvjvjvjvjvaiipipiphmiuajjvjvjv",
"jvjvjvbfipbfipipipaijvjvjvjvjvjvjvjvjvjvjvjvjvjvjvjvjvjvjvjvjvjvjvjvjvjvjvjvjvjvjvjvjvjvjvjvjvjvjvjvjvjvjvjvbuipbfipiuhmajjvjvjv",
"jvjvjvbfbbafbbbbbbaijvjvjvjvjvjvjvjvjvjvjvjvjvjvjvjvjvjvjvjvjvjvjvjvjvjvjvjvjvjvjvjvjvjvjvjvjvjvjvjvjvjvjvjvbubbaqbbbbbbafjvjvjv",
"jvatatatbuaqaiaiaiaicdaiaieuaqbububuatatatatgcjvjvjvjvjvjvjvjvjvjvjvjvjvjvjvjvjvjvatatatatatatatatatatatatatataqaqaqaqaqbuatasjv",
"jvioioioioioioioioioioioioioioioioioioioioiobfaqaqaqeueueueueueueueueueuaqbuatatasioioioioioioioioioioioioioioiohmhmhmioiohmbfjv",
"jvetetetetetetetetetetetetetetetetetetetetetioioioioioioioioioioioioioioioioioioiohghghgetetetetbfbfbfbfbfbfbfbfbfbfbfbfbfbfeujv",
"jvetetetetetetetetetetetetetetetetetetetetethghghghghghghghghgetetetetetetetetethgbfbfbfbfbfbfbfbfbbbbbbbbbbbbbbbbbbhghghghgbfjv",
"jvhgbbbbbbbbbfbbbbbbbbbbbbbbbbbbbbbbetetetetetetetetetetetetetetethghghghghghgbfbfbfbbbbbbbbbbbbbbbbbbbbbbbbbbbbbbetbbhghghgbfjv",
"jvetetetetetetetetetetetetetetetetetetetetetetethgetetetetetetetetetetetetetetbbbbbbbbhghghghgetetetetetetetetetetethghghghgbfjv",
"jvbfbfbfbfbfbfbfbfbfbfbfbfbfbfbfbfbfbfbfbfbfbfbfetetetetethghghghghghghghghgetbfetbfbfbfbfbfbfbfbfbfbfbfbfbfbfbfbfbfbfbfbfbfbfjv",
"jvjvjvcdalalalalalasjvjvjvjvjvjvjvjvjvjvjvjvjvacasasatbububuaqaqeueueueueueueueujvjvjvjvjvjvjvjvjvjvjvjvjvjvatbfbfbfbfbfbujvjvjv",
"jvjvjvajalalalbfbbatjvjvjvjvjvjvjvjvjvjvjvjvjvjvjvjvjvjvjvjvjvjvjvjvjvjvjvjvjvjvjvjvjvjvjvjvjvjvjvjvjvjvjvjvbubfbfbfbfbbaqjvjvjv",
"jvjvjvbfbbalbbbbhmatjvjvjvjvjvjvjvjvjvjvjvjvjvjvjvjvjvjvjvjvjvjvjvjvjvjvjvjvjvjvjvjvjvjvjvjvjvjvjvjvjvjvjvjvbubbbfbbbbbbaqjvjvjv",
"jvjvjvbfbbalbbbbbbatjvjvjvjvjvjvjvjvjvjvjvjvjvjvjvjvjvjvjvjvjvjvjvjvjvjvjvjvjvjvjvjvjvjvjvjvjvjvjvjvjvjvjvjvaqbbbfbbbbbbaijvjvjv",
"jvjvjvbfbbalbbbbbbbujvjvjvjvjvjvjvjvjvjvjvjvjvjvjvjvjvjvjvjvjvjvjvjvjvjvjvjvjvjvjvjvjvjvjvjvjvjvjvjvjvjvjvjvaqbbbfbbbbbbaijvjvjv",
"jvjvjvbfalalhmbbbbatjvjvjvjvjvjvjvjvjvjvjvjvjvjvjvjvjvjvjvjvjvjvjvjvjvjvjvjvjvjvjvjvjvjvjvjvjvjvjvjvjvjvjvjvaibbbbbbbbbbaijvjvjv",
"jvjvjvbfalhmhmbbbbatjvjvjvjvjvjvjvjvjvjvjvjvjvjvjvjvjvjvjvjvjvjvjvjvjvjvjvjvjvjvjvjvjvjvjvjvjvjvjvjvjvjvjvjvaibbbbbbbbbbaijvjvjv",
"jvjvjvbfbbhmhmbbbbatjvjvjvjvjvjvjvjvjvjvjvjvjvjvjvjvjvjvjvjvjvjvjvjvjvjvjvjvjvjvjvjvjvjvjvjvjvjvjvjvjvjvjvjvaibbhmbbbbbbcdjvjvjv",
"jvjvjvbfhmhmhmbbbbatjvjvjvjvjvjvjvjvjvjvjvjvjvjvjvjvjvjvjvjvjvjvjvjvjvjvjvjvjvjvjvjvjvjvjvjvjvjvjvjvjvjvjvjvaibbhmbbbbbbcdjvjvjv",
"jvjvjvbfhmhmhmbbbbatjvjvjvjvjvjvjvjvjvjvjvjvjvjvjvjvjvjvjvjvjvjvjvjvjvjvjvjvjvjvjvjvjvjvjvjvjvjvjvjvjvjvjvjvaibbhmbbbbbbcdjvjvjv",
"jvjvjvbfhmhmhmbbbbbujvjvjvjvjvjvjvjvjvjvjvjvjvjvjvjvjvjvjvjvjvjvjvjvjvjvjvjvjvjvjvjvjvjvjvjvjvjvjvjvjvjvjvjvcdbbhmbbbbbbcdjvjvjv",
"jvjvjvbfhmhmbbbbbbbujvjvjvjvjvjvjvjvjvjvjvjvjvjvjvjvjvjvjvjvjvjvjvjvjvjvjvjvjvjvjvjvjvjvjvjvjvjvjvjvjvjvjvjvcdbbhmbbbbbbcdjvjvjv",
"jvjvjvbfhmhmbbbbbbbujvjvjvjvjvjvjvjvjvjvjvjvjvjvjvjvjvjvjvjvjvjvjvjvjvjvjvjvjvjvjvjvjvjvjvjvjvjvjvjvjvjvjvjvcdbbhmhmhmbbcdjvjvjv",
"jvjvjvbfhmbbbbhmbbbujvjvjvjvjvjvjvjvjvjvjvjvjvjvjvjvjvjvjvjvjvjvjvjvjvjvjvjvjvjvjvjvjvjvjvjvjvjvjvjvjvjvjvjvcdbbhmbbhmbbcdjvjvjv",
"jvajajajhmbbbbhmbbbubfbfbfbfbfbfbfbfbfbfbfbfbfbfbfbfbfbfbfbfbfbfbfbfbfbfbfbfbfbfbfbfbfbfbfbfbfbfbfbfbfbfbfbfcdbbhmbbiobbaicdbfjv",
"acacacajhmbbhmbbhmaiiuiuiuiuiuiuiuiuiuiuiuiuiuiuipipipipipipiuiuiuiuiuiuiuiuiuiuiuiuiuiuiuiuiuiuiuiuiuiuiuiucdbbhmbbhmbbaiiubbjv",
"acgcgcajhmbbhmbbhmaibbhmhmhmhmhmhmhmhmhmbibibihmadadadhmhmhmhmhmhmhmhmhmhmadadgcgcgcgcadadhmhmhmhmhmhmhmhmhmcdbbhmaliobbaibbbbjv",
"achmhmajhmbbhmbfhmaialbbbbbbbbbbbbbbbbbbbbbbbbbbadadadadadhmhmhmhmhmhmhmhmadadadadadadadbialalalhmhmhmhmhmhmcdbbipaliobbaibbbbjv",
"achmhmajhmbbhmhmhmaibbhmgcgcgcgcgchmadadadadadbbadadadhmhmhmhmhmhmhmgcgcadadadadhmhmgcbialalhmadadadadipiphmcdbbiphmipbbcdbbbbjv",
"achmhmajbbbbhmhmhmaibbbbhmhmhmhmhmhmhmhmhmhmhmhmhmhmhmhmgcgcgcgcgcgcgcgchmgcgcgchmhmhmhmhmhmhmhmhmhmhmhmhmhmcdbbiphmipbbcdbbbbjv",
"jvajajajbbbbhmhmhmaiaiaiaiaiaiaiaiaiaiaiaiaiaiaiaiaiaiaiaiaiaiaiaiaiaiaiaiaiaiaibuatatasasatatatatatbuaiaiaiaibbiphmipbbcdaiaijv",
"jvjvjvcdbbbbhmhmhmaijvjvjvjvjvjvjvjvjvjvjvjvjvjvjvjvjvjvjvjvjvjvjvjvjvjvjvjvjvjvjvjvjvjvjvjvjvjvjvjvjvjvjvjvaibbiphmipbbajjvjvjv",
"jvjvjvajbbbbhmhmhmaijvjvjvjvjvjvjvjvjvjvjvjvjvjvjvjvjvjvjvjvjvjvjvjvjvjvjvjvjvjvjvjvjvjvjvjvjvjvjvjvjvjvjvjvaibbipbbipbbbfjvjvjv",
"jvjvjvbfbbbbhmhmhmcdjvjvjvjvjvjvjvjvjvjvjvjvjvjvjvjvjvjvjvjvjvjvjvjvjvjvjvjvjvjvjvjvjvjvjvjvjvjvjvjvjvjvjvjvcdbbipbbipbbbfjvjvjv",
"jvjvjvbfbbbbhmbbbbbfjvjvjvjvjvjvjvjvjvjvjvjvjvjvjvjvjvjvjvjvjvjvjvjvjvjvjvjvjvjvjvjvjvjvjvjvjvjvjvjvjvjvjvjvcdbbipbbbbbbbfjvjvjv",
"jvjvjvbfbfbfbfbfbfjvjvjvjvjvjvjvjvjvjvjvjvjvjvjvjvjvjvjvjvjvjvjvjvjvjvjvjvjvjvjvjvjvjvjvjvjvjvjvjvjvjvjvjvjvjvbfbfbfbfbfbbjvjvjv",
"jvjvjvjvjvjvjvjvjvjvjvjvjvjvjvjvjvjvjvjvjvjvjvjvjvjvjvjvjvjvjvjvjvjvjvjvjvjvjvjvjvjvjvjvjvjvjvjvjvjvjvjvjvjvjvjvjvjvjvjvjvjvjvjv",
"jvjvjvjvjvjvjvjvjvjvjvjvjvjvjvjvjvjvjvjvjvjvjvjvjvjvjvjvjvjvjvjvjvjvjvjvjvjvjvjvjvjvjvjvjvjvjvjvjvjvjvjvjvjvjvjvjvjvjvjvjvjvjvjv",
"jvjvjvjvjvjvjvjvjvjvjvjvjvjvjvjvjvjvjvjvjvjvjvjvjvjvjvjvjvjvjvjvjvjvjvjvjvjvjvjvjvjvjvjvjvjvjvjvjvjvjvjvjvjvjvjvjvjvjvjvjvjvjvjv",
"jvjvjvjvjvjvjvjvjvjvjvjvjvjvjvjvjvjvjvjvjvjvjvjvjvjvjvjvjvjvjvjvjvjvjvjvjvjvjvjvjvjvjvjvjvjvjvjvjvjvjvjvjvjvjvjvjvjvjvjvjvjvjvjv",
"jvjvjvjvjvjvjvjvjvjvjvjvjvjvjvjvjvjvjvjvjvjvjvjvjvjvjvjvjvjvjvjvjvjvjvjvjvjvjvjvjvjvjvjvjvjvjvjvjvjvjvjvjvjvjvjvjvjvjvjvjvjvjvjv",
"jvjvjvjvjvjvjvjvjvjvjvjvjvjvjvjvjvjvjvjvjvjvjvjvjvjvjvjvjvjvjvjvjvjvjvjvjvjvjvjvjvjvjvjvjvjvjvjvjvjvjvjvjvjvjvjvjvjvjvjvjvjvjvjv",
"jvjvjvjvjvjvjvjvjvjvjvjvjvjvjvjvjvjvjvjvjvjvjvjvjvjvjvjvjvjvjvjvjvjvjvjvjvjvjvjvjvjvjvjvjvjvjvjvjvjvjvjvjvjvjvjvjvjvjvjvjvjvjvjv",
"jvjvjvjvjvjvjvjvjvjvjvjvjvjvjvjvjvjvjvjvjvjvjvjvjvjvjvjvjvjvjvjvjvjvjvjvjvjvjvjvjvjvjvjvjvjvjvjvjvjvjvjvjvjvjvjvjvjvjvjvjvjvjvjv",
"jvjvjvjvjvjvjvjvjvjvjvjvjvjvjvjvjvjvjvjvjvjvjvjvjvjvjvjvjvjvjvjvjvjvjvjvjvjvjvjvjvjvjvjvjvjvjvjvjvjvjvjvjvjvjvjvjvjvjvjvjvjvjvjv",
"jvjvjvjvjvjvjvjvjvjvjvjvjvjvjvjvjvjvjvjvjvjvjvjvjvjvjvjvjvjvjvjvjvjvjvjvjvjvjvjvjvjvjvjvjvjvjvjvjvjvjvjvjvjvjvjvjvjvjvjvjvjvjvjv",
"jvjvjvjvjvjvjvjvjvjvjvjvjvjvjvjvjvjvjvjvjvjvjvjvjvjvjvjvjvjvjvjvjvjvjvjvjvjvjvjvjvjvjvjvjvjvjvjvjvjvjvjvjvjvjvjvjvjvjvjvjvjvjvjv",
"jvjvjvjvjvjvjvjvjvjvjvjvjvjvjvjvjvjvjvjvjvjvjvjvjvjvjvjvjvjvjvjvjvjvjvjvjvjvjvjvjvjvjvjvjvjvjvjvjvjvjvjvjvjvjvjvjvjvjvjvjvjvjvjv",
"jvjvjvjvjvjvjvjvjvjvjvjvjvjvjvjvjvjvjvjvjvjvjvjvjvjvjvjvjvjvjvjvjvjvjvjvjvjvjvjvjvjvjvjvjvjvjvjvjvjvjvjvjvjvjvjvjvjvjvjvjvjvjvjv",
"jvjvjvjvjvjvjvjvjvjvjvjvjvjvjvjvjvjvjvjvjvjvjvjvjvjvjvjvjvjvjvjvjvjvjvjvjvjvjvjvjvjvjvjvjvjvjvjvjvjvjvjvjvjvjvjvjvjvjvjvjvjvjvjv",
"jvjvjvjvjvjvjvjvjvjvjvjvjvjvjvjvjvjvjvjvjvjvjvjvjvjvjvjvjvjvjvjvjvjvjvjvjvjvjvjvjvjvjvjvjvjvjvjvjvjvjvjvjvjvjvjvjvjvjvjvjvjvjvjv"
};
