/* XPM */
static char *fence_dark_xpm[] = {
"64 64 21 2",
"ac c #CCCCCC",
"ad c #999999",
"af c #333333",
"ai c #2A2A2A",
"al c #555555",
"aq c #282828",
"as c #191919",
"at c #1B1B1B",
"bb c #8B7355",
"bf c #5D4037",
"bi c #7A7A7A",
"bu c #222222",
"et c #885522",
"eu c #442200",
"fz c #111111",
"gc c #AAAAAA",
"hg c #996633",
"hm c #999966",
"io c #CC9966",
"ip c #CC9999",
"jv c #FF00FF",
/* pixels */
"jvjvjvjvjvjvjvjvjvjvjvjvjvjvjvjvjvjvjvjvjvjvjvjvjvjvjvjvjvjvjvjvjvjvjvjvjvjvjvjvjvjvjvjvjvjvjvjvjvjvjvjvjvjvjvjvjvjvjvjvjvjvjvjv",
"jvjvjvjvjvjvjvjvjvjvjvjvjvjvjvjvjvjvjvjvjvjvjvjvjvjvjvjvjvjvjvjvjvjvjvjvjvjvjvjvjvjvjvjvjvjvjvjvjvjvjvjvjvjvjvjvjvjvjvjvjvjvjvjv",
"jvjvjvjvjvjvjvjvjvjvjvjvjvjvjvjvjvjvjvjvjvjvjvjvjvjvjvjvjvjvjvjvjvjvjvjvjvjvjvjvjvjvjvjvjvjvjvjvjvjvjvjvjvjvjvjvjvjvjvjvjvjvjvjv",
"jvjvjvjvjvjvjvjvjvjvjvjvjvjvjvjvjvjvjvjvjvjvjvjvjvjvjvjvjvjvjvjvjvjvjvjvjvjvjvjvjvjvjvjvjvjvjvjvjvjvjvjvjvjvjvjvjvjvjvjvjvjvjvjv",
"jvjvjvjvjvjvjvjvjvjvjvjvjvjvjvjvjvjvjvjvjvjvjvjvjvjvjvjvjvjvjvjvjvjvjvjvjvjvjvjvjvjvjvjvjvjvjvjvjvjvjvjvjvjvjvjvjvjvjvjvjvjvjvjv",
"jvjvjvjvjvjvjvjvjvjvjvjvjvjvjvjvjvjvjvjvjvjvjvjvjvjvjvjvjvjvjvjvjvjvjvjvjvjvjvjvjvjvjvjvjvjvjvjvjvjvjvjvjvjvjvjvjvjvjvjvjvjvjvjv",
"jvjvjvjvjvjvjvjvjvjvjvjvjvjvjvjvjvjvjvjvjvjvjvjvjvjvjvjvjvjvjvjvjvjvjvjvjvjvjvjvjvjvjvjvjvjvjvjvjvjvjvjvjvjvjvjvjvjvjvjvjvjvjvjv",
"jvjvjvjvjvjvjvjvjvjvjvjvjvjvjvjvjvjvjvjvjvjvjvjvjvjvjvjvjvjvjvjvjvjvjvjvjvjvjvjvjvjvjvjvjvjvjvjvjvjvjvjvjvjvjvjvjvjvjvjvjvjvjvjv",
"jvjvjvjvjvjvjvjvjvjvjvjvjvjvjvjvjvjvjvjvjvjvjvjvjvjvjvjvjvjvjvjvjvjvjvjvjvjvjvjvjvjvjvjvjvjvjvjvjvjvjvjvjvjvjvjvjvjvjvjvjvjvjvjv",
"jvjvjvjvjvjvjvjvjvjvjvjvjvjvjvjvjvjvjvjvjvjvjvjvjvjvjvjvjvjvjvjvjvjvjvjvjvjvjvjvjvjvjvjvjvjvjvjvjvjvjvjvjvjvjvjvjvjvjvjvjvjvjvjv",
"jvjvjvjvjvjvjvjvjvjvjvjvjvjvjvjvjvjvjvjvjvjvjvjvjvjvjvjvjvjvjvjvjvjvjvjvjvjvjvjvjvjvjvjvjvjvjvjvjvjvjvjvjvjvjvjvjvjvjvjvjvjvjvjv",
"jvjvjvjvfzfzfzfzfzjvjvjvjvjvjvjvjvjvjvjvjvjvjvjvjvjvjvjvjvjvjvjvjvjvjvjvjvjvjvjvjvjvjvjvjvjvjvjvjvjvjvjvjvjvjvfzfzfzfzfzjvjvjvjv",
"jvjvjvfzhmioioioiofzjvjvjvjvjvjvjvjvjvjvjvjvjvjvjvjvjvjvjvjvjvjvjvjvjvjvjvjvjvjvjvjvjvjvjvjvjvjvjvjvjvjvjvjvfzhmioioioiofzjvjvjv",
"jvjvjvfzhmhmioioioasjvjvjvjvjvjvjvjvjvjvjvjvjvjvjvjvjvjvjvjvjvjvjvjvjvjvjvjvjvjvjvjvjvjvjvjvjvjvjvjvjvjvjvjvfzioioioioiofzjvjvjv",
"jvjvjvashmethmioioasjvjvjvjvjvjvjvjvjvjvjvjvjvjvjvjvjvjvjvjvjvjvjvjvjvjvjvjvjvjvjvjvjvjvjvjvjvjvjvjvjvjvjvjvasioioioioiofzjvjvjv",
"jvjvjvashgetethgetasjvjvjvjvjvjvjvjvjvjvjvjvjvjvjvjvjvjvjvjvjvjvjvjvjvjvjvjvjvjvjvjvjvjvjvjvjvjvjvjvjvjvjvjvashgetetetetasjvjvjv",
"jvacacathgbfetethgasgcgcgcgcgcgcgcgcgcgcgcgcgcgcgcipipipipipipipipipipipipipipipipipipipipipipipipipipipipipbuhgethgetetasadadjv",
"jvioioaqhgbfetetetathmhmhmhmhmhmhmioioioioioioioioioioioiohmhmhmhmhmhmhmhmioioioioioioioioioioioioioioioioioaqhgethgetetasadbfjv",
"jvbbbbaqhgbfetetetatetetetetetetetetetetetetetetetetetetetetetetetetetetetetetetetetetetetetetetetetetetetetaietethgethgasbfbfjv",
"jvbbbbaihgbfetetetbueteteteteteteteteteteteteteteteteteteteteteteteteteteteteteteteteteteteteteteteteteteteteuetethghghgasbfbfjv",
"jvetetaqhgbfetetetbuetetetetetetetetetetetetetbbbbhghghghghghgetetetetetetetetetetetetetetetetetetetetetetetaqetethghghgasbfbfjv",
"jvbfetaqhgetetetetbubfetetetbbbbbbbbbbbbbbbbbbbbbbbbbbbbbbbbbbbbbbbbbbbbbbethgbbbbbbbbbbbbbbbbbbbbetetetetetaqetethghghgasbfbfjv",
"jvbfetaqhgetetetetatbfbfbfbfbfbfbfbfbfbfbfbfbfbfbfbfbfbfbfbfbfbfbfbfbfbfbfbfbfetetetetbfbfbfbfbfbfbfbfbfbfetaqetethghghgasbfbfjv",
"jvjvjvbuhgbbetetetasjvjvjvjvjvjvjvjvjvjvjvjvjvjvjvjvjvjvjvjvjvjvjvjvjvjvjvjvjvjvjvjvjvjvjvjvjvjvjvjvjvjvjvjvathgethghghgasjvjvjv",
"jvjvjvbuhghgetetetasjvjvjvjvjvjvjvjvjvjvjvjvjvjvjvjvjvjvjvjvjvjvjvjvjvjvjvjvjvjvjvjvjvjvjvjvjvjvjvjvjvjvjvjvashgetethghgasjvjvjv",
"jvjvjvathghgetetetfzjvjvjvjvjvjvjvjvjvjvjvjvjvjvjvjvjvjvjvjvjvjvjvjvjvjvjvjvjvjvjvjvjvjvjvjvjvjvjvjvjvjvjvjvashgetethghgasjvjvjv",
"jvjvjvathghgetetetasjvjvjvjvjvjvjvjvjvjvjvjvjvjvjvjvjvjvjvjvjvjvjvjvjvjvjvjvjvjvjvjvjvjvjvjvjvjvjvjvjvjvjvjvashgetethghgasjvjvjv",
"jvbbbbathghgetetetasbbbbbbbbbbbbbbbbbbbbbbbbbbbbbbbbbbbbbbbbbbbbbbbbbbbbbbbbbbbbbbbbbbbbbbbbbbbbbbbbbbbbbbbbashgetethghgafbbbfjv",
"jvbbbbathghgetetetasbbbbhmhmhmhmhmhmhmhmhmhmhmhmhmhmhmhmhmhmhmbbbbhmhmbbbbbbbbbbbbhmhmhmhmhmhmhmhmhmioioiohgasetetethghgafbfbfjv",
"jvbbbbathghgetetetatbfetetetetethghghghghghgbbbbbbetethghgetetbfbfbfbfbfbfbfbfetbbhghghghghghghghghghghghgetasethgafhghgbfbfbfjv",
"jvethgathghgetetetatbfbfbfbfbfetetetetetetetetetetbbbbbbhmetetetetetbfbfbfbbbbbbbfbfbfbfbfbfbfbfbfetetetetetasethghghghgbfbfbfjv",
"jvhghgashghghgethgbubfbbhghghghghghghghghghghghghghgetetetetetetetbbbbbbbbbbbfbfbfetetetetethghghgethghghgbfasethghghghgbfbfbfjv",
"jvhghgashghghgethgbubfbfbfbfbfbfbfbfbfbfbfbfbfbfbfbfbfbfbfbfbfbfbfbfbfbfbfbfbfbfbfbfbfbfbfbfbfbfbfbfbfbfbfbfasethghghghgasbfbfjv",
"jvhghgashghghghghgatbbbbbbbibibibibibibibibibibibibibibibibibibibibibibibibibibibibibibibibibibibibibibibibiasethghghghgasalaljv",
"jvjvjvashghghghghgasjvjvjvjvjvjvjvjvjvjvjvjvjvjvjvjvjvjvjvjvjvjvjvjvjvjvjvjvjvjvjvjvjvjvjvjvjvjvjvjvjvjvjvjvasethghghghgasjvjvjv",
"jvjvjvashghghghghgasjvjvjvjvjvjvjvjvjvjvjvjvjvjvjvjvjvjvjvjvjvjvjvjvjvjvjvjvjvjvjvjvjvjvjvjvjvjvjvjvjvjvjvjvashghghghghgasjvjvjv",
"jvjvjvashghghghghgasjvjvjvjvjvjvjvjvjvjvjvjvjvjvjvjvjvjvjvjvjvjvjvjvjvjvjvjvjvjvjvjvjvjvjvjvjvjvjvjvjvjvjvjvashghghghghgasjvjvjv",
"jvbfbfashgetethghgatafbfbfbfbfbfbfbfbfbfbfbfbfbfbfbfbfbfbfbfbfbfbfbfbfbfbfbfbfbfbfbfbfbfbfbfbfbfbfbfbfbfbfbfashgethghghgasfzasjv",
"jvioioashgetethghgatbbbbhmhmhmhmhmioioioioioioioioioioioioioioiohmhmhmioioioioiohmhmhmhmhmhmhmhmhmhmhmhmhmhmashghghghghgasbbafjv",
"jvhghgashgetetetetbubfetetetetetetetetetethghghghghghghgetetetetetetetetetetetetetetetetetetetetetetetetetetashghghghghgatbfafjv",
"jvethgashgetetetetbubfbfbfetetetetetetetetethghghghghghgbbbbbbbbbbetetetbfbfbfbfbfbfbfhghghghgbbbbbbbbbbhmetasethghghghgbubfafjv",
"jvhghgashgetetetetaqbfbfbfbfbfbfbfbfbfbfbfbfbfbfbfbfbfbfbfbfbfbfbfbfetetetetethghghghghghghghghghghghgetetetatethghghghgbubfafjv",
"jvhghgasetetetetetbubfetetetetbfbfbfbfbfbfbfbfbfbfbfbfbfbfbfbfetetetetetetetethghghghghghgetetbfbfbfbfbfbfbfatetbfhghghgatbfbfjv",
"jvasfzfzetetetetetatasfzfzfzfzfzfzfzfzfzfzfzfzfzfzfzfzfzfzfzfzfzfzfzfzfzfzfzfzfzfzfzfzfzfzfzfzfzfzfzfzfzfzasatetbfhghghgasfzfzjv",
"jvjvjvasetetetetetasjvjvjvjvjvjvjvjvjvjvjvjvjvjvjvjvjvjvjvjvjvjvjvjvjvjvjvjvjvjvjvjvjvjvjvjvjvjvjvjvjvjvjvjvasetbfhghghgasjvjvjv",
"jvjvjvasetetetetetasjvjvjvjvjvjvjvjvjvjvjvjvjvjvjvjvjvjvjvjvjvjvjvjvjvjvjvjvjvjvjvjvjvjvjvjvjvjvjvjvjvjvjvjvasetbfhghghgasjvjvjv",
"jvjvjvatetetetetetasjvjvjvjvjvjvjvjvjvjvjvjvjvjvjvjvjvjvjvjvjvjvjvjvjvjvjvjvjvjvjvjvjvjvjvjvjvjvjvjvjvjvjvjvasbfbfhghghgbujvjvjv",
"jvjvjvatetetetetetasjvjvjvjvjvjvjvjvjvjvjvjvjvjvjvjvjvjvjvjvjvjvjvjvjvjvjvjvjvjvjvjvjvjvjvjvjvjvjvjvjvjvjvjvasbfbfhghghgaqjvjvjv",
"jvjvjvbfbfbfbfbfbfjvjvjvjvjvjvjvjvjvjvjvjvjvjvjvjvjvjvjvjvjvjvjvjvjvjvjvjvjvjvjvjvjvjvjvjvjvjvjvjvjvjvjvjvjvjvbfbfbfbfbfhgjvjvjv",
"jvjvjvjvjvjvjvjvjvjvjvjvjvjvjvjvjvjvjvjvjvjvjvjvjvjvjvjvjvjvjvjvjvjvjvjvjvjvjvjvjvjvjvjvjvjvjvjvjvjvjvjvjvjvjvjvjvjvjvjvjvjvjvjv",
"jvjvjvjvjvjvjvjvjvjvjvjvjvjvjvjvjvjvjvjvjvjvjvjvjvjvjvjvjvjvjvjvjvjvjvjvjvjvjvjvjvjvjvjvjvjvjvjvjvjvjvjvjvjvjvjvjvjvjvjvjvjvjvjv",
"jvjvjvjvjvjvjvjvjvjvjvjvjvjvjvjvjvjvjvjvjvjvjvjvjvjvjvjvjvjvjvjvjvjvjvjvjvjvjvjvjvjvjvjvjvjvjvjvjvjvjvjvjvjvjvjvjvjvjvjvjvjvjvjv",
"jvjvjvjvjvjvjvjvjvjvjvjvjvjvjvjvjvjvjvjvjvjvjvjvjvjvjvjvjvjvjvjvjvjvjvjvjvjvjvjvjvjvjvjvjvjvjvjvjvjvjvjvjvjvjvjvjvjvjvjvjvjvjvjv",
"jvjvjvjvjvjvjvjvjvjvjvjvjvjvjvjvjvjvjvjvjvjvjvjvjvjvjvjvjvjvjvjvjvjvjvjvjvjvjvjvjvjvjvjvjvjvjvjvjvjvjvjvjvjvjvjvjvjvjvjvjvjvjvjv",
"jvjvjvjvjvjvjvjvjvjvjvjvjvjvjvjvjvjvjvjvjvjvjvjvjvjvjvjvjvjvjvjvjvjvjvjvjvjvjvjvjvjvjvjvjvjvjvjvjvjvjvjvjvjvjvjvjvjvjvjvjvjvjvjv",
"jvjvjvjvjvjvjvjvjvjvjvjvjvjvjvjvjvjvjvjvjvjvjvjvjvjvjvjvjvjvjvjvjvjvjvjvjvjvjvjvjvjvjvjvjvjvjvjvjvjvjvjvjvjvjvjvjvjvjvjvjvjvjvjv",
"jvjvjvjvjvjvjvjvjvjvjvjvjvjvjvjvjvjvjvjvjvjvjvjvjvjvjvjvjvjvjvjvjvjvjvjvjvjvjvjvjvjvjvjvjvjvjvjvjvjvjvjvjvjvjvjvjvjvjvjvjvjvjvjv",
"jvjvjvjvjvjvjvjvjvjvjvjvjvjvjvjvjvjvjvjvjvjvjvjvjvjvjvjvjvjvjvjvjvjvjvjvjvjvjvjvjvjvjvjvjvjvjvjvjvjvjvjvjvjvjvjvjvjvjvjvjvjvjvjv",
"jvjvjvjvjvjvjvjvjvjvjvjvjvjvjvjvjvjvjvjvjvjvjvjvjvjvjvjvjvjvjvjvjvjvjvjvjvjvjvjvjvjvjvjvjvjvjvjvjvjvjvjvjvjvjvjvjvjvjvjvjvjvjvjv",
"jvjvjvjvjvjvjvjvjvjvjvjvjvjvjvjvjvjvjvjvjvjvjvjvjvjvjvjvjvjvjvjvjvjvjvjvjvjvjvjvjvjvjvjvjvjvjvjvjvjvjvjvjvjvjvjvjvjvjvjvjvjvjvjv",
"jvjvjvjvjvjvjvjvjvjvjvjvjvjvjvjvjvjvjvjvjvjvjvjvjvjvjvjvjvjvjvjvjvjvjvjvjvjvjvjvjvjvjvjvjvjvjvjvjvjvjvjvjvjvjvjvjvjvjvjvjvjvjvjv",
"jvjvjvjvjvjvjvjvjvjvjvjvjvjvjvjvjvjvjvjvjvjvjvjvjvjvjvjvjvjvjvjvjvjvjvjvjvjvjvjvjvjvjvjvjvjvjvjvjvjvjvjvjvjvjvjvjvjvjvjvjvjvjvjv",
"jvjvjvjvjvjvjvjvjvjvjvjvjvjvjvjvjvjvjvjvjvjvjvjvjvjvjvjvjvjvjvjvjvjvjvjvjvjvjvjvjvjvjvjvjvjvjvjvjvjvjvjvjvjvjvjvjvjvjvjvjvjvjvjv",
"jvjvjvjvjvjvjvjvjvjvjvjvjvjvjvjvjvjvjvjvjvjvjvjvjvjvjvjvjvjvjvjvjvjvjvjvjvjvjvjvjvjvjvjvjvjvjvjvjvjvjvjvjvjvjvjvjvjvjvjvjvjvjvjv"
};
