/* XPM */
static char *tree_dead_xpm[] = {
"64 64 19 2",
"aa c #000000",
"af c #333333",
"ai c #2A2A2A",
"aj c #383838",
"aq c #282828",
"at c #1B1B1B",
"bf c #5D4037",
"bu c #222222",
"cd c #303030",
"et c #885522",
"eu c #442200",
"fv c #E8C547",
"fz c #111111",
"hg c #996633",
"hl c #999933",
"hm c #999966",
"in c #CC9933",
"io c #CC9966",
"jv c #FF00FF",
/* pixels */
"jvjvjvjvjvjvjvjvjvjvjvjvjvjvjvjvjvjvjvjvjvjvjvjvjvjvjvjvjvjvjvjvjvjvjvjvjvjvjvjvjvjvjvjvjvjvjvjvjvjvjvjvjvjvjvjvjvjvjvjvjvjvjvjv",
"jvjvjvjvjvjvjvjvjvjvjvjvjvjvjvjvjvjvjvafjvjvjvjvjvjvjvjvjvjvjvfvfvjvjvjvjvjvjvjvjvjvjvjvjvjvjvjvjvjvjvjvjvjvjvjvjvjvjvjvjvjvjvjv",
"jvjvjvjvjvjvjvjvjvjvjvjvjvjvjvjvjvjvbfjvjvjvjvjvjvjvjvjvjvjvhmfvfvjvjvjvjvjvjvjvjvjvjvjvjvjvjvjvjvjvjvjvjvjvjvjvjvjvjvjvjvjvjvjv",
"jvjvjvjvjvjvjvjvjvjvjvjvjvjvjvjvjvjvjvjvjvjvjvjvaijvjvjvjvjvhmfvhljvjvjvjvjvjvjvjvjvjvjvjvjvjvjvjvjvjvjvjvjvjvjvjvjvjvjvjvjvjvjv",
"jvjvjvjvjvjvjvjvjvjvjvjvjvjvjvjvjvjvjvjvjvjvjvjvaijvjvjvjvjvjvfvfvjvjvjvjvjvjvjvjvjvjvjvjvjvjvjvjvjvjvjvjvjvjvjvjvjvjvjvjvjvjvjv",
"jvjvjvjvjvjvjvjvjvjvjvjvjvjvjvjvjvaijvjvjvjvjvjvjvjvjvjvjvjvjvjvfvjvjvjvjvjvjvjvjvjvjvjvjvjvjvjvjvjvjvjvjvjvjvjvjvjvjvjvjvjvjvjv",
"jvjvjvjvjvjvjvjvjvjvjvjvjvjvjvjvafjvjvjvjvjvjvjvjvjvjvjvjvjvjvinfvjvjvjvjvjvjvjvjvjvjvjvjvjvjvjvjvjvjvjvjvjvjvjvjvjvjvjvjvjvjvjv",
"jvjvjvjvjvjvjvjvjvjvjvjvjvjvjvjvafjvjvjvjvjvjvjvjvjvjvjvjvjvjvfvfvjvjvjvjvjvjvjvjvjvjvjvjvjvjvjvjvjvjvjvjvjvjvjvjvjvjvjvjvjvjvjv",
"jvjvjvjvjviojvjvjvjvjvjvjvjvjvjvjvjvjvjvjvjvjvjvjvjvjvjvjvjvjvfvfvjvjvjvjvjvjvjvjvjvjvjvjvjvjvjvjvjvjvjvjvjvjvjvjvjvjvjvjvjvjvjv",
"jvjvjvjvioiojvjvjvjvjvjvjvjvjvjvjvjvjvjvjvjvjvjvjvjvjvjvjvjvjvfvfvjvjvjvjvjvjvjvjvjvjvjvjvjvjvjvjvjvjvjvjvjvjvjvjvjvjvjvjvjvjvjv",
"jvjvjvjvioiojvjvjvjvjvjvjvjvjvjvcdjvjvjvjvjvjvjvjvjvjvjvjvjvjvjvjvjvjvjvjvjvjvjvjvjvjvjvjvjvjvjvjvjvjvjvjvjvjvjvjvjvjvjvjvjvjvjv",
"jvjvjvjvioiojvjvjvjvjvjvjvjvjvaicdjvjvjvjvjvjvjvjvjvjvjvjvjvjvjvjvjvjvjvjvjvjvjvjvjvjvjvjvjvjvjvjvjvjvjvjvjvjvjvjvjvjvjvjvjvjvjv",
"jvjvjvjvioiojvjvjvjvjvjvjvajjvjvcdjvjvjvjvjvjvjvjvjvjvjvjvjvjvjvjvjvjvjvjvjvjvjvjvjvjvjvjvjvjvjvjvjvjvjvjvjvjvjvjvjvjvjvjvjvjvjv",
"jvjvjvjvioiojvjvjvjvjvjvjvjvjvjvjvjvjvjvjvjvjvjvjvjvjvjvjvjvjvjvjvjvjvjvjvjvjvjvjvjvjvjvjvjvjvjvjvjvjvjvjvjvjvjvjvjvjvjvjvjvjvjv",
"jvjvjvjvioiojvjvjvjvjvjvjvjvjvjvjvjvjvjvjvjvjvjvjvjvjvjvjvjvjvjvjvjvjvjvjvjvjvjvjvjvjvjvjvjvjvjvjvjvjvjvjvjvjvjvjvjvjvjvjvjvjvjv",
"jvjvjvjvioiojvjvjvjvjvjvjvjvjvjvjvjvjvjvjvjvjvjvjvjvjvjvjvjvjvjvjvjvjvjvjvjvjvjvjvjvjvjvjvjvjvjvjvjvjvjvjvjvjvjvjvjvjvjvjvjvjvjv",
"jvjvjvjvioiojvjvjvjvjvjvjvjvjvjvjvjvjvjvjvjvjvjvjvjvjvjvjvjvjvjvjvjvjvjvjvjvjvjvjvjvjvjvjvjvjvjvjvjvjvjvjvjvjvjvjvjvjvjvjvjvjvjv",
"jvjvjvjvioiojvjvjvjvjvjvjvjvjvjvjvaqjvjvjvjvjvjvjvjvjvjvjvjvjvjvjvjvjvjvjvjvjvjvjvjvjvjvjvjvjvjvjvjvjvjvjvjvjvjvjvjvjvjvjvjvjvjv",
"jvjvjvjvioiojvjvjvjvjvjvjvjvjvjvjvbujvjvjvjvjvjvjvjvjvjvjvjvjvfvfvjvjvjvjvjvjvjvjvjvjvjvjvjvjvjvjvjvjvjvjvjvjvjvjvjvjvjvjvjvjvjv",
"jvjvjvjvioiojvjvjvjvjvjvjvjvjvjvjvbujvjvjvjvjvjvjvjvjvjvjvjvjvfvfvjvjvjvjvjvjvjvjvjvjvjvjvjvjvjvjvjvjvjvjvjvjvjvjvjvjvjvjvjvjvjv",
"jvjvjvjvioiojvjvjvjvjvjvjvjvjvjvjvjvjvbujvjvjvjvjvjvjvjvjvjvjvfvfvjvjvjvjvjvjvjvjvjvjvjvjvjvjvjvjvjvjvjvjvjvjvjvjvjvjvjvjvjvjvjv",
"jvjvjvjvjviojvjvjvjvjvjvjvjvjvjvjvbujvbujvjvjvjvjvjvjvjvjvjvjvfvfvjvjvjvjvjvjvjvjvjvjvjvjvjvjvjvjvjvjvjvjvjvjvjvjvjvjvjvjvjvjvjv",
"jvjvjvjvjviojvjvjvjvjvjvjvjvjvjvjvjvjvbujvjvjvjvjvjvjvjvjvjvjvfvfvjvjvjvjvjvjvjvjvjvjvjvjvjvjvjvjvjvjvjvjvjvjvjvjvjvjvjvjvjvjvjv",
"jvjvjvjvioiojvjvjvjvjvjvjvjvjvjvjvjvjvbujvjvjvjvjvjvjvjvjvjvjvfvfvaajvjvjvjvjvjvjvjvjvjvjvjvjvjvjvjvjvjvjvjvjvjvjvjvjvjvjvjvjvjv",
"jvjvjvjvioiojvjvjvjvjvjvjvjvjvjvjvjvjvbujvjvjvjvjvjvjvjvjvjvjvfvfvfvjvjvjvjvjvjvjvjvjvjvjvjvjvjvjvjvjvjvjvjvjvjvjvjvjvjvjvjvjvjv",
"jvjvjvjvioiojvjvjvjvjvjvjvjvjvjvjvjvjvbujvjvjvjvjvjvjvjvjvjvjvfvfvfvajjvjvjvjvjvjvjvjvjvjvjvjvjvjvjvjvjvjvjvjvjvjvjvjvjvjvjvjvjv",
"jvjvjvjvioiojvjvjvjvjvjvjvjvjvjvjvjvjvjvjvjvjvjvjvjvjvjvjvjvjvaifvatajjvjvjvjvjvjvjvjvjvjvjvjvjvjvjvjvjvjvjvjvjvjvjvjvjvjvjvjvjv",
"jvjvjvjvioiojvjvjvjvjvjvjvjvjvjvjvjvjvjvjvjvjvjvjvjvjvjvjvjvjvfvfvhgajjvjvjvjvjvjvjvjvjvjvjvjvjvjvjvjvjvjvjvjvjvjvjvjvjvjvjvjvjv",
"jvjvjvjvioiojvjvjvjvjvjvjvjvjvjvjvjvjvjvjvjvjvjvjvjvjvjvjvjvjvfvfvhgajjvjvjvjvjvjvjvjvjvjvjvjvjvjvjvjvjvjvjvjvjvjvjvjvjvjvjvjvjv",
"jvjvjvjvioiojvjvjvjvjvjvjvjvjvjvjvjvjvjvjvjvjvjvjvjvjvjvjvjvjvfvfvhgajjvjvjvjvjvjvjvjvjvjvjvjvjvjvjvjvjvjvjvjvjvjvjvjvjvjvjvjvjv",
"jvjvjvjvioiojvjvjvjvjvjvjvjvjvjvjvjvjvjvjvjvjvjvjvjvjvjvjvjvjvfvaqhgajjvjvjvjvjvjvjvjvjvjvjvjvjvjvjvjvjvjvjvjvjvjvjvjvjvjvjvjvjv",
"jvjvjvjvioiojvjvjvjvjvjvjvjvjvjvjvjvjvjvjvjvjvjvjvjvjvjvjvjvjvbuhghgajjvjvjvjvjvjvjvjvjvjvjvjvjvjvjvjvjvjvjvjvjvjvjvjvjvjvjvjvjv",
"jvjvjvjvioiojvjvjvjvjvjvjvjvjvjvjvjvjvjvjvjvjvjvjvjvjvjvjvjvjvbuethgjvjvjvjvjvjvjvjvjvjvjvjvjvjvjvjvjvjvjvjvjvjvjvjvjvjvjvjvjvjv",
"jvjvjvjvioiojvjvjvjvjvjvjvjvjvjvjvjvjvjvjvjvjvjvjvatjvjvjvjvbuethgaijvjvjvjvjvjvaijvjvjvjvjvjvjvjvjvjvjvjvjvjvjvjvjvjvjvjvjvjvjv",
"jvjvjvjvioiojvjvjvjvjvjvjvjvjvjvjvjvjvjvjvjvjvjvjvjvjvbububuethghgaijvjvjvjvjvjvjvjvjvjvjvaqjvjvjvjvjvjvjvjvjvjvjvjvjvjvjvjvjvjv",
"jvjvjvjvioiojvjvjvjvjvjvjvjvjvjvjvjvjvjvjvjvjvjvjvjvjvjvbuetetetetaijvjvjvjvjvjvjvjvjvjvjvaqjvjvjvjvjvjvjvjvjvjvjvjvjvjvjvjvjvjv",
"jvjvjvjvioiojvjvjvjvjvjvjvjvjvjvjvjvjvjvjvjvjvjvafjvjvjvjvetetetetaijvjvjvjvjvjvjvjvjvjvjvbfjvjvjvjvjvjvjvjvjvjvjvjvjvjvjvjvjvjv",
"jvjvjvjvjviojvjvjvjvjvjvjvjvjvjvjvjvjvjvjvjvjvjvjvjvjvjvjvetetetetetaqjvjvjvjvjvjvjvjvbubujvjvjvjvjvjvjvjvjvjvjvjvjvjvjvjvjvjvjv",
"jvjvjvjvioiojvjvjvjvjvjvjvjvjvjvjvjvjvjvjvjvjvjvjvjvjvjvjveuetetetetetbfjvjvjvjvjvbubfjvjvjvjvjvjvjvjvjvjvjvjvjvjvjvjvjvjvjvjvjv",
"jvjvjvjvioiojvjvjvjvjvjvjvjvjvjvjvjvjvjvjvjvjvjvjvjvjvjvjvjveuetetetetetafbfjvjvaqjvjvjvjvjvjvjvjvjvjvjvjvjvjvjvjvjvjvjvjvjvjvjv",
"jvjvjvjvioiojvjvjvjvjvjvbfbfjvjvjvjvjvjvjvjvjvjvjvjvjvjvjvjveuetetetetetetbfbfjvaqjvjvjvjvjvjvjvjvjvjvjvjvjvjvjvjvjvjvjvjvjvjvjv",
"jvjvjvjvioiojvjvjvjvjvjvjvajjvjvjvjvjvjvjvjvjvjvjvjvjvjvjvjveuetetetetetetetafafjvjvjvjvjvajajjvjvjvjvjvjvjvjvjvjvjvjvjvjvjvjvjv",
"jvjvjvjvioiojvjvjvjvjvjvjvjvajjvjvjvjvjvjvjvjvjvjvjvjvjvjvjveueteteteteueuafjvjvjvjvjvjvjvjvjvfzjvjvjvjvjvjvjvjvjvjvjvjvjvjvjvjv",
"jvjvjvjvjviojvjvjvjvjvjvjvjvjvaiaijvjvjvjvjvjvjvjvjvjvjvjveueteteteteujvjvjvjvjvjvjvjvjvjvjvjvjvjvjvjvjvjvjvjvjvjvjvjvjvjvjvjvjv",
"jvjvjvjvjviojvjvjvjvjvjvjvjvjvjvaijvjvjvjvjvjvjvjvjvjvjvjveueteteteteujvjvjvjvjvjvjvjvjvjvjvjvjvjvjvjvjvjvjvjvjvjvjvjvjvjvjvjvjv",
"jvjvjvjvioiojvjvjvjvjvjvjvjvjvjvjvjvjvjvjvjvjvjvjvjvjveueueteteteteujvjvjvjvjvjvjvjvjvjvjvjvjvjvjvjvjvjvjvjvjvjvjvjvjvjvjvjvjvjv",
"jvjvjvjvioiojvjvjvjvjvjvjvjvjvjvjvjvjvjvjvjvjvjvjvaieubfeteteteteteujvjvjvjvjvjvjvjvjvjvjvjvjvjvjvjvjvjvjvjvjvjvjvjvjvjvjvjvjvjv",
"jvjvjvjvioiojvjvjvjvjvjvjvjvjvjvjvjvbububuatjvjvaieubfeteteteteteujvjvjvjvjvjvjvjvjvjvjvjvjvjvjvjvjvjvjvjvjvjvjvjvjvjvjvjvjvjvjv",
"jvjvjvjvioiojvjvjvjvjvjvjvjvjvjvjvjvbujvjvjvjvbfbfeueteteteteteteujvjvjvjvjvjvjvjvjvjvjvjvjvjvjvjvjvjvjvjvjvjvjvjvjvjvjvjvjvjvjv",
"jvjvjvjvjviojvjvjvjvjvjvjvjvjvjvjvbujvjvjvjvjvjvjvjveueteteteteteujvjvjvjvjvjvjvjvjvjvjvjvjvjvjvjvjvjvjvjvjvjvjvjvjvjvjvjvjvjvjv",
"jvjvjvjvjviojvjvjvjvjvjvjvjvjvjvbujvjvjvjvjvjvjvjvjvjveuafeteteteujvjvjvjvjvjvjvjvjvjvjvjvjvjvjvjvjvjvjvjvjvjvjvjvjvjvjvjvjvjvjv",
"jvjvjvjvjviojvjvjvjvjvjvjvjvjvaijvjvjvjvjvjvjvjvjvjvjvjvafeteteteteujvjvjvjvjvjvjvjvjvjvjvjvjvjvjvjvjvjvjvjvjvjvjvjvjvjvjvjvjvjv",
"jvjvjvjvjviojvjvjvjvjvjvjvjvjvjvjvjvjvjvjvjvjvjvjvjvjvjvafetetetetaqjvjvjvjvjvjvjvjvjvjvjvjvjvjvjvjvjvjvjvjvjvjvjvjvjvjvjvjvjvjv",
"jvjvjvjvjviojvjvjvjvjvjvjvjvjvjvjvjvjvjvjvjvjvjvjvjvjvjvafafetetetaqjvjvjvjvjvjvjvjvjvjvjvjvjvjvjvjvjvjvjvjvjvjvjvjvjvjvjvjvjvjv",
"jvjvjvjvjvjvjvjvjvjvjvjvjvjvjvjvjvjvjvjvjvjvjvjvjvjvjvjvjvafetetetaqjvjvbujvjvjvjvjvjvjvjvjvjvjvjvjvjvjvjvjvjvjvjvjvjvjvjvjvjvjv",
"jvjvjvjvjvjvjvjvjvjvjvjvjvjvjvjvjvjvjvjvjvjvjvjvjvjvjvjvjvafetetetetaqbujvjvjvjvjvjvjvjvjvjvjvjvjvjvjvjvjvjvjvjvjvjvjvjvjvjvjvjv",
"jvjvjvjvjvjvjvjvjvjvjvjvjvjvjvjvjvjvjvjvjvjvjvjvjvjvjvjvjvafetetetetbujvjvjvjvjvjvjvjvjvjvjvjvjvjvjvjvjvjvjvjvjvjvjvjvjvjvjvjvjv",
"jvjvjvjvjvjvjvjvjvjvjvjvjvjvjvjvjvjvjvjvjvjvjvjvjvjvjvjvjvafetetetetbujvjvjvjvjvjvjvjvjvjvjvjvjvjvjvjvjvjvjvjvjvjvjvjvjvjvjvjvjv",
"jvjvjvjvjvjvjvjvjvjvjvjvjvjvjvjvjvjvjvjvjvjvjvjvjvjvjvjvjvcdhghghgetjvjvjvjvjvjvjvjvjvjvjvjvjvjvjvjvjvjvjvjvjvjvjvjvjvjvjvjvjvjv",
"jvjvjvjvjvjvjvjvjvjvjvjvjvjvjvjvjvjvjvjvjvjvjvjvjvjvjvjvcdbfhghghgetjvjvjvjvjvjvjvjvjvjvjvjvjvjvjvjvjvjvjvjvjvjvjvjvjvjvjvjvjvjv",
"jvjvjvjvjvjvjvjvjvjvjvjvjvjvjvjvjvjvjvjvjvjvjvjvjvjvjvjvcdhghghghgetbfjvjvjvjvjvjvjvjvjvjvjvjvjvjvjvjvjvjvjvjvjvjvjvjvjvjvjvjvjv",
"jvjvjvjvjvjvjvjvjvjvjvjvjvjvjvjvjvjvjvjvjvjvjvjvjvjvjvaiaihghghghgbfaijvjvjvjvjvjvjvjvjvjvjvjvjvjvjvjvjvjvjvjvjvjvjvjvjvjvjvjvjv",
"jvjvjvjvjvjvjvjvjvjvjvjvjvjvjvjvjvjvjvjvjvjvjvjvjvjvaihgaiethghghgetaijvjvjvjvjvjvjvjvjvjvjvjvjvjvjvjvjvjvjvjvjvjvjvjvjvjvjvjvjv",
"jvjvjvjvjvjvjvjvjvjvjvjvjvjvjvjvjvjvjvjvjvjvjvjvjvjvjvjvjvjvjvjvjvjvjvjvjvjvjvjvjvjvjvjvjvjvjvjvjvjvjvjvjvjvjvjvjvjvjvjvjvjvjvjv"
};
