/* XPM */
static char *tree_dead_cluster_xpm[] = {
"64 64 27 2",
"ac c #CCCCCC",
"ad c #999999",
"ae c #666666",
"af c #333333",
"ai c #2A2A2A",
"aj c #383838",
"al c #555555",
"aq c #282828",
"as c #191919",
"at c #1B1B1B",
"bb c #8B7355",
"bf c #5D4037",
"bi c #7A7A7A",
"bj c #4A4A4A",
"bu c #222222",
"cd c #303030",
"cn c #484848",
"et c #885522",
"eu c #442200",
"fz c #111111",
"gc c #AAAAAA",
"hg c #996633",
"hm c #999966",
"io c #CC9966",
"ip c #CC9999",
"iu c #CCCC99",
"jv c None",
/* pixels */
"jvjvjvjvjvjvjvjvjvjvjvjvjvjvjvjvjvjvjvjvjvjvjvjvjvjvjvjvjvjvjvjvjvjvjvjvjvjvjvjvjvjvjvjvjvjvjvjvjvjvjvjvjvjvjvjvjvjvjvjvjvjvjvjv",
"jvjvjvjvjvjvjvjvjvjvjvjvjvjvjvjvjvjvjvjvjvjvjvjvjvjvjvjvjveuhghghgeujvjvjvjvjvjvjvjvjvjvjvjvjvjvjvjvjvjvjvjvjvjvjvjvajjvjvjvjvjv",
"jvjvjvjvbbbbjvjvjvjvjvetetjvjvjvjvjvjvjvjvjvjvjvjvjvbfbfhgbfhghghgjvjvjvjvjvjvjvjvjvjvjvjvjvjvjvjvjvjvjvjvjvjvjvjvjvjvhmjvjvjvjv",
"jvjvjvjvbbcdjvjvjvjvhgjvjvjvjvjvjvjvjvjvjvjvjvjvbfbfjvjvbfethghgbfjvjvjvjvjvjvjvjvjvjvjvjvjvjvjvjvhgjvbfjvjvjvjvbfjvjvjvjvjvjvjv",
"jvjvjvbbbbjvjvjvjvjvhgjvjvjvjvjvjvjvjvjvjvjvjvhgjvjvjvjvjvbfhghgbfjvjvjvjvjvjvjvjvjvjvjvjvjvjvjvjvjvbfjvjvjvbbjvjvjvjvjvjvjvjvjv",
"jvjvjvbbbbjvjvhgjvjvjvetetjvjvjvjvjvjvjvjvjvjvjvjvjvjvjvjvbfhghgbfjvjvjvjvjvjvjvjvjvjvjvjvjvjvjvjvjvjvjvjvjvjvcdbbjvjvjvjvjvjvjv",
"jvjvbbbbbbfzjvjvjvjvjvjvjvjvjvjvjvjvjvjvjvjvjvjvjvjvjvjvjvjvbfhgbfbfjvjvjvjvjvjvjvjvjvjvjvjvjvjvjvjvjvjvjvafajjvjvjvjvjvhgjvjvjv",
"jvjvbbbbbbbbjvjvjvjvjvjvjvjvjvjvjvjvjvjvjvjvjvjvjvjvjvjvjvjvjvbfhgbujvjvjvjvjvjvjvjvjvjvjvjvjvjvjvjvjvjvbbadipbbjvjvjvjvjvjvjvjv",
"jvjvjvjvjvjvjvjvjvjvjvjvjvjvjvjvjvjvjvjvjvjvjvjvjvjvjvjvjvjvjvhghgbujvjvjvjvjvjvjvjvjvjvjvjvjvjvjvjvjvjvbbadadbbjvjviojvjvjvjvjv",
"jvjvjvjvjvjvjvjvjvjvjvjvjvjvjvjvjvjvjvjvjvjvjvjvjvjvjvjvjvjvjvhghghgbfjvjvjvjvjvjvjvjvjvjvjvjvjvjvjvjvjvjvbbbbjvjvjvbfjvhmjvjvjv",
"jvjvjvjvjvbjjvjvjvjvjvjvjvjvjvjvjvjvjvjvjvjvjvjvjvjvjvjvjvbububuhghgbfjvjvjvjvjvjvjvjvjvbbjvjvjvjvjvjvjvjvjvjvjvjvjvjvhmhmajjvjv",
"jvjvjvjvadgcadjvjvjvjvbbbbjvjvjvjvjvjvjvjvjvjvhghgetetjvjvjvjvbuhghgbfbfhghghghghghgjvjvbbjvjvjvjvjvjvjvjvjvjvjvjvjvjvhmhmhmajjv",
"jvjvjvcdadadadcnjvjvjvbbbbbbjvjvjvjvjvjvjvbbbbjvjvjvjvjvjvjvjvjvbfhgbfjvjvjvjvjvhghghgjvjvbbjvjvjvjvjvjvjvjvjvjvjvjvjvashmajjvjv",
"jvjvjvbicncncnjvjvjvjvbbbbbbjvjvjvjvjvjvjvjvjvjvjvjvjvjvjvjvjvjvbfhgjvjvjvjvjvjvjvjvjvjvjvjvjvjvjvjvjvjvjvetjvbbjvjvjvjvjvjvjvjv",
"jvjvjvjvjvjvjvjvjvjvjvjvbbbbjvjvjvjvjvjvjvjvjvjvjvjvjvjvjvjvjvjvbfhgjvjvjvjvjvjvjvjvjvjvjvjvjvjvjvjvjvjvjvjvjvbbjvjvjvjvjvjvjvjv",
"jvjvjvjvjvjvjvjvjvajhmbbjvjvjvjvjvjvjvjvjvjvjvjvjvjvjvjvjvjvjvbuhghgjvjvjvjvjvjvjvjvjvjvjvjvjvjvjvjvjvjvjvbfjvaljvjvjvjvjvjvjvjv",
"jvjvjvjvjvjviojvjvhmjvbbjvjvjvjvjvjvjvjvjvjvjvjvjvjvjvjvjvjvjvbuhghgbfjvjvjvjvjvjvjvjvjvjvjvjvjvjvjvjvjvjvjvjvjvjvjvjvjvjvjvjvjv",
"jvjvjvjvjvbbjvbbjvjvbfjvjvjvjvjvjvjvjvjvjvjvhgjvjvjvjvjvjvjveubfhghgbfbfjvjvjvjvjvjvjvjvjvjvjvjvjvjvjvjvjvjvjvjvjvjvjvjvjvjvjvjv",
"jvjvjvjvjvbbjvbbjvjvjvjvjvjvjvjvjvjvjvjvjvjvjvjvjvjvjvjvjveubfhghghghgbfbubbjvjvjvjvjvjvjvjvjvjvjvjvjvajjvaljvjvjvjvhmhmhmjvjvjv",
"jvjvjvjvjvjvjvjvjvjvjvjvjvjvjvjvhmjvjvjvjvjvjvetjvjvjvjvjveuhghghghghghgjvjvjvjvbbjvjvjvjvjvjvjvjvjvjvbbajbbjvjvjvjvhmhmhmjvjvjv",
"jvjvjvjvjvjvjvjvjvjvjvjvjvjvjvjvjvjvjvjvjvjvjvjvatjvjveueuhghghghghgbfjvjvjvjvjvbbjvjvjvjvjvjvjvjvjvjvjvjvjvjvjvjvjvjvjvjvjvjvjv",
"jvjvjvjvjvjvjvjvjvjvjvjvjvjvjvjvjvjvjvjvjvjvjvjvjveteueueuhghghghgetjvjvjvjvjvjvjvbbjvjvjvjvjvjvjvjvjvjvjvjvjvjvjvjvjvjvjvjvjvjv",
"jvjvjvjvjvjvaljvjvjvjvjvjvjvjvjvjvjvjvjvjvjvjvjvjvjvjvjvjveuhghghgbujvjvjvjvjvjvjvjvjvjvjvjvjvjvjvjvjvjvjvjvjvjvjvjvjvjvjvjvjvjv",
"jvjvjvjvhmbfjvetjvjvjvjvjvjvjvjvjvjvjvjvjvjvjvjvjvjvjvjvjvjvbfhghgbujvjvjvjvjvjvjvjvjvjvjvjvjvjvjvjvjvjvjvjvjvjvjvjvjvjvjvjvjvjv",
"jvjvjvjvjvhmhmetjvjvjvjvjvjvjvjvjvjvjvjvjvjvjvjvjvjvjvjvjvjvjvhghgeujvjvjvjvjvjvjvjvjvjvjvjvjvjvjvbbbfjvjvjvjvjvjvjvjvjvjvjvjvjv",
"jvjvjvjvjvhmhmjvjvjvjvjvjvjvjvjvjvjvjvjvjvjvjvjvjvjvjvjvjvjvjveuhgbujvjvjvjvjvjvjvjvjvjvjvjvjvjvjvbbiubfjvjvjvjvjvjvjvjvjvjvjvjv",
"jvjvjvjvjvjvjvjvjvjvjvjvbbcdbbjvjvjvjvjvjvjvjvjvjvjvjvjvjvjvjveuhghgjvjvjvjvjvjvjvjvjvjvjvjvjvjvjvbbjvbfjvhmbfjvjvjvjvjvjvajbfjv",
"jvjvjvjvjvjvjvjvjvjvjvbbadadbbjvjvjvjvjvjvjvjvjvjvjvjvjvjvjvjveuhghghgjvjvjvjvjvjvjvjvjvjvjvjvjvjvjvjvjvjvbfbfjvjvjvjvjvhmhmioaj",
"jvjvjvjvjvjvjvjvjvjvjvjvbfbfbfjvjvjvjvjvjvjvjvjvjvjvjvjvjvjvjveuhghgeujvjvjvjvjvjvjvjvjvjvjvjvjvjvjvjvjvjvjvjvjvjvjvjvjvbbbbbbjv",
"jvjvjvjvjvjvjvjvjvjvjvjvjvjvjvjvjvjvjvjvjvjvjvjvjvjvjvjvjvjvjveuhghgeujvjvjvjvjvjvjvjvjvjvjvjvjvjvjvjvjvjvjvjvjvjvjvjvbbjvjvhmjv",
"jvjvjvjvjvjvjvjvjvjvjvjvjvjvjvjvjvjvjvjvjvjvjvjvjvjvjvjvjvjvjveuhghgeuafjvjvjvjvjvjvjvjvjvjvjvjvjvjvcdacjvjvjvjvjvjvjvbbbbbfjvjv",
"jvajjvjvjvjvjvjvjvjvjvjvjvjvjvjvjvjvjvjvjvjvjvjvjvjvjvjvjvjvjveuhghgeujvjvatjvjvjvjvjvjvjvjvjvjvjvjvjvaijvjvjvjvjvjvjvjvjvjvjvjv",
"jvhmhmjvjvbbjvjvjvjvjvjvjvjvjvjvjvjvjvjvjvjvjvjvjvjvjvjvjvjvjvhghghgjvjvjvjvjvjvjvjvjvjvjvjvjvjvjvjvjvjvjvjvjvjvjvjvjvjvjvjvjvjv",
"jvjvhmjvjvjvjvjvjvjvbujvjvjvjvjvjvjvjvjvjvjvjvjvjvjvjvjvjvjvbuhghgetjvjvjvjvjvjvjvjvjvjvjvjvjvjvjvjvjvjvjvjvjvjvjvjvjvjvjvjvjvjv",
"jvjvbbjvhmjvjvjvjvioioetjvjvjvjvjvjvjvjvjvjvjvjvjvjvhgetetathghghgaijvjvjvjvjvjvjvjvjvjvjvbfjvjvjvjvbfbfjvjvjvjvjvbbbbjvjvjvjvjv",
"jvjvjvhmjvjvjvjvjvjvbfjvjvjvjvjvjvjvjvjvjvjvjvjvjvjvjvatathghghghgaijvjvjvjvjvjvjvjvjvjvjvbfjvjvjvajbiipbfjvjvjvjvhmjvjvjvjvjvjv",
"jvjvjvhmjvjvjvjvjvjvjvjvjvjvjvbfjvjvjvhmjvjvjvjvjvjvjvjvjvhghghghgaijvjvjvjvjvjvjvjvjvjvjvbfjvjvjvbibialjvjvjvjvjvjvjvjvjvjvjvjv",
"jvjvjvjvjvjvjvjvjvjvjvjvjvjviobfjvjvjvhmjvjvjvjvjvjvjvjvjvbfhghghghgaqjvjvjvjvjvjvjvjvbuaqjvjvjvjvjvalaljvjvjvjvjvjvjvjvjvjvjvjv",
"jvjvjvjvjvjvjvjvjvjvjvjvjvjvaljvjvjvjvjvjvjvjvjvjvjvjvjvjvbfhghghghgbfbfjvjvjvjvjvbuhghgjvjvjvjvjvjvjvjvjvjvjvjvjvjvbbadajjvjvjv",
"jvjvjvjvioajjvjvjvjvjvjvjvjvjvjvjvjvjvjvjvjvjvjvjvjvjvjvjvjvethghghghgbfbfbfjvjvbujvjvjvjvjvjvjvjvjvjvjvjvjvjvjvjvjvafadaejvjvjv",
"jvjvjvjvjvjvjvjvjvjvjvjvjvjvjvjvjvjvjvjvjvjvjvjvjvjvjvjvjvjvhghghghghghghgbfbfbfbujvjvjvjvhgjvjvjvjvjvjvjvjvjvjvjvjvafadaljviojv",
"jvjvjvjvhmjvjvjvjvjvjvjvjvjvjvjvjvjvjvjvjvjvjvjvjvjvjvjvjvjvethghghghghghghghghgjvjvjvjvjvhgbbjvjvjvjvjvjvjvjvjvjvjvjvaljvjvbbjv",
"jvjvjvjvjvjvjvjvjvjvjvjvjvjvbbjvjvjvjvjvjvjvjvjvjvjvjvjvjvjvethghghghghgeueujvjvjvjvjvjvjvjvjvaijvjvjvjvjvjvjvjvjvjvjvbfbfbbjvjv",
"jvjvjvjvjvjvhmjvjvjvbbjvjvjvjvbbbfjvjvjvjvjvjvjvjvjvjvjvjveuethghghghgjvjvjvjvjvjvjvjvjvjvjvjvjvjvjvjvjvjvjvjvjvjvjvjvjvjvjvjvjv",
"jvjvjvjvjvjvjvbbjvjvjvalbfjvjvjvbfjvjvjvjvjvjvjvjvjvjvjvjveuethghghgbfjvjvjvjvjvjvjvjvjvjvjvjvjvjvjvjvjvjvjvjvjvjvjvjvjvjvjvjvjv",
"jvjvjvjvjvjvjvjvjvjvjvjvjvjvjvjvjvbfjvjvjvjvjvjvjvjvjvjveuethghghgbfjvjvjvjvjvjvjvjvjvjvjvjvjvjvjvjvjvjvjvjvbbjvjvjvjvjvjvjvjvjv",
"jvjvjvjvjvjvjvjvjvjvjvjvjvjvjvjvjvbfjvjvjvjvjvjvjvbfeueuetethghghgbfjvjvjvjvjvjvjvjvjvjvjvjvjvjvjvjvjvjvjvbbjvbbjvafjvjviojvjvjv",
"jvjvjvjvjvaijvjvjvbbbbbbjvjvjvjvjvbbetbubuatjvjveubfhghgethghghghgjvjvjvjvjvjvjvjvjvjvjvjvjvjvjvjvjvjvjvjvaljvbbjvbfbfjvjvjvjvjv",
"jvjvafjvjvaijvjvhgjvjvbbjvjvjvjvjvjvetjvjvjvhghghgbfhghghghghghgbfjvjvjvjvjvjvjvjvjvjvjvjvjvjvjvjvjvjvjvjvjvbbjvjvjvjvjvjvjvjvjv",
"jvjvhmaiaijvjvbbbbbbbbbbjvjvjvjvjvjvjvjvjvjvjvjvjvhgeuethghghghgbfjvjvjvjvjvjvjvjvjvjvjvjvjvjvjvjvjvjvbfbfjvjvjvjvjviojvjvjvjvjv",
"jvjvjvjvjvjvjvjvjvbbbfjvjvjvjvjvaijvjvjvjvjvjvjvjvjvjvaiethghghghgjvjvjvjvjvjvjvjvjvjvjvjvjvjvjvjvjvjvjvjvbfjvjvjvjvjviohmjvjvjv",
"jvjvjvjvjvjvjvjvjvjvjvjvjvjvjvafjvfzjvjvjvjvjvjvjvjvjvjvethghghghgbfjvjvjvjvjvjvjvjvjvjvjvjvjvjvjvjvjvetbbbbjvjvjvbbiohmhmjvjvjv",
"jvjvjvjvjvjvjvjvjvjvjvjvjvjvjvjvjvjvjvjvjvjvjvjvjvjvjvjvetethghghgbfjvjvjvjvjvbbjvjvjvjvjvjvjvjvjvjvjvjvbbbbjvjvjvjvbbcdbbjvjvjv",
"jvjvjvjvioiobbjvjvjvjvjvjvjvjvjvjvjvbfjvjvjvjvjvjvjvjvjvetethghghgbfjvjvjvatbbjvjvjvjvjvjvjvjvjvjvjvjvjvjvjvjvjvjvjvjvjvjvbbjvjv",
"jvjvjvjvioiobujvjvioaljvjvjvjvjvjvjvjvbfjvjvjvjvjvjvjvjvjvaihghghgbfaqjvatjvjvjvjvjvjvjvjvjvjvjvjvjvjvjvjvjvjvjvjvjvjvaeioiobfjv",
"jvjvjvjvhmjvjvjvjvioioaljvjvjvjvjvjvjvjvjvjvjvjvjvjvjvjvjvjvethghghgbfbfjvbbjvjvjvjvjvjvjvjvjvjvjvjvjvjvjvjvjvjvjvjvjvjvalbfjvjv",
"jvjvjvjvjvjvjvjvjvalaljvjvjvjvjvjvjvjvjvjvjvjvjvjvjvjvjvjvjvethghghgbfjvjvjvjvjvjvjvjvjvjvjvjvjvjvjvjvjvjvjvjvjvjvjvjvjvjvjvjvjv",
"jvjvjvjvjvjvjvjvaljvjvjvjvjvjvjvjvjvjvjvjvjvjvjvjvjvjvjvjvjvethghghgbfjvjvjvjvjvjvjvjvjvjvjvjvjvhmhmjvbbjvjvjvjvjvaihmhmajjvjvjv",
"jvjvjvjvjvjvjvaljvjvjvjvjvbbjvjvjvjvjvjvjvjvjvjvjvjvjvjvjvethghghghgjvjvjvjvjvjvjvjvjvjvjvjvjvjvbfiojvbbjvjvjvjvjvjvjvjvjvjvjvjv",
"jvjvjvjvjvjvjvaljvbbjvjvjvbbjvjvjvjvjvjvjvjvjvjvjvjvjvjvaqhghghghghgjvjvjvjvjvjvjvjvjvjvjvjvjvjvjvbbbbbbjvjvjvjvjvalbbbbbfjvjvjv",
"jvjvjvjvjvjvjvjvalbbjvjvjvbbbbjvjvjvjvjvjvjvjvjvjvjvjvjvaqhghghghghghgjvjvjvjvjvjvjvjvjvjvjvjvjvjvjvjvjvjvjvjvjvjvjvbfbfjvjvjvjv",
"jvjvjvjvjvjvbbjvjvjvjvjvjvjvjvjvjvjvjvjvjvjvjvjvjvjvjvbbaihghghghghghgjvjvjvjvjvjvjvjvjvjvjvjvjvjvjvjvjvjvjvjvjvjvjvjvjvjvjvjvjv",
"jvjvjvjvjvaijvjvjvjvjvjvjvjvjvjvjvjvjvjvjvjvjvjvjvjvbbjvjvhghghghghghgjvjvjvjvjvjvjvjvjvjvjvjvjvjvjvjvjvjvjvjvjvjvjvjvjvjvjvjvjv",
"jvjvjvjvjvjvjvjvjvjvjvjvjvjvjvjvjvjvjvjvjvjvjvjvjvjvjvjvjvjvjvjvjvjvjvjvjvjvjvjvjvjvjvjvjvjvjvjvjvjvjvjvjvjvjvjvjvjvjvjvjvjvjvjv"
};
