/* XPM */
static char *car_red_04_s1[] = {
/* columns rows colors chars-per-pixel */
"64 64 25 1 ",
"  c #FF00FF",
". c #000100",
"X c #232529",
"o c #362829",
"O c #2B2D34",
"+ c #501419",
"@ c #65161F",
"# c #781B1F",
"$ c #6F2227",
"% c #754338",
"& c #2E3744",
"* c #383A43",
"= c #43444B",
"- c #6E6669",
"; c #851E21",
": c #87272C",
"> c #9B2D32",
", c #B82D33",
"< c #AB3533",
"1 c #BD3836",
"2 c #A9463D",
"3 c #825945",
"4 c #D45452",
"5 c #CC695A",
"6 c #ABA6A8",
/* pixels */
"                                                                ",
"                                                                ",
"                          ............                          ",
"                     .....111111111111.....                     ",
"                    .<111;111111111111;<111.                    ",
"                   .#1111;111111111111;1111;.                   ",
"                  .2#1111;111111111111;1111;<.                  ",
"                  .2#111;11111111111111;111:<.                  ",
"                  .2;111;11111111111111;111:<.                  ",
"                 .;2;111;11111111111111;111:<;.                 ",
"                 .;1;111;11111111111111;111:<;.                 ",
"                 .;2;111;11111111111111;111:2;.                 ",
"                 .;1;11;;11111111111111;;11:<;.                 ",
"                 .;1;11;<1<1111111111111;11:2;.                 ",
"                 .;1;11;<<............11;11:2#.                 ",
"                 .;1;1#...=========**X...;1:2#.                 ",
"                 .#1;..==========*******=..;2#.                 ",
"                 .#<:.*==========******==*.;2$.                 ",
"                ....<2.==..............**.;;....                ",
"               .322..<<..11111111111111..<<..%22.               ",
"               .......<111111111111111111<..@....               ",
"                  .2.*.111111111111111111.*.2.                  ",
"                  .2.*.111111111111111111.*.2.                  ",
"                  .2.*.111111111111111111.*.2.                  ",
"                  .2.*.111111111111111111.*.2.                  ",
"                  .2.=.111111111111111111.*.2.                  ",
"                  .2.=.111111111111111111.*.2.                  ",
"                  .2.=.111111111111111111.&.2.                  ",
"                  .2..<,11111,,,1,1111111:..2.                  ",
"                  .2.<<;;;#####$#######;;1:.2.                  ",
"                  .2#<;#................;::::.                  ",
"                  .#<##.OOOOOOOOOOOOOOOO.;:::.                  ",
"                  .###.OOOOOOOOOOOOOOOOOO.:::.                  ",
"                  .###....................:::.                  ",
"                  .#>###$$$$$$$$$#$$$$$$$#::+.                  ",
"                  .2++++++++++++++++++++++++>.                  ",
"                  .2.#;;;;;;;##########;;;+.>.                  ",
"                  .2.#;;;;;;;;;########;;;;.2.                  ",
"                  .2.#@@@@@@@@@####;###@@@@.2.                  ",
"                  .2.#<;<;1;,;;<#,;;1;1;>>@.2.                  ",
"                  .2.#>;<;,;,;;<#,;;1;1;>>@.2.                  ",
"                  .2.#>;<;,;,;;<#,;;1;<;>>@.2.                  ",
"                  .2.#+;<;,;,;;<#,;;1;<;>++.2.                  ",
"                 .$2.;;+<;,;,;;<#,;;1;<;+::.2:.                 ",
"                 .$2.;;+<;,;<;;<#,;;1;<;+::.2:.                 ",
"                 .$2.;;+>;,;<;;<#,;;1;<;+::.2:.                 ",
"                 .$2.;;+>;,;<;;<#,;;1;<;+::.2:.                 ",
"                 .$2.#;+>;<;<;;<#,;;1;<;+::.2:.                 ",
"                 .$2.##+>;<;<;;<#<;;<;<;+::.2:.                 ",
"                 .$2.##+>;<;<;#<#<;;<;<;+::.2:.                 ",
"                 .$2.##+<;<;<##<#<;;<#<;+::.2:.                 ",
"                 .$2.#@#<#<;<##<#<;;<#<;#+:.2:.                 ",
"                 .$2.$2#<#<;<##<#<;;<#<;>$$.2:.                 ",
"                 .$2.@>#>#<;<##<#<;;<#<#>$$.2$.                 ",
"                  .2.@>@<#<#<##<#<##<#<#<$$.2.                  ",
"                  .2:......................22.                  ",
"                  .:::22222222222222222222@22.                  ",
"                  .55+;;;;;;;;ooo+###;;;;;@54.                  ",
"                  .+2+;;;;;;;;######;;;;;;@5..                  ",
"                  .-++++++++o++++++.++++++oo-.                  ",
"                  .---------o666666.---------.                  ",
"                   ..........................                   ",
"                                                                ",
"                                                                "
};
