/* XPM */
static char *car_red_02_s1[] = {
/* columns rows colors chars-per-pixel */
"64 64 31 1 ",
"  c #FF00FF",
". c #000100",
"X c #232529",
"o c #362829",
"O c #2B2D34",
"+ c #501419",
"@ c #65161F",
"# c #781B1F",
"$ c #562628",
"% c #6F2227",
"& c #754338",
"* c #2E3744",
"= c #383A43",
"- c #43444B",
"; c #4C5561",
": c #851E21",
"> c #951B24",
", c #87272C",
"< c #9B2D32",
"1 c #B83123",
"2 c #AB2334",
"3 c #B82D33",
"4 c #AB3533",
"5 c #BD3836",
"6 c #C7282E",
"7 c #D2272E",
"8 c #CF3C3F",
"9 c #A9463D",
"0 c #EC965D",
"q c #BCB8BB",
"w c #CAC6CE",
/* pixels */
"                                                                ",
"                                                                ",
"                           ..........                           ",
"                        ...6666666666...                        ",
"                      ..17767>>>>>>66665..                      ",
"                     .$%.77>>777777>>77.&&.                     ",
"                    .%%w.7>7777777777>7.q$&.                    ",
"                   .+%q.7>777777777777>6.q&&.                   ",
"                   .$q.67>777777777777>77.q$.                   ",
"                  .1..67>77777777777777>76..>.                  ",
"                  .16677>77777777777777>776>>.                  ",
"                 .:6777>7777777777777777>777>>.                 ",
"                 .:6777>7777777777777777>7777>.                 ",
"                 .:7777>7777777777777777>7776>.                 ",
"                 .>777>7777>........>7777>776>.                 ",
"                 .>777>77...********...77#776>.                 ",
"                 .>777>7..------------X.6#776>.                 ",
"                 .>777>.OO--------------.@676>.                 ",
"                 .:777.O-----------------.666>.                 ",
"                 .::77.OO----------------.66>>.                 ",
"                 .::77%.OOOOOOOOO-------.#66>>.                 ",
"                  .:374.XOOOOOOOO-------.366>.                  ",
"                  ..3.4.XOOOOOOOO------O.3.8..                  ",
"                 .335..4.OO..........OO.3..8<<.                 ",
"                .2335..2...7777777776...5..8<<<.                ",
"                .2..5..2>2777777777777>>5..8,.<.                ",
"                ...:5.O.>77777777777777>.O.8,...                ",
"                  .,5.o.>77777777777777>.o.8<.                  ",
"                  .,5.o.>77777777777777>.o.8<.                  ",
"                  .,5.o.>77777777777777>.o.8<.                  ",
"                  .,5.o.>77777777777777>.o.8<.                  ",
"                  .,5.o.>77777777777777>.o.8<.                  ",
"                  .,5.o.>77777777777777>.O.8<.                  ",
"                  .,5.o.>77777777777777>.=.8<.                  ",
"                  .>6.o.>77777777777777>.=.8<.                  ",
"                  .,6...>77777777777777>...5<.                  ",
"                  .,7.o.>77777777777777>.+.5>.                  ",
"                  .,7.o.>77777777777777>.o.6<.                  ",
"                 .:77>.>>>777777777777>>>.>67>.                 ",
"                 .>77>.>>..............>>.>77>.                 ",
"                 .>77>@>>.X=========**.>>.>77>.                 ",
"                 .>77>>>.X==========;;O.>>>77>.                 ",
"                ..>77>>>.X==========;;O.>>>77>..                ",
"                .:>777>>.X==========;-O.>>777>:.                ",
"                .:>777>>.X===========-X.>>777>:.                ",
"                .:7777>>.XX==========XX.>>7777:.                ",
"                .:77777>>.X=========XX.:>77777:.                ",
"                .:>7777>>6..=======X..7>>7777<:.                ",
"                .:>7777>>111........777:>7777>:.                ",
"                .:>..777>17777766667777:677..>:.                ",
"                .:>.-.77>77777777777777:67.-.>:.                ",
"                .:>.--....777777777777....-;.>:.                ",
"                .:,.---;;;............;;;;-;.::.                ",
"                 .,.OO;;;;;;;;;;;;;;;;;;-;OO.:.                 ",
"                 .@...OOOO;;;;;;;;;;;-OOOO...:.                 ",
"                 .@.@#....OOOOOOOOOOOO....##.:.                 ",
"                  .@@444+@............+:955+#.                  ",
"                  .@@++++::::::::::##::++++##.                  ",
"                   .@+:::::::000000##::>>>##.                   ",
"                    ..+@@@@@@@@@@@@##+++##..                    ",
"                      ....................                      ",
"                                    .. .                        ",
"                                                                ",
"                                                                "
};
