/* XPM */
static char *heart_xpm[] = {
"64 64 4 1",
"  c #FF00FF",
". c #000000",
"R c #DC2626",
"L c #F87171",
"                                                                ",
"                                                                ",
"                                                                ",
"                                                                ",
"                                                                ",
"                                                                ",
"                                                                ",
"                                                                ",
"                                                                ",
"                                                                ",
"                                                                ",
"                                                                ",
"                                                                ",
"                                                                ",
"                                                                ",
"                                                                ",
"                    ........        ........                    ",
"                    ........        ........                    ",
"                    ........        ........                    ",
"                    ........        ........                    ",
"                ....RRRRRRRR........RRRRRRRR....                ",
"                ....RRRRRRRR........RRRRRRRR....                ",
"                ....RRRRRRRR........RRRRRRRR....                ",
"                ....RRRRRRRR........RRRRRRRR....                ",
"            ....LLLLRRRRRRRRRRRRRRRRRRRRRRRR....                ",
"            ....LLLLRRRRRRRRRRRRRRRRRRRRRRRR....                ",
"            ....LLLLRRRRRRRRRRRRRRRRRRRRRRRR....                ",
"            ....LLLLRRRRRRRRRRRRRRRRRRRRRRRR....                ",
"            ....LLLLRRRRRRRRRRRRRRRRRRRRRRRR....                ",
"            ....LLLLRRRRRRRRRRRRRRRRRRRRRRRR....                ",
"            ....LLLLRRRRRRRRRRRRRRRRRRRRRRRR....                ",
"            ....LLLLRRRRRRRRRRRRRRRRRRRRRRRR....                ",
"            ....RRRRRRRRRRRRRRRRRRRRRRRRRRRR....                ",
"            ....RRRRRRRRRRRRRRRRRRRRRRRRRRRR....                ",
"            ....RRRRRRRRRRRRRRRRRRRRRRRRRRRR....                ",
"            ....RRRRRRRRRRRRRRRRRRRRRRRRRRRR....                ",
"                ....RRRRRRRRRRRRRRRRRRRR....                    ",
"                ....RRRRRRRRRRRRRRRRRRRR....                    ",
"                ....RRRRRRRRRRRRRRRRRRRR....                    ",
"                ....RRRRRRRRRRRRRRRRRRRR....                    ",
"                    ....RRRRRRRRRRRR....                        ",
"                    ....RRRRRRRRRRRR....                        ",
"                    ....RRRRRRRRRRRR....                        ",
"                    ....RRRRRRRRRRRR....                        ",
"                        ....RRRR....                            ",
"                        ....RRRR....                            ",
"                        ....RRRR....                            ",
"                        ....RRRR....                            ",
"                            ....                                ",
"                            ....                                ",
"                            ....                                ",
"                            ....                                ",
"                                                                ",
"                                                                ",
"                                                                ",
"                                                                ",
"                                                                ",
"                                                                ",
"                                                                ",
"                                                                ",
"                                                                ",
"                                                                ",
"                                                                ",
"                                                                "
};
