/* XPM */
static char *tile[] = {
"64 64 18 1",
"  c #FF00FF",
". c #000000",
"X c #191919",
"o c #333333",
"O c #442200",
"$ c #885522",
"* c #5D4037",
"; c #CC7700",
"> c #DDCC44",
"1 c #FFFF00",
"6 c #FFEE44",
"7 c #8B7355",
"9 c #7A7A7A",
"t c #999999",
"u c #FFFF99",
"s c #FFFACD",
"d c #CCCCCC",
"g c #F0F0F0",
"                                                                ",
"                                                                ",
"                                                                ",
"                                                                ",
"                                                                ",
"                                                                ",
"                                                                ",
"                     ....                                       ",
"                    ......                                      ",
"                   ...$$..                                      ",
"                   ..$$$$..                                     ",
"                   ...$$$>..                                    ",
"                    ..$$111...                                  ",
"                     ..611111...                  ..            ",
"                     ..6111111...                ....           ",
"                      .61111111...               .$$..          ",
"                      .611111111...             ..$$..          ",
"                      .6111111111...            ..$$..          ",
"                      .61111111111..            ..6$..          ",
"                      ..u1111111.>1..          ..61>..          ",
"                       .u11111.11.1..         ...611..          ",
"                       .u11111.11.11.         ..6111..          ",
"                       ..u1111.11111..       ..61111..          ",
"                        .u1111111111..      ...61111..          ",
"                        .u11111111111.    ...6611111..          ",
"               ..........u11111111111.......61111111.           ",
"              ...........u11111111111.....661111111..           ",
"             ...ssss666...611111111111.111111111111..           ",
"            ..uu111111111.611111111111111111111111..            ",
"           ..u11111111111.61111111111111111111111...            ",
"          ..u111111111111.6111111111111111111111...             ",
"          ..u111111111111.611111111111111111111...              ",
"         ..u1111111111111.6111111111111111111....               ",
"         ..u>11......1111.611111111111111111....                ",
"         .$>1>.........>1.6111111111111111....                  ",
"         .$>>...     ...>.611111111111......                    ",
"         .$$$..       ....61111111111....                       ",
"         .$$$..        ..611111111111..                         ",
"         .$$..         ..611111111111..                         ",
"         .....         ..61111111111..                          ",
"          ...         ...61111111111..                          ",
"                      ..61111111111..                           ",
"                      ..6111111111...                           ",
"                     ..61111111111..                            ",
"                    ...6111111111..                             ",
"                    ..6111111111...                             ",
"                   ..6111111111...                              ",
"                  ..6111111111...                               ",
"                 ..6111111111...                                ",
"               ...6111111111...                                 ",
"             ....6111111111...                                  ",
"            ...;111111111....                                   ",
"            ..$$11111111....                                    ",
"            ..$$$11111....                                      ",
"             .$$$$11....                                        ",
"             .........                                          ",
"              ......                                            ",
"                                                                ",
"                                                                ",
"                                                                ",
"                                                                ",
"                                                                ",
"                                                                ",
"                                                                "
};
