/* XPM */
static char *tile[] = {
"64 64 18 1",
"  c #FF00FF",
". c #000000",
"X c #191919",
"o c #333333",
"O c #442200",
"$ c #885522",
"* c #5D4037",
"; c #CC7700",
"> c #DDCC44",
"1 c #FFFF00",
"6 c #FFEE44",
"7 c #8B7355",
"9 c #7A7A7A",
"t c #999999",
"u c #FFFF99",
"s c #FFFACD",
"d c #CCCCCC",
"g c #F0F0F0",
"                                                                ",
"                                                                ",
"                                                                ",
"                                                                ",
"                                                                ",
"                                                                ",
"                                                                ",
"                                                                ",
"                                                                ",
"                                                                ",
"                             .........                          ",
"                          ...............                       ",
"                        .....111111111.....                     ",
"                      ....111111111111111....                   ",
"                    ....6611111111111111111....                 ",
"                   ...61111111111111111111116...                ",
"                  ..ss111111111111111111111116...               ",
"                 ..uu11111111111111111111111111...              ",
"                ..s11111111111111111111111111111...             ",
"               ..su111111111111111111111111111111...            ",
"              ..su11111111111111111111111111111111..            ",
"              ..u1111111111111111111111111111111111..           ",
"             ..u11111111111111......111111111111111...          ",
"            ..u1111111111116...........1111111111116..          ",
"           ..u1111111111116...>>>>........11111111116..         ",
"          ...u111111111116..>>>>>...   ....6111111111..         ",
"          ..u111111111116..;;>>...       ...1111111111..        ",
"         ..u111111111116..;>>;>..         ...111111111..        ",
"         ..u11111111111..>;>>>..           ...11111111..        ",
"        ..u11111111111..>>>>>;..            ..111111111..       ",
"       ...s11111111116..>;>>>..              ..11111111..       ",
"       ..s11111111116...>>>>;..              ..11111111..       ",
"       ..s1111111116....>>>>..                ..11111111..      ",
"       ..s1111111116....>>>>..                ..11111111..      ",
"      ..s11111111116....>>>>..                 ..1111111..      ",
"      ..s1111111116.. ..>>>>..                 ..1111111..      ",
"      ..g1111111116.. ..>>>>.                  ..1111111..      ",
"      ..g1.11.11116.. ..>>>..                   ..111111..      ",
"      ..g6.11.1111..   ..>>..                   ..111111..      ",
"      ..g1.11.1111..   ..$$..                   ..111111..      ",
"      ..g111111111..   ..$$..                   ..111111..      ",
"      ..g111111111..    ....                    ..111111..      ",
"       ..s1111111..     ....                     ..1111..       ",
"       ..s111111u..                              ..1111..       ",
"        ..s11111..                               ..;1>1..       ",
"        ..s1111..                                ..$>>>..       ",
"         ..s111..                                 ..$$$..       ",
"         ..s>>>..                                 ..$$$..       ",
"         ..g$$$..                                 ..$$$..       ",
"         ..g$$$..                                 ..$$$..       ",
"         ..$$$$..                                 ..$$$..       ",
"          .......                                 ..$$...       ",
"          ......                                  ......        ",
"                                                   .....        ",
"                                                                ",
"                                                                ",
"                                                                ",
"                                                                ",
"                                                                ",
"                                                                ",
"                                                                ",
"                                                                ",
"                                                                ",
"                                                                "
};
