/* XPM */
static char *tile[] = {
"64 64 18 1",
"  c #FF00FF",
". c #000000",
"X c #191919",
"o c #333333",
"O c #442200",
"$ c #885522",
"* c #5D4037",
"; c #CC7700",
"> c #DDCC44",
"1 c #FFFF00",
"6 c #FFEE44",
"7 c #8B7355",
"9 c #7A7A7A",
"t c #999999",
"u c #FFFF99",
"s c #FFFACD",
"d c #CCCCCC",
"g c #F0F0F0",
"                                                                ",
"                                                                ",
"                                                                ",
"                                                                ",
"                                                                ",
"                                                                ",
"                                                                ",
"                                                                ",
"                                                                ",
"                                                                ",
"                                                                ",
"                                                                ",
"                                                                ",
"                                                                ",
"                                                                ",
"                               ......                           ",
"                              ........                          ",
"                              ..O$$$..                          ",
"                             ..O$$$$..                          ",
"                            ...O$$$$...                         ",
"                           ...11OO111..                         ",
"                          ..s1111O1111..                        ",
"                          .$s1111O1111..                        ",
"                         ..s11111111116..                       ",
"                        ...s11111111111..                       ",
"                        ..s1111111111111..                      ",
"                        ..s>111111111111..                      ",
"                       ..g6.>.1111O11111..                      ",
"                       ..g6.>.1111O111111..                     ",
"                       ..g>.1.1111O111111..                     ",
"                       ..g11111111O111111..                     ",
"                       ..g11111111O111111..                     ",
"                       ..g11111111O111111..       ...           ",
"                       ..g11111111O111111..      ..O..          ",
"                       ..g1111111OO111111...   ....O..          ",
"                       ..g1111111O11111116.......>>O..          ",
"                      ...s1111111.11111116.....>>>>>..          ",
"           ...        ..s11111111.11111116..>>>>>>>>..          ",
"          .....      ...s11111111.111111116..>>>>>>..           ",
"          ..$....   ...s11111111..111111116....>>>..            ",
"          ..$O........s111111111..1111111116...........         ",
"          ..$>ssO...ss1111111111..111111111166.........         ",
"          ...>11ssss11111111111....1111111111166666$$..         ",
"           ...1111111111111111.....111111111111>>>>$$..         ",
"            ..111111111111111...  ..1111111111>>>>>u...         ",
"             ..1111111111111...    ..111111111>>>>....          ",
"              ...1111111111...      ...1111111>>.....           ",
"               ..............        .............              ",
"                 ..........            .........                ",
"                                                                ",
"                                                                ",
"                                                                ",
"                                                                ",
"                                                                ",
"                                                                ",
"                                                                ",
"                                                                ",
"                                                                ",
"                                                                ",
"                                                                ",
"                                                                ",
"                                                                ",
"                                                                ",
"                                                                "
};
