/* XPM */
static char * inner_road_right_xpm[] = {
"64 64 21 1",
" 	c #FF00FF",
"a	c #333333",
"b	c #2A2A2A",
"c	c #383838",
"d	c #000000",
"e	c #5D4037",
"f	c #4A4A4A",
"g	c #505050",
"h	c #303030",
"i	c #6E2018",
"j	c #484848",
"k	c #CCAA00",
"l	c #333300",
"m	c #FFCC00",
"n	c #885522",
"o	c #DDCC44",
"p	c #E8C547",
"q	c #92400E",
"r	c #CCCC33",
"s	c #CCCC66",
"t	c #FFCC33",
"           ottp                                                 ",
"           ottp                                                 ",
"           ottp                                                 ",
"           ottp                                                 ",
"           ottp                                                 ",
"           ottp                                                 ",
"           ottp                                                 ",
"           ottp                                              d  ",
"           ottp                                            cf   ",
"           ottp                                           c     ",
"           ottp                                          f      ",
"           ottp                                         dc      ",
"           ottp                                         d       ",
"           ottp                         d           cdcd        ",
"           ottp                          agd    cdcdja          ",
"           ottp                            dcfcd   d            ",
"           ottp                                   c             ",
"           ottp                            c        fc          ",
"           ottp                           d           f         ",
"           ottp                          d             dcd      ",
"           ottp                      ccda                 ddc   ",
"           ottp                h cjjb                        d  ",
"           ottp                                               jd",
"           ottp                                                 ",
"           ottp              c                                  ",
"           ottp              d                                  ",
"           ottp             c                                   ",
"           ottp            d                                    ",
"           ottp            c                                    ",
"   f       ottp           d                                     ",
"    d      ottp          d                                      ",
"     d     otrp        cd                                       ",
"      dcc  orro       c                                         ",
"     d   cloops      d                                          ",
"    d      qpps    cd                                           ",
"  df       siin cdd                                             ",
"           prooe                                                ",
"           okro                                                 ",
"           otro                                                 ",
"           prrp                                                 ",
"           spps                                                 ",
"           ppps                                                 ",
"           otrp                                                 ",
"           ommo                                                 ",
"           otrp                                                 ",
"           ptrp                                                 ",
"           ptrp                                                 ",
"           pttp                                                 ",
"           ottp                                                 ",
"           ottp                                                 ",
"           ottp                              c               cdd",
"           ottp                              d               g  ",
"           ottp                               cc           da   ",
"           ottp                                 j        cc     ",
"           ottp                                  dc   faa       ",
"           ottp                                   jd d          ",
"           ottp                                    dd           ",
"           ottp                                    d            ",
"           ottp                                    f            ",
"           ottp                                    d            ",
"           ottp                                     c           ",
"           ottp                                     d           ",
"           ottp                                      c          ",
"           ottp                                                 "
};
