/* XPM */
static char * inner_road_left_xpm[] = {
"64 64 21 1",
" 	c #FF00FF",
"a	c #333333",
"b	c #2A2A2A",
"c	c #383838",
"d	c #000000",
"e	c #5D4037",
"f	c #4A4A4A",
"g	c #505050",
"h	c #303030",
"i	c #6E2018",
"j	c #484848",
"k	c #CCAA00",
"l	c #333300",
"m	c #FFCC00",
"n	c #885522",
"o	c #DDCC44",
"p	c #E8C547",
"q	c #92400E",
"r	c #CCCC33",
"s	c #CCCC66",
"t	c #FFCC33",
"                                                 ptto           ",
"                                                 ptto           ",
"                                                 ptto           ",
"                                                 ptto           ",
"                                                 ptto           ",
"                                                 ptto           ",
"                                                 ptto           ",
"  d                                              ptto           ",
"   fc                                            ptto           ",
"     c                                           ptto           ",
"      f                                          ptto           ",
"      cd                                         ptto           ",
"       d                                         ptto           ",
"        dcdc           d                         ptto           ",
"          ajdcdc    dga                          ptto           ",
"            d   dcfcd                            ptto           ",
"             c                                   ptto           ",
"          cf        c                            ptto           ",
"         f           d                           ptto           ",
"      dcd             d                          ptto           ",
"   cdd                 adcc                      ptto           ",
"  d                        bjjc h                ptto           ",
"dj                                               ptto           ",
"                                                 ptto           ",
"                                  c              ptto           ",
"                                  d              ptto           ",
"                                   c             ptto           ",
"                                    d            ptto           ",
"                                    c            ptto           ",
"                                     d           ptto       f   ",
"                                      d          ptto      d    ",
"                                       dc        prto     d     ",
"                                         c       orro  ccd      ",
"                                          d      spoolc   d     ",
"                                           dc    sppq      d    ",
"                                             ddc niis       fd  ",
"                                                eoorp           ",
"                                                 orko           ",
"                                                 orto           ",
"                                                 prrp           ",
"                                                 spps           ",
"                                                 sppp           ",
"                                                 prto           ",
"                                                 ommo           ",
"                                                 prto           ",
"                                                 prtp           ",
"                                                 prtp           ",
"                                                 pttp           ",
"                                                 ptto           ",
"                                                 ptto           ",
"ddc               c                              ptto           ",
"  g               d                              ptto           ",
"   ad           cc                               ptto           ",
"     cc        j                                 ptto           ",
"       aaf   cd                                  ptto           ",
"          d dj                                   ptto           ",
"           dd                                    ptto           ",
"            d                                    ptto           ",
"            f                                    ptto           ",
"            d                                    ptto           ",
"           c                                     ptto           ",
"           d                                     ptto           ",
"          c                                      ptto           ",
"                                                 ptto           "
};
