/* XPM */
static char * road_xpm[] = {
"64 64 9 1",
" 	c #FF00FF",
"a	c #333333",
"b	c #2A2A2A",
"c	c #383838",
"d	c #000000",
"e	c #4A4A4A",
"f	c #505050",
"g	c #030303",
"h	c #484848",
"                                                                ",
"                                                                ",
"                                                                ",
"                                                                ",
"                                                                ",
"                                                                ",
"                                                                ",
"  d                                                             ",
"   ec                                                           ",
"     c                                                          ",
"      e                                                         ",
"      cd                                                        ",
"       d                                                        ",
"        dcdc           d                                        ",
"          ahdcdc    dfa                                         ",
"            d   dcecd                                           ",
"             c                                                  ",
"          ce        c                                           ",
"         e           d                                          ",
"      dcd             d                                         ",
"   cdd                 adcc                                     ",
"  d                        bhhc g                               ",
"dh                                                              ",
"                                                                ",
"                                  c                             ",
"                                  d                             ",
"                                   c                            ",
"                                    d                           ",
"                                    c                           ",
"                                     d                      e   ",
"                                      d                    d    ",
"                                       dc                 d     ",
"                                         c             ddd      ",
"                                          d         dcd   d     ",
"                                           dc     dd       d    ",
"                                             ddc            ed  ",
"                                                d               ",
"                                                 f              ",
"                                                 g              ",
"                                                  cd            ",
"                                                    c           ",
"                                                                ",
"                                                                ",
"                                                                ",
"                                                                ",
"                                                                ",
"                                                                ",
"                                                                ",
"                                                                ",
"                                                                ",
"ddc               c                                             ",
"  f               d                                             ",
"   ad           cc                                              ",
"     cc        h                                                ",
"       aae   cd                                                 ",
"          d dh                                                  ",
"           dd                                                   ",
"            d                                                   ",
"            e                                                   ",
"            d                                                   ",
"           c                                                    ",
"           d                                                    ",
"          c                                                     ",
"                                                                "
};
