/* XPM */
static char * road1_xpm[] = {
"64 64 18 1",
" 	c None",
"a	c #999999",
"b	c #666666",
"c	c #333333",
"d	c #2A2A2A",
"e	c #383838",
"f	c #444444",
"g	c #555555",
"h	c #282828",
"i	c #7A7A7A",
"j	c #4A4A4A",
"k	c #222222",
"l	c #777777",
"m	c #505050",
"n	c #303030",
"o	c #686868",
"p	c #484848",
"q	c #AAAAAA",
"lbloll c                                  he          de        ",
"oibool f                h                 dcd          f        ",
"ollol   e               f                 hc           e        ",
"lobog f                hc                  eh         ee        ",
"loobg f  d hd  h    d  ee h                fc        efe        ",
"gbg h  aaaaaaqa efeeeeeeeeed             hefee  hn  fece        ",
"  hd  qqolooiolq fefbaaaaaee             eedfeee h  cejeeh      ",
"eee daaoooioblooa cqlbloooqeeh          eeffaaaaqaaqaaa eeeeeeee",
"     aogbggboolli aqlooololieeeeefnfefcefcfaaloloooloooa eefe   ",
"  d alggggboooooidqoolblolol efqaaqaaadeegaoloooollbllll  ee    ",
"    qoggmbolllooi aollolloob faobloolaa eailbolollollboi de     ",
"    aolgboloollli glloooolli aoooloolaadfibolooloolblllb        ",
"   hloiboloolllloh jolollol diollgilblo niooloooioigoolo        ",
"    ooolloollilookeneeeeecfh ioogloboli  iiloollogbollol h      ",
"    lllooollillol fd  h  d ce oolbliooohhmabioblllbilop lhh     ",
"     oollolllloookcdgaaaaaaaee   d  h he bliioloooloodiii       ",
"   edbloolooobiooh aqlloloool e    h      iioololbol iiii ed    ",
"h ececmggbbglobhd qioooiloloohn          d golbloileliogghne  dd",
"eeeeech d   d d e aolioooiloo daaiooooooaa dgbbmmgcggjbg   ee   ",
"    def         kkibboiollboi aoioooloollaq    ddh   h  d       ",
"          eollooo ioiooloolbf qoooooolloolohepcceceeeee         ",
"     h  onfollblo bgoloollobe aoolloooooolo ffaqaqqqaa  k       ",
"        opllollll  gboololo fdolooooolllolo  aooilbooaahd       ",
"     d  leooloooohe   d    fenfgloolloooloh aaolollolla         ",
"        olellooll e e h efeeffc           d aoiboioblloh        ",
"     h   oolboib deaooa edffeeepeeeeeeeefeehoobgiblloob h       ",
"    ece  bllllbdh albolohfcqaaqiaaaaaaaaa f ooolbloqoli ef      ",
"   eeeeh n    d h alloll faiolbiloolllllqa noloolooooomhcfeh h h",
" feeee aaaaaqaaak loblmgdiaobolooooooooooaa  ooooloioldefcefecee",
"  eefelaloooloool goggog aoigloollllooollo  hh h d    een       ",
"   eegqboollooolo  mbbjghalooolloolloooobl nccpeeceefffe        ",
"     qbllooooloooh k  de allooogboolooooloi pfnqaqaqa ee        ",
"     aloleoolbol laqaq e aoollogbgoloololoiheeablllooo e        ",
"    daololfooloclooolaanhaloooololloolboooi  qollololol         ",
"     aoolollollfolloooa  alloliolllolobiol   abooiooibod        ",
"   h qlolloolbkbolollol  oooolbolbolollol i hloloologll         ",
"    daolololoh llbblolo  loloolololooioghiic oollmbglbo         ",
"    cebliblooelooolloll  fbooiooollolgfgooa hllbliiloll         ",
"    e gobllgggbloioblighh doibblooooopeolo f lbloaoloo cn       ",
"   eef gbggegboggggbgg       d  h      h dcff lolblool eeeeefeee",
"h  feef    h        d d   h hfeeeeeeeecfeefeef h d h hfeef h  k ",
"  mnefeeefeefeeeeeef          feee            hceefeeecfedf    d",
"aaaaaceefaaaaoiiqaeeiiioololoq he              feeaaaaaaalbc    ",
"lllooae bliboloabif ilbllbbooba f              eeaqloolooac h   ",
"oblbibbnllbllolleo cloloololooih               haagglobooli     ",
"ioooolo loolbgollo hbogllioollb               nolgglblioolb h   ",
"bolloloholbilgiool  llbbolooooong              logolllbllooc    ",
"lioolol loloololoohhclolloolllo               dolololollolo e   ",
"lolooll loolollol n hoblloollo   h           d loollollolblde   ",
"llblolbd  h     h  h hd   d  dd   hddkh  h h  nooiooloogoio e   ",
"ollooo  e                e           h eaqaaqae lboolllllgl fh  ",
"    d e                 ee  mbololol bnaooloobadmblloooooi efc  ",
"  h efed                he mggoololool aloooila  ooololol nefeef",
"   h nf                  f gbolllolibl gollobb  d d  d    o     ",
"         d               f ollbloloblo      d hd  efeecff       ",
"           ef           ne loololoolbfeeeeeefe   qaaaeeee       ",
"             f           fniolloolbl eeeececf ooooolbofe        ",
"        h      ee      hece d h d  ndefeeeeke oohlooll p        ",
"      b e   n     d  hdnefeeefeee h d   eee e lob nlbo          ",
"      gde              efdeeo            ce e ooolbcfodd        ",
"      mh                ep               he e ooloibll          ",
"      b                 en                ehe lloollbo h        ",
"       d                ed                  e ooloolooh         ",
"                        e                   f lololblg          "
};
