/* XPM */
static char *tile_finish_xpm[] = {
"64 64 2 1",
"L c #EEEEEE",
"D c #282828",
"LLLLLLLLDDDDDDDDLLLLLLLLDDDDDDDDLLLLLLLLDDDDDDDDLLLLLLLLDDDDDDDD",
"LLLLLLLLDDDDDDDDLLLLLLLLDDDDDDDDLLLLLLLLDDDDDDDDLLLLLLLLDDDDDDDD",
"LLLLLLLLDDDDDDDDLLLLLLLLDDDDDDDDLLLLLLLLDDDDDDDDLLLLLLLLDDDDDDDD",
"LLLLLLLLDDDDDDDDLLLLLLLLDDDDDDDDLLLLLLLLDDDDDDDDLLLLLLLLDDDDDDDD",
"LLLLLLLLDDDDDDDDLLLLLLLLDDDDDDDDLLLLLLLLDDDDDDDDLLLLLLLLDDDDDDDD",
"LLLLLLLLDDDDDDDDLLLLLLLLDDDDDDDDLLLLLLLLDDDDDDDDLLLLLLLLDDDDDDDD",
"LLLLLLLLDDDDDDDDLLLLLLLLDDDDDDDDLLLLLLLLDDDDDDDDLLLLLLLLDDDDDDDD",
"LLLLLLLLDDDDDDDDLLLLLLLLDDDDDDDDLLLLLLLLDDDDDDDDLLLLLLLLDDDDDDDD",
"DDDDDDDDLLLLLLLLDDDDDDDDLLLLLLLLDDDDDDDDLLLLLLLLDDDDDDDDLLLLLLLL",
"DDDDDDDDLLLLLLLLDDDDDDDDLLLLLLLLDDDDDDDDLLLLLLLLDDDDDDDDLLLLLLLL",
"DDDDDDDDLLLLLLLLDDDDDDDDLLLLLLLLDDDDDDDDLLLLLLLLDDDDDDDDLLLLLLLL",
"DDDDDDDDLLLLLLLLDDDDDDDDLLLLLLLLDDDDDDDDLLLLLLLLDDDDDDDDLLLLLLLL",
"DDDDDDDDLLLLLLLLDDDDDDDDLLLLLLLLDDDDDDDDLLLLLLLLDDDDDDDDLLLLLLLL",
"DDDDDDDDLLLLLLLLDDDDDDDDLLLLLLLLDDDDDDDDLLLLLLLLDDDDDDDDLLLLLLLL",
"DDDDDDDDLLLLLLLLDDDDDDDDLLLLLLLLDDDDDDDDLLLLLLLLDDDDDDDDLLLLLLLL",
"DDDDDDDDLLLLLLLLDDDDDDDDLLLLLLLLDDDDDDDDLLLLLLLLDDDDDDDDLLLLLLLL",
"LLLLLLLLDDDDDDDDLLLLLLLLDDDDDDDDLLLLLLLLDDDDDDDDLLLLLLLLDDDDDDDD",
"LLLLLLLLDDDDDDDDLLLLLLLLDDDDDDDDLLLLLLLLDDDDDDDDLLLLLLLLDDDDDDDD",
"LLLLLLLLDDDDDDDDLLLLLLLLDDDDDDDDLLLLLLLLDDDDDDDDLLLLLLLLDDDDDDDD",
"LLLLLLLLDDDDDDDDLLLLLLLLDDDDDDDDLLLLLLLLDDDDDDDDLLLLLLLLDDDDDDDD",
"LLLLLLLLDDDDDDDDLLLLLLLLDDDDDDDDLLLLLLLLDDDDDDDDLLLLLLLLDDDDDDDD",
"LLLLLLLLDDDDDDDDLLLLLLLLDDDDDDDDLLLLLLLLDDDDDDDDLLLLLLLLDDDDDDDD",
"LLLLLLLLDDDDDDDDLLLLLLLLDDDDDDDDLLLLLLLLDDDDDDDDLLLLLLLLDDDDDDDD",
"LLLLLLLLDDDDDDDDLLLLLLLLDDDDDDDDLLLLLLLLDDDDDDDDLLLLLLLLDDDDDDDD",
"DDDDDDDDLLLLLLLLDDDDDDDDLLLLLLLLDDDDDDDDLLLLLLLLDDDDDDDDLLLLLLLL",
"DDDDDDDDLLLLLLLLDDDDDDDDLLLLLLLLDDDDDDDDLLLLLLLLDDDDDDDDLLLLLLLL",
"DDDDDDDDLLLLLLLLDDDDDDDDLLLLLLLLDDDDDDDDLLLLLLLLDDDDDDDDLLLLLLLL",
"DDDDDDDDLLLLLLLLDDDDDDDDLLLLLLLLDDDDDDDDLLLLLLLLDDDDDDDDLLLLLLLL",
"DDDDDDDDLLLLLLLLDDDDDDDDLLLLLLLLDDDDDDDDLLLLLLLLDDDDDDDDLLLLLLLL",
"DDDDDDDDLLLLLLLLDDDDDDDDLLLLLLLLDDDDDDDDLLLLLLLLDDDDDDDDLLLLLLLL",
"DDDDDDDDLLLLLLLLDDDDDDDDLLLLLLLLDDDDDDDDLLLLLLLLDDDDDDDDLLLLLLLL",
"DDDDDDDDLLLLLLLLDDDDDDDDLLLLLLLLDDDDDDDDLLLLLLLLDDDDDDDDLLLLLLLL",
"LLLLLLLLDDDDDDDDLLLLLLLLDDDDDDDDLLLLLLLLDDDDDDDDLLLLLLLLDDDDDDDD",
"LLLLLLLLDDDDDDDDLLLLLLLLDDDDDDDDLLLLLLLLDDDDDDDDLLLLLLLLDDDDDDDD",
"LLLLLLLLDDDDDDDDLLLLLLLLDDDDDDDDLLLLLLLLDDDDDDDDLLLLLLLLDDDDDDDD",
"LLLLLLLLDDDDDDDDLLLLLLLLDDDDDDDDLLLLLLLLDDDDDDDDLLLLLLLLDDDDDDDD",
"LLLLLLLLDDDDDDDDLLLLLLLLDDDDDDDDLLLLLLLLDDDDDDDDLLLLLLLLDDDDDDDD",
"LLLLLLLLDDDDDDDDLLLLLLLLDDDDDDDDLLLLLLLLDDDDDDDDLLLLLLLLDDDDDDDD",
"LLLLLLLLDDDDDDDDLLLLLLLLDDDDDDDDLLLLLLLLDDDDDDDDLLLLLLLLDDDDDDDD",
"LLLLLLLLDDDDDDDDLLLLLLLLDDDDDDDDLLLLLLLLDDDDDDDDLLLLLLLLDDDDDDDD",
"DDDDDDDDLLLLLLLLDDDDDDDDLLLLLLLLDDDDDDDDLLLLLLLLDDDDDDDDLLLLLLLL",
"DDDDDDDDLLLLLLLLDDDDDDDDLLLLLLLLDDDDDDDDLLLLLLLLDDDDDDDDLLLLLLLL",
"DDDDDDDDLLLLLLLLDDDDDDDDLLLLLLLLDDDDDDDDLLLLLLLLDDDDDDDDLLLLLLLL",
"DDDDDDDDLLLLLLLLDDDDDDDDLLLLLLLLDDDDDDDDLLLLLLLLDDDDDDDDLLLLLLLL",
"DDDDDDDDLLLLLLLLDDDDDDDDLLLLLLLLDDDDDDDDLLLLLLLLDDDDDDDDLLLLLLLL",
"DDDDDDDDLLLLLLLLDDDDDDDDLLLLLLLLDDDDDDDDLLLLLLLLDDDDDDDDLLLLLLLL",
"DDDDDDDDLLLLLLLLDDDDDDDDLLLLLLLLDDDDDDDDLLLLLLLLDDDDDDDDLLLLLLLL",
"DDDDDDDDLLLLLLLLDDDDDDDDLLLLLLLLDDDDDDDDLLLLLLLLDDDDDDDDLLLLLLLL",
"LLLLLLLLDDDDDDDDLLLLLLLLDDDDDDDDLLLLLLLLDDDDDDDDLLLLLLLLDDDDDDDD",
"LLLLLLLLDDDDDDDDLLLLLLLLDDDDDDDDLLLLLLLLDDDDDDDDLLLLLLLLDDDDDDDD",
"LLLLLLLLDDDDDDDDLLLLLLLLDDDDDDDDLLLLLLLLDDDDDDDDLLLLLLLLDDDDDDDD",
"LLLLLLLLDDDDDDDDLLLLLLLLDDDDDDDDLLLLLLLLDDDDDDDDLLLLLLLLDDDDDDDD",
"LLLLLLLLDDDDDDDDLLLLLLLLDDDDDDDDLLLLLLLLDDDDDDDDLLLLLLLLDDDDDDDD",
"LLLLLLLLDDDDDDDDLLLLLLLLDDDDDDDDLLLLLLLLDDDDDDDDLLLLLLLLDDDDDDDD",
"LLLLLLLLDDDDDDDDLLLLLLLLDDDDDDDDLLLLLLLLDDDDDDDDLLLLLLLLDDDDDDDD",
"LLLLLLLLDDDDDDDDLLLLLLLLDDDDDDDDLLLLLLLLDDDDDDDDLLLLLLLLDDDDDDDD",
"DDDDDDDDLLLLLLLLDDDDDDDDLLLLLLLLDDDDDDDDLLLLLLLLDDDDDDDDLLLLLLLL",
"DDDDDDDDLLLLLLLLDDDDDDDDLLLLLLLLDDDDDDDDLLLLLLLLDDDDDDDDLLLLLLLL",
"DDDDDDDDLLLLLLLLDDDDDDDDLLLLLLLLDDDDDDDDLLLLLLLLDDDDDDDDLLLLLLLL",
"DDDDDDDDLLLLLLLLDDDDDDDDLLLLLLLLDDDDDDDDLLLLLLLLDDDDDDDDLLLLLLLL",
"DDDDDDDDLLLLLLLLDDDDDDDDLLLLLLLLDDDDDDDDLLLLLLLLDDDDDDDDLLLLLLLL",
"DDDDDDDDLLLLLLLLDDDDDDDDLLLLLLLLDDDDDDDDLLLLLLLLDDDDDDDDLLLLLLLL",
"DDDDDDDDLLLLLLLLDDDDDDDDLLLLLLLLDDDDDDDDLLLLLLLLDDDDDDDDLLLLLLLL",
"DDDDDDDDLLLLLLLLDDDDDDDDLLLLLLLLDDDDDDDDLLLLLLLLDDDDDDDDLLLLLLLL"
};
