/* XPM */
static char *digit_0[] = {
"24 32 3 2",
"aa c #F4F4F4",
"ab c #000000",
"ac c #FF00FF",
/* pixels */
"acacacabaaaaaaaaaaaaaaaaaaaaaaaaaaaaaaaaabacacac",
"acacacabaaaaaaaaaaaaaaaaaaaaaaaaaaaaaaaaabacacac",
"acacacabaaaaaaaaaaaaaaaaaaaaaaaaaaaaaaaaabacacac",
"acacacabaaaaaaaaaaaaaaaaaaaaaaaaaaaaaaaaabacacac",
"ababababaaaaaaaaaaaaaaaaaaaaaaaaaaaaaaaaabababab",
"aaaaaaaaababababababababababababababababaaaaaaaa",
"aaaaaaaaabacacacacacacacacacacacacacacabaaaaaaaa",
"aaaaaaaaabacacacacacacacacacacacacacacabaaaaaaaa",
"aaaaaaaaabacacacacacacacacacacabababababaaaaaaaa",
"aaaaaaaaabacacacacacacacacacacabaaaaaaaaaaaaaaaa",
"aaaaaaaaabacacacacacacacacacacabaaaaaaaaaaaaaaaa",
"aaaaaaaaabacacacacacacacacacacabaaaaaaaaaaaaaaaa",
"aaaaaaaaabacacacacacacacacacacabaaaaaaaaaaaaaaaa",
"aaaaaaaaabacacacacacacabababababaaaaaaaaaaaaaaaa",
"aaaaaaaaabacacacacacacabaaaaaaaaababababaaaaaaaa",
"aaaaaaaaabacacacacacacabaaaaaaaaabacacabaaaaaaaa",
"aaaaaaaaabacacacacacacabaaaaaaaaabacacabaaaaaaaa",
"aaaaaaaaabacacabababababaaaaaaaaabacacabaaaaaaaa",
"aaaaaaaaabacacabaaaaaaaaabababababacacabaaaaaaaa",
"aaaaaaaaabacacabaaaaaaaaabacacacacacacabaaaaaaaa",
"aaaaaaaaabacacabaaaaaaaaabacacacacacacabaaaaaaaa",
"aaaaaaaaabacacabaaaaaaaaabacacacacacacabaaaaaaaa",
"aaaaaaaaababababaaaaaaaaabacacacacacacabaaaaaaaa",
"aaaaaaaaaaaaaaaaabababababacacacacacacabaaaaaaaa",
"aaaaaaaaaaaaaaaaabacacacacacacacacacacabaaaaaaaa",
"aaaaaaaaaaaaaaaaabacacacacacacacacacacabaaaaaaaa",
"aaaaaaaaaaaaaaaaababababababababababababaaaaaaaa",
"ababababaaaaaaaaaaaaaaaaaaaaaaaaaaaaaaaaabababab",
"acacacabaaaaaaaaaaaaaaaaaaaaaaaaaaaaaaaaabacacac",
"acacacabaaaaaaaaaaaaaaaaaaaaaaaaaaaaaaaaabacacac",
"acacacabaaaaaaaaaaaaaaaaaaaaaaaaaaaaaaaaabacacac",
"acacacabaaaaaaaaaaaaaaaaaaaaaaaaaaaaaaaaabacacac"
};
