/* XPM */
static char *digit_1[] = {
"24 32 3 2",
"aa c #F4F4F4",
"ab c #000000",
"ac c #FF00FF",
/* pixels */
"acacacacacacacabaaaaaaaaaaaaaaaaabacacacacacacac",
"acacacacacacacabaaaaaaaaaaaaaaaaabacacacacacacac",
"acacacacacacacabaaaaaaaaaaaaaaaaabacacacacacacac",
"acacacacacacacabaaaaaaaaaaaaaaaaabacacacacacacac",
"acacacabababababaaaaaaaaaaaaaaaaabacacacacacacac",
"acacacabaaaaaaaaababababaaaaaaaaabacacacacacacac",
"acacacabaaaaaaaaabacacabaaaaaaaaabacacacacacacac",
"acacacabaaaaaaaaabacacabaaaaaaaaabacacacacacacac",
"acacacabaaaaaaaaabacacabaaaaaaaaabacacacacacacac",
"acacacababababababacacabaaaaaaaaabacacacacacacac",
"acacacacacacacacacacacabaaaaaaaaabacacacacacacac",
"acacacacacacacacacacacabaaaaaaaaabacacacacacacac",
"acacacacacacacacacacacabaaaaaaaaabacacacacacacac",
"acacacacacacacacacacacabaaaaaaaaabacacacacacacac",
"acacacacacacacacacacacabaaaaaaaaabacacacacacacac",
"acacacacacacacacacacacabaaaaaaaaabacacacacacacac",
"acacacacacacacacacacacabaaaaaaaaabacacacacacacac",
"acacacacacacacacacacacabaaaaaaaaabacacacacacacac",
"acacacacacacacacacacacabaaaaaaaaabacacacacacacac",
"acacacacacacacacacacacabaaaaaaaaabacacacacacacac",
"acacacacacacacacacacacabaaaaaaaaabacacacacacacac",
"acacacacacacacacacacacabaaaaaaaaabacacacacacacac",
"acacacacacacacacacacacabaaaaaaaaabacacacacacacac",
"acacacacacacacacacacacabaaaaaaaaabacacacacacacac",
"acacacacacacacacacacacabaaaaaaaaabacacacacacacac",
"acacacacacacacacacacacabaaaaaaaaabacacacacacacac",
"acacacabababababababababaaaaaaaaabababababababab",
"acacacabaaaaaaaaaaaaaaaaaaaaaaaaaaaaaaaaaaaaaaaa",
"acacacabaaaaaaaaaaaaaaaaaaaaaaaaaaaaaaaaaaaaaaaa",
"acacacabaaaaaaaaaaaaaaaaaaaaaaaaaaaaaaaaaaaaaaaa",
"acacacabaaaaaaaaaaaaaaaaaaaaaaaaaaaaaaaaaaaaaaaa",
"acacacabaaaaaaaaaaaaaaaaaaaaaaaaaaaaaaaaaaaaaaaa"
};
