/* XPM */
static char *digit_colon[] = {
"24 32 3 2",
"aa c #F4F4F4",
"ab c #000000",
"ac c #FF00FF",
/* pixels */
"acacacacacacacacacacacacacacacacacacacacacacacac",
"acacacacacacacacacacacacacacacacacacacacacacacac",
"acacacacacacacacacacacacacacacacacacacacacacacac",
"acacacacacacacacacacacacacacacacacacacacacacacac",
"acacacacacacacababababababababababacacacacacacac",
"acacacacacacacabaaaaaaaaaaaaaaaaabacacacacacacac",
"acacacacacacacabaaaaaaaaaaaaaaaaabacacacacacacac",
"acacacacacacacabaaaaaaaaaaaaaaaaabacacacacacacac",
"acacacacacacacabaaaaaaaaaaaaaaaaabacacacacacacac",
"acacacacacacacabaaaaaaaaaaaaaaaaabacacacacacacac",
"acacacacacacacabaaaaaaaaaaaaaaaaabacacacacacacac",
"acacacacacacacabaaaaaaaaaaaaaaaaabacacacacacacac",
"acacacacacacacabaaaaaaaaaaaaaaaaabacacacacacacac",
"acacacacacacacabaaaaaaaaaaaaaaaaabacacacacacacac",
"acacacacacacacababababababababababacacacacacacac",
"acacacacacacacacacacacacacacacacacacacacacacacac",
"acacacacacacacacacacacacacacacacacacacacacacacac",
"acacacacacacacababababababababababacacacacacacac",
"acacacacacacacabaaaaaaaaaaaaaaaaabacacacacacacac",
"acacacacacacacabaaaaaaaaaaaaaaaaabacacacacacacac",
"acacacacacacacabaaaaaaaaaaaaaaaaabacacacacacacac",
"acacacacacacacabaaaaaaaaaaaaaaaaabacacacacacacac",
"acacacacacacacabaaaaaaaaaaaaaaaaabacacacacacacac",
"acacacacacacacabaaaaaaaaaaaaaaaaabacacacacacacac",
"acacacacacacacabaaaaaaaaaaaaaaaaabacacacacacacac",
"acacacacacacacabaaaaaaaaaaaaaaaaabacacacacacacac",
"acacacacacacacabaaaaaaaaaaaaaaaaabacacacacacacac",
"acacacacacacacababababababababababacacacacacacac",
"acacacacacacacacacacacacacacacacacacacacacacacac",
"acacacacacacacacacacacacacacacacacacacacacacacac",
"acacacacacacacacacacacacacacacacacacacacacacacac",
"acacacacacacacacacacacacacacacacacacacacacacacac"
};
