/* XPM */
static char *digit_3[] = {
"24 32 3 2",
"aa c #F4F4F4",
"ab c #000000",
"ac c #FF00FF",
/* pixels */
"acacacabaaaaaaaaaaaaaaaaaaaaaaaaaaaaaaaaabacacac",
"acacacabaaaaaaaaaaaaaaaaaaaaaaaaaaaaaaaaabacacac",
"acacacabaaaaaaaaaaaaaaaaaaaaaaaaaaaaaaaaabacacac",
"acacacabaaaaaaaaaaaaaaaaaaaaaaaaaaaaaaaaabacacac",
"ababababaaaaaaaaaaaaaaaaaaaaaaaaaaaaaaaaabababab",
"aaaaaaaaababababababababababababababababaaaaaaaa",
"aaaaaaaaabacacacacacacacacacacacacacacabaaaaaaaa",
"aaaaaaaaabacacacacacacacacacacacacacacabaaaaaaaa",
"aaaaaaaaabacacacacacacacacacacacacacacabaaaaaaaa",
"abababababacacacacacacacacacacacacacacabaaaaaaaa",
"acacacacacacacacacacacacacacacacacacacabaaaaaaaa",
"acacacacacacacacacacacacacacacacacacacabaaaaaaaa",
"acacacacacacacacacacacacacacacacacacacabaaaaaaaa",
"acacacacacacacabababababababababababababaaaaaaaa",
"acacacacacacacabaaaaaaaaaaaaaaaaaaaaaaaaabababab",
"acacacacacacacabaaaaaaaaaaaaaaaaaaaaaaaaabacacac",
"acacacacacacacabaaaaaaaaaaaaaaaaaaaaaaaaabacacac",
"acacacacacacacabaaaaaaaaaaaaaaaaaaaaaaaaabababab",
"acacacacacacacabababababababababababababaaaaaaaa",
"acacacacacacacacacacacacacacacacacacacabaaaaaaaa",
"acacacacacacacacacacacacacacacacacacacabaaaaaaaa",
"acacacacacacacacacacacacacacacacacacacabaaaaaaaa",
"abababababacacacacacacacacacacacacacacabaaaaaaaa",
"aaaaaaaaabacacacacacacacacacacacacacacabaaaaaaaa",
"aaaaaaaaabacacacacacacacacacacacacacacabaaaaaaaa",
"aaaaaaaaabacacacacacacacacacacacacacacabaaaaaaaa",
"aaaaaaaaababababababababababababababababaaaaaaaa",
"ababababaaaaaaaaaaaaaaaaaaaaaaaaaaaaaaaaabababab",
"acacacabaaaaaaaaaaaaaaaaaaaaaaaaaaaaaaaaabacacac",
"acacacabaaaaaaaaaaaaaaaaaaaaaaaaaaaaaaaaabacacac",
"acacacabaaaaaaaaaaaaaaaaaaaaaaaaaaaaaaaaabacacac",
"acacacabaaaaaaaaaaaaaaaaaaaaaaaaaaaaaaaaabacacac"
};
