/* XPM */
static char *car1_blue_s2[] = {
"64 64 7 2",
"aa c #000000",
"ab c #1A5276",
"ac c #2471A3",
"ad c #154360",
"ae c #222222",
"af c #2C7FB0",
"ag c #FF00FF",
/* pixels */
"agagagagagagagagagagagagagagagagagagagagagagagagagagagagagagagagagagagagagagagagagagagagagagagagagagagagagagagagagagagagagagagag",
"agagagagagagagagagagagagagagagagagagagagagagagagagagagagagagagagagagagagagagagagagagagagagagagagagagagagagagagagagagagagagagagag",
"agagagagagagagagagagagagagagagagagagagagagagagagagagagagagagagagagagagagagagagagagagagagagagagagagagagagagagagagagagagagagagagag",
"agagagagagagagagagagagagagagagagagagagagagagagagagagagagagagagagagagagagagagagagagagagagagagagagagagagagagagagagagagagagagagagag",
"agagagagagagagagagagagagagagagagagagagagagagagagagagagagagagagagagagagagagagagagagagagagagagagagagagagagagagagagagagagagagagagag",
"agagagagagagagagagagagagagagagagagagagagagagagagagagagabagaeaeabacaeaeaeadadagagagagagagagagagagagagagagagagagagagagagagagagagag",
"agagagagagagagagagagagagagagagagagagagagagagagagagagadadagagaeadadaeaeaeadabadagagagagagagagagagagagagagagagagagagagagagagagagag",
"agagagagagagagagagagagagagagagagagagagagagagagagaeaeacacaeaeaeabacaeaeaeacababadadaeagagagagagagagagagagagagagagagagagagagagagag",
"agagagagagagagagagagagagagagagagagagagagagagaaaeadabacacaeaeaeababaeaeaeacacabacabacabagagagagagagagagagagagagagagagagagagagagag",
"agagagagagagagagagagagagagagagagagagagagagadabacadacabacaeaeaeaaaaaeaeaeafacacabacababadagagagagagagagagagagagagagagagagagagagag",
"agagagagagagagagagagagagagagagagagagagagagabacacacabacacaeaeaaaeaeaaaeaaacafacacacabababagagagagagagagagagagagagagagagagagagagag",
"agagagagagagagagagagagagagagagagagagagagaeabacacabacacafaaaaaeaeaeaeaaaaacacafacacacabadagagagagagagagagagagagagagagagagagagagag",
"agagagagagagagagagagagagagagagagagagagagadabafacabacafacaaaeaeaeaeaeaeaaafafafacabafababadagagagagagagagagagagagagagagagagagagag",
"agagagagagagagagagagagagagagagagagagagagababacacafacacafaaaeaeaeaeaeaeaaacacafafabacacabadagagagagagagagagagagagagagagagagagagag",
"agagagagagagagagagagagagagagagagagagagagababacabacafacacaaaeaeaeaeaeaeaaafacafacabacacabadagagagagagagagagagagagagagagagagagagag",
"agagagagagagagagagagagagagagagagagagagagababacabacacafacaaaeaeaeaeaeaeaaacafacacabacacababagagagagagagagagagagagagagagagagagagag",
"agagagagagagagagagagagagagagagagagagagagababacabacafacacaaaeaeaeaeaeaeaaacacacafabacacababagagagagagagagagagagagagagagagagagagag",
"agagagagagagagagagagagagagagagagagagagagababacabafacafafaaaaaaaaaaaaaaaaacafacacabacacababagagagagagagagagagagagagagagagagagagag",
"agagagagagagagagagagagagagagagagagagagagadabacabacacafacadaeaeababaeaeaaacacafafabafafababagagagagagagagagagagagagagagagagagagag",
"agagagagagagagagagagagagagagagagagagagagababafabafacacacadaeadabacadadaeacacacacabacacadabagagagagagagagagagagagagagagagagagagag",
"agagagagagagagagagagagagagagagagagagagagadabacabacacacacaeaeaeababadadaaacacacacabacacababagagagagagagagagagagagagagagagagagagag",
"agagagagagagagagagagagagagagagagagagagagaeabacabacacaeaaaaaaaaaaaaaaaaaaaaaaaaacabafacabagagagagagagagagagagagagagagagagagagagag",
"agagagagagagagagagagagagagagagagagagagagagabafabaeaeaeaeaeaeaeaeaeaeaeaeaeadaeaaaeadacabagagagagagagagagagagagagagagagagagagagag",
"agagagagagagagagagagagagagagagagagagagagagabacaeadadaeaeaeaeaeaeaeaeaeaeaeaeaeaeadaeacadagagagagagagagagagagagagagagagagagagagag",
"agagagagagagagagagagagagagagagagagagagagagadacaaadaeaeaeaeaeaeaeaeaeaeaeaeaeaeaeadaaabadagagagagagagagagagagagagagagagagagagagag",
"agagagagagagagagagagagagagagagagagagagagagagadabaaaeaeaeaeaeadaeadaeaeaeaeaeaeaeaaadagagagagagagagagagagagagagagagagagagagagagag",
"agagagagagagagagagagagagagagagagagagagagagabagadadaaadaaaeaeaeaeaeaeaeaaaaaaadaaadagagadagagagagagagagagagagagagagagagagagagagag",
"agagagagagagagagagagagagagagagagagagagagagagagagadadaeacacacafacacafacacacacaaabadagagagagagagagagagagagagagagagagagagagagagagag",
"agagagagagagagagagagagagagagagagagagagagagadaeagagadacafafacacafafafafacacacacabaaaeagadagagagagagagagagagagagagagagagagagagagag",
"agagagagagagagagagagagagagagagagagagagagagadaeagagabafacafafacafafacacafacafacabaaaeagaeagagagagagagagagagagagagagagagagagagagag",
"agagagagagagagagagagagagagagagagagagagagagadaeaeagabacacafafafacacafacabafacafabaaadagadagagagagagagagagagagagagagagagagagagagag",
"agagagagagagagagagagagagagagagagagagagagagadaeaeagadacafacacafacafacacafacafacabaaaeagadagagagagagagagagagagagagagagagagagagagag",
"agagagagagagagagagagagagagagagagagagagagagadaeaeagadacacacacacafacafacacacafacabaaadagadagagagagagagagagagagagagagagagagagagagag",
"agagagagagagagagagagagagagagagagagagagagagadaeaeagabacacafafacafacafacacacafacabaaaeaaadagagagagagagagagagagagagagagagagagagagag",
"agagagagagagagagagagagagagagagagagagagagagadaeaeagadacacafafacafacafafacacafacabaaaeaaadagagagagagagagagagagagagagagagagagagagag",
"agagagagagagagagagagagagagagagagagagagagagadaeaeagabafacafafacacafafafafacacacabaaaeaaadagagagagagagagagagagagagagagagagagagagag",
"agagagagagagagagagagagagagagagagagagagagagadadaeagabafacafafacacafafafafafafacabaaaeaaadagagagagagagagagagagagagagagagagagagagag",
"agagagagagagagagagagagagagagagagagagagagagadaeaaaeabacacacafacafacafafafafafacabaaaeaaadagagagagagagagagagagagagagagagagagagagag",
"agagagagagagagagagagagagagagagagagagagagagadaaaeadabacafafacacacacacacafafacacabadaeadabagagagagagagagagagagagagagagagagagagagag",
"agagagagagagagagagagagagagagagagagagagagagabaeababadabacacacacacacacacacacacacadabaaababagagagagagagagagagagagagagagagagagagagag",
"agagagagagagagagagagagagagagagagagagagagagababadababadababadabababadababababadadababababagagagagagagagagagagagagagagagagagagagag",
"agagagagagagagagagagagagagagagagagagagagaaabacabadaaaaaaaaaaaaaaaaaaaaaaaaaaaaaaababacabagagagagagagagagagagagagagagagagagagagag",
"agagagagagagagagagagagagagagagagagagagagaeabacabadaaaeadaeadadaeaeadadaeaeaeaeaaadabacabagagagagagagagagagagagagagagagagagagagag",
"agagagagagagagagagagagagagagagagagagagagadabafabaaaeaeaeaeaeaeadaeaeaeaeaeaeaeaeaaabacabadagagagagagagagagagagagagagagagagagagag",
"agagagagagagagagagagagagagagagagagagagagababacabaaadaeaeaeaeaeaeaeaeaeaeaeaeaeaeaeabacababagagagagagagagagagagagagagagagagagagag",
"agagagagagagagagagagagagagagagagagagagagababacabaeadaeaeaeaeaeaeaeaeaeaeaeaaaaaaacabafabadagagagagagagagagagagagagagagagagagagag",
"agagagagagagagagagagagagagagagagagagagagababacabadaaaaaaaaaaaaaaaaaaaaaaadacafacafabafababagagagagagagagagagagagagagagagagagagag",
"agagagagagagagagagagagagagagagagagagagagabacafabafacacacacaeaeaeabaeaeadacacacafacabacababagagagagagagagagagagagagagagagagagagag",
"agagagagagagagagagagagagagagagagagagagagadacacabafacacacacadaeaeacadaeaeacafacafacabacababagagagagagagagagagagagagagagagagagagag",
"agagagagagagagagagagagagagagagagagagagagadacacabafacacacacadaeaeacadaeaeacacafacacababababagagagagagagagagagagagagagagagagagagag",
"agagagagagagagagagagagagagagagagagagagagababacacafafafafacadaeaeacadaeadacafacafababadababagagagagagagagagagagagagagagagagagagag",
"agagagagagagagagagagagagagagagagagagagagadabacacafafacacacadaeaeacadaeaeacacabababafabadabagagagagagagagagagagagagagagagagagagag",
"agagagagagagagagagagagagagagagagagagagagaeabafabafafafacacaeaeaeabaeaeaeacacafafadafafadagagagagagagagagagagagagagagagagagagagag",
"agagagagagagagagagagagagagagagagagagagagagabacabafacacacacaeaeaeacadaeaeadafaeaaaaadacafagagagagagagagagagagagagagagagagagagagag",
"agagagagagagagagagagagagagagagagagagagagagabababacababababaeaeaeabaeaeaeafaaadabadaaadadagagagagagagagagagagagagagagagagagagagag",
"agagagagagagagagagagagagagagagagagagagagagabadadacacabababaaaaaaaaaaaaaaaaaaaaaaaaaaaaadagagagagagagagagagagagagagagagagagagagag",
"agagagagagagagagagagagagagagagagagagagagagadadaaaaaaaaaaaaaaaeaeaeaeaeaeaeaeadabadadaaaeagagagagagagagagagagagagagagagagagagagag",
"agagagagagagagagagagagagagagagagagagagagagadaaacabababaeaeaeaeaaaaaaaaaeaeadaeaeaeaeadaeagagagagagagagagagagagagagagagagagagagag",
"agagagagagagagagagagagagagagagagagagagagagagaeaaaaaaaaadadadaeadaeaeaeagagagaeadadaeadagagagagagagagagagagagagagagagagagagagagag",
"agagagagagagagagagagagagagagagagagagagagagagagadadaeaeagagagagagagagagagagagagagagagagagagagagagagagagagagagagagagagagagagagagag",
"agagagagagagagagagagagagagagagagagagagagagagagagagagagagagagagagagagagagagagagagagagagagagagagagagagagagagagagagagagagagagagagag",
"agagagagagagagagagagagagagagagagagagagagagagagagagagagagagagagagagagagagagagagagagagagagagagagagagagagagagagagagagagagagagagagag",
"agagagagagagagagagagagagagagagagagagagagagagagagagagagagagagagagagagagagagagagagagagagagagagagagagagagagagagagagagagagagagagagag",
"agagagagagagagagagagagagagagagagagagagagagagagagagagagagagagagagagagagagagagagagagagagagagagagagagagagagagagagagagagagagagagagag"
};
