/* XPM */
static char *car2_p1_s1[] = {
"64 64 25 2",
"aa	c #ff00ff",
"ab	c #010000",
"ac	c #273587",
"ad	c #2d3d9b",
"ae	c #162665",
"af	c #3d3ea9",
"ag	c #141f50",
"ah	c #2341ab",
"ai	c #333dab",
"aj	c #1b2878",
"ak	c #2b2d34",
"al	c #43444b",
"am	c #39442e",
"an	c #383a43",
"ao	c #262c56",
"ap	c #222e6f",
"aq	c #1e2b85",
"ar	c #1b3095",
"as	c #282a36",
"at	c #232529",
"au	c #3641bd",
"av	c #3c4dcf",
"aw	c #d8b5b6",
"ax	c #5d5acc",
"ay	c #525dd4",
"aaaaaaaaaaaaaaaaaaaaaaaaaaaaaaaaaaaaaaaaaaaaaaaaaaaaaaaaaaaaaaaaaaaaaaaaaaaaaaaaaaaaaaaaaaaaaaaaaaaaaaaaaaaaaaaaaaaaaaaaaaaaaaaa",
"aaaaaaaaaaaaaaaaaaaaaaaaaaaaaaaaaaaaaaaaaaaaaaaaaaaaaaaaaaaaaaaaaaaaaaaaaaaaaaaaaaaaaaaaaaaaaaaaaaaaaaaaaaaaaaaaaaaaaaaaaaaaaaaa",
"aaaaaaaaaaaaaaaaaaaaaaaaaaaaaaaaaaaaaaaaaaaaaaaaaaaaababababababababababababaaaaaaaaaaaaaaaaaaaaaaaaaaaaaaaaaaaaaaaaaaaaaaaaaaaa",
"aaaaaaaaaaaaaaaaaaaaaaaaaaaaaaaaaaaaaaaaaaabababababacacacacadadadadadadadaeabababababaaaaaaaaaaaaaaaaaaaaaaaaaaaaaaaaaaaaaaaaaa",
"aaaaaaaaaaaaaaaaaaaaaaaaaaaaaaaaaaaaaaaaababadafafafaeaeaeaeaeaeaeaeaeaeaeaeafafafafababaaaaaaaaaaaaaaaaaaaaaaaaaaaaaaaaaaaaaaaa",
"aaaaaaaaaaaaaaaaaaaaaaaaaaaaaaaaaaaaaaabagadaeaeaeaeaeahahahahahahahahahahaeaeaeaeaeadagabaaaaaaaaaaaaaaaaaaaaaaaaaaaaaaaaaaaaaa",
"aaaaaaaaaaaaaaaaaaaaaaaaaaaaaaaaaaaaabagagaeahahahaeahahahahahahahahahahahahaeahahahaeaeagabaaaaaaaaaaaaaaaaaaaaaaaaaaaaaaaaaaaa",
"aaaaaaaaaaaaaaaaaaaaaaaaaaaaaaaaaaaaabaeaeahahahahaeahahahahahahahahahahahahaeahahahahaeaeabaaaaaaaaaaaaaaaaaaaaaaaaaaaaaaaaaaaa",
"aaaaaaaaaaaaaaaaaaaaaaaaaaaaaaaaaaabaeaiaeahahahahaeahahahahahahahahahahahahaeahahahahaeadaeabaaaaaaaaaaaaaaaaaaaaaaaaaaaaaaaaaa",
"aaaaaaaaaaaaaaaaaaaaaaaaaaaaaaaaaaabaeahaeahahahaeahahahahahahahahahahahahahahajahahahaeadaeabaaaaaaaaaaaaaaaaaaaaaaaaaaaaaaaaaa",
"aaaaaaaaaaaaaaaaaaaaaaaaaaaaaaaaaaabajaiaeahahahaeahahahahahahahahahahahahahahajahahahaeadaeabaaaaaaaaaaaaaaaaaaaaaaaaaaaaaaaaaa",
"aaaaaaaaaaaaaaaaaaaaaaaaaaaaaaaaaaabajadaeahahahaeahahahahahahahahahahahahahahajahahahaeadaeabaaaaaaaaaaaaaaaaaaaaaaaaaaaaaaaaaa",
"aaaaaaaaaaaaaaaaaaaaaaaaaaaaaaaaaaabajadaeahahahaeahahahahahahahahahahahahahahajahahahaeadaeabaaaaaaaaaaaaaaaaaaaaaaaaaaaaaaaaaa",
"aaaaaaaaaaaaaaaaaaaaaaaaaaaaaaaaaaabajadaeahahaeaeahahahahahahahahahahahahahahajajahahaeadaeabaaaaaaaaaaaaaaaaaaaaaaaaaaaaaaaaaa",
"aaaaaaaaaaaaaaaaaaaaaaaaaaaaaaaaaaabajadaeahahaeahahahahajahahahahahahajahahahahajahahaeadaeabaaaaaaaaaaaaaaaaaaaaaaaaaaaaaaaaaa",
"aaaaaaaaaaaaaaaaaaaaaaaaaaaaaaaaaaabaeadaeahahaeahahahahahahahahahahahahahahahahajahahaeadaeabaaaaaaaaaaaaaaaaaaaaaaaaaaaaaaaaaa",
"aaaaaaaaaaaaaaaaaaaaaaaaaaaaaaaaaaabaeadaeahahaeahahababababababababababababahahajahahaeadaeabaaaaaaaaaaaaaaaaaaaaaaaaaaaaaaaaaa",
"aaaaaaaaaaaaaaaaaaaaaaaaaaaaaaaaaaabaeadaeahababababakakakakakakakakakakakakababababahaeadaeabaaaaaaaaaaaaaaaaaaaaaaaaaaaaaaaaaa",
"aaaaaaaaaaaaaaaaaaaaaaaaaaaaaaaaaaabaeadaeababakakakalalalalalalalalalalalalamamanababaeadaeabaaaaaaaaaaaaaaaaaaaaaaaaaaaaaaaaaa",
"aaaaaaaaaaaaaaaaaaaaaaaaaaaaaaaaaaababadadabalalalalalalalalalalalalalalalalalalalalabaeadababaaaaaaaaaaaaaaaaaaaaaaaaaaaaaaaaaa",
"aaaaaaaaaaaaaaaaaaaaaaaaaaaaaaaaababababadabalalalalalalalalalalalalalalalalalalalalabadababababaaaaaaaaaaaaaaaaaaaaaaaaaaaaaaaa",
"aaaaaaaaaaaaaaaaaaaaaaaaaaaaaaabaoaoaoababacabalalalalalalalalalalalalalalalalalalabadababapapapabaaaaaaaaaaaaaaaaaaaaaaaaaaaaaa",
"aaaaaaaaaaaaaaaaaaaaaaaaaaaaaaababababababacabalalalababababababababababababalalalabacababababababaaaaaaaaaaaaaaaaaaaaaaaaaaaaaa",
"aaaaaaaaaaaaaaaaaaaaaaaaaaaaaaaaaaabaoabakabacabababahahahahahahahahahahahahabababadabakabaoabaaaaaaaaaaaaaaaaaaaaaaaaaaaaaaaaaa",
"aaaaaaaaaaaaaaaaaaaaaaaaaaaaaaaaaaabaoabakabaqadarahahahahahahahahahahahahahahadadadabakabaoabaaaaaaaaaaaaaaaaaaaaaaaaaaaaaaaaaa",
"aaaaaaaaaaaaaaaaaaaaaaaaaaaaaaaaaaabaoabakakabahahahahahahahahahahahahahahahahahahabakakabaoabaaaaaaaaaaaaaaaaaaaaaaaaaaaaaaaaaa",
"aaaaaaaaaaaaaaaaaaaaaaaaaaaaaaaaaaabaoabakakabahahahahahahahahahahahahahahahahahahabakakabaoabaaaaaaaaaaaaaaaaaaaaaaaaaaaaaaaaaa",
"aaaaaaaaaaaaaaaaaaaaaaaaaaaaaaaaaaabaoabakakabahahahahahahahahahahahahahahahahahahabakakabaoabaaaaaaaaaaaaaaaaaaaaaaaaaaaaaaaaaa",
"aaaaaaaaaaaaaaaaaaaaaaaaaaaaaaaaaaabaoabakakabahahahahahahahahahahahahahahahahahahabakakabaoabaaaaaaaaaaaaaaaaaaaaaaaaaaaaaaaaaa",
"aaaaaaaaaaaaaaaaaaaaaaaaaaaaaaaaaaabaoabakakabahahahahahahahahahahahahahahahahahahabakakabaoabaaaaaaaaaaaaaaaaaaaaaaaaaaaaaaaaaa",
"aaaaaaaaaaaaaaaaaaaaaaaaaaaaaaaaaaabaoabakakabahahahahahahahahahahahahahahahahahahabakakabaoabaaaaaaaaaaaaaaaaaaaaaaaaaaaaaaaaaa",
"aaaaaaaaaaaaaaaaaaaaaaaaaaaaaaaaaaabaoabakababahahahahahahahahahahahahahahahahahahababakabaoabaaaaaaaaaaaaaaaaaaaaaaaaaaaaaaaaaa",
"aaaaaaaaaaaaaaaaaaaaaaaaaaaaaaaaaaabaoababagagahahahahahahahahahahahahahahahahahahaoaoababaoabaaaaaaaaaaaaaaaaaaaaaaaaaaaaaaaaaa",
"aaaaaaaaaaaaaaaaaaaaaaaaaaaaaaaaaaabaoabagababahahahahahahahahahahahahahahahahahahababasabaoabaaaaaaaaaaaaaaaaaaaaaaaaaaaaaaaaaa",
"aaaaaaaaaaaaaaaaaaaaaaaaaaaaaaaaaaabaoababakabahahahahahahahahahahahahahahahahahahabakababaeabaaaaaaaaaaaaaaaaaaaaaaaaaaaaaaaaaa",
"aaaaaaaaaaaaaaaaaaaaaaaaaaaaaaaaaaabaoabakakabahahahahahahahahahahahahahahahahahahabakakabaeabaaaaaaaaaaaaaaaaaaaaaaaaaaaaaaaaaa",
"aaaaaaaaaaaaaaaaaaaaaaaaaaaaaaaaaaabaoabakakabahahahahahahahahahahahahahahahahahahabakakabaeabaaaaaaaaaaaaaaaaaaaaaaaaaaaaaaaaaa",
"aaaaaaaaaaaaaaaaaaaaaaaaaaaaaaaaaaabaoabakakabahahahahahahahahahahahahahahahahahahabakakabaeabaaaaaaaaaaaaaaaaaaaaaaaaaaaaaaaaaa",
"aaaaaaaaaaaaaaaaaaaaaaaaaaaaaaaaaaabaoabakakabahahahahahahahahahahahahahahahahahahabakakabaeabaaaaaaaaaaaaaaaaaaaaaaaaaaaaaaaaaa",
"aaaaaaaaaaaaaaaaaaaaaaaaaaaaaaaaaaabaoabakakabahahahahahahahahahahahahahahahahahahabakakabaeabaaaaaaaaaaaaaaaaaaaaaaaaaaaaaaaaaa",
"aaaaaaaaaaaaaaaaaaaaaaaaaaaaaaaaaaabaoabakabaqaqahahahahahahahahahahahahahahahahapapabakabaeabaaaaaaaaaaaaaaaaaaaaaaaaaaaaaaaaaa",
"aaaaaaaaaaaaaaaaaaaaaaaaaaaaaaaaaaabaoababajajajabahahahahahahahahahahahahahahabaeaeapababaeabaaaaaaaaaaaaaaaaaaaaaaaaaaaaaaaaaa",
"aaaaaaaaaaaaaaaaaaaaaaaaaaaaaaaaaaabaoababajajagababababababababababababababababaeaeapababaeabaaaaaaaaaaaaaaaaaaaaaaaaaaaaaaaaaa",
"aaaaaaaaaaaaaaaaaaaaaaaaaaaaaaaaaaabaeaeaeajajabananananananananananananananananabaeaeapabababaaaaaaaaaaaaaaaaaaaaaaaaaaaaaaaaaa",
"aaaaaaaaaaaaaaaaaaaaaaaaaaaaaaaaaaabaeaeaeajababananananananananananananananananababaeaeapapabaaaaaaaaaaaaaaaaaaaaaaaaaaaaaaaaaa",
"aaaaaaaaaaaaaaaaaaaaaaaaaaaaaaaaaaabaeaeaeaeabakananananananananananananananananamabaeaeaeaeabaaaaaaaaaaaaaaaaaaaaaaaaaaaaaaaaaa",
"aaaaaaaaaaaaaaaaaaaaaaaaaaaaaaaaaaabaeaeaeaeabakananananananananananananananananamabaeaeaeapabaaaaaaaaaaaaaaaaaaaaaaaaaaaaaaaaaa",
"aaaaaaaaaaaaaaaaaaaaaaaaaaaaaaaaaaabaeaeadaeaeabababatatatatatatatatatatatatabababaeaeadapapabaaaaaaaaaaaaaaaaaaaaaaaaaaaaaaaaaa",
"aaaaaaaaaaaaaaaaaaaaaaaaaaaaaaaaaaabaeaeadaeadahahadababababababababababababadadahahaeahapaeabaaaaaaaaaaaaaaaaaaaaaaaaaaaaaaaaaa",
"aaaaaaaaaaaaaaaaaaaaaaaaaaaaaaaaaaabaeaeadaeahahahahahahahahahahahahahahahahahahahahaeahapaeabaaaaaaaaaaaaaaaaaaaaaaaaaaaaaaaaaa",
"aaaaaaaaaaaaaaaaaaaaaaaaaaaaaaaaaaabaeaeadaeahahahahahahahahahahahahahahahahahahahahaeahapaeabaaaaaaaaaaaaaaaaaaaaaaaaaaaaaaaaaa",
"aaaaaaaaaaaaaaaaaaaaaaaaaaaaaaaaaaabaeaeadaeahahahahahahahahahahahahahahahahahahahahaeadapaeabaaaaaaaaaaaaaaaaaaaaaaaaaaaaaaaaaa",
"aaaaaaaaaaaaaaaaaaaaaaaaaaaaaaaaaaabaeaeadaeagahahahahahahahahahahahahahahahahahahajaeadapaeabaaaaaaaaaaaaaaaaaaaaaaaaaaaaaaaaaa",
"aaaaaaaaaaaaaaaaaaaaaaaaaaaaaaaaaaabaeaeaeadagahahahahahahahahahahahahahahahahahahajadaeaeaeabaaaaaaaaaaaaaaaaaaaaaaaaaaaaaaaaaa",
"aaaaaaaaaaaaaaaaaaaaaaaaaaaaaaaaaaabaeaeaeadagahahahahahahahahahahahahahahahahajajagadaeaeaeabaaaaaaaaaaaaaaaaaaaaaaaaaaaaaaaaaa",
"aaaaaaaaaaaaaaaaaaaaaaaaaaaaaaaaaaaaabaeagagagagagagagagagagagagagagagagagagagagajagagaeaeabaaaaaaaaaaaaaaaaaaaaaaaaaaaaaaaaaaaa",
"aaaaaaaaaaaaaaaaaaaaaaaaaaaaaaaaaaaaabapauauagagagagagagagagagagagagagagagagagagagagafafaeabaaaaaaaaaaaaaaaaaaaaaaaaaaaaaaaaaaaa",
"aaaaaaaaaaaaaaaaaaaaaaaaaaaaaaaaaaaaabapapauauagavavagagagawawawawawawagagagaxayagafafaeaeabaaaaaaaaaaaaaaaaaaaaaaaaaaaaaaaaaaaa",
"aaaaaaaaaaaaaaaaaaaaaaaaaaaaaaaaaaaaabapapagagagagagagagagagagagagagagagagagagagagagagagagabaaaaaaaaaaaaaaaaaaaaaaaaaaaaaaaaaaaa",
"aaaaaaaaaaaaaaaaaaaaaaaaaaaaaaaaaaaaaaabagacacacacacacacacacacacacacacacacacacacacacacagabaaaaaaaaaaaaaaaaaaaaaaaaaaaaaaaaaaaaaa",
"aaaaaaaaaaaaaaaaaaaaaaaaaaaaaaaaaaaaaaababagagapapapapapapapapapapapapapapapapaeaeaeaeababaaaaaaaaaaaaaaaaaaaaaaaaaaaaaaaaaaaaaa",
"aaaaaaaaaaaaaaaaaaaaaaaaaaaaaaaaaaaaaaaaaaababababababababababababababababababababababaaaaaaaaaaaaaaaaaaaaaaaaaaaaaaaaaaaaaaaaaa",
"aaaaaaaaaaaaaaaaaaaaaaaaaaaaaaaaaaaaaaaaaaaaaaaaaaaaaaaaaaaaaaaaaaaaaaaaaaaaaaaaaaaaaaaaaaaaaaaaaaaaaaaaaaaaaaaaaaaaaaaaaaaaaaaa",
"aaaaaaaaaaaaaaaaaaaaaaaaaaaaaaaaaaaaaaaaaaaaaaaaaaaaaaaaaaaaaaaaaaaaaaaaaaaaaaaaaaaaaaaaaaaaaaaaaaaaaaaaaaaaaaaaaaaaaaaaaaaaaaaa"
};
