/* XPM */
static char *car2_p1_s2[] = {
"64 64 177 2",
"aa	c #ff00ff",
"ab	c #1e1d1d",
"ac	c #010000",
"ad	c #191614",
"ae	c #141a43",
"af	c #222b6a",
"ag	c #252e74",
"ah	c #0b1232",
"ai	c #171e4d",
"aj	c #1e1e54",
"ak	c #2c2d7b",
"al	c #1a2359",
"am	c #2d2d65",
"an	c #202441",
"ao	c #1a2243",
"ap	c #21284b",
"aq	c #20317c",
"ar	c #272c46",
"as	c #0a0f28",
"at	c #212e66",
"au	c #3c4887",
"av	c #122055",
"aw	c #44518d",
"ax	c #191d55",
"ay	c #27356e",
"az	c #1c2463",
"aA	c #262c5e",
"aB	c #0e133c",
"aC	c #282c66",
"aD	c #1d224d",
"aE	c #2c20cf",
"aF	c #2f41bc",
"aG	c #2a16b5",
"aH	c #2117b0",
"aI	c #2422c9",
"aJ	c #210679",
"aK	c #11100e",
"aL	c #3a097d",
"aM	c #190874",
"aN	c #0e0f27",
"aO	c #2e2c2e",
"aP	c #262628",
"aQ	c #2f2289",
"aR	c #502393",
"aS	c #2f2579",
"aT	c #1f2387",
"aU	c #3a383a",
"aV	c #323134",
"aW	c #3a2d95",
"aX	c #5c2e9f",
"aY	c #3a3185",
"aZ	c #303136",
"a0	c #353336",
"a1	c #2d23a2",
"a2	c #191949",
"a3	c #462ac6",
"a4	c #212225",
"a5	c #313548",
"a6	c #101135",
"a7	c #362cbd",
"a8	c #251370",
"a9	c #303349",
"a!	c #282944",
"a#	c #130f54",
"a$	c #252e78",
"a%	c #432c9b",
"a&	c #283282",
"a(	c #351179",
"a)	c #111637",
"a*	c #272c50",
"a+	c #200b73",
"a,	c #353576",
"a-	c #262524",
"a.	c #372588",
"a/	c #4523d3",
"a:	c #5027d3",
"a;	c #6131d4",
"a<	c #190b63",
"a=	c #4c2b8e",
"a>	c #281f8e",
"a?	c #383a51",
"a@	c #1e2569",
"a[	c #21279f",
"a]	c #2525b9",
"a^	c #2924b1",
"a_	c #2a2731",
"a{	c #223696",
"a|	c #2933aa",
"a}	c #2e3165",
"a~	c #13162b",
"ba	c #5c2793",
"bb	c #450d7d",
"bc	c #7f5bd4",
"bd	c #8065d4",
"be	c #2b25c8",
"bf	c #2b2d55",
"bg	c #773d93",
"bh	c #60237e",
"bi	c #111541",
"bj	c #281c9f",
"bk	c #6c3dd3",
"bl	c #56177e",
"bm	c #402bce",
"bn	c #5521a8",
"bo	c #672ba9",
"bp	c #6730a6",
"bq	c #4b1da8",
"br	c #865faa",
"bs	c #582298",
"bt	c #6d437e",
"bu	c #754b7f",
"bv	c #4c1db0",
"bw	c #8c6594",
"bx	c #835d94",
"by	c #5634d2",
"bz	c #4b1a7c",
"bA	c #6047d1",
"bB	c #8b5b94",
"bC	c #1b2873",
"bD	c #000000",
"bE	c #242960",
"bF	c #272f56",
"bG	c #2e3e9f",
"bH	c #23348a",
"bI	c #3c2d85",
"bJ	c #141d59",
"bK	c #151c51",
"bL	c #282d4a",
"bM	c #2a376e",
"bN	c #33397c",
"bO	c #1f2b83",
"bP	c #2e3e74",
"bQ	c #232b6c",
"bR	c #1e297d",
"bS	c #1d2767",
"bT	c #1a2469",
"bU	c #1f3083",
"bV	c #1e308b",
"bW	c #213195",
"bX	c #1c1d21",
"bY	c #3a3a3e",
"bZ	c #424246",
"b0	c #243490",
"b1	c #253388",
"b2	c #2d354c",
"b3	c #2f3551",
"b4	c #2d2c30",
"b5	c #2a3ca6",
"b6	c #111314",
"b7	c #302f31",
"b8	c #2b3a9e",
"b9	c #263ca6",
"b!	c #253eae",
"b#	c #3b4274",
"b$	c #303859",
"b%	c #283051",
"b&	c #333b6c",
"b(	c #2f344e",
"b)	c #36457c",
"b*	c #2a305a",
"b+	c #2c3266",
"b,	c #232955",
"b-	c #191e39",
"b.	c #191f4f",
"b/	c #20275e",
"b:	c #293085",
"b;	c #353a98",
"b<	c #272c62",
"b=	c #1c235d",
"b>	c #2f3595",
"b?	c #2d368e",
"b@	c #303a9c",
"b[	c #6b6fa1",
"b]	c #7576a6",
"b^	c #3d3d9b",
"b_	c #373e91",
"b{	c #2d3273",
"aaaaaaaaaaaaaaaaaaaaaaaaaaaaaaaaaaaaaaaaaaaaaaaaaaaaaaaaaaaaaaaaaaaaaaaaaaaaaaaaaaaaaaaaaaaaaaaaaaaaaaaaaaaaaaaaaaaaaaaaaaaaaaaa",
"aaaaaaaaaaaaaaaaaaaaaaaaaaaaaaaaaaaaaaaaaaaaaaaaaaaaaaaaaaaaaaaaaaaaaaaaaaaaaaaaaaaaaaaaaaaaaaaaaaaaaaaaaaaaaaaaaaaaaaaaaaaaaaaa",
"aaaaaaaaaaaaaaaaaaaaaaaaaaaaaaaaaaaaaaaaaaaaaaaaaaaaabacacacacacacacacacacabaaaaaaaaaaaaaaaaaaaaaaaaaaaaaaaaaaaaaaaaaaaaaaaaaaaa",
"aaaaaaaaaaaaaaaaaaaaaaaaaaaaaaaaaaaaaaaaaaadababacacaeafafafagagagagagagagahacacabababaaaaaaaaaaaaaaaaaaaaaaaaaaaaaaaaaaaaaaaaaa",
"aaaaaaaaaaaaaaaaaaaaaaaaaaaaaaaaaaaaaaaaadabaiajakakalalalalalalalalalalalalakamajajababaaaaaaaaaaaaaaaaaaaaaaaaaaaaaaaaaaaaaaaa",
"aaaaaaaaaaaaaaaaaaaaaaaaaaaaaaaaaaaaaaadanaiaoapahalalaqaqaqaqaqaqaqaqaqaqalalahaoapaiaradaaaaaaaaaaaaaaaaaaaaaaaaaaaaaaaaaaaaaa",
"aaaaaaaaaaaaaaaaaaaaaaaaaaaaaaaaaaaaadanasaoatauavalaqaqaqaqaqaqaqaqaqaqaqaqalavawataoahanadaaaaaaaaaaaaaaaaaaaaaaaaaaaaaaaaaaaa",
"aaaaaaaaaaaaaaaaaaaaaaaaaaaaaaaaaaaaadahaoatauavaqalaqaqaqaqaqaqaqaqaqaqaqaqalaqavawatapaoadaaaaaaaaaaaaaaaaaaaaaaaaaaaaaaaaaaaa",
"aaaaaaaaaaaaaaaaaaaaaaaaaaaaaaaaaaadapaxaoauavaqaqalaqaqaqaqaqaqaqaqaqaqaqaqalaqaqavawaoaiapadaaaaaaaaaaaaaaaaaaaaaaaaaaaaaaaaaa",
"aaaaaaaaaaaaaaaaaaaaaaaaaaaaaaaaaaadahayahavaqaqalaqaqaqaqaqaqaqaqaqaqaqaqaqaqazaqaqavahaAahadaaaaaaaaaaaaaaaaaaaaaaaaaaaaaaaaaa",
"aaaaaaaaaaaaaaaaaaaaaaaaaaaaaaaaaaadaBaCalaqaqaqalaqaqaqaqaqaqaqaqaqaqaqaqaqaqaDaqatatahaAahadaaaaaaaaaaaaaaaaaaaaaaaaaaaaaaaaaa",
"aaaaaaaaaaaaaaaaaaaaaaaaaaaaaaaaaaacazagalaqaqaqalaqaqaqaqaEaqaqaqaqaqaqaqaqaqazataqaqaoaAahacaaaaaaaaaaaaaaaaaaaaaaaaaaaaaaaaaa",
"aaaaaaaaaaaaaaaaaaaaaaaaaaaaaaaaaaacazagalaqaqaqalaqaqaqaEaEaqaqaqaqaqaqaqaqaqazataqaqalagaoacaaaaaaaaaaaaaaaaaaaaaaaaaaaaaaaaaa",
"aaaaaaaaaaaaaaaaaaaaaaaaaaaaaaaaaaacazagalaqaqalalaqaqaqaEaEaEaqaqaqaFaqaqaqaqazaDaqaqalagaoacaaaaaaaaaaaaaaaaaaaaaaaaaaaaaaaaaa",
"aaaaaaaaaaaaaaaaaaaaaaaaaaaaaaaaaaacazagalaqaqalaqaqaqaqaGaEaEavavavavaHaqaqaqaqazataqalagaoacaaaaaaaaaaaaaaaaaaaaaaaaaaaaaaaaaa",
"aaaaaaaaaaaaaaaaaaaaaaaaaaaaaaaaaaacalagalaqaqalaqavavavavaEaEatatatavaIaIaqavaqazaqaqalagaoacaaaaaaaaaaaaaaaaaaaaaaaaaaaaaaaaaa",
"aaaaaaaaaaaaaaaaaaaaaaaaaaaaaaaaaaacalagalaqaqalavavadadadaJaKadadaKaKaLaLaMayavazaqaqalagaoacaaaaaaaaaaaaaaaaaaaaaaaaaaaaaaaaaa",
"aaaaaaaaaaaaaaaaaaaaaaaaaaaaaaaaaaacalagalaqaNacaKadaOaOaOaOaPaOaPaPaQaRaRaSadadacaNaqaTagaoacaaaaaaaaaaaaaaaaaaaaaaaaaaaaaaaaaa",
"aaaaaaaaaaaaaaaaaaaaaaaaaaaaaaaaaaadahagalaNacaPaPaQaUaUaUaVaUaUaVaVaWaXaXaYaZaZa0acaNa1agaoacaaaaaaaaaaaaaaaaaaaaaaaaaaaaaaaaaa",
"aaaaaaaaaaaaaaaaaaaaaaaaaaaaaaaaaaada2a3agaNa4aVaWaWaUaUaUaUaVaUaVaWaWaXaXaYaUaUaUa4aNa1agacacaaaaaaaaaaaaaaaaaaaaaaaaaaaaaaaaaa",
"aaaaaaaaaaaaaaaaaaaaaaaaaaaaaaaaadada2aNagaNa4aWaWaWaWaVaUaVaVaVaWaWaXaXaXaYaYaUa4a5a6a7a8acacadaaaaaaaaaaaaaaaaaaaaaaaaaaaaaaaa",
"aaaaaaaaaaaaaaaaaaaaaaaaaaaaaaaba9a9a!a#aNa$aKaWaWaXaWaWaVaVaWaWaWaXaXaXaXa%aYaUa4aNa&a6a(a)a*a*adaaaaaaaaaaaaaaaaaaaaaaaaaaaaaa",
"aaaaaaaaaaaaaaaaaaaaaaaaaaaaaaabababada6a+aeaKa,aXaXaLaMaMaKaMaMaLaLaLaLaLaJaYa4a4aNa$a6a(adadadadaaaaaaaaaaaaaaaaaaaaaaaaaaaaaa",
"aaaaaaaaaaaaaaaaaaaaaaaaaaaaaaaaaaa-a!a+a.aNafa#aMaLa/a:aIaIaIa/a/a/a/a;a/aEa<aca<aia6a=a(a>adaaaaaaaaaaaaaaaaaaaaaaaaaaaaaaaaaa",
"aaaaaaaaaaaaaaaaaaaaaaaaaaaaaaaaaaa-a?aMa.a#a@aga[aIa/a/aIaIaIa/a/a/a;a/a/a/a]aia^aiaMaRa(a>a_aaaaaaaaaaaaaaaaaaaaaaaaaaaaaaaaaa",
"aaaaaaaaaaaaaaaaaaaaaaaaaaaaaaaaaaa-a?a-aQa.aNa{a|aIa/a:a:aIa/a/a/a;a;a/a/a/a]a]a]a<aRaRaMa}a_aaaaaaaaaaaaaaaaaaaaaaaaaaaaaaaaaa",
"aaaaaaaaaaaaaaaaaaaaaaaaaaaaaaaaaaada?a-a.a.a#a|a|aIa/a:a:aIa/a/a;a;a/a/a/a/a]aIaIaLaRaQaMa~acaaaaaaaaaaaaaaaaaaaaaaaaaaaaaaaaaa",
"aaaaaaaaaaaaaaaaaaaaaaaaaaaaaaaaaaa-a?a-aQbabba|aIaIa:a:a:a/a/a/bca;a/a/a/a/a/aIa/aLaRaQa2a~a_aaaaaaaaaaaaaaaaaaaaaaaaaaaaaaaaaa",
"aaaaaaaaaaaaaaaaaaaaaaaaaaaaaaaaaaa#a?a<aSbabbaIaIaEa:a:a:a/a/a;bda;a;a/a/a/bea/a/aLaQaQa2bfaMaaaaaaaaaaaaaaaaaaaaaaaaaaaaaaaaaa",
"aaaaaaaaaaaaaaaaaaaaaaaaaaaaaaaaaaa#a?a<aSbgbhaIaEa:a:a:a;a/a;a;bda;a;a/a/a/bea/a{bibaaQaMbjaMaaaaaaaaaaaaaaaaaaaaaaaaaaaaaaaaaa",
"aaaaaaaaaaaaaaaaaaaaaaaaaaaaaaaaaaa<a>a<aRbgbhbkaEa:aEa:a;a;a;bdbdbda;a/a/a;a/a]a{a<baaQbbbjbbaaaaaaaaaaaaaaaaaaaaaaaaaaaaaaaaaa",
"aaaaaaaaaaaaaaaaaaaaaaaaaaaaaaaaaabla>aLaRbhbhbkaEa:bka:a:bdbdbdbda;a/a/a;a;bma]bmacaLaQbbbnbbaaaaaaaaaaaaaaaaaaaaaaaaaaaaaaaaaa",
"aaaaaaaaaaaaaaaaaaaaaaaaaaaaaaaaaablboaLaLbpbpava:a:bda:a:bdbdbda;a;a/a/a;a;bmbmbma~bqbbbbbnaMaaaaaaaaaaaaaaaaaaaaaaaaaaaaaaaaaa",
"aaaaaaaaaaaaaaaaaaaaaaaaaaaaaaaaaablbrblbpa(bhava:a:bda:a:bdbdbda;a;a/a;a;a;aEa;bmacbbbsbtbnaMaaaaaaaaaaaaaaaaaaaaaaaaaaaaaaaaaa",
"aaaaaaaaaaaaaaaaaaaaaaaaaaaaaaaaaablbrbubha=bhava:a:bdbda:bdbdbdbda;a;a;a;a;a;a;bmacbabtbtbvaMaaaaaaaaaaaaaaaaaaaaaaaaaaaaaaaaaa",
"aaaaaaaaaaaaaaaaaaaaaaaaaaaaaaaaaaaLbobubwbgacava:bdbdbdbkbdbdbdbdbda;a;a;a;bdbkavacbxbxbtbva+aaaaaaaaaaaaaaaaaaaaaaaaaaaaaaaaaa",
"aaaaaaaaaaaaaaaaaaaaaaaaaaaaaaaaaaaLbnblbwbwacava:bdbdbdbdbdbdbdbdbda;a;bdbdbdbkbybzbxbxbhbva#aaaaaaaaaaaaaaaaaaaaaaaaaaaaaaaaaa",
"aaaaaaaaaaaaaaaaaaaaaaaaaaaaaaaaaaa<a>bbbabwacava|a:bdbdbdbdbdbdbdbdbdbdbdbdbAbeavbtbBbgaLbCbDaaaaaaaaaaaaaaaaaaaaaaaaaaaaaaaaaa",
"aaaaaaaaaaaaaaaaaaaaaaaaaaaaaaaaaaacbEa#a.bFaca{a{bGbybdbdbdbdbdbdbdbdbdbdbda|bHbHacbBbIbJbCacaaaaaaaaaaaaaaaaaaaaaaaaaaaaaaaaaa",
"aaaaaaaaaaaaaaaaaaaaaaaaaaaaaaaaaaacbEbKbFbLaca{a{avavavavavavavavavavavavavavbHbHacbLbMbJbCacaaaaaaaaaaaaaaaaaaaaaaaaaaaaaaaaaa",
"aaaaaaaaaaaaaaaaaaaaaaaaaaaaaaaaaaacbEbKbNbibObOavavaybPbPbPbPbPbPbPbPayayayavbHbQa)a6bMbJbCacaaaaaaaaaaaaaaaaaaaaaaaaaaaaaaaaaa",
"aaaaaaaaaaaaaaaaaaaaaaaaaaaaaaaaaaacbEbKbJbRbRbRacaybPbPbPbPbPbPbPbPbPbPauayayacbSbSbQbJbJbCacaaaaaaaaaaaaaaaaaaaaaaaaaaaaaaaaaa",
"aaaaaaaaaaaaaaaaaaaaaaaaaaaaaaaaaaacbEbKbJbRbRbTacadababababababababababa-a-adacbSbSbQbJbJbCacaaaaaaaaaaaaaaaaaaaaaaaaaaaaaaaaaa",
"aaaaaaaaaaaaaaaaaaaaaaaaaaaaaaaaaaaNbSbUbVbWbRbibXa0bYbYbYbYbYbYbYbYbYbYbYbZa0bXa6bSbVb0bJbiacaaaaaaaaaaaaaaaaaaaaaaaaaaaaaaaaaa",
"aaaaaaaaaaaaaaaaaaaaaaaaaaaaaaaaaaaNbSbVbVbWbibibXa0a0bYbYbYbYbYbYbYbYbYbYbYa0bXa6a6bVbVb0b1a6aaaaaaaaaaaaaaaaaaaaaaaaaaaaaaaaaa",
"aaaaaaaaaaaaaaaaaaaaaaaaaaaaaaaaaaaNbUbVbVbVbibFbXa0a0a0bYbYbYbYbYbYbYbYbYbYa0bXb2a6bVbVbVbUa6aaaaaaaaaaaaaaaaaaaaaaaaaaaaaaaaaa",
"aaaaaaaaaaaaaaaaaaaaaaaaaaaaaaaaaaaNbUbCbVbVbJbFb3bXa0a0bYbYbYbYbYbYbYbYb4b4bXb3b2bJbVbVbVb1a6aaaaaaaaaaaaaaaaaaaaaaaaaaaaaaaaaa",
"aaaaaaaaaaaaaaaaaaaaaaaaaaaaaaaaaaaNalbCb5bVbVbia6bKb6b6b7b7b7b7b7b7b7b7b6b6aNaNbKbVbVb5b0bQa6aaaaaaaaaaaaaaaaaaaaaaaaaaaaaaaaaa",
"aaaaaaaaaaaaaaaaaaaaaaaaaaaaaaaaaaaNalalb8bVb5a{bHb5bJaNacacacacacacacacbibib8b8b9b9bVb!b0bSa6aaaaaaaaaaaaaaaaaaaaaaaaaaaaaaaaaa",
"aaaaaaaaaaaaaaaaaaaaaaaaaaaaaaaaaaaNalahaibCb!b!bHb!b!b!b!b!b!b!b!b!b!b!b!b!b9b9b9b9bUava)bSa6aaaaaaaaaaaaaaaaaaaaaaaaaaaaaaaaaa",
"aaaaaaaaaaaaaaaaaaaaaaaaaaaaaaaaaaaNalahb#ahb!b!b!b!b!b!b!b!b!b!b!b!b!b!b!b!b9b9b9b9ahbPa)bSa6aaaaaaaaaaaaaaaaaaaaaaaaaaaaaaaaaa",
"aaaaaaaaaaaaaaaaaaaaaaaaaaaaaaaaaaaNalahb#b$avavavavb!b!b!b!b!b!b!b!b!b!b!b!avavavavb%b&a)bSa6aaaaaaaaaaaaaaaaaaaaaaaaaaaaaaaaaa",
"aaaaaaaaaaaaaaaaaaaaaaaaaaaaaaaaaaaNalahb#b$b(b)b)b)avavavavavavavavavavavavb)bPbPb*apb&a)bSa6aaaaaaaaaaaaaaaaaaaaaaaaaaaaaaaaaa",
"aaaaaaaaaaaaaaaaaaaaaaaaaaaaaaaaaaacalahapb+b(b)b)b)b)b)b)b)b)b)b)b)b)b)b)b)bPbPbPb*b+apahalacaaaaaaaaaaaaaaaaaaaaaaaaaaaaaaaaaa",
"aaaaaaaaaaaaaaaaaaaaaaaaaaaaaaaaaaacalahahaianayayayb)b)b)b)b)b)b)b)b)b)b)b)ayb,b,b-aiahahalacaaaaaaaaaaaaaaaaaaaaaaaaaaaaaaaaaa",
"aaaaaaaaaaaaaaaaaaaaaaaaaaaaaaaaaaaaacahb.b.asasasasananananananananananananasasaBasb.alahaNaaaaaaaaaaaaaaaaaaaaaaaaaaaaaaaaaaaa",
"aaaaaaaaaaaaaaaaaaaaaaaaaaaaaaaaaaaaacb/b:b;b<b<b.b.asasasasasasasasasasasasb.b=b<bTb>akalacaaaaaaaaaaaaaaaaaaaaaaaaaaaaaaaaaaaa",
"aaaaaaaaaaaaaaaaaaaaaaaaaaaaaaaaaaaaacb/b/b:b:b.b?b@b=b.b=b[b]b]b]b]b[b.b.b=b^b_b.akakalalacaaaaaaaaaaaaaaaaaaaaaaaaaaaaaaaaaaaa",
"aaaaaaaaaaaaaaaaaaaaaaaaaaaaaaaaaaaabDa)b/b.b=b=b=b=b=b=b=b{b{b{b{b{b{b.b.b.b=b=b=b=b.b.asbDaaaaaaaaaaaaaaaaaaaaaaaaaaaaaaaaaaaa",
"aaaaaaaaaaaaaaaaaaaaaaaaaaaaaaaaaaaaaabDasaeafafafafafafafafafafafafafafafafafafafafaeasbDaaaaaaaaaaaaaaaaaaaaaaaaaaaaaaaaaaaaaa",
"aaaaaaaaaaaaaaaaaaaaaaaaaaaaaaaaaaaaaabDbDasasa)a)a)a)a)a)a)a)a)a)a)a)a)a)a)a)ahahahahbDbDaaaaaaaaaaaaaaaaaaaaaaaaaaaaaaaaaaaaaa",
"aaaaaaaaaaaaaaaaaaaaaaaaaaaaaaaaaaaaaaaaaabDbDbDbDbDbDbDbDbDbDbDbDbDbDbDacacbDacbDbDbDaaaaaaaaaaaaaaaaaaaaaaaaaaaaaaaaaaaaaaaaaa",
"aaaaaaaaaaaaaaaaaaaaaaaaaaaaaaaaaaaaaaaaaaaaaaaaaaaaaaaaaaaaaaaaaaaaaaaaaaaaaaaaaaaaaaaaaaaaaaaaaaaaaaaaaaaaaaaaaaaaaaaaaaaaaaaa",
"aaaaaaaaaaaaaaaaaaaaaaaaaaaaaaaaaaaaaaaaaaaaaaaaaaaaaaaaaaaaaaaaaaaaaaaaaaaaaaaaaaaaaaaaaaaaaaaaaaaaaaaaaaaaaaaaaaaaaaaaaaaaaaaa"
};
