/* XPM */
static char *car2_p1_s3[] = {
"64 64 39 2",
"aa	c #ff00ff",
"ab	c #010000",
"ac	c #221f1d",
"ad	c #322c29",
"ae	c #3d3a3a",
"af	c #1c1f4e",
"ag	c #534e63",
"ah	c #706560",
"ai	c #430df3",
"aj	c #3238ce",
"ak	c #3110e8",
"al	c #7412fb",
"am	c #3117c7",
"an	c #261fa9",
"ao	c #4b27e0",
"ap	c #333693",
"aq	c #6b22f2",
"ar	c #21256a",
"as	c #4017e6",
"at	c #4d4a49",
"au	c #8a1bfb",
"av	c #ad2efd",
"aw	c #9d8dcb",
"ax	c #5b626c",
"ay	c #212b82",
"az	c #353574",
"aA	c #693fdc",
"aB	c #f0b3fe",
"aC	c #e882fe",
"aD	c #eb97fe",
"aE	c #302f54",
"aF	c #c047fc",
"aG	c #da87fd",
"aH	c #9634f9",
"aI	c #a95af7",
"aJ	c #273bb2",
"aK	c #2939a2",
"aL	c #8e8581",
"aM	c #414196",
"aaaaaaaaaaaaaaaaaaababacacacacadadadadadaeaeaeaeaeaeaeaeaeaeaeaeaeaeaeaeaeaeaeaeaeaeaeaeaeaeadadacacacacacadadadadadadacacababab",
"aaaaaaaaaaaaaaaaaaabacacacacacadadadadadadaeaeaeaeaeaeaeaeaeaeaeaeaeaeaeaeaeaeaeaeaeaeaeaeadadadacacacacadadadadadadadadadacacab",
"aaaaaaaaaaaaaaaaaaabacacacacacadadadadadadaeaeaeaeaeaeababababababababababaeaeaeaeaeaeaeaeaeadadacacacacadadadadadadadadadacacab",
"aaaaaaaaaaaaaaaaaaaaabacacacacacadadadadadadaeaeabababafafafafafafafafafafabababaeaeaeaeaeadadadadacacacacadadadadadadadadacacab",
"aaaaaaaaaaaaaaaaaaaaaaabacacacacadadadadadaeababafafafafafafafafafafafafafafafacababaeaeadadadadadacacacacacacadadadadadacacacab",
"aaaaaaaaaaaaaaaaaaaaaaaaabacacadadadadadadabacadabafafafafafafafafafafafafafafabacadabaeadadadadadadacacacacacacadadadacacacacab",
"aaaaaaaaaaaaaaaaaaaaaaabacadadadadadadadabacacagabafafafafafafafafafafafafafafabahacacabadadadadadadacacacacacacacacabacacacabaa",
"aaaaaaaaaaaaaaaaaaaaaaabacadadadadadadabacacagabafafafafafafafafafafafafafafafafabahacadacadadadadadadacacacacacacababacacabaaaa",
"aaaaaaaaaaaaaaaaaaaaaaabacacadadacadadabacagabafafafafafafafafafafafafafafafafafafabahacabadadadadadadacacacacababababababaaaaaa",
"aaaaaaaaaaaaaaaaaaaaaaaaabacacadacadabadababafafafafafafafafafafafafafafafafafafafafababacabadadadadacacacacacababababaaaaaaaaaa",
"aaaaaaaaaaaaaaaaaaaaaaaaaaababacadadabacafafafafafafafafafafafafafafafafafafafacafacacabacabadadadadacacacacacabaaaaaaaaaaaaaaaa",
"aaaaaaaaaaaaaaaaaaaaaaaaaaabacacadabafafafafafafafafafafafaiafafafafafafafafafafacafafacacababadadadacacacacacabaaaaaaaaaaaaaaaa",
"aaaaaaaaaaaaaaaaaaaaaaaaabacacadadabafafafafafafafafafafaiaiafafafafafafafafafafacafafafafacabadadacacababababaaaaaaaaaaaaaaaaaa",
"aaaaaaaaaaaaaaaaaaaaaaababacadadadabafafafafafafafafafafaiaiaiafafafajafafafafafacafafafafacabadadacabababaaaaaaaaaaaaaaaaaaaaaa",
"aaaaaaaaaaaaaaaaaaaaaaababadadacadabafafafafafafafafafafaiaiaiababababakafafafafafacafafafacabadadacababaaaaaaaaaaaaaaaaaaaaaaaa",
"aaaaaaaaaaaaaaaaaaaaaaababadadadacabafafafafafafafababababaiaiacacacabakakafabafafafafafafacabadadadacababaaaaaaaaaaaaaaaaaaaaaa",
"aaaaaaaaaaaaaaaaaaaaaaababacadadadabafafafafafafababadadadaiacadadacacalalakadabafafafafafacabadadadacababaaaaaaaaaaaaaaaaaaaaaa",
"aaaaaaaaaaaaaaaaaaaaaaaaabacacadadabafafafafafabacadadadadadacadacacakalalamadadabafafanafacabadadadadacabaaaaaaaaaaaaaaaaaaaaaa",
"aaaaaaaaaaaaaaaaaaaaaaaaabacacadadadabafafafabacacakadadadacadadacacakalalamadadadabafaoafacabadadadadacabaaaaaaaaaaaaaaaaaaaaaa",
"aaaaaaaaaaaaaaaaaaaaaaaaaaabadadadadapaqafafabacakakadadadadacadacakakalalamadadadabafaoafababadadadadabaaaaaaaaaaaaaaaaaaaaaaaa",
"aaaaaaaaaaaaaaaaaaaaaaaaaaaaadadadadapafafafabakakakakacadacacacakakalalalamamadabafaraoaoababadadadabaaaaaaaaaaaaaaaaaaaaaaaaaa",
"aaaaaaaaaaaaaaaaaaaaaaaaaaaaaeaeaeaeadanafaracakakalakakacacakakakalalalalaiamadabafararaqabadadadacaaaaaaaaaaaaaaaaaaaaaaaaaaaa",
"aaaaaaaaaaaaaaaaaaaaaaaaaaaaagaeaeaeadarasabacanalalalakakacakakalalalalalaiamababafararaqadadadadadaaaaaaaaaaaaaaaaaaaaaaaaaaaa",
"aaaaaaaaaaaaaaaaaaaaaaaaaaaaagaeaeatadasasafafanakalalauakakakalalalalavalaiamabamabaraqaqamadadadagaaaaaaaaaaaaaaaaaaaaaaaaaaaa",
"aaaaaaaaaaaaaaaaaaaaaaaaaaaaawapadatatakasanafafanakalalakakakalalalavalalalamabamabakalaqamagabaxahahaaaaaaaaaaaaaaaaaaaaaaaaaa",
"aaaaaaaaaaaaaaaaaaaaaaaaaaaaaaapadatatatakasafayanakalauauakalalalavavalalalamamamamalalakazagabaxahahaaaaaaaaaaaaaaaaaaaaaaaaaa",
"aaaaaaaaaaaaaaaaaaaaaaaaaaaaaaaAapadatatasasanananakalauauakalalavavalalalalamakakalalakakabababahasaaaaaaaaaaaaaaaaaaaaaaaaaaaa",
"aaaaaaaaaaaaaaaaaaaaaaaaaaaaamaBasatatatakauauanakakauauaualalalaCavalalalalalakalalalakapabagagakasaaaaaaaaaaaaaaaaaaaaaaaaaaaa",
"aaaaaaaaaaaaaaaaaaaaaaaaaaaaaaasamanatamamauauakakaiauauaualalavaDavavalalalasalalalakakapaEakakakaaaaaaaaaaaaaaaaaaaaaaaaaaaaaa",
"aaaaaaaaaaaaaaaaaaaaaaaaaaaaaaakasanatamamaFaFakaiauauauavalavavaDavavalalalasalayayauakakakakauakaaaaaaaaaaaaaaaaaaaaaaaaaaaaaa",
"aaaaaaaaaaaaaaaaaaaaaaaaaaaaaaakauamamamalaFaFaFaiauaiauavavavaDaDaDavalalavalamayamauakauakauauakaaaaaaaaaaaaaaaaaaaaaaaaaaaaaa",
"aaaaaaaaaaaaaaaaaaaaaaaaaaaaamakalavamalalaFaFaFaiauaFauauaDaDaDaDavalalavavaqamaqabalakauauauakakaaaaaaaaaaaaaaaaaaaaaaaaaaaaaa",
"aaaaaaaaaaaaaaaaaaaaaaaaaaaaakakalavavalalaFaFabauauaDauauaDaDaDavavalalavavaqaqaqabalauauauakakaaaaaaaaaaaaaaaaaaaaaaaaaaaaaaaa",
"aaaaaaaaaaaaaaaaaaaaaaaaaaaaamakalavaDavaFaqaFabauauaDauauaDaDaDavavalavavavaiavaqabauauaGauakaaaaaaaaaaaaaaaaaaaaaaaaaaaaaaaaaa",
"aaaaaaaaaaaaaaaaaaaaaaaaaaaaaaamalavaDaDaFaqaFabauauaDaDauaDaDaDaDavavavavavavavaqabauaGaGauakamaaaaaaaaaaaaaaaaaaaaaaaaaaaaaaaa",
"aaaaaaaaaaaaaaaaaaaaaaaaaaaaaaamaualavaDaDaFababauaDaDaDaFaDaDaDaDaDavavavavaDaFababaGaGaGauasanaaaaaaaaaaaaaaaaaaaaaaaaaaaaaaaa",
"aaaaaaaaaaaaaaaaaaaaaaaaaaaaaaaaamalauavaDaDababauaDaDaDaDaDaDaDaDaDavavaDaDaDaFaHaHaGaGaFauanaaaaaaaaaaaaaaaaaaaaaaaaaaaaaaaaaa",
"aaaaaaaaaaaaaaaaaaaaaaaaaaaaaaaaaaamamauauaDababanauaDaDaDaDaDaDaDaDaDaDaDaDaIasabaGaCaFalayaaaaaaaaaaaaaaaaaaaaaaaaaaaaaaaaaaaa",
"aaaaaaaaaaaaaaaaaaaaaaaaaaaaaaaaaaabaranasayabayayapaHaDaDaDaDaDaDaDaDaDaDaDanararabaCaoaJayabaaaaaaaaaaaaaaaaaaaaaaaaaaaaaaaaaa",
"aaaaaaaaaaaaaaaaaaaaaaaaaaaaaaaaaaabaraKayarabayayababababababababababababababararabaraJaJayabaaaaaaaaaaaaaaaaaaaaaaaaaaaaaaaaaa",
"aaaaaaaaaaaaaaaaaaaaaaaaaaaaaaaaaaabaraKajayayayababadaeaeaeaeaeaeaeaeadadadabararabaraJaJayabaaaaaaaaaaaaaaaaaaaaaaaaaaaaaaaaaa",
"aaaaaaaaaaaaaaaaaaaaaaaaaaaaaaaaaaabaraKaJayayayabadaeaeaeaeaeaeaeaeaeaeagadadabarararaJaJayabaaaaaaaaaaaaaaaaaaaaaaaaaaaaaaaaaa",
"aaaaaaaaaaaaaaaaaaaaaaaaaaaaaaaaababaraKaJayayayabadaeaeaeaeaeaeaeaeaeaeatatadabarararaJaJayababaaaaaaaaaaaaaaaaaaaaaaaaaaaaaaaa",
"aaaaaaaaaaaaaaaaaaaaaaaaaaaaaaaaabafaraKaJaJayayabadaeaeaeaeaeaeaeaeaeaeaeatadabararaJaJaJayababaaaaaaaaaaaaaaaaaaaaaaaaaaaaaaaa",
"aaaaaaaaaaaaaaaaaaaaaaaaaaaaaaaaabafaraJaJaJayayabadadaeaeaeaeaeaeaeaeaeaeaeadabararaJaJaJaKarabaaaaaaaaaaaaaaaaaaaaaaaaaaaaaaaa",
"aaaaaaaaaaaaaaaaaaaaaaaaaaaaaaaaabafaKaJaJaJayayabadadadaeaeaeaeaeaeaeaeaeaeadabararaJaJaJaKarabaaaaaaaaaaaaaaaaaaaaaaaaaaaaaaaa",
"aaaaaaaaaaaaaaaaaaaaaaaaaaaaaaaaabafaKayaJaJaJayarabadadaeaeaeaeaeaeaeaeacacabararaJaJaJaJaKarabaaaaaaaaaaaaaaaaaaaaaaaaaaaaaaaa",
"aaaaaaaaaaaaaaaaaaaaaaaaaaaaaaaaabafafayaJaJaJayaraKababaeaeaeaeaeaeaeaeababafafaKaJaJaJaJararabaaaaaaaaaaaaaaaaaaaaaaaaaaaaaaaa",
"aaaaaaaaaaaaaaaaaaaaaaaaaaaaaaaaabafafafaKaJaJayaraJaJafababababababababayayaKaKaKaKaJaJaJararabaaaaaaaaaaaaaaaaaaaaaaaaaaaaaaaa",
"aaaaaaaaaaaaaaaaaaaaaaaaaaaaaaaaabafafababayaJaJaraJaJaJaJaJaJaJaJaJaJaJaJaJaKaKaKaKaKababararabaaaaaaaaaaaaaaaaaaaaaaaaaaaaaaaa",
"aaaaaaaaaaaaaaaaaaaaaaaaaaaaaaaaabafafabatabaJaJaJaJaJaJaJaJaJaJaJaJaJaJaJaJaKaKaKaKabaeabararabaaaaaaaaaaaaaaaaaaaaaaaaaaaaaaaa",
"aaaaaaaaaaaaaaaaaaaaaaaaaaaaaaaaabafafabatatababababaJaJaJaJaJaJaJaJaJaJaJaJababababaeaeabararabaaaaaaaaaaaaaaaaaaaaaaaaaaaaaaaa",
"aaaaaaaaaaaaaaaaaaaaaaaaaaaaaaaaabafafabatatatatatatababababababababababababataeaeaeadaeabararabaaaaaaaaaaaaaaaaaaaaaaaaaaaaaaaa",
"aaaaaaaaaaaaaaaaaaaaaaaaaaaaaaaaaaabafabadadatatatatatatatatatatatatatatatataeaeaeaeadadabafabaaaaaaaaaaaaaaaaaaaaaaaaaaaaaaaaaa",
"aaaaaaaaaaaaaaaaaaaaaaaaaaaaaaaaaaabafabababadadadadatatatatatatatatatatatatadadadacabababafabaaaaaaaaaaaaaaaaaaaaaaaaaaaaaaaaaa",
"aaaaaaaaaaaaaaaaaaaaaaaaaaaaaaaaaaaLababafafababababadadadadadadadadadadadadababababafafabafabaaaaaaaaaaaaaaaaaaaaaaaaaaaaaaaaaa",
"aaaaaaaaaaaaaaaaaaaaaaaaaaaaaaaaaaaaabafafazazazafafababababababababababababafarazayayafafabaaaaaaaaaaaaaaaaaaaaaaaaaaaaaaaaaaaa",
"aaaaaaaaaaaaaaaaaaaaaaaaaaaaaaaaaaaaabafafafafafafararafararazazazazarafafararafafafafafafabaaaaaaaaaaaaaaaaaaaaaaaaaaaaaaaaaaaa",
"aaaaaaaaaaaaaaaaaaaaaaaaaaaaaaaaaaaaaaabafafarararararararaMaMaMaMaMaMafafafararararafafabaaaaaaaaaaaaaaaaaaaaaaaaaaaaaaaaaaaaaa",
"aaaaaaaaaaaaaaaaaaaaaaaaaaaaaaaaaaaaaaaaababafafafafafafafafafafafafafafafafafafafafababaaaaaaaaaaaaaaaaaaaaaaaaaaaaaaaaaaaaaaaa",
"aaaaaaaaaaaaaaaaaaaaaaaaaaaaaaaaaaaaaaaaaaaaababababababababababababababababababababaaaaaaaaaaaaaaaaaaaaaaaaaaaaaaaaaaaaaaaaaaaa",
"aaaaaaaaaaaaaaaaaaaaaaaaaaaaaaaaaaaaaaaaaaaaaaaaaaaaaaaaaaaaaaaaaaaaaaaaababaaabaaaaaaaaaaaaaaaaaaaaaaaaaaaaaaaaaaaaaaaaaaaaaaaa",
"aaaaaaaaaaaaaaaaaaaaaaaaaaaaaaaaaaaaaaaaaaaaaaaaaaaaaaaaaaaaaaaaaaaaaaaaaaaaaaaaaaaaaaaaaaaaaaaaaaaaaaaaaaaaaaaaaaaaaaaaaaaaaaaa",
"aaaaaaaaaaaaaaaaaaaaaaaaaaaaaaaaaaaaaaaaaaaaaaaaaaaaaaaaaaaaaaaaaaaaaaaaaaaaaaaaaaaaaaaaaaaaaaaaaaaaaaaaaaaaaaaaaaaaaaaaaaaaaaaa"
};
