/* XPM */
static char *car2_p1_s4[] = {
"64 64 39 2",
"aa	c #ff00ff",
"ab	c #000000",
"ac	c #080707",
"ad	c #0c0b0a",
"ae	c #0f0e0e",
"af	c #070813",
"ag	c #141318",
"ah	c #1c1918",
"ai	c #10033c",
"aj	c #0c0d33",
"ak	c #0b043a",
"al	c #1d043e",
"am	c #0b0531",
"an	c #09072a",
"ao	c #120938",
"ap	c #0c0c24",
"aq	c #1a083c",
"ar	c #08081a",
"as	c #0f0539",
"at	c #131212",
"au	c #22063e",
"av	c #2a0b3f",
"aw	c #272332",
"ax	c #16181b",
"ay	c #080a20",
"az	c #0d0d1d",
"aA	c #1a0f37",
"aB	c #3c2c3f",
"aC	c #39203f",
"aD	c #3a253f",
"aE	c #0c0b15",
"aF	c #2f113f",
"aG	c #36213f",
"aH	c #250d3e",
"aI	c #2a163d",
"aJ	c #090e2c",
"aK	c #0a0e28",
"aL	c #232120",
"aM	c #101025",
"aaaaaaaaaaaaaaaaaaababacacacacadadadadadaeaeaeaeaeaeaeaeaeaeaeaeaeaeaeaeaeaeaeaeaeaeaeaeaeaeadadacacacacacadadadadadadacacababab",
"aaaaaaaaaaaaaaaaaaabacacacacacadadadadadadaeaeaeaeaeaeaeaeaeaeaeaeaeaeaeaeaeaeaeaeaeaeaeaeadadadacacacacadadadadadadadadadacacab",
"aaaaaaaaaaaaaaaaaaabacacacacacadadadadadadaeaeaeaeaeaeababababababababababaeaeaeaeaeaeaeaeaeadadacacacacadadadadadadadadadacacab",
"aaaaaaaaaaaaaaaaaaaaabacacacacacadadadadadadaeaeabababafafafafafafafafafafabababaeaeaeaeaeadadadadacacacacadadadadadadadadacacab",
"aaaaaaaaaaaaaaaaaaaaaaabacacacacadadadadadaeababafafafafafafafafafafafafafafafacababaeaeadadadadadacacacacacacadadadadadacacacab",
"aaaaaaaaaaaaaaaaaaaaaaaaabacacadadadadadadabacadabafafafafafafafafafafafafafafabacadabaeadadadadadadacacacacacacadadadacacacacab",
"aaaaaaaaaaaaaaaaaaaaaaabacadadadadadadadabacacagabafafafafafafafafafafafafafafabahacacabadadadadadadacacacacacacacacabacacacabaa",
"aaaaaaaaaaaaaaaaaaaaaaabacadadadadadadabacacagabafafafafafafafafafafafafafafafafabahacadacadadadadadadacacacacacacababacacabaaaa",
"aaaaaaaaaaaaaaaaaaaaaaabacacadadacadadabacagabafafafafafafafafafafafafafafafafafafabahacabadadadadadadacacacacababababababaaaaaa",
"aaaaaaaaaaaaaaaaaaaaaaaaabacacadacadabadababafafafafafafafafafafafafafafafafafafafafababacabadadadadacacacacacababababaaaaaaaaaa",
"aaaaaaaaaaaaaaaaaaaaaaaaaaababacadadabacafafafafafafafafafafafafafafafafafafafacafacacabacabadadadadacacacacacabaaaaaaaaaaaaaaaa",
"aaaaaaaaaaaaaaaaaaaaaaaaaaabacacadabafafafafafafafafafafafaiafafafafafafafafafafacafafacacababadadadacacacacacabaaaaaaaaaaaaaaaa",
"aaaaaaaaaaaaaaaaaaaaaaaaabacacadadabafafafafafafafafafafaiaiafafafafafafafafafafacafafafafacabadadacacababababaaaaaaaaaaaaaaaaaa",
"aaaaaaaaaaaaaaaaaaaaaaababacadadadabafafafafafafafafafafaiaiaiafafafajafafafafafacafafafafacabadadacabababaaaaaaaaaaaaaaaaaaaaaa",
"aaaaaaaaaaaaaaaaaaaaaaababadadacadabafafafafafafafafafafaiaiaiababababakafafafafafacafafafacabadadacababaaaaaaaaaaaaaaaaaaaaaaaa",
"aaaaaaaaaaaaaaaaaaaaaaababadadadacabafafafafafafafababababaiaiacacacabakakafabafafafafafafacabadadadacababaaaaaaaaaaaaaaaaaaaaaa",
"aaaaaaaaaaaaaaaaaaaaaaababacadadadabafafafafafafababadadadaiacadadacacalalakadabafafafafafacabadadadacababaaaaaaaaaaaaaaaaaaaaaa",
"aaaaaaaaaaaaaaaaaaaaaaaaabacacadadabafafafafafabacadadadadadacadacacakalalamadadabafafanafacabadadadadacabaaaaaaaaaaaaaaaaaaaaaa",
"aaaaaaaaaaaaaaaaaaaaaaaaabacacadadadabafafafabacacakadadadacadadacacakalalamadadadabafaoafacabadadadadacabaaaaaaaaaaaaaaaaaaaaaa",
"aaaaaaaaaaaaaaaaaaaaaaaaaaabadadadadapaqafafabacakakadadadadacadacakakalalamadadadabafaoafababadadadadabaaaaaaaaaaaaaaaaaaaaaaaa",
"aaaaaaaaaaaaaaaaaaaaaaaaaaaaadadadadapafafafabakakakakacadacacacakakalalalamamadabafaraoaoababadadadabaaaaaaaaaaaaaaaaaaaaaaaaaa",
"aaaaaaaaaaaaaaaaaaaaaaaaaaaaaeaeaeaeadanafaracakakalakakacacakakakalalalalaiamadabafararaqabadadadacaaaaaaaaaaaaaaaaaaaaaaaaaaaa",
"aaaaaaaaaaaaaaaaaaaaaaaaaaaaagaeaeaeadarasabacanalalalakakacakakalalalalalaiamababafararaqadadadadadaaaaaaaaaaaaaaaaaaaaaaaaaaaa",
"aaaaaaaaaaaaaaaaaaaaaaaaaaaaagaeaeatadasasafafanakalalauakakakalalalalavalaiamabamabaraqaqamadadadagaaaaaaaaaaaaaaaaaaaaaaaaaaaa",
"aaaaaaaaaaaaaaaaaaaaaaaaaaaaawapadatatakasanafafanakalalakakakalalalavalalalamabamabakalaqamagabaxahahaaaaaaaaaaaaaaaaaaaaaaaaaa",
"aaaaaaaaaaaaaaaaaaaaaaaaaaaaaaapadatatatakasafayanakalauauakalalalavavalalalamamamamalalakazagabaxahahaaaaaaaaaaaaaaaaaaaaaaaaaa",
"aaaaaaaaaaaaaaaaaaaaaaaaaaaaaaaAapadatatasasanananakalauauakalalavavalalalalamakakalalakakabababahasaaaaaaaaaaaaaaaaaaaaaaaaaaaa",
"aaaaaaaaaaaaaaaaaaaaaaaaaaaaamaBasatatatakauauanakakauauaualalalaCavalalalalalakalalalakapabagagakasaaaaaaaaaaaaaaaaaaaaaaaaaaaa",
"aaaaaaaaaaaaaaaaaaaaaaaaaaaaaaasamanatamamauauakakaiauauaualalavaDavavalalalasalalalakakapaEakakakaaaaaaaaaaaaaaaaaaaaaaaaaaaaaa",
"aaaaaaaaaaaaaaaaaaaaaaaaaaaaaaakasanatamamaFaFakaiauauauavalavavaDavavalalalasalayayauakakakakauakaaaaaaaaaaaaaaaaaaaaaaaaaaaaaa",
"aaaaaaaaaaaaaaaaaaaaaaaaaaaaaaakauamamamalaFaFaFaiauaiauavavavaDaDaDavalalavalamayamauakauakauauakaaaaaaaaaaaaaaaaaaaaaaaaaaaaaa",
"aaaaaaaaaaaaaaaaaaaaaaaaaaaaamakalavamalalaFaFaFaiauaFauauaDaDaDaDavalalavavaqamaqabalakauauauakakaaaaaaaaaaaaaaaaaaaaaaaaaaaaaa",
"aaaaaaaaaaaaaaaaaaaaaaaaaaaaakakalavavalalaFaFabauauaDauauaDaDaDavavalalavavaqaqaqabalauauauakakaaaaaaaaaaaaaaaaaaaaaaaaaaaaaaaa",
"aaaaaaaaaaaaaaaaaaaaaaaaaaaaamakalavaDavaFaqaFabauauaDauauaDaDaDavavalavavavaiavaqabauauaGauakaaaaaaaaaaaaaaaaaaaaaaaaaaaaaaaaaa",
"aaaaaaaaaaaaaaaaaaaaaaaaaaaaaaamalavaDaDaFaqaFabauauaDaDauaDaDaDaDavavavavavavavaqabauaGaGauakamaaaaaaaaaaaaaaaaaaaaaaaaaaaaaaaa",
"aaaaaaaaaaaaaaaaaaaaaaaaaaaaaaamaualavaDaDaFababauaDaDaDaFaDaDaDaDaDavavavavaDaFababaGaGaGauasanaaaaaaaaaaaaaaaaaaaaaaaaaaaaaaaa",
"aaaaaaaaaaaaaaaaaaaaaaaaaaaaaaaaamalauavaDaDababauaDaDaDaDaDaDaDaDaDavavaDaDaDaFaHaHaGaGaFauanaaaaaaaaaaaaaaaaaaaaaaaaaaaaaaaaaa",
"aaaaaaaaaaaaaaaaaaaaaaaaaaaaaaaaaaamamauauaDababanauaDaDaDaDaDaDaDaDaDaDaDaDaIasabaGaCaFalayaaaaaaaaaaaaaaaaaaaaaaaaaaaaaaaaaaaa",
"aaaaaaaaaaaaaaaaaaaaaaaaaaaaaaaaaaabaranasayabayayapaHaDaDaDaDaDaDaDaDaDaDaDanararabaCaoaJayabaaaaaaaaaaaaaaaaaaaaaaaaaaaaaaaaaa",
"aaaaaaaaaaaaaaaaaaaaaaaaaaaaaaaaaaabaraKayarabayayababababababababababababababararabaraJaJayabaaaaaaaaaaaaaaaaaaaaaaaaaaaaaaaaaa",
"aaaaaaaaaaaaaaaaaaaaaaaaaaaaaaaaaaabaraKajayayayababadaeaeaeaeaeaeaeaeadadadabararabaraJaJayabaaaaaaaaaaaaaaaaaaaaaaaaaaaaaaaaaa",
"aaaaaaaaaaaaaaaaaaaaaaaaaaaaaaaaaaabaraKaJayayayabadaeaeaeaeaeaeaeaeaeaeagadadabarararaJaJayabaaaaaaaaaaaaaaaaaaaaaaaaaaaaaaaaaa",
"aaaaaaaaaaaaaaaaaaaaaaaaaaaaaaaaababaraKaJayayayabadaeaeaeaeaeaeaeaeaeaeatatadabarararaJaJayababaaaaaaaaaaaaaaaaaaaaaaaaaaaaaaaa",
"aaaaaaaaaaaaaaaaaaaaaaaaaaaaaaaaabafaraKaJaJayayabadaeaeaeaeaeaeaeaeaeaeaeatadabararaJaJaJayababaaaaaaaaaaaaaaaaaaaaaaaaaaaaaaaa",
"aaaaaaaaaaaaaaaaaaaaaaaaaaaaaaaaabafaraJaJaJayayabadadaeaeaeaeaeaeaeaeaeaeaeadabararaJaJaJaKarabaaaaaaaaaaaaaaaaaaaaaaaaaaaaaaaa",
"aaaaaaaaaaaaaaaaaaaaaaaaaaaaaaaaabafaKaJaJaJayayabadadadaeaeaeaeaeaeaeaeaeaeadabararaJaJaJaKarabaaaaaaaaaaaaaaaaaaaaaaaaaaaaaaaa",
"aaaaaaaaaaaaaaaaaaaaaaaaaaaaaaaaabafaKayaJaJaJayarabadadaeaeaeaeaeaeaeaeacacabararaJaJaJaJaKarabaaaaaaaaaaaaaaaaaaaaaaaaaaaaaaaa",
"aaaaaaaaaaaaaaaaaaaaaaaaaaaaaaaaabafafayaJaJaJayaraKababaeaeaeaeaeaeaeaeababafafaKaJaJaJaJararabaaaaaaaaaaaaaaaaaaaaaaaaaaaaaaaa",
"aaaaaaaaaaaaaaaaaaaaaaaaaaaaaaaaabafafafaKaJaJayaraJaJafababababababababayayaKaKaKaKaJaJaJararabaaaaaaaaaaaaaaaaaaaaaaaaaaaaaaaa",
"aaaaaaaaaaaaaaaaaaaaaaaaaaaaaaaaabafafababayaJaJaraJaJaJaJaJaJaJaJaJaJaJaJaJaKaKaKaKaKababararabaaaaaaaaaaaaaaaaaaaaaaaaaaaaaaaa",
"aaaaaaaaaaaaaaaaaaaaaaaaaaaaaaaaabafafabatabaJaJaJaJaJaJaJaJaJaJaJaJaJaJaJaJaKaKaKaKabaeabararabaaaaaaaaaaaaaaaaaaaaaaaaaaaaaaaa",
"aaaaaaaaaaaaaaaaaaaaaaaaaaaaaaaaabafafabatatababababaJaJaJaJaJaJaJaJaJaJaJaJababababaeaeabararabaaaaaaaaaaaaaaaaaaaaaaaaaaaaaaaa",
"aaaaaaaaaaaaaaaaaaaaaaaaaaaaaaaaabafafabatatatatatatababababababababababababataeaeaeadaeabararabaaaaaaaaaaaaaaaaaaaaaaaaaaaaaaaa",
"aaaaaaaaaaaaaaaaaaaaaaaaaaaaaaaaaaabafabadadatatatatatatatatatatatatatatatataeaeaeaeadadabafabaaaaaaaaaaaaaaaaaaaaaaaaaaaaaaaaaa",
"aaaaaaaaaaaaaaaaaaaaaaaaaaaaaaaaaaabafabababadadadadatatatatatatatatatatatatadadadacabababafabaaaaaaaaaaaaaaaaaaaaaaaaaaaaaaaaaa",
"aaaaaaaaaaaaaaaaaaaaaaaaaaaaaaaaaaaLababafafababababadadadadadadadadadadadadababababafafabafabaaaaaaaaaaaaaaaaaaaaaaaaaaaaaaaaaa",
"aaaaaaaaaaaaaaaaaaaaaaaaaaaaaaaaaaaaabafafazazazafafababababababababababababafarazayayafafabaaaaaaaaaaaaaaaaaaaaaaaaaaaaaaaaaaaa",
"aaaaaaaaaaaaaaaaaaaaaaaaaaaaaaaaaaaaabafafafafafafararafararazazazazarafafararafafafafafafabaaaaaaaaaaaaaaaaaaaaaaaaaaaaaaaaaaaa",
"aaaaaaaaaaaaaaaaaaaaaaaaaaaaaaaaaaaaaaabafafarararararararaMaMaMaMaMaMafafafararararafafabaaaaaaaaaaaaaaaaaaaaaaaaaaaaaaaaaaaaaa",
"aaaaaaaaaaaaaaaaaaaaaaaaaaaaaaaaaaaaaaaaababafafafafafafafafafafafafafafafafafafafafababaaaaaaaaaaaaaaaaaaaaaaaaaaaaaaaaaaaaaaaa",
"aaaaaaaaaaaaaaaaaaaaaaaaaaaaaaaaaaaaaaaaaaaaababababababababababababababababababababaaaaaaaaaaaaaaaaaaaaaaaaaaaaaaaaaaaaaaaaaaaa",
"aaaaaaaaaaaaaaaaaaaaaaaaaaaaaaaaaaaaaaaaaaaaaaaaaaaaaaaaaaaaaaaaaaaaaaaaababaaabaaaaaaaaaaaaaaaaaaaaaaaaaaaaaaaaaaaaaaaaaaaaaaaa",
"aaaaaaaaaaaaaaaaaaaaaaaaaaaaaaaaaaaaaaaaaaaaaaaaaaaaaaaaaaaaaaaaaaaaaaaaaaaaaaaaaaaaaaaaaaaaaaaaaaaaaaaaaaaaaaaaaaaaaaaaaaaaaaaa",
"aaaaaaaaaaaaaaaaaaaaaaaaaaaaaaaaaaaaaaaaaaaaaaaaaaaaaaaaaaaaaaaaaaaaaaaaaaaaaaaaaaaaaaaaaaaaaaaaaaaaaaaaaaaaaaaaaaaaaaaaaaaaaaaa"
};
