/* XPM */
static char *banana_peel_xpm[] = {
"64 64 9 1",
"  c #000000",
"! c #FFEE44",
"" c #CC7700",
"# c #FFFF99",
"$ c #885522",
"% c #442200",
"& c #DDCC44",
"' c #FFFFCC",
"( c None",
"((((((((((((((((((((((((((((((((((((((((((((((((((((((((((((((((",
"((((((((((((((((((((((((((((((((((((((((((((((((((((((((((((((((",
"((((((((((((((((((((((((((((((((((((((((((((((((((((((((((((((((",
"((((((((((((((((((((((((((((((((((((((((((((((((((((((((((((((((",
"((((((((((((((((((((((((((((((((((((((((((((((((((((((((((((((((",
"((((((((((((((((((((((((((((((((((((((((((((((((((((((((((((((((",
"((((((((((((((((((((((((((((((    ((((((((((((((((((%   ((((((((",
"(((((((((((((((((((((((((((((  %% %((((((((((((((((( "$% (((((((",
"((((((((   (((((((((((((((((( %%%%%((((((((((((((( !!!"" (((((((",
"(((((((( %  (((((((((((((((((%%%%%%((((((((((((((  !!!"! (((((((",
"((((((((%$!!!  ((((((((((((((%%%%%%((((((((((((( !!!!"!! (((((((",
"((((((((""&&#!& %((((((((((((%$%%"%(((((((((((( "##!"!!! (((((((",
"(((((((( "!"!###! ((((((((((( &&$"%((((((((((( !###!!!!! (((((((",
"((((((((( !!!"###! (((((((((( &&$"%(((((((((( !####!!!!" (((((((",
"((((((((( "!!""##!& ((((((((( &&$"%((((((((((!####"!!!!"((((((((",
"(((((((((("!!!!##!!! ((((((( "$&$$$ (((((((% ####"&$$!" ((((((((",
"(((((((((("&!!!"#!!!  (((((% ""$$"" ((((((( !####!&$$!" ((((((((",
"(((((((((( "!!!!"!!!!!  (( "!!"!"!"" ((((( "#!##"!$$!!  ((((((((",
"((((((((((%$&!!!!!!!!!!%$$%!!"!!"!""% (($$ !!!!"!!$$!" (((((((((",
"((((((((((( "!!!!!"!!!!!& !##!!!"!!$""(( !!!!!"!!!!!"$ (((((((((",
"(((((((((((% !!!!!!"!!!!  ##"!!!!!!!""  !!!!!!!!!!!!$"((((((((((",
"(((((((((((( "!!!!!!!!!! !##"!!!!!!!$"" !!!!"!!!!!!"$ ((((((((((",
"((((((((((((($"!!!!!!"!!!!#&!!!!"!!!"$" !!"&!!!!!!!$ (((((((((((",
"((((((((((((( $"!!!!!!""!!#&!!!"$!!!!$""!""!!!!!!!"$ (((((((((((",
"(((((((((((((( $"!!!!!! !!"&!!!"$!!!!$"""!!!!!!!!"$ ((((((((((((",
"((((((((((((((%"$"!!!!! !!"!!!!"$!!!!""" !!!!!!!"$& ((((((((((((",
"(((((((((((((((  $"!!! !!!"!!!!$$!!!!!"" !!!!!!"$ %(((((((((((((",
"(((((((((((((((($%"$"! !!!!!!!"$#"!!!!"" "!&""$&%$((((((((((((((",
"(((((((((((((((((  "$$!!!!!!!!"$#"!!!!""$ """$#  (((((((((((((((",
"((((((((((((((((((( " !!!"!!!!"##"!!!!$"" $&#  (((((((((((((((((",
"((((((((((((((((((((  !!!"!!!!"#'"!!!!$""$##  ((((((((((((((((((",
"(((((((((((((((((((( !!!!"!!!"$#'$"!!!$""" $((((((((((((((((((((",
"((((((((((((((((((((!!!!""!!!"$#'$"!!!$""" (((((((((((((((((((((",
"(((((((((((((((((($ !!!!"!!!!$##'$"!!!"$"""$((((((((((((((((((((",
"((((((((((((((((($ !!!!!!!!!!$##'$"!!!!$"$" ((((((((((((((((((((",
"(((((((((((((((((!!!!!""!$!!"###'#$!!!!""""% (((((((((((((((((((",
"((((((((((((((( !!!!!!"!$$!"$###'#$!!!!!"""" (((((((((((((((((((",
"(((((((((((((( !!!!!!"!$$$!"$#'#'#&!!!!!$""""(((((((((((((((((((",
"(((((((((((( !!!!!!!"!!$!!!$#''  ##"!!!!"$"""  (((((((((((((((((",
"(((((((((((% $$!!!!"!!!!!!"&#''( '#$!!!!!$"&!! (((((((((((((((((",
"(((((((((( $$$!!!""!!!!!!"$#'  ((''$!!!!!!"!!!!  (((((((((((((((",
"((((((((( !&$!!!!"!!!!!!""#'' ((( '#"!!!!!"!!!!& (((((((((((((((",
"(((((((( &!!!!"!!!!!!!!"$#' (((((( '$"!!!!!"!!!!! %(((((((((((((",
"((((((% !!!&"&!!!!!!!!$$#%$((((((($$&$!!!!!!&!!!!!$%((((((((((((",
"(((((( !!!!"!!!!!!!!"$$# %((((((((( '$"!!!!!!"!!!!!! (((((((((((",
"((((( &!!!!!!!!!!!"$""  (((((((((((( #$"##!!!!!!!!!!& ((((((((((",
"((((( !!!"!$$!!!!$$"  ((((((((((((((( #$!#!!!!!""!!!$!((((((((((",
"(((( !!!"!$$!"$""   (((((((((((((((((( #$"#!!!!!!"!!$$  ((((((((",
"(((( !!!!!$&!$"   ((((((((((((((((((((( #$!#!!!!!!"!$$! ((((((((",
"((((#!""!!!$"  (((((((((((((((((((((((((  $"##!!!!!"!!!! (((((((",
"((( #!"!!!"$ ((((((((((((((((((((((((((((%$""!#!!!!!!!!! (((((((",
"((( !!!!!"" ((((((((((((((((((((((((((((((( "$!!!!!!!"!!! ((((((",
"((( %%!!"$ ((((((((((((((((((((((((((((((((( """"!!!!!!!! ((((((",
"((( %%%!$" (((((((((((((((((((((((((((((((((( "$$!!!!!"!!!((((((",
"(((  %%%  ((((((((((((((((((((((((((((((((((((( "$$!!!!!!!((((((",
"(((( %%$ ((((((((((((((((((((((((((((((((((((((( "$"!!!!%%((((((",
"(((((((((((((((((((((((((((((((((((((((((((((((((( "$$%%% ((((((",
"((((((((((((((((((((((((((((((((((((((((((((((((((( &"%% %((((((",
"((((((((((((((((((((((((((((((((((((((((((((((((((((((((((((((((",
"((((((((((((((((((((((((((((((((((((((((((((((((((((((((((((((((",
"((((((((((((((((((((((((((((((((((((((((((((((((((((((((((((((((",
"((((((((((((((((((((((((((((((((((((((((((((((((((((((((((((((((",
"((((((((((((((((((((((((((((((((((((((((((((((((((((((((((((((((",
"(((((((((((((((((((((((((((((((((((((((((((((((((((((((((((((((("
};
