/* XPM */
static char *banana_xpm[] = {
"64 64 18 1",
"  c #FF00FF",
". c #000000",
"X c #191919",
"o c #333333",
"O c #442200",
"$ c #885522",
"* c #5D4037",
"; c #CC7700",
"> c #DDCC44",
"1 c #FFFF00",
"6 c #FFEE44",
"7 c #8B7355",
"9 c #7A7A7A",
"t c #999999",
"u c #FFFF99",
"s c #FFFACD",
"d c #CCCCCC",
"g c #F0F0F0",
"                                                                ",
"                                                                ",
"                                                                ",
"                                                                ",
"                                                                ",
"                                                                ",
"                                                                ",
"                               ......                           ",
"                              ........                          ",
"                              ..gO$$..                          ",
"                              ..gO$$..                          ",
"                              ..g>11..                          ",
"                              ..g111..                          ",
"                              ..g111...                         ",
"                              ..s1111...                        ",
"                              ..s11111...                       ",
"                             ...s111111..                       ",
"                            ...s1111111...                      ",
"                            ..s111111111..                      ",
"                            ..s111111111..                      ",
"                            ..s1.1.11111..                      ",
"                           ...s1.>.11111...       ...           ",
"                           ..s11.1.111116..      .....          ",
"                           ..g11111111116..     ...$..          ",
"                           ..g11111111116..    ...$O..          ",
"                           ..g11111111116..   ...s>>..          ",
"                           ..g11111111116..  ...u>>>..          ",
"                           ..g11111111116......u>>>>..          ",
"                          ..s111111111116.....u>>>>...          ",
"                          ..s111111111116..66>>>>>>..           ",
"                          ..s111111111116..6>>>>>>...           ",
"                          ..s111111111116..>>>>>>...            ",
"                          ..s1111111111116.1>>>>...             ",
"                         ...s1111111111111111.....              ",
"         ....          ....s11111111111111111...                ",
"        .......      .....s111111111111111111u.                 ",
"        ..OO............ss1111111111111111111u..                ",
"        ..O>>>>.......ss11111111111.111111111u...               ",
"        ...>>>>sssssss111111111111..1111111111u....             ",
"         ...>>>>>1111111111111111...11111111111u....            ",
"          ...>>>>>1111111111111.....6111111111116u...           ",
"           ...>111111111111111... ...6111111111111u...          ",
"            .....111111111111...   ..61111111111111u.....       ",
"             ........111111....    ...61111111111111u.....      ",
"                ..............      ...61111111111111O$...      ",
"                    .......          ...1111111111111O...       ",
"                                      ...111111111111...        ",
"                                       ...1111111111...         ",
"                                        ....111111....          ",
"                                         ............           ",
"                                           .......              ",
"                                                                ",
"                                                                ",
"                                                                ",
"                                                                ",
"                                                                ",
"                                                                ",
"                                                                ",
"                                                                ",
"                                                                ",
"                                                                ",
"                                                                ",
"                                                                ",
"                                                                "
};
