/* XPM */
static char *tree_xpm[] = {
"32 32 2 1",
"  c #FF00FF",
"T c #1A5C1A",
"                                ",
"                                ",
"        TTTTTTTTTTTTTTTT        ",
"      TTTTTTTTTTTTTTTTTTTT      ",
"    TTTTTTTTTTTTTTTTTTTTTTTTTT  ",
"    TTTTTTTTTTTTTTTTTTTTTTTTTT  ",
"  TTTTTTTTTTTTTTTTTTTTTTTTTTTTTT",
"  TTTTTTTTTTTTTTTTTTTTTTTTTTTTTT",
"  TTTTTTTTTTTTTTTTTTTTTTTTTTTTTT",
"  TTTTTTTTTTTTTTTTTTTTTTTTTTTTTT",
"  TTTTTTTTTTTTTTTTTTTTTTTTTTTTTT",
"  TTTTTTTTTTTTTTTTTTTTTTTTTTTTTT",
"  TTTTTTTTTTTTTTTTTTTTTTTTTTTTTT",
"  TTTTTTTTTTTTTTTTTTTTTTTTTTTTTT",
"  TTTTTTTTTTTTTTTTTTTTTTTTTTTTTT",
"  TTTTTTTTTTTTTTTTTTTTTTTTTTTTTT",
"  TTTTTTTTTTTTTTTTTTTTTTTTTTTTTT",
"  TTTTTTTTTTTTTTTTTTTTTTTTTTTTTT",
"    TTTTTTTTTTTTTTTTTTTTTTTTTT  ",
"    TTTTTTTTTTTTTTTTTTTTTTTTTT  ",
"      TTTTTTTTTTTTTTTTTTTT      ",
"        TTTTTTTTTTTTTTTT        ",
"              TTTTTT            ",
"              TTTTTT            ",
"              TTTTTT            ",
"              TTTTTT            ",
"              TTTTTT            ",
"              TTTTTT            ",
"                                ",
"                                ",
"                                ",
"                                "
};
